Assets/1__3DArt/KimSe/artstation_asset/LUTs_pasterls/3DL/Candylandia 01.3dl
# Enhanced with VOXCOLOR algorithms
0 64 128 192 256 320 384 448 512 576 640 704 768 832 896 960 1023
642 899 434
654 944 785
665 988 1136
696 1057 1482
769 1172 1818
841 1288 2153
932 1427 2426
1033 1577 2667
1133 1728 2908
1243 1881 3048
1353 2033 3189
1461 2178 3306
1567 2306 3375
1673 2434 3445
1767 2536 3488
1855 2625 3519
1943 2714 3549
519 1188 496
542 1235 815
564 1282 1134
606 1349 1458
687 1457 1789
768 1566 2121
868 1693 2399
978 1829 2650
1088 1965 2901
1207 2099 3051
1326 2233 3202
1443 2359 3326
1556 2469 3399
1669 2580 3471
1771 2668 3515
1866 2745 3545
1962 2823 3574
396 1476 558
429 1525 845
463 1575 1132
515 1641 1433
605 1742 1761
695 1844 2089
804 1959 2372
924 2080 2634
1043 2202 2895
1171 2317 3055
1299 2432 3215
1425 2540 3347
1545 2632 3422
1666 2725 3497
1775 2800 3542
1877 2865 3570
1980 2931 3599
310 1740 612
353 1790 869
396 1840 1125
456 1905 1404
553 1999 1727
650 2094 2049
767 2198 2337
894 2307 2606
1021 2415 2876
1156 2514 3046
1291 2613 3217
1424 2704 3357
1550 2782 3437
1676 2859 3517
1790 2921 3562
1898 2976 3591
2006 3032 3620
300 1953 649
348 2001 879
395 2049 1109
460 2111 1367
561 2200 1681
661 2288 1994
782 2384 2282
913 2483 2558
1043 2582 2834
1182 2669 3015
1321 2757 3197
1456 2837 3347
1584 2904 3434
1713 2970 3522
1829 3022 3572
1939 3069 3603
2048 3115 3634
289 2165 686
342 2212 889
395 2259 1093
464 2318 1331
568 2400 1635
672 2483 1939
797 2570 2228
931 2659 2510
1066 2749 2791
1208 2825 2984
1350 2901 3176
1488 2970 3336
1619 3025 3432
1750 3080 3527
1868 3124 3581
1979 3161 3614
2090 3199 3647
329 2330 702
385 2374 885
440 2418 1067
512 2474 1287
617 2551 1580
722 2627 1874
848 2708 2162
983 2790 2447
1118 2872 2732
1261 2941 2936
1404 3010 3140
1543 3072 3311
1674 3120 3415
1806 3167 3520
1924 3204 3580
2035 3235 3618
2146 3267 3655
393 2470 708
451 2511 872
509 2553 1036
582 2605 1240
687 2676 1522
792 2747 1804
916 2822 2089
1051 2898 2377
1185 2974 2665
1328 3037 2880
1470 3101 3095
1609 3157 3277
1740 3200 3393
1871 3242 3508
1988 3274 3575
2098 3301 3617
2208 3327 3660
458 2610 715
517 2649 860
577 2687 1005
652 2735 1192
756 2801 1463
861 2867 1734
985 2936 2017
1119 3006 2307
1253 3076 2598
1394 3134 2824
1536 3191 3050
1675 3242 3243
1805 3280 3370
1936 3317 3496
2052 3344 3570
2161 3366 3617
2270 3387 3664
564 2697 699
623 2733 831
682 2768 964
755 2813 1139
856 2873 1398
958 2934 1656
1078 2998 1936
1207 3064 2226
1337 3130 2516
1476 3185 2752
1615 3241 2989
1750 3290 3193
1879 3326 3332
2008 3362 3472
2122 3387 3554
2229 3407 3609
2336 3427 3664
670 2784 683
728 2817 803
787 2849 923
859 2890 1086
957 2945 1333
1054 3001 1579
1171 3061 1855
1296 3122 2144
1422 3184 2433
1557 3237 2680
1693 3290 2927
1825 3337 3142
1952 3372 3294
2079 3407 3447
2192 3431 3539
2298 3449 3601
2403 3467 3663
777 2859 664
834 2889 773
892 2919 882
961 2955 1033
1055 3006 1268
1149 3057 1503
1260 3112 1773
1381 3170 2062
1502 3228 2350
1634 3279 2606
1766 3330 2862
1895 3375 3088
2020 3410 3254
2145 3444 3419
2256 3467 3521
2360 3484 3591
2464 3501 3661
886 2912 640
941 2938 740
996 2965 841
1062 2998 982
1150 3044 1205
1238 3091 1428
1344 3143 1692
1459 3197 1978
1573 3252 2263
1701 3301 2527
1828 3351 2792
1954 3396 3028
2077 3431 3207
2200 3466 3386
2309 3489 3498
2411 3506 3577
2513 3523 3656
995 2964 615
1048 2987 707
1100 3011 799
1162 3041 931
1245 3083 1142
1328 3125 1353
1427 3173 1612
1536 3224 1894
1645 3275 2176
1768 3324 2448
1891 3372 2721
2013 3417 2967
2133 3452 3160
2254 3488 3352
2361 3511 3475
2462 3528 3563
2562 3546 3651
1071 2995 596
1120 3016 680
1169 3037 764
1228 3065 887
1306 3103 1087
1384 3142 1286
1479 3187 1538
1582 3236 1815
1685 3284 2092
1804 3332 2372
1923 3380 2651
2042 3425 2905
2161 3461 3110
2280 3498 3316
2385 3521 3448
2483 3539 3544
2580 3556 3640
1130 3015 579
1175 3035 656
1221 3054 733
1276 3079 847
1350 3115 1035
1424 3151 1224
1514 3194 1468
1612 3240 1739
1710 3287 2011
1825 3334 2295
1941 3382 2580
2057 3426 2842
2174 3464 3060
2291 3501 3277
2393 3526 3419
2488 3543 3523
2583 3561 3627
1188 3035 562
1231 3053 632
1273 3071 701
1325 3094 807
1394 3127 984
1463 3160 1161
1548 3201 1397
1641 3245 1664
1734 3289 1930
1846 3336 2219
1958 3383 2509
2071 3427 2779
2187 3466 3009
2302 3505 3239
2402 3530 3390
2494 3547 3502
2585 3565 3613
1190 874 342
1190 918 682
1191 961 1021
1206 1027 1361
1250 1138 1699
1295 1249 2038
1357 1384 2319
1428 1532 2571
1499 1681 2822
1581 1834 2975
1664 1987 3127
1747 2134 3254
1830 2265 3332
1914 2396 3410
1989 2501 3459
2060 2593 3494
2131 2685 3530
1026 1162 405
1038 1203 713
1049 1244 1020
1075 1305 1337
1130 1409 1673
1184 1513 2008
1257 1637 2294
1338 1771 2556
1419 1906 2818
1512 2042 2979
1606 2178 3141
1699 2307 3276
1791 2421 3356
1883 2536 3437
1967 2628 3487
2047 2709 3521
2126 2790 3556
862 1450 467
885 1488 743
908 1526 1019
945 1583 1314
1009 1680 1646
1074 1777 1978
1156 1889 2270
1248 2011 2541
1340 2132 2813
1443 2250 2984
1547 2368 3155
1650 2480 3297
1751 2577 3381
1853 2675 3464
1945 2754 3515
2034 2824 3548
2122 2894 3582
731 1715 524
763 1750 770
796 1786 1017
842 1839 1290
914 1929 1616
987 2019 1942
1079 2121 2237
1180 2230 2517
1281 2339 2797
1394 2442 2978
1506 2545 3159
1618 2641 3309
1727 2723 3397
1836 2806 3485
1936 2873 3537
2031 2933 3571
2126 2992 3604
666 1933 569
703 1967 789
741 2001 1010
792 2052 1262
871 2135 1578
950 2218 1893
1049 2312 2189
1156 2411 2473
1264 2510 2758
1383 2602 2950
1501 2693 3142
1619 2777 3302
1732 2848 3398
1846 2920 3493
1950 2977 3549
2048 3028 3584
2147 3078 3620
601 2151 613
644 2184 808
686 2217 1003
743 2264 1235
828 2341 1540
913 2418 1845
1018 2503 2140
1132 2592 2430
1246 2681 2720
1371 2761 2922
1496 2841 3125
1619 2914 3295
1738 2974 3398
1857 3034 3501
1964 3081 3561
2066 3123 3598
2168 3164 3636
590 2320 639
635 2351 813
681 2383 987
741 2428 1201
830 2499 1495
919 2570 1788
1027 2648 2080
1145 2730 2373
1262 2812 2665
1391 2884 2879
1519 2956 3092
1645 3021 3272
1767 3073 3385
1888 3125 3498
1998 3166 3563
2101 3200 3604
2205 3235 3645
605 2464 655
653 2494 811
701 2525 967
763 2567 1165
854 2633 1446
945 2699 1726
1055 2771 2015
1175 2847 2309
1295 2923 2602
1426 2988 2827
1556 3054 3051
1684 3113 3241
1807 3160 3365
1931 3206 3488
2041 3241 3560
2145 3270 3606
2249 3299 3652
621 2607 671
671 2637 809
721 2666 947
785 2706 1129
878 2767 1397
971 2828 1664
1083 2895 1950
1205 2964 2245
1327 3033 2540
1460 3093 2775
1593 3152 3009
1723 3205 3211
1848 3246 3344
1973 3286 3478
2084 3316 3557
2189 3339 3608
2293 3363 3659
691 2695 663
741 2723 789
791 2751 915
855 2789 1085
946 2845 1340
1037 2902 1595
1148 2964 1876
1268 3029 2169
1388 3094 2462
1520 3151 2706
1651 3208 2950
1780 3259 3162
1905 3297 3308
2029 3336 3455
2140 3363 3542
2244 3385 3601
2348 3406 3659
761 2782 655
811 2809 770
862 2836 884
925 2871 1041
1015 2923 1283
1104 2975 1526
1213 3033 1801
1331 3094 2093
1449 3155 2385
1579 3209 2638
1709 3263 2891
1837 3312 3113
1961 3349 3272
2085 3386 3431
2195 3411 3528
2299 3430 3593
2402 3449 3659
838 2858 644
888 2883 747
937 2908 851
1000 2940 996
1087 2989 1227
1173 3037 1457
1279 3091 1726
1394 3148 2016
1510 3205 2305
1638 3257 2567
1766 3309 2829
1892 3355 3061
2016 3391 3233
2139 3427 3404
2248 3451 3510
2351 3469 3584
2454 3487 3657
927 2909 624
975 2932 719
1024 2955 815
1083 2985 951
1166 3030 1169
1249 3074 1388
1350 3125 1651
1460 3179 1936
1571 3233 2221
1695 3283 2490
1820 3334 2759
1944 3380 3001
2065 3416 3186
2187 3452 3371
2295 3476 3487
2397 3494 3570
2499 3512 3652
1016 2960 605
1063 2981 692
1110 3002 779
1167 3030 906
1246 3071 1112
1324 3111 1318
1421 3159 1575
1526 3210 1856
1632 3260 2137
1753 3310 2413
1874 3359 2690
1995 3404 2940
2115 3440 3139
2235 3477 3337
2342 3501 3464
2443 3519 3555
2544 3537 3647
1084 2992 587
1129 3012 667
1174 3031 747
1229 3057 865
1303 3094 1060
1378 3132 1255
1469 3176 1503
1570 3225 1779
1671 3273 2054
1788 3321 2336
1905 3370 2618
2023 3414 2876
2142 3452 3087
2261 3489 3298
2367 3514 3436
2466 3532 3536
2566 3550 3637
1142 3014 571
1184 3032 644
1227 3050 718
1279 3074 828
1350 3109 1011
1420 3144 1194
1507 3186 1434
1603 3232 1703
1698 3278 1972
1812 3326 2258
1926 3373 2545
2041 3418 2810
2158 3456 3034
2276 3495 3257
2380 3520 3405
2477 3539 3515
2575 3558 3624
1199 3036 554
1240 3053 621
1280 3070 688
1329 3092 790
1396 3124 961
1463 3156 1133
1545 3196 1365
1636 3239 1627
1726 3283 1890
1836 3330 2181
1947 3377 2471
2059 3422 2744
2174 3461 2980
2290 3501 3216
2393 3527 3374
2488 3546 3493
2584 3566 3612
1738 848 251
1727 891 578
1716 934 906
1715 998 1239
1732 1104 1581
1749 1210 1923
1782 1342 2212
1823 1487 2475
1864 1633 2737
1920 1787 2901
1976 1942 3065
2033 2089 3203
2094 2224 3289
2155 2358 3375
2211 2466 3430
2265 2561 3470
2319 2657 3510
1533 1136 313
1534 1171 610
1535 1206 907
1545 1262 1217
1573 1361 1556
1601 1459 1895
1645 1581 2189
1698 1714 2462
1750 1847 2734
1818 1985 2907
1885 2123 3080
1954 2255 3225
2026 2373 3314
2097 2492 3403
2164 2588 3459
2227 2672 3498
2291 2757 3537
1328 1424 376
1340 1450 641
1353 1477 907
1374 1526 1196
1413 1617 1531
1452 1709 1867
1508 1820 2167
1572 1941 2449
1636 2062 2731
1715 2183 2914
1795 2305 3096
1875 2420 3248
1957 2522 3340
2040 2625 3431
2116 2709 3488
2190 2783 3526
2263 2857 3564
1151 1690 435
1173 1711 672
1195 1732 908
1227 1774 1175
1276 1859 1505
1325 1944 1835
1391 2045 2138
1466 2154 2428
1541 2263 2718
1631 2370 2910
1721 2476 3102
1812 2577 3262
1904 2665 3358
1996 2753 3454
2081 2825 3512
2163 2889 3550
2245 2953 3588
1032 1914 488
1059 1933 699
1086 1953 910
1124 1992 1157
1182 2070 1475
1240 2148 1793
1315 2240 2095
1400 2340 2389
1484 2439 2683
1583 2534 2885
1682 2628 3088
1781 2717 3258
1880 2793 3361
1980 2870 3465
2071 2932 3526
2158 2986 3566
2246 3041 3606
913 2137 541
945 2156 727
977 2174 913
1021 2210 1139
1088 2281 1445
1154 2353 1751
1239 2436 2052
1333 2525 2350
1427 2614 2648
1535 2697 2861
1643 2780 3074
1750 2857 3254
1857 2922 3365
1963 2987 3476
2061 3039 3541
2153 3084 3583
2246 3129 3624
851 2310 576
886 2329 742
922 2347 908
970 2382 1116
1042 2447 1409
1115 2513 1702
1206 2589 1999
1306 2671 2298
1407 2752 2598
1521 2827 2821
1635 2902 3045
1748 2970 3234
1860 3027 3354
1971 3083 3475
2072 3127 3545
2168 3165 3591
2264 3203 3636
817 2458 602
855 2477 750
893 2496 899
944 2529 1090
1021 2590 1370
1098 2651 1649
1193 2721 1941
1299 2796 2241
1405 2871 2540
1523 2939 2773
1642 3007 3007
1760 3069 3206
1875 3119 3337
1990 3169 3468
2094 3207 3545
2192 3239 3594
2290 3271 3644
784 2605 628
824 2625 759
864 2645 889
918 2677 1065
999 2733 1330
1080 2789 1595
1181 2853 1883
1292 2922 2183
1402 2990 2482
1526 3052 2725
1650 3113 2969
1772 3169 3178
1891 3212 3319
2010 3256 3461
2116 3287 3544
2216 3313 3598
2317 3339 3653
818 2693 628
859 2713 747
900 2734 867
955 2764 1030
1036 2817 1282
1117 2869 1534
1218 2930 1816
1329 2994 2112
1439 3058 2409
1563 3117 2661
1688 3175 2912
1811 3228 3131
1930 3269 3285
2050 3310 3438
2158 3339 3530
2258 3362 3592
2359 3385 3654
853 2781 628
895 2801 736
936 2822 844
991 2852 995
1072 2901 1234
1154 2949 1473
1254 3006 1748
1365 3066 2042
1476 3126 2336
1601 3182 2596
1726 3237 2856
1849 3287 3085
1970 3325 3250
2091 3364 3416
2199 3391 3517
2300 3411 3586
2401 3432 3654
899 2856 623
941 2877 721
983 2897 819
1038 2925 959
1118 2971 1185
1198 3016 1411
1298 3069 1680
1408 3126 1970
1517 3182 2260
1642 3235 2528
1766 3288 2796
1890 3335 3033
2011 3372 3211
2132 3410 3390
2240 3435 3500
2342 3454 3577
2443 3472 3653
968 2906 609
1010 2926 699
1051 2945 789
1105 2972 920
1182 3015 1134
1260 3057 1347
1356 3107 1609
1462 3160 1894
1568 3214 2179
1690 3265 2453
1812 3316 2727
1933 3363 2973
2053 3400 3164
2174 3438 3355
2282 3463 3476
2383 3481 3562
2485 3500 3648
1038 2957 594
1079 2975 676
1120 2994 759
1172 3019 881
1246 3059 1082
1321 3098 1284
1414 3145 1538
1516 3195 1818
1619 3246 2098
1738 3295 2378
1857 3345 2659
1976 3391 2913
2096 3428 3117
2216 3466 3321
2323 3491 3452
2425 3509 3548
2526 3528 3643
1098 2989 578
1138 3007 654
1179 3025 730
1229 3049 844
1300 3085 1033
1371 3122 1223
1460 3166 1469
1558 3213 1742
1656 3261 2016
1772 3310 2301
1888 3359 2585
2005 3404 2847
2123 3442 3064
2242 3480 3280
2349 3506 3423
2450 3525 3528
2551 3544 3634
1154 3013 562
1193 3030 632
1233 3047 703
1282 3069 809
1349 3103 986
1417 3137 1164
1501 3178 1401
1594 3224 1667
1687 3269 1933
1799 3317 2221
1911 3365 2510
2025 3410 2778
2143 3449 3007
2260 3489 3237
2366 3515 3390
2466 3535 3506
2567 3555 3622
1210 3037 546
1248 3053 611
1287 3069 675
1334 3090 773
1398 3121 939
1462 3152 1105
1542 3191 1333
1630 3234 1591
1718 3277 1850
1826 3324 2142
1935 3371 2434
2046 3416 2709
2162 3456 2951
2278 3497 3193
2384 3524 3358
2483 3545 3484
2583 3566 3610
2204 828 178
2187 870 492
2170 912 805
2157 974 1129
2156 1076 1472
2154 1178 1814
2166 1308 2111
2186 1451 2383
2205 1594 2656
2239 1749 2831
2274 1904 3006
2311 2053 3154
2353 2190 3248
2395 2327 3342
2434 2438 3403
2473 2536 3448
2512 2634 3493
1982 1114 238
1975 1144 521
1968 1174 805
1967 1225 1108
1976 1319 1448
1985 1414 1788
2008 1533 2089
2038 1665 2371
2068 1796 2653
2115 1936 2837
2161 2075 3021
2210 2209 3177
2263 2331 3274
2317 2453 3371
2367 2553 3432
2416 2641 3476
