Assets/1__3DArt/KimSe/artstation_asset/LUTs_pasterls/3DL/Candylandia 01 S.3dl
# Enhanced with VOXCOLOR algorithms
0 64 128 192 256 320 384 448 512 576 640 704 768 832 896 960 1023
642 899 434
654 944 785
665 988 1136
696 1057 1482
769 1172 1818
841 1288 2153
932 1427 2426
1033 1577 2667
1133 1728 2908
1243 1881 3048
1353 2033 3189
1461 2178 3306
1567 2306 3375
1673 2434 3445
1767 2536 3488
1855 2625 3519
1943 2714 3549
519 1188 496
542 1235 815
564 1282 1134
606 1349 1458
687 1457 1789
768 1566 2121
868 1693 2399
978 1829 2650
1088 1965 2901
1207 2099 3051
1326 2233 3202
1443 2359 3326
1556 2469 3399
1669 2580 3471
1771 2668 3515
1866 2745 3545
1962 2823 3574
396 1476 558
429 1525 845
463 1575 1132
515 1641 1433
605 1742 1761
695 1844 2089
804 1959 2372
924 2080 2634
1043 2202 2895
1171 2317 3055
1299 2432 3215
1425 2539 3347
1545 2632 3422
1666 2725 3497
1774 2800 3542
1877 2865 3570
1980 2931 3599
310 1740 612
353 1790 869
396 1840 1125
456 1905 1404
553 1999 1727
650 2094 2049
767 2198 2337
894 2306 2606
1021 2415 2876
1156 2514 3046
1291 2613 3217
1423 2704 3357
1550 2781 3437
1676 2859 3516
1790 2921 3562
1898 2976 3591
2006 3032 3620
300 1953 649
347 2001 879
395 2049 1109
460 2111 1367
561 2200 1681
661 2288 1994
781 2384 2282
912 2483 2558
1043 2582 2833
1181 2669 3015
1320 2757 3196
1455 2837 3346
1584 2903 3434
1713 2969 3521
1829 3022 3571
1939 3069 3603
2048 3115 3634
289 2165 685
342 2212 889
395 2259 1093
464 2318 1330
568 2400 1635
672 2483 1939
796 2570 2228
931 2659 2509
1065 2748 2791
1207 2824 2983
1349 2901 3176
1487 2970 3336
1618 3025 3431
1749 3080 3526
1867 3123 3580
1979 3161 3614
2090 3199 3647
328 2330 702
384 2374 884
440 2419 1067
512 2474 1287
617 2551 1580
722 2627 1874
847 2708 2161
982 2790 2447
1117 2872 2732
1259 2940 2936
1402 3009 3139
1541 3071 3310
1673 3119 3415
1804 3167 3520
1923 3204 3580
2034 3235 3617
2146 3267 3655
392 2470 707
450 2512 872
507 2553 1036
581 2605 1239
686 2676 1521
790 2747 1803
915 2822 2089
1049 2898 2377
1183 2974 2664
1325 3037 2879
1467 3100 3094
1606 3156 3276
1737 3199 3392
1869 3242 3508
1986 3274 3575
2097 3300 3617
2208 3327 3660
455 2611 713
515 2650 859
575 2688 1005
650 2736 1192
755 2801 1463
859 2867 1733
983 2936 2017
1116 3005 2307
1249 3075 2597
1391 3133 2823
1532 3190 3049
1670 3241 3242
1802 3279 3369
1933 3316 3496
2050 3343 3569
2160 3365 3617
2270 3387 3664
559 2699 696
619 2735 830
679 2770 963
752 2814 1138
854 2874 1397
955 2934 1656
1074 2998 1935
1203 3064 2225
1332 3130 2515
1470 3185 2751
1609 3240 2988
1744 3288 3192
1874 3325 3331
2003 3361 3471
2119 3387 3554
2227 3407 3609
2336 3427 3664
662 2788 679
722 2820 800
782 2852 922
855 2891 1085
952 2947 1332
1050 3002 1579
1166 3061 1854
1290 3122 2143
1415 3184 2433
1550 3236 2679
1685 3289 2926
1818 3336 3141
1945 3371 3293
2073 3406 3446
2188 3430 3538
2295 3448 3601
2403 3467 3663
767 2864 659
826 2893 770
885 2922 880
956 2958 1032
1049 3008 1267
1143 3058 1502
1254 3113 1773
1374 3171 2061
1493 3228 2349
1625 3279 2605
1756 3329 2861
1886 3375 3087
2012 3409 3253
2138 3443 3418
2251 3466 3520
2357 3484 3591
2464 3501 3661
874 2918 634
931 2943 736
988 2969 838
1055 3001 980
1143 3047 1204
1231 3092 1427
1336 3144 1692
1450 3198 1977
1563 3252 2262
1690 3301 2526
1817 3351 2790
1943 3396 3026
2067 3431 3206
2191 3466 3385
2302 3489 3497
2408 3506 3577
2513 3523 3656
981 2971 608
1036 2993 702
1090 3015 796
1154 3044 929
1237 3085 1141
1320 3127 1352
1419 3174 1611
1526 3225 1893
1633 3276 2175
1756 3324 2447
1878 3372 2720
2000 3417 2966
2122 3452 3159
2244 3488 3351
2354 3511 3475
2458 3528 3563
2562 3546 3651
1060 3000 590
1111 3021 676
1161 3041 762
1221 3067 885
1299 3105 1085
1378 3144 1286
1472 3188 1537
1574 3237 1814
1676 3285 2092
1795 3333 2371
1913 3381 2649
2032 3425 2904
2152 3461 3109
2272 3498 3315
2379 3521 3448
2480 3539 3544
2580 3556 3640
1124 3018 576
1171 3037 654
1217 3056 731
1273 3081 846
1347 3116 1035
1420 3152 1223
1510 3195 1467
1608 3241 1739
1705 3287 2011
1821 3334 2295
1936 3382 2579
2052 3426 2841
2169 3464 3059
2287 3501 3277
2390 3526 3419
2487 3543 3523
2583 3561 3627
1188 3035 562
1231 3053 632
1273 3071 701
1325 3094 807
1394 3127 984
1463 3160 1161
1548 3201 1397
1641 3245 1664
1734 3289 1930
1846 3336 2219
1958 3383 2509
2071 3427 2779
2187 3466 3009
2302 3505 3239
2402 3530 3390
2494 3547 3502
2585 3565 3613
1190 874 342
1189 917 682
1188 959 1021
1202 1025 1361
1246 1135 1699
1291 1245 2038
1353 1381 2318
1425 1530 2570
1496 1678 2822
1579 1832 2974
1663 1986 3127
1746 2133 3254
1830 2264 3332
1914 2396 3410
1989 2501 3459
2060 2593 3494
2131 2685 3530
1020 1156 404
1028 1195 712
1037 1234 1021
1061 1294 1339
1115 1397 1673
1169 1500 2008
1243 1625 2293
1326 1761 2555
1409 1897 2816
1504 2034 2978
1599 2172 3139
1694 2302 3274
1788 2418 3355
1882 2534 3436
1966 2627 3486
2046 2708 3521
2126 2790 3556
849 1439 465
867 1474 743
886 1509 1021
920 1564 1317
984 1659 1647
1048 1755 1978
1132 1869 2268
1227 1992 2539
1321 2115 2809
1429 2236 2981
1536 2357 3152
1642 2472 3294
1746 2572 3379
1850 2672 3463
1944 2753 3514
2033 2823 3548
2122 2894 3582
713 1699 521
740 1730 770
767 1762 1019
809 1812 1293
882 1901 1618
954 1990 1942
1048 2094 2236
1153 2205 2514
1257 2316 2792
1374 2423 2973
1492 2530 3155
1607 2630 3305
1720 2716 3394
1832 2802 3483
1934 2871 3536
2030 2932 3570
2126 2992 3604
646 1914 564
679 1943 788
712 1972 1012
760 2019 1266
838 2102 1580
917 2184 1895
1017 2280 2188
1128 2381 2471
1239 2483 2754
1362 2579 2946
1486 2675 3138
1607 2764 3298
1725 2839 3394
1842 2915 3491
1948 2974 3548
2047 3026 3584
2147 3078 3620
580 2128 608
618 2156 807
656 2183 1006
710 2227 1240
795 2303 1543
880 2379 1847
987 2466 2140
1104 2558 2428
1221 2651 2715
1351 2736 2918
1480 2821 3120
1607 2899 3290
1730 2963 3395
1852 3028 3499
1962 3078 3559
2065 3121 3598
2168 3164 3636
569 2297 633
611 2323 811
654 2349 990
711 2390 1206
800 2460 1499
888 2530 1791
998 2611 2081
1118 2696 2372
1239 2781 2662
1371 2858 2875
1503 2935 3087
1633 3006 3267
1758 3062 3381
1883 3119 3495
1995 3162 3561
2100 3199 3603
2205 3235 3645
586 2442 648
632 2467 809
677 2492 969
738 2531 1170
828 2596 1450
919 2661 1730
1030 2735 2017
1152 2814 2309
1274 2893 2600
1408 2964 2823
1541 3034 3047
1673 3098 3237
1799 3149 3361
1925 3200 3486
2038 3237 3558
2143 3268 3605
2249 3299 3652
604 2587 664
652 2611 806
701 2636 949
764 2672 1133
857 2732 1401
949 2792 1669
1062 2860 1953
1186 2932 2246
1309 3005 2539
1444 3069 2772
1579 3133 3006
1712 3191 3207
1840 3236 3342
1967 3281 3476
2080 3312 3556
2187 3338 3607
2293 3363 3659
675 2680 656
725 2703 786
775 2727 917
838 2761 1089
929 2816 1344
1020 2872 1599
1131 2936 1879
1251 3003 2170
1372 3071 2462
1505 3131 2705
1638 3192 2948
1769 3247 3159
1896 3289 3306
2022 3331 3453
2135 3360 3541
2241 3383 3600
2347 3406 3659
747 2772 647
798 2795 766
848 2817 884
912 2850 1044
1001 2901 1287
1090 2952 1530
1199 3011 1804
1317 3074 2095
1435 3137 2385
1566 3194 2637
1697 3251 2890
1826 3302 3111
1952 3342 3270
2078 3381 3430
2190 3408 3527
2296 3429 3593
2402 3449 3659
824 2852 635
876 2874 743
927 2896 850
990 2926 998
1076 2973 1229
1163 3020 1460
1268 3075 1729
1383 3133 2017
1497 3192 2306
1626 3246 2567
1754 3299 2828
1881 3348 3059
2006 3386 3231
2131 3424 3403
2242 3449 3510
2348 3468 3584
2453 3487 3658
914 2908 616
964 2928 715
1014 2949 813
1074 2977 952
1157 3020 1171
1239 3063 1390
1340 3114 1653
1449 3169 1937
1559 3224 2221
1683 3276 2490
1808 3328 2758
1932 3375 2999
2055 3412 3184
2178 3450 3369
2289 3475 3486
2393 3493 3569
2498 3512 3653
1004 2964 596
1052 2983 686
1101 3002 777
1159 3027 906
1238 3067 1113
1316 3107 1320
1412 3154 1576
1516 3205 1857
1621 3256 2137
1741 3306 2413
1862 3356 2689
1983 3401 2939
2104 3439 3137
2225 3476 3336
2335 3500 3463
2439 3519 3555
2543 3537 3647
1075 2996 581
1121 3014 663
1167 3032 745
1223 3056 865
1297 3093 1060
1372 3130 1256
1463 3174 1504
1563 3223 1779
1662 3271 2054
1779 3319 2336
1896 3368 2617
2014 3413 2875
2134 3451 3086
2253 3489 3297
2361 3513 3435
2463 3532 3536
2565 3550 3637
1137 3016 567
1180 3033 642
1224 3051 717
1276 3074 828
1347 3109 1011
1417 3143 1194
1504 3185 1435
1599 3231 1703
1694 3277 1972
1808 3325 2258
1921 3373 2544
2036 3417 2810
2154 3456 3033
2272 3495 3257
2377 3520 3405
2476 3539 3515
2575 3558 3624
1199 3036 554
1240 3053 621
1280 3070 688
1329 3092 790
1396 3124 961
1463 3156 1133
1545 3196 1365
1636 3239 1627
1726 3283 1890
1836 3330 2181
1947 3377 2471
2059 3422 2744
2174 3461 2980
2290 3501 3216
2393 3527 3374
2488 3546 3493
2584 3566 3612
1738 848 251
1725 889 579
1711 930 907
1707 993 1239
1724 1098 1581
1741 1203 1922
1774 1336 2211
1816 1482 2474
1858 1628 2737
1916 1784 2901
1973 1939 3065
2031 2088 3202
2093 2223 3288
2154 2358 3374
2211 2466 3430
2265 2561 3470
2319 2657 3510
1520 1125 311
1515 1156 610
1510 1186 908
1516 1240 1220
1543 1337 1557
1571 1435 1894
1617 1558 2188
1673 1693 2459
1729 1828 2730
1801 1970 2904
1873 2111 3077
1945 2246 3222
2020 2367 3312
2094 2489 3402
2162 2586 3458
2227 2671 3498
2291 2757 3537
1302 1401 372
1305 1422 641
1309 1442 910
1324 1486 1200
1363 1577 1533
1401 1667 1867
1460 1780 2164
1530 1904 2444
1599 2028 2724
1686 2156 2907
1772 2283 3089
1859 2404 3242
1947 2512 3335
2034 2619 3429
2113 2706 3486
2188 2781 3525
2263 2857 3564
1116 1658 430
1127 1671 671
1138 1684 912
1162 1720 1182
1211 1803 1508
1259 1886 1835
1330 1990 2135
1412 2103 2422
1493 2217 2709
1593 2332 2901
1692 2447 3093
1791 2555 3254
1890 2650 3352
1988 2745 3451
2077 2821 3510
2161 2887 3549
2245 2953 3588
993 1875 480
1011 1885 698
1028 1895 915
1059 1928 1165
1116 2004 1480
1174 2080 1795
1253 2175 2094
1344 2280 2384
1435 2385 2674
1544 2489 2876
1652 2594 3079
1759 2691 3249
1865 2776 3355
1971 2860 3461
2067 2927 3524
2156 2984 3565
2246 3041 3606
871 2091 530
894 2099 724
918 2107 918
956 2135 1149
1022 2205 1452
1088 2274 1756
1177 2361 2053
1277 2457 2346
1377 2553 2640
1494 2647 2852
1611 2741 3065
1727 2828 3244
1841 2902 3358
1955 2976 3471
2056 3032 3538
2151 3081 3581
2246 3129 3624
811 2264 564
839 2271 738
868 2279 913
911 2305 1126
982 2370 1417
1054 2434 1708
1149 2514 2001
1255 2602 2296
1361 2690 2591
1483 2776 2813
1605 2861 3036
1726 2940 3225
1844 3006 3348
1962 3072 3470
2067 3121 3543
2165 3162 3589
2264 3203 3636
781 2414 589
814 2422 746
847 2431 903
894 2457 1100
971 2516 1378
1047 2575 1656
1145 2649 1945
1255 2731 2240
1365 2812 2536
1490 2890 2767
1616 2969 2999
1740 3041 3198
1861 3100 3331
1982 3158 3464
2089 3201 3542
2190 3236 3593
2290 3271 3644
752 2563 614
789 2573 754
827 2583 894
878 2608 1075
959 2663 1340
1040 2717 1604
1142 2785 1889
1255 2860 2185
1369 2934 2480
1498 3005 2721
1626 3077 2963
1753 3141 3171
1877 3193 3314
2001 3245 3457
2111 3281 3542
2214 3310 3597
2316 3339 3653
792 2660 615
831 2672 742
871 2683 870
924 2708 1039
1004 2759 1291
1085 2810 1543
1187 2873 1822
1299 2943 2115
1412 3012 2409
1540 3078 2658
1668 3145 2908
1794 3205 3126
1918 3253 3281
2042 3301 3435
2152 3334 3529
2255 3360 3591
2358 3385 3654
831 2757 616
873 2770 731
915 2783 846
969 2808 1003
1050 2855 1242
1131 2903 1481
1232 2961 1755
1343 3026 2046
1455 3090 2337
1582 3151 2595
1709 3213 2854
1835 3269 3081
1959 3313 3247
2083 3357 3414
2193 3387 3515
2297 3409 3585
2400 3432 3655
882 2840 612
925 2855 716
968 2869 820
1023 2894 965
1103 2938 1192
1183 2982 1418
1282 3036 1686
1392 3096 1974
1501 3155 2263
1626 3212 2529
1752 3270 2794
1877 3322 3031
2000 3363 3210
2123 3404 3388
2234 3432 3499
2338 3452 3576
2442 3472 3654
954 2898 598
997 2913 693
1039 2928 789
1094 2952 924
1171 2993 1138
1248 3035 1353
1343 3085 1614
1449 3141 1898
1554 3196 2181
1676 3250 2454
1799 3304 2726
1921 3354 2972
2043 3394 3163
2165 3434 3354
2275 3461 3475
2379 3480 3562
2483 3500 3649
1026 2957 584
1069 2972 671
1111 2988 757
1164 3011 883
1238 3049 1085
1312 3087 1288
1405 3134 1541
1506 3185 1821
1608 3236 2100
1727 3288 2379
1845 3339 2658
1965 3386 2912
2086 3425 3116
2206 3464 3320
2316 3490 3452
2420 3509 3548
2524 3528 3644
1090 2991 571
1131 3007 650
1173 3023 729
1224 3045 845
1295 3081 1035
1366 3117 1226
1454 3160 1471
1551 3209 1744
1648 3257 2017
1764 3306 2301
1879 3356 2585
1996 3402 2847
2116 3441 3063
2235 3479 3280
2343 3505 3423
2446 3525 3528
2549 3544 3634
1150 3014 559
1190 3030 630
1230 3046 702
1279 3067 809
1346 3101 987
1414 3134 1165
1498 3176 1402
1591 3221 1668
1683 3267 1934
1795 3315 2222
1907 3363 2510
2021 3409 2778
2139 3448 3007
2257 3488 3237
2363 3515 3390
2465 3535 3506
2566 3555 3622
1210 3037 546
1248 3053 611
1287 3069 675
1334 3090 773
1398 3121 939
1462 3152 1105
1542 3191 1333
1630 3234 1591
1718 3277 1850
1826 3324 2142
1935 3371 2434
2046 3416 2709
2162 3456 2951
2278 3497 3193
2384 3524 3358
2483 3545 3484
2583 3566 3610
2204 828 178
2182 866 492
2160 905 806
2144 964 1129
2141 1065 1472
2139 1166 1814
2152 1296 2110
2173 1441 2382
2194 1585 2654
2231 1742 2830
2268 1899 3005
2308 2050 3153
2351 2188 3248
2394 2326 3342
2434 2438 3403
2473 2536 3448
2512 2634 3493
1960 1096 235
1943 1119 521
1927 1142 808
1918 1188 1112
1926 1281 1450
1934 1374 1788
1961 1495 2087
1996 1630 2367
2032 1765 2647
2086 1910 2831
2140 2055 3016
2195 2194 3171
2253 2321 3270
2311 2448 3368
2364 2550 3431
2415 2640 3476
