Assets/1__3DArt/KimSe/artstation_asset/LUTs_pasterls/3DL/Candylandia 04.3dl
# Enhanced with VOXCOLOR algorithms
0 256 512 768 1023
626 1060 771
863 1582 1954
1132 2126 3076
1208 2458 3695
1204 2602 3934
128 2041 806
296 2390 1717
700 2815 2808
1156 3098 3530
1478 3243 3879
109 2732 979
169 2910 1561
498 3218 2518
1028 3467 3352
1478 3602 3826
426 3092 1203
404 3164 1496
685 3369 2226
1204 3618 3137
1566 3750 3756
739 3244 1333
670 3261 1451
840 3387 1964
1346 3647 2904
1670 3806 3661
2669 1164 825
2614 1401 1945
2537 1706 3048
2415 1953 3687
2282 2120 3956
1764 1942 806
1746 2089 1624
1818 2412 2711
1972 2695 3496
2087 2867 3885
1114 2652 966
1063 2737 1477
1185 2987 2407
1506 3253 3293
1815 3418 3813
934 3064 1188
833 3107 1453
955 3278 2145
1341 3525 3066
1657 3679 3730
995 3262 1342
885 3274 1445
945 3372 1892
1364 3615 2800
1709 3803 3635
3773 1259 920
3728 1363 1942
3655 1469 2999
3553 1552 3641
3439 1628 3928
3263 1885 856
3182 1913 1597
3125 2061 2642
3100 2240 3457
3071 2373 3881
2637 2629 984
2530 2629 1435
2486 2751 2316
2547 2954 3234
2638 3117 3804
2143 3120 1214
1990 3123 1459
1936 3211 2099
2058 3399 3003
2206 3562 3708
1795 3340 1387
1635 3341 1494
1551 3398 1906
1742 3587 2751
1962 3779 3598
4029 1294 956
4019 1378 1898
4007 1442 2936
3987 1453 3605
3956 1467 3931
3895 1733 884
3859 1764 1589
3837 1839 2595
3819 1914 3425
3795 1975 3883
3654 2508 965
3597 2497 1406
3559 2536 2257
3539 2632 3188
3538 2736 3806
3316 3186 1217
3229 3167 1451
3167 3176 2059
3151 3255 2946
3168 3374 3699
2928 3492 1433
2813 3488 1562
2727 3511 2008
2751 3600 2810
2797 3723 3584
4063 1301 947
4062 1388 1838
4065 1449 2865
4069 1445 3565
4063 1445 3934
4072 1558 898
4065 1607 1561
4066 1676 2543
4067 1702 3385
4065 1714 3876
4057 2253 921
4051 2264 1382
4048 2304 2256
4042 2337 3178
4031 2370 3809
3976 3145 1170
3968 3126 1424
3960 3115 2060
3946 3115 2928
3922 3159 3712
3790 3661 1461
3762 3651 1586
3748 3657 2056
3766 3662 2877
3774 3694 3613
