Assets/1__3DArt/KimSe/artstation_asset/LUTs_pasterls/3DL/Candylandia 03 S.3dl
# Enhanced with VOXCOLOR algorithms
0 256 512 768 1023
707 947 931
582 1111 1561
507 1248 2199
504 1349 2642
514 1413 2875
570 1815 1358
548 2000 1936
556 2174 2556
578 2290 2991
596 2362 3244
580 2530 1744
597 2700 2251
623 2880 2831
648 3011 3250
668 3092 3490
633 2947 1988
653 3076 2396
670 3238 2924
685 3382 3352
705 3477 3602
674 3115 2120
682 3210 2410
692 3360 2883
702 3514 3344
707 3613 3613
1759 654 764
1663 771 1365
1513 884 2009
1365 979 2474
1237 1038 2740
1410 1447 989
1334 1557 1540
1250 1744 2254
1155 1896 2787
1058 1971 3087
1111 2257 1375
1085 2364 1831
1044 2551 2517
979 2728 3073
911 2821 3381
916 2810 1794
905 2917 2145
882 3083 2719
842 3244 3239
804 3349 3546
763 3091 2077
750 3180 2341
744 3327 2797
736 3485 3286
726 3601 3599
2405 449 623
2382 479 1169
2349 552 1825
2270 626 2316
2163 670 2610
2239 1135 643
2188 1204 1226
2157 1340 1997
2086 1480 2591
1963 1549 2926
2006 1979 964
1974 2082 1434
1928 2239 2204
1826 2410 2876
1676 2510 3251
1700 2646 1544
1657 2780 1837
1590 2945 2450
1460 3093 3084
1311 3194 3473
1279 3041 1995
1212 3144 2219
1147 3307 2662
1041 3456 3201
933 3566 3573
2603 378 540
2615 373 1010
2652 411 1657
2645 454 2181
2601 477 2495
2696 886 543
2789 999 1083
2831 1082 1827
2783 1133 2429
2670 1146 2761
2735 1668 826
2883 1895 1253
2939 2038 2021
2855 2112 2732
2658 2141 3102
2653 2429 1373
2765 2705 1580
2797 2906 2205
2662 2981 2939
2419 3011 3389
2399 2953 1848
2385 3150 2004
2368 3406 2430
2190 3500 3066
1957 3526 3554
2618 353 498
2630 353 904
2681 373 1529
2696 392 2071
2666 401 2393
2756 608 624
3010 790 1004
3181 909 1681
3120 901 2298
2904 819 2604
2959 1246 881
3484 1674 1188
3756 1901 1931
3637 1882 2658
3203 1732 2954
3153 2140 1266
3666 2634 1406
3932 2918 2066
3832 2915 2864
3419 2794 3311
3260 2826 1686
3462 3175 1763
3706 3574 2177
3646 3596 2910
3453 3501 3533
