Assets/1__3DArt/KimSe/artstation_asset/LUTs_pasterls/3DL/Candylandia 02 S.3dl
# Enhanced with VOXCOLOR algorithms
0 256 512 768 1023
674 899 530
759 1381 1966
959 2100 3096
1266 2726 3553
1606 3115 3694
729 2289 803
939 2526 1839
1247 2882 2967
1617 3185 3530
1987 3382 3708
1078 3049 877
1348 3170 1655
1704 3349 2738
2084 3492 3428
2435 3580 3692
1557 3323 808
1808 3412 1450
2136 3534 2474
2481 3635 3293
2797 3690 3676
1911 3437 755
2086 3498 1268
2371 3592 2216
2682 3684 3148
2939 3726 3645
2517 778 315
2380 1122 1615
2281 1782 2775
2296 2502 3361
2349 3003 3602
1801 1848 481
1769 1937 1462
1880 2372 2644
2116 2897 3368
2348 3259 3655
1523 2755 641
1621 2746 1376
1868 2981 2486
2205 3295 3318
2512 3498 3673
1681 3236 709
1837 3260 1283
2111 3393 2296
2443 3553 3208
2748 3652 3661
1949 3437 725
2094 3490 1166
2352 3580 2066
2660 3673 3055
2933 3729 3636
3428 774 280
3315 980 1333
3286 1544 2479
3278 2292 3183
3240 2888 3520
2796 1497 269
2629 1502 1190
2701 1899 2328
2909 2568 3171
3048 3115 3581
2404 2462 370
2315 2364 1142
2440 2575 2231
2711 3018 3163
2946 3399 3635
2299 3184 530
2301 3131 1112
2446 3228 2117
2694 3428 3101
2946 3610 3644
2256 3482 649
2338 3524 1042
2525 3604 1928
2770 3677 2977
2996 3726 3619
3604 812 296
3562 977 1184
3598 1449 2304
3638 2153 3073
3641 2777 3467
3363 1287 258
3271 1329 1081
3336 1650 2147
3477 2281 3020
3557 2931 3504
3269 2264 321
3170 2176 1064
3212 2300 2086
3353 2702 3024
3478 3247 3583
3231 3190 459
3154 3091 1051
3175 3112 2025
3274 3270 3010
3397 3546 3630
3072 3615 593
3070 3664 980
3139 3736 1886
3235 3740 2953
3321 3723 3623
3629 835 289
3647 1017 1098
3678 1420 2203
3706 2063 3005
3710 2682 3437
3654 1123 329
3737 1257 1000
3803 1542 2027
3793 2067 2913
3725 2737 3430
3733 1999 437
3890 2024 1050
3978 2138 2013
3931 2436 2932
3764 3042 3520
3827 3091 569
3964 3040 1101
4035 3052 2019
3974 3142 2963
3783 3446 3611
3854 3726 723
3894 3813 1092
3938 3897 1952
3864 3827 2952
3758 3726 3629
