Assets/1__3DArt/KimSe/artstation_asset/LUTs_pasterls/3DL/Candylandia 02.3dl
# Enhanced with VOXCOLOR algorithms
0 128 256 384 512 640 768 896 1023
674 899 530
701 1096 1257
759 1381 1966
846 1726 2598
959 2100 3096
1106 2441 3377
1266 2726 3553
1435 2952 3651
1606 3115 3694
658 1678 692
721 1817 1274
814 2020 1911
932 2266 2527
1074 2532 3048
1242 2773 3359
1420 2975 3554
1602 3137 3661
1783 3257 3706
729 2289 803
820 2384 1269
940 2526 1839
1083 2697 2432
1248 2882 2967
1431 3047 3310
1618 3186 3530
1804 3297 3654
1987 3382 3708
876 2743 865
985 2808 1242
1123 2907 1753
1285 3026 2319
1464 3154 2861
1655 3266 3237
1845 3359 3487
2030 3433 3635
2208 3489 3702
1081 3049 878
1201 3098 1193
1350 3171 1656
1521 3258 2195
1708 3350 2739
1900 3429 3146
2087 3493 3429
2267 3543 3606
2435 3580 3692
1333 3211 849
1450 3254 1127
1596 3315 1552
1762 3386 2065
1945 3461 2608
2132 3526 3044
2310 3577 3363
2479 3616 3573
2637 3644 3684
1575 3323 814
1682 3362 1061
1817 3413 1452
1974 3472 1939
2147 3535 2476
2324 3591 2941
2493 3636 3295
2651 3669 3540
2797 3690 3676
1778 3396 780
1869 3428 1000
1989 3471 1357
2133 3522 1817
2296 3577 2346
2463 3629 2835
2622 3671 3224
2769 3702 3503
2903 3718 3665
1911 3437 755
1981 3462 946
2086 3498 1268
2219 3542 1699
2371 3592 2216
2531 3642 2727
2682 3684 3148
2820 3714 3460
2939 3726 3645
1713 820 394
1681 986 1093
1647 1243 1789
1624 1567 2424
1626 1938 2941
1673 2301 3252
1744 2616 3459
1829 2872 3584
1920 3059 3648
1441 1494 529
1460 1595 1085
1479 1787 1720
1508 2041 2352
1556 2332 2903
1642 2610 3249
1747 2850 3476
1865 3047 3609
1988 3193 3672
1278 2090 650
1333 2150 1089
1396 2286 1657
1472 2475 2268
1564 2691 2836
1684 2895 3216
1817 3070 3468
1959 3213 3617
2103 3322 3686
1219 2584 745
1297 2621 1091
1394 2715 1594
1509 2847 2173
1638 3001 2745
1787 3144 3157
1941 3266 3439
2098 3365 3610
2252 3439 3690
1258 2950 799
1351 2980 1081
1470 3046 1528
1611 3139 2070
1767 3245 2637
1936 3345 3079
2103 3427 3391
2267 3493 3589
2424 3541 3685
1403 3154 802
1499 3185 1048
1624 3240 1453
1772 3312 1962
1938 3395 2518
2112 3471 2983
2282 3533 3328
2444 3582 3557
2596 3615 3677
1578 3292 789
1670 3323 1007
1793 3370 1376
1939 3429 1853
2104 3496 2396
2277 3557 2882
2443 3608 3259
2601 3647 3522
2747 3671 3668
1756 3380 767
1838 3409 963
1950 3449 1298
2089 3500 1744
2247 3556 2270
2415 3610 2775
2575 3655 3183
2726 3689 3482
2864 3709 3658
1910 3434 745
1975 3457 919
2073 3491 1221
2200 3535 1634
2349 3584 2142
2509 3635 2662
2663 3678 3101
2806 3710 3435
2934 3728 3642
2517 778 315
2470 917 956
2410 1143 1621
2349 1442 2249
2303 1799 2781
2292 2171 3124
2300 2506 3362
2322 2789 3515
2349 3003 3602
2181 1358 415
2172 1430 930
2153 1602 1545
2134 1849 2177
2127 2145 2748
2152 2449 3128
2197 2721 3387
2256 2951 3548
2323 3130 3633
1911 1928 522
1933 1960 930
1954 2082 1483
1980 2271 2098
2017 2501 2688
2080 2736 3105
2160 2945 3391
2251 3122 3567
2348 3259 3655
1719 2443 621
1764 2457 942
1822 2538 1432
1890 2671 2013
1970 2839 2608
2070 3009 3058
2180 3160 3374
2296 3287 3572
2414 3385 3669
1617 2858 695
1679 2869 953
1764 2924 1384
1867 3014 1926
1983 3129 2513
2114 3247 2991
2247 3350 3338
2381 3435 3562
2512 3499 3672
1639 3105 725
1708 3123 947
1805 3168 1335
1925 3237 1839
2062 3322 2408
2209 3408 2905
2355 3482 3281
2497 3542 3535
2633 3585 3667
1714 3271 735
1786 3293 932
1887 3334 1282
2014 3389 1751
2160 3455 2300
2315 3521 2811
2467 3577 3214
2613 3622 3500
2750 3652 3660
1824 3375 733
1891 3399 909
1990 3435 1226
2115 3483 1660
2262 3538 2186
2420 3592 2709
2573 3639 3139
2718 3676 3459
2853 3700 3650
1949 3437 725
2005 3457 882
2095 3489 1166
2212 3530 1564
2352 3579 2065
2508 3629 2597
2660 3672 3055
2803 3706 3410
2933 3729 3636
3087 764 282
3053 881 849
3006 1079 1471
2953 1349 2086
2904 1683 2629
2870 2054 3002
2846 2400 3270
2829 2704 3450
2815 2947 3559
2809 1252 344
2788 1308 811
2758 1458 1394
2724 1686 2014
2695 1976 2594
2685 2294 3003
2689 2590 3294
2704 2851 3483
2727 3062 3591
2535 1785 423
2532 1803 800
2527 1909 1330
2524 2086 1935
2525 2318 2536
2546 2574 2985
2580 2812 3304
2626 3022 3510
2678 3192 3619
2291 2307 507
2306 2307 807
2330 2376 1279
2361 2501 1854
2399 2673 2462
2453 2866 2947
2517 3044 3297
2590 3200 3525
2667 3325 3641
2101 2764 582
2131 2763 822
2180 2806 1239
2244 2888 1776
2318 3005 2376
2405 3139 2889
2497 3262 3272
2593 3369 3526
2690 3453 3655
2012 3061 630
2051 3067 835
2117 3102 1208
2202 3162 1705
2302 3245 2284
2413 3338 2813
2525 3424 3222
2637 3497 3505
2747 3554 3656
1981 3261 662
2027 3274 842
2103 3306 1177
2202 3353 1637
2318 3415 2192
2446 3483 2729
2572 3543 3162
2695 3594 3474
2814 3632 3651
1999 3384 682
2047 3402 841
2126 3432 1143
2230 3473 1567
2356 3524 2095
2494 3577 2637
2629 3624 3092
2760 3662 3434
2884 3690 3641
2055 3451 694
2099 3468 835
2175 3496 1103
2278 3534 1491
2405 3579 1989
2548 3626 2535
2690 3668 3011
2825 3703 3387
2949 3728 3627
3428 774 280
3413 874 772
3393 1045 1350
3368 1286 1947
3342 1594 2498
3316 1954 2895
3290 2303 3188
3265 2621 3392
3240 2888 3520
3258 1160 312
3240 1213 731
3218 1346 1275
3194 1553 1872
3170 1827 2452
3153 2148 2886
3142 2461 3203
3136 2747 3420
3134 2989 3549
3058 1644 361
3044 1664 707
3030 1759 1208
3018 1921 1792
3009 2145 2392
3008 2414 2866
3016 2675 3214
3029 2914 3448
3049 3116 3580
2847 2164 419
2842 2166 700
2843 2226 1151
2851 2341 1710
2862 2508 2319
2883 2716 2831
2911 2917 3213
2946 3102 3471
2986 3258 3610
2647 2663 479
2650 2657 707
2669 2691 1106
2698 2763 1631
2735 2876 2235
2780 3021 2778
2831 3163 3195
2887 3292 3481
2947 3401 3633
2493 3018 532
2504 3017 725
2537 3041 1083
2586 3090 1569
2647 3165 2151
2715 3262 2708
2787 3358 3153
2862 3446 3469
2940 3518 3642
2377 3262 577
2395 3267 745
2439 3288 1067
2505 3324 1518
2585 3377 2075
2674 3443 2637
2764 3506 3101
2855 3564 3444
2948 3611 3642
2298 3410 615
2321 3421 763
2374 3443 1052
2451 3475 1469
2546 3517 1999
2653 3564 2561
2759 3609 3041
2865 3648 3409
2968 3680 3634
2256 3482 649
2283 3494 777
2339 3516 1034
2422 3548 1415
2527 3588 1917
2650 3630 2478
2772 3668 2973
2889 3701 3367
2996 3726 3619
3546 794 291
3543 883 725
3541 1035 1265
3539 1252 1845
3536 1536 2399
3529 1881 2815
3520 2226 3127
3509 2549 3348
3495 2831 3491
3463 1080 311
3453 1138 688
3445 1262 1195
3439 1452 1767
3434 1708 2340
3430 2024 2788
3426 2343 3126
3423 2644 3363
3419 2908 3511
3357 1502 343
3346 1535 663
3338 1628 1132
3333 1780 1689
3331 1993 2276
3333 2263 2761
3337 2537 3130
3342 2797 3388
3349 3028 3541
3237 2005 382
3226 2019 650
3223 2080 1076
3225 2189 1611
3230 2351 2204
3239 2564 2725
3253 2781 3129
3269 2989 3413
3287 3174 3575
3110 2534 427
3101 2535 647
3103 2567 1027
3114 2635 1530
3130 2742 2118
3150 2892 2672
3175 3047 3114
3203 3198 3430
3235 3333 3608
2982 2957 472
2976 2956 658
2986 2973 998
3007 3014 1465
3036 3080 2033
3070 3176 2602
3107 3279 3073
3149 3380 3423
3197 3472 3627
2858 3262 516
2855 3262 677
2873 3274 983
2906 3299 1417
2949 3340 1962
2998 3398 2536
3049 3461 3028
3104 3525 3404
3166 3584 3634
2741 3454 561
2742 3458 699
2766 3470 977
2810 3491 1383
2868 3519 1906
2935 3556 2481
3002 3594 2985
3071 3632 3381
3144 3668 3631
2633 3543 606
2636 3549 722
2666 3565 972
2720 3587 1353
2793 3617 1862
2881 3648 2439
2969 3677 2951
3053 3703 3358
3131 3723 3619
3604 812 296
3607 892 686
3615 1029 1196
3625 1227 1761
3635 1489 2317
3643 1821 2749
3646 2161 3077
3646 2487 3312
3641 2777 3467
3575 1011 312
3571 1072 653
3573 1188 1128
3579 1365 1678
3587 1606 2243
3594 1915 2703
3599 2236 3057
3600 2546 3313
3599 2828 3477
3538 1368 338
3530 1410 634
3529 1502 1075
3532 1648 1607
3538 1853 2179
3545 2122 2670
3551 2404 3053
3556 2680 3330
3558 2934 3503
3494 1839 372
3484 1864 626
3481 1928 1030
3483 2037 1539
3489 2196 2113
3496 2412 2635
3503 2641 3052
3510 2869 3355
3517 3080 3539
3444 2381 411
3432 2390 625
3428 2426 988
3430 2495 1469
3435 2602 2036
3443 2755 2587
3453 2922 3040
3464 3091 3377
3478 3252 3579
3375 2868 453
3363 2869 634
3360 2886 958
3364 2924 1403
3373 2986 1949
3384 3081 2515
3397 3189 3001
3414 3303 3375
3438 3416 3608
3290 3240 497
3277 3238 650
3277 3245 941
3286 3264 1355
3301 3295 1879
3319 3347 2450
3338 3409 2958
3363 3478 3362
3397 3551 3625
3189 3491 543
3176 3490 672
3179 3495 936
3195 3505 1326
3220 3521 1835
3250 3547 2410
3281 3578 2930
3316 3614 3351
3357 3654 3629
3072 3615 593
3058 3616 697
3065 3624 939
3089 3637 1317
3128 3655 1828
3178 3673 2415
3228 3691 2939
3277 3707 3356
3321 3723 3623
3624 826 295
3629 899 652
3641 1024 1140
3656 1206 1695
3672 1452 2253
3687 1772 2696
3698 2108 3036
3704 2434 3284
3704 2727 3449
3622 952 310
3622 1012 620
3630 1123 1068
3643 1289 1600
3659 1516 2158
3673 1818 2628
3684 2139 2996
3691 2456 3267
3691 2749 3446
3627 1240 338
3624 1287 610
3628 1380 1025
3638 1522 1536
3652 1721 2094
3664 1989 2589
3674 2276 2983
3680 2565 3276
3680 2837 3465
3637 1666 376
3632 1698 616
3633 1768 1000
3639 1881 1488
3648 2041 2044
3657 2260 2561
3664 2499 2983
3669 2743 3299
3670 2979 3500
3649 2201 420
3642 2218 630
3640 2263 980
3641 2340 1443
3645 2452 1990
3649 2611 2529
3652 2789 2981
3655 2975 3326
3657 3160 3545
3649 2744 468
3639 2748 646
3634 2771 960
3631 2813 1390
3630 2878 1915
3630 2976 2465
3629 3090 2948
3631 3217 3331
3637 3349 3585
3627 3187 518
3615 3185 666
3607 3192 946
3603 3209 1344
3600 3238 1846
3598 3287 2400
3597 3349 2906
3600 3425 3324
3609 3511 3612
3579 3507 570
3564 3504 689
3555 3504 941
3552 3508 1316
3552 3515 1806
3554 3532 2368
3557 3557 2890
3564 3592 3324
3577 3638 3627
3503 3681 626
3482 3680 717
3474 3682 948
3475 3687 1316
3483 3693 1820
3497 3699 2406
3511 3705 2933
3526 3713 3356
3540 3724 3628
3629 835 289
3635 902 624
3647 1017 1098
3662 1188 1645
3678 1420 2203
3694 1731 2654
3706 2063 3005
3712 2388 3263
3710 2682 3437
3634 903 300
3636 959 583
3646 1063 1011
3661 1220 1528
3679 1437 2083
3696 1733 2561
3708 2053 2942
3714 2375 3228
3713 2675 3418
3652 1121 332
3653 1167 581
3661 1259 974
3675 1400 1468
3692 1595 2018
3708 1862 2516
3719 2155 2920
3725 2454 3225
3723 2741 3426
3682 1486 382
3684 1521 606
3691 1597 974
3703 1717 1448
3716 1882 1992
3729 2108 2503
3738 2357 2924
3741 2616 3245
3738 2871 3457
3727 1995 444
3729 2016 647
3734 2072 992
3741 2163 1449
3749 2288 1985
3756 2458 2506
3760 2648 2942
3760 2850 3280
3755 3058 3505
3780 2578 511
3781 2587 688
3782 2619 1004
3782 2675 1433
3783 2752 1948
3782 2859 2471
3779 2982 2927
3775 3121 3297
3768 3272 3556
3823 3090 579
3821 3090 725
3818 3103 1004
3813 3128 1398
3807 3163 1886
3798 3215 2409
3790 3281 2889
3781 3363 3295
3774 3463 3596
3849 3486 649
3844 3484 760
3836 3485 1003
3827 3489 1367
3817 3495 1838
3804 3507 2372
3790 3529 2874
3779 3565 3303
3770 3619 3621
3854 3726 723
3842 3726 797
3831 3726 1010
3821 3725 1359
3810 3722 1841
3796 3718 2412
3780 3715 2930
3767 3716 3352
3758 3726 3629
