Assets/1__3DArt/KimSe/artstation_asset/LUTs_pasterls/3DL/Candylandia 03 S.3dl
# Enhanced with VOXCOLOR algorithms
0 64 128 192 256 320 384 448 512 576 640 704 768 832 896 960 1023
707 947 931
673 990 1083
640 1033 1235
609 1074 1393
582 1111 1561
555 1148 1730
536 1182 1889
521 1215 2044
507 1248 2199
504 1275 2323
501 1303 2446
500 1328 2557
504 1349 2642
507 1370 2726
509 1386 2784
512 1400 2829
514 1413 2875
660 1170 1038
635 1214 1186
609 1258 1334
585 1301 1489
566 1342 1656
547 1382 1823
535 1419 1982
526 1454 2136
517 1490 2291
517 1518 2414
517 1547 2538
518 1573 2648
522 1594 2733
526 1616 2818
529 1632 2878
532 1646 2927
535 1661 2975
614 1392 1144
596 1438 1289
578 1483 1433
562 1528 1584
551 1572 1750
540 1616 1916
534 1656 2074
531 1694 2229
528 1732 2383
530 1761 2506
532 1791 2629
535 1818 2739
540 1840 2825
544 1861 2910
548 1878 2973
552 1893 3024
556 1908 3075
580 1609 1251
568 1655 1391
556 1701 1531
547 1747 1680
542 1794 1844
538 1841 2008
537 1883 2165
538 1923 2319
540 1963 2472
544 1994 2594
549 2025 2717
553 2053 2827
558 2075 2912
564 2097 2997
568 2114 3061
572 2130 3114
576 2146 3167
570 1815 1358
562 1860 1494
554 1906 1630
549 1952 1774
548 2000 1936
547 2048 2097
549 2091 2252
553 2133 2404
556 2174 2556
562 2206 2677
567 2238 2798
573 2267 2907
578 2290 2991
583 2312 3075
588 2330 3138
592 2346 3191
596 2362 3244
560 2021 1465
556 2066 1596
553 2111 1728
551 2157 1868
554 2206 2027
556 2255 2186
561 2300 2339
567 2343 2490
573 2385 2640
579 2418 2760
586 2451 2879
592 2481 2987
598 2504 3070
603 2528 3153
608 2546 3215
612 2563 3267
617 2579 3320
562 2200 1562
562 2243 1688
561 2287 1815
562 2333 1951
566 2381 2106
570 2430 2262
576 2475 2412
583 2518 2560
589 2562 2709
596 2596 2827
603 2630 2946
609 2660 3052
615 2685 3134
621 2709 3216
626 2728 3278
630 2745 3330
634 2761 3381
571 2365 1653
572 2407 1774
574 2449 1896
576 2493 2027
581 2541 2179
586 2588 2330
593 2633 2478
599 2677 2624
606 2721 2770
613 2756 2888
620 2791 3005
626 2822 3111
631 2848 3192
637 2873 3273
642 2893 3334
647 2910 3385
651 2927 3436
580 2530 1744
583 2571 1861
587 2611 1977
591 2654 2104
597 2700 2251
603 2747 2399
609 2792 2544
616 2836 2687
623 2880 2831
630 2916 2948
636 2952 3065
642 2984 3169
648 3011 3250
653 3037 3330
658 3057 3390
663 3075 3440
668 3092 3490
594 2649 1813
598 2687 1923
602 2725 2033
607 2765 2154
613 2810 2297
618 2854 2439
624 2898 2581
630 2942 2722
636 2985 2864
642 3022 2981
648 3058 3097
654 3092 3202
659 3119 3283
664 3147 3364
669 3168 3424
674 3186 3474
679 3204 3525
608 2769 1882
613 2804 1986
618 2839 2090
623 2876 2205
628 2919 2342
633 2962 2479
639 3004 2618
644 3047 2757
650 3090 2897
655 3128 3013
660 3165 3130
665 3200 3235
670 3228 3316
675 3257 3398
680 3279 3458
685 3298 3509
691 3317 3559
621 2873 1943
627 2905 2040
632 2937 2138
638 2972 2247
642 3013 2378
647 3053 2510
652 3095 2645
657 3138 2783
661 3180 2920
666 3218 3037
670 3256 3154
675 3291 3259
679 3321 3342
684 3351 3424
689 3374 3486
694 3393 3536
700 3413 3587
633 2947 1988
638 2976 2078
644 3005 2168
649 3037 2270
653 3076 2396
658 3114 2522
662 3155 2654
666 3197 2789
670 3238 2924
673 3277 3042
677 3315 3161
681 3351 3268
685 3382 3352
689 3413 3437
694 3436 3500
700 3457 3551
705 3477 3602
645 3022 2034
650 3047 2116
656 3073 2199
660 3102 2294
664 3139 2414
668 3175 2534
671 3215 2663
675 3256 2796
678 3297 2929
681 3336 3048
684 3375 3167
687 3411 3276
691 3443 3363
695 3475 3450
699 3499 3514
705 3520 3566
710 3541 3618
655 3064 2066
660 3087 2141
664 3110 2216
668 3137 2304
671 3172 2418
674 3207 2531
677 3246 2657
680 3287 2787
683 3327 2918
686 3367 3039
689 3406 3160
692 3443 3271
695 3476 3361
698 3508 3451
702 3533 3516
706 3554 3568
711 3575 3621
665 3090 2093
668 3111 2160
671 3132 2226
674 3158 2306
676 3191 2414
679 3225 2521
682 3263 2643
685 3303 2772
688 3344 2901
690 3384 3024
693 3424 3147
696 3462 3260
699 3495 3352
701 3528 3445
704 3553 3511
706 3574 3564
709 3594 3617
674 3115 2120
676 3135 2178
678 3154 2236
679 3178 2309
682 3210 2410
684 3243 2511
686 3280 2629
689 3320 2756
692 3360 2883
695 3401 3008
697 3441 3133
700 3480 3248
702 3514 3344
704 3548 3440
705 3573 3507
706 3593 3560
707 3613 3613
993 871 889
964 912 1039
934 954 1189
903 993 1345
870 1028 1513
837 1064 1681
808 1096 1840
782 1128 1996
756 1160 2152
738 1187 2276
721 1214 2401
706 1239 2513
696 1260 2599
686 1280 2685
677 1296 2746
668 1309 2794
660 1323 2841
928 1085 980
903 1126 1125
879 1166 1270
854 1206 1423
828 1246 1591
802 1286 1759
780 1323 1920
760 1359 2077
739 1394 2235
726 1424 2361
712 1453 2487
700 1480 2600
692 1501 2687
683 1522 2775
675 1539 2837
669 1552 2888
662 1566 2938
862 1299 1072
843 1339 1212
824 1379 1351
805 1420 1500
787 1464 1669
768 1508 1837
753 1549 2000
738 1589 2159
723 1629 2317
713 1660 2445
703 1692 2572
694 1720 2687
687 1742 2775
680 1764 2864
674 1781 2929
669 1795 2982
664 1809 3035
806 1511 1167
792 1550 1302
778 1590 1436
764 1631 1581
752 1679 1749
740 1726 1917
730 1770 2080
720 1813 2240
710 1856 2400
703 1889 2528
696 1923 2656
690 1953 2771
685 1976 2861
679 1999 2950
675 2016 3016
671 2031 3071
667 2045 3126
770 1720 1270
759 1759 1399
749 1797 1528
739 1839 1669
731 1887 1835
723 1934 2000
716 1980 2161
710 2024 2321
704 2069 2480
699 2104 2608
694 2139 2736
690 2170 2851
686 2194 2940
682 2219 3029
678 2237 3095
675 2252 3150
672 2266 3205
733 1929 1372
726 1967 1496
720 2005 1620
714 2046 1757
710 2094 1920
706 2143 2083
703 2190 2243
700 2235 2401
697 2281 2560
695 2318 2688
692 2355 2816
689 2388 2931
687 2413 3020
684 2438 3108
682 2457 3174
680 2472 3229
677 2488 3283
710 2115 1470
707 2152 1589
703 2188 1708
700 2229 1840
699 2277 1999
698 2324 2158
696 2371 2316
695 2418 2472
695 2464 2629
693 2502 2757
692 2540 2884
691 2574 2999
689 2600 3087
688 2627 3175
686 2646 3240
685 2662 3294
684 2678 3348
695 2289 1566
694 2325 1680
693 2360 1793
692 2399 1920
692 2446 2075
693 2493 2229
693 2539 2384
693 2585 2538
694 2632 2693
694 2670 2820
693 2709 2946
693 2744 3060
692 2772 3147
692 2799 3235
691 2819 3300
690 2836 3353
690 2852 3406
680 2463 1662
681 2498 1770
682 2532 1879
684 2570 2001
686 2616 2151
688 2661 2301
690 2707 2452
691 2753 2604
693 2800 2757
694 2839 2882
695 2879 3008
695 2915 3121
695 2943 3208
695 2972 3295
696 2993 3359
696 3010 3412
696 3027 3464
676 2592 1741
679 2624 1843
681 2657 1946
684 2693 2062
686 2737 2207
688 2780 2351
690 2825 2498
692 2871 2647
694 2916 2796
695 2956 2921
696 2995 3046
697 3032 3159
697 3061 3246
698 3091 3333
699 3112 3397
700 3130 3449
701 3148 3502
673 2720 1820
676 2751 1916
680 2782 2013
683 2817 2124
686 2858 2262
689 2900 2401
691 2943 2544
693 2988 2690
695 3032 2836
696 3072 2960
697 3112 3084
699 3149 3196
700 3179 3283
701 3209 3370
702 3232 3434
704 3251 3487
706 3270 3540
671 2833 1891
675 2862 1982
679 2891 2072
683 2924 2177
686 2964 2310
689 3003 2442
691 3046 2581
694 3089 2724
696 3133 2866
697 3173 2990
698 3213 3113
700 3250 3225
701 3281 3313
703 3312 3401
705 3335 3465
707 3355 3518
710 3375 3571
672 2915 1946
676 2942 2031
680 2968 2116
684 2999 2214
687 3036 2340
689 3074 2466
692 3115 2601
694 3158 2740
696 3200 2879
697 3240 3002
699 3280 3126
700 3318 3238
702 3349 3327
703 3381 3416
706 3405 3482
709 3426 3536
712 3447 3589
673 2997 2002
677 3021 2080
681 3045 2159
684 3073 2251
687 3109 2371
690 3145 2490
692 3185 2620
694 3227 2756
696 3268 2892
697 3308 3015
699 3348 3138
701 3385 3251
702 3418 3342
704 3450 3432
707 3475 3499
711 3497 3553
714 3519 3608
675 3046 2043
678 3068 2114
681 3090 2186
684 3117 2271
687 3151 2384
689 3186 2497
691 3224 2623
693 3265 2755
695 3306 2888
697 3346 3012
699 3386 3136
701 3424 3250
703 3457 3343
705 3491 3436
707 3516 3503
710 3538 3558
713 3560 3613
677 3078 2077
680 3099 2141
682 3119 2205
684 3144 2284
686 3177 2390
688 3211 2496
690 3249 2617
692 3289 2747
695 3329 2876
697 3370 3001
699 3410 3126
701 3448 3241
703 3482 3337
705 3516 3432
707 3542 3501
708 3564 3557
710 3586 3612
680 3111 2111
681 3130 2168
682 3148 2225
683 3172 2296
685 3204 2395
687 3236 2495
689 3273 2612
692 3312 2738
694 3352 2864
696 3393 2990
699 3434 3116
701 3473 3232
703 3508 3331
705 3542 3429
706 3568 3499
707 3590 3555
707 3612 3611
1280 795 846
1254 834 994
1227 874 1143
1196 911 1297
1157 945 1465
1118 979 1632
1080 1011 1792
1042 1041 1948
1004 1072 2104
973 1099 2230
941 1126 2356
912 1150 2469
888 1171 2557
864 1191 2645
844 1206 2707
825 1219 2758
806 1232 2808
1195 1000 923
1172 1037 1064
1149 1074 1206
1122 1112 1357
1090 1151 1526
1058 1190 1695
1026 1227 1858
994 1263 2018
962 1299 2178
935 1329 2307
908 1359 2436
882 1386 2552
861 1407 2641
840 1429 2731
822 1445 2796
806 1458 2849
789 1471 2902
1110 1206 1000
1090 1240 1134
1070 1275 1269
1048 1312 1416
1023 1357 1587
997 1401 1759
971 1443 1925
945 1485 2088
919 1526 2252
896 1559 2384
874 1592 2516
853 1622 2634
834 1644 2726
816 1667 2818
800 1684 2885
786 1697 2940
772 1710 2996
1033 1414 1083
1016 1446 1212
999 1478 1340
982 1516 1483
962 1564 1655
942 1611 1826
922 1658 1994
901 1703 2161
881 1749 2327
862 1785 2461
844 1820 2595
826 1852 2716
811 1877 2809
795 1901 2902
782 1918 2971
769 1931 3028
757 1945 3085
969 1626 1181
956 1657 1304
943 1688 1426
929 1725 1565
914 1773 1734
899 1821 1903
884 1868 2070
867 1916 2237
851 1963 2404
836 2001 2539
821 2039 2674
806 2073 2796
793 2099 2889
780 2125 2983
769 2143 3052
758 2157 3109
748 2171 3166
906 1838 1279
896 1868 1396
887 1898 1513
877 1934 1646
866 1983 1813
856 2031 1980
845 2079 2146
833 2128 2313
822 2177 2480
810 2218 2617
798 2258 2753
787 2294 2875
776 2321 2970
765 2349 3064
756 2368 3133
747 2382 3190
738 2397 3247
859 2031 1378
852 2060 1490
845 2090 1601
839 2125 1730
832 2172 1892
825 2219 2055
817 2268 2219
808 2317 2384
800 2366 2550
790 2408 2686
781 2450 2823
772 2487 2945
763 2516 3039
755 2544 3133
747 2564 3202
740 2579 3259
733 2595 3315
819 2214 1479
815 2242 1585
812 2271 1691
808 2306 1814
803 2351 1971
799 2397 2129
794 2445 2290
788 2494 2453
781 2543 2616
774 2585 2752
767 2628 2887
760 2666 3009
753 2696 3103
746 2725 3197
740 2746 3265
734 2762 3321
729 2778 3377
779 2396 1580
779 2425 1680
778 2453 1780
777 2487 1898
775 2531 2051
774 2575 2203
770 2622 2361
767 2671 2521
763 2719 2682
758 2763 2817
753 2806 2952
748 2845 3073
743 2876 3167
737 2907 3260
733 2928 3328
729 2945 3383
725 2962 3438
758 2534 1669
759 2562 1764
760 2589 1859
760 2622 1971
759 2664 2117
759 2707 2263
757 2752 2416
754 2800 2572
752 2847 2728
748 2890 2862
744 2933 2995
740 2971 3115
736 3003 3208
732 3034 3302
729 3057 3369
726 3075 3424
723 3093 3479
737 2672 1758
739 2699 1847
742 2726 1937
743 2757 2043
744 2798 2183
744 2838 2322
743 2883 2470
742 2929 2622
740 2975 2775
737 3017 2906
735 3059 3038
732 3098 3157
729 3130 3250
727 3162 3343
725 3185 3410
723 3204 3465
722 3223 3521
720 2794 1839
723 2819 1923
726 2845 2007
729 2875 2108
730 2914 2241
731 2953 2374
731 2996 2517
730 3041 2665
730 3085 2813
728 3127 2943
727 3169 3073
725 3208 3191
723 3240 3284
722 3273 3377
721 3297 3445
721 3317 3500
720 3337 3555
710 2883 1904
713 2907 1983
716 2931 2063
718 2960 2158
720 2997 2284
721 3034 2410
722 3076 2547
722 3119 2690
722 3162 2833
721 3204 2962
720 3245 3091
719 3284 3208
719 3317 3302
718 3349 3396
718 3374 3464
718 3395 3520
719 3417 3576
701 2972 1970
703 2994 2044
706 3017 2118
708 3044 2207
710 3080 2327
711 3116 2446
712 3155 2578
713 3198 2716
714 3240 2854
714 3280 2982
714 3321 3109
714 3359 3226
714 3393 3320
714 3426 3415
715 3452 3484
716 3474 3541
718 3496 3598
695 3028 2019
697 3049 2087
699 3070 2156
700 3096 2239
702 3130 2351
704 3164 2463
705 3203 2590
706 3244 2723
707 3285 2857
708 3326 2984
709 3366 3111
710 3405 3228
710 3439 3324
711 3473 3421
712 3499 3491
714 3522 3548
715 3544 3606
690 3067 2060
691 3087 2122
692 3107 2185
694 3131 2261
695 3164 2366
697 3196 2471
698 3234 2592
700 3274 2721
702 3315 2851
703 3356 2978
705 3396 3105
706 3435 3222
707 3470 3321
708 3504 3420
709 3531 3491
710 3554 3549
711 3577 3607
686 3107 2102
686 3125 2158
686 3143 2214
687 3166 2283
689 3197 2381
690 3229 2478
692 3265 2594
694 3305 2720
696 3344 2845
698 3385 2972
701 3426 3099
702 3466 3217
704 3501 3318
706 3536 3419
707 3564 3492
707 3587 3550
708 3610 3609
1543 721 804
1520 758 950
1497 794 1096
1468 828 1249
1428 860 1416
1387 892 1582
1344 922 1742
1300 952 1899
1256 981 2056
1216 1007 2184
1175 1034 2311
1137 1058 2425
1104 1078 2515
1070 1098 2604
1041 1113 2669
1014 1126 2722
987 1139 2774
1448 919 866
1426 951 1004
1404 984 1143
1378 1018 1292
1343 1055 1462
1307 1093 1632
1270 1129 1797
1232 1165 1960
1193 1201 2122
1158 1231 2254
1122 1262 2386
1088 1289 2504
1058 1311 2596
1028 1333 2688
1002 1348 2755
978 1361 2810
