Assets/1__3DArt/KimSe/artstation_asset/LUTs_pasterls/3DL/Candylandia 02.3dl
# Enhanced with VOXCOLOR algorithms
0 256 512 768 1023
674 899 530
759 1381 1966
959 2100 3096
1266 2726 3553
1606 3115 3694
729 2289 803
940 2526 1839
1248 2882 2967
1618 3186 3530
1987 3382 3708
1081 3049 878
1350 3171 1656
1708 3350 2739
2087 3493 3429
2435 3580 3692
1575 3323 814
1817 3413 1452
2147 3535 2476
2493 3636 3295
2797 3690 3676
1911 3437 755
2086 3498 1268
2371 3592 2216
2682 3684 3148
2939 3726 3645
2517 778 315
2410 1143 1621
2303 1799 2781
2300 2506 3362
2349 3003 3602
1911 1928 522
1954 2082 1483
2017 2501 2688
2160 2945 3391
2348 3259 3655
1617 2858 695
1764 2924 1384
1983 3129 2513
2247 3350 3338
2512 3499 3672
1714 3271 735
1887 3334 1282
2160 3455 2300
2467 3577 3214
2750 3652 3660
1949 3437 725
2095 3489 1166
2352 3579 2065
2660 3672 3055
2933 3729 3636
3428 774 280
3393 1045 1350
3342 1594 2498
3290 2303 3188
3240 2888 3520
3058 1644 361
3030 1759 1208
3009 2145 2392
3016 2675 3214
3049 3116 3580
2647 2663 479
2669 2691 1106
2735 2876 2235
2831 3163 3195
2947 3401 3633
2377 3262 577
2439 3288 1067
2585 3377 2075
2764 3506 3101
2948 3611 3642
2256 3482 649
2339 3516 1034
2527 3588 1917
2772 3668 2973
2996 3726 3619
3604 812 296
3615 1029 1196
3635 1489 2317
3646 2161 3077
3641 2777 3467
3538 1368 338
3529 1502 1075
3538 1853 2179
3551 2404 3053
3558 2934 3503
3444 2381 411
3428 2426 988
3435 2602 2036
3453 2922 3040
3478 3252 3579
3290 3240 497
3277 3245 941
3301 3295 1879
3338 3409 2958
3397 3551 3625
3072 3615 593
3065 3624 939
3128 3655 1828
3228 3691 2939
3321 3723 3623
3629 835 289
3647 1017 1098
3678 1420 2203
3706 2063 3005
3710 2682 3437
3652 1121 332
3661 1259 974
3692 1595 2018
3719 2155 2920
3723 2741 3426
3727 1995 444
3734 2072 992
3749 2288 1985
3760 2648 2942
3755 3058 3505
3823 3090 579
3818 3103 1004
3807 3163 1886
3790 3281 2889
3774 3463 3596
3854 3726 723
3831 3726 1010
3810 3722 1841
3780 3715 2930
3758 3726 3629
