Assets/1__3DArt/KimSe/artstation_asset/LUTs_pasterls/3DL/Candylandia 02.3dl
# Enhanced with VOXCOLOR algorithms
0 64 128 192 256 320 384 448 512 576 640 704 768 832 896 960 1023
674 899 530
688 998 893
701 1096 1257
722 1216 1616
759 1381 1966
796 1546 2316
846 1726 2598
903 1913 2847
959 2100 3096
1032 2271 3237
1106 2441 3377
1182 2598 3491
1266 2726 3553
1350 2855 3616
1435 2952 3651
1521 3034 3672
1606 3115 3694
666 1288 611
689 1372 938
711 1456 1265
741 1559 1597
786 1701 1938
832 1842 2279
889 1996 2563
953 2156 2817
1017 2316 3072
1095 2462 3220
1174 2607 3368
1256 2740 3488
1343 2851 3554
1431 2961 3619
1519 3044 3656
1606 3115 3678
1694 3186 3700
658 1678 692
689 1747 983
721 1817 1274
760 1902 1579
814 2020 1911
867 2138 2243
932 2266 2527
1003 2399 2788
1074 2532 3048
1158 2652 3204
1242 2773 3359
1329 2883 3486
1420 2975 3554
1511 3066 3623
1602 3137 3661
1692 3197 3683
1783 3257 3706
671 2025 760
711 2082 1019
751 2139 1277
798 2209 1557
859 2306 1879
920 2403 2201
991 2509 2485
1069 2618 2751
1146 2727 3016
1235 2826 3179
1324 2924 3343
1414 3015 3476
1508 3090 3549
1601 3164 3622
1694 3223 3662
1786 3273 3685
1878 3323 3709
729 2289 803
775 2337 1036
820 2384 1269
873 2444 1528
940 2526 1839
1006 2608 2150
1083 2697 2432
1166 2790 2700
1248 2882 2967
1339 2965 3139
1431 3047 3310
1523 3123 3451
1618 3186 3530
1712 3248 3610
1804 3297 3654
1896 3339 3681
1987 3382 3708
788 2553 846
839 2591 1053
890 2630 1261
948 2678 1499
1021 2746 1799
1093 2813 2099
1175 2886 2379
1263 2962 2649
1350 3037 2918
1444 3104 3098
1538 3171 3278
1632 3232 3426
1728 3282 3512
1823 3332 3598
1915 3372 3647
2005 3406 3676
2096 3440 3706
876 2743 865
930 2775 1053
985 2808 1242
1047 2849 1464
1123 2907 1753
1199 2965 2042
1285 3026 2319
1375 3090 2590
1464 3154 2861
1560 3210 3049
1655 3266 3237
1751 3317 3393
1845 3359 3487
1939 3400 3581
2030 3433 3635
2119 3461 3669
2208 3489 3702
978 2896 871
1036 2924 1044
1093 2953 1217
1158 2989 1426
1236 3039 1704
1315 3089 1983
1403 3142 2257
1494 3197 2529
1586 3252 2800
1682 3300 2996
1778 3347 3191
1873 3391 3356
1966 3426 3458
2060 3461 3560
2148 3488 3620
2235 3511 3659
2322 3534 3697
1081 3049 878
1141 3073 1035
1201 3098 1193
1268 3128 1387
1350 3171 1656
1431 3213 1924
1521 3258 2195
1614 3304 2467
1708 3350 2739
1804 3389 2942
1900 3429 3146
1995 3465 3318
2087 3493 3429
2180 3521 3540
2267 3543 3606
2351 3561 3649
2435 3580 3692
1207 3130 863
1266 3153 1012
1326 3176 1160
1392 3204 1345
1473 3243 1604
1553 3281 1862
1641 3322 2130
1734 3364 2402
1826 3405 2673
1921 3441 2884
2016 3477 3095
2109 3510 3276
2199 3535 3396
2289 3560 3517
2373 3580 3590
2454 3596 3639
2536 3612 3688
1333 3211 849
1392 3232 988
1450 3254 1127
1516 3280 1303
1596 3315 1552
1675 3349 1801
1762 3386 2065
1854 3423 2336
1945 3461 2608
2038 3493 2826
2132 3526 3044
2223 3555 3233
2310 3577 3363
2397 3600 3493
2479 3616 3573
2558 3630 3628
2637 3644 3684
1456 3279 833
1513 3300 964
1571 3320 1094
1635 3344 1261
1712 3375 1501
1790 3406 1741
1876 3439 2001
1965 3473 2272
2055 3507 2542
2146 3537 2768
2238 3566 2993
2327 3592 3190
2412 3613 3330
2496 3634 3469
2575 3648 3557
2651 3660 3618
2727 3671 3680
1575 3323 814
1629 3342 938
1682 3362 1061
1743 3384 1221
1817 3413 1452
1891 3441 1683
1974 3472 1939
2061 3504 2208
2147 3535 2476
2236 3563 2709
2324 3591 2941
2411 3616 3146
2493 3636 3295
2575 3656 3445
2651 3669 3540
2724 3680 3608
2797 3690 3676
1694 3367 795
1744 3385 912
1794 3403 1029
1851 3424 1181
1922 3450 1403
1993 3476 1625
2072 3505 1877
2156 3534 2144
2240 3563 2411
2326 3589 2650
2411 3616 2889
2495 3640 3101
2575 3659 3261
2654 3678 3420
2727 3690 3523
2798 3700 3598
2868 3709 3672
1778 3396 780
1823 3412 890
1869 3428 1000
1921 3447 1144
1989 3471 1357
2057 3496 1570
2133 3522 1817
2215 3550 2081
2296 3577 2346
2379 3603 2590
2463 3629 2835
2545 3652 3055
2622 3671 3224
2699 3690 3393
2769 3702 3503
2836 3710 3584
2903 3718 3665
1845 3416 767
1885 3431 870
1925 3445 973
1973 3462 1109
2038 3485 1313
2102 3507 1516
2176 3532 1758
2255 3558 2019
2333 3585 2281
2415 3610 2531
2497 3635 2781
2577 3659 3007
2652 3678 3186
2727 3697 3364
2795 3708 3482
2858 3715 3568
2921 3722 3655
1911 3437 755
1946 3449 850
1981 3462 946
2025 3477 1074
2086 3498 1268
2147 3519 1462
2219 3542 1699
2295 3567 1958
2371 3592 2216
2451 3617 2472
2531 3642 2727
2609 3665 2960
2682 3684 3148
2756 3704 3336
2820 3714 3460
2879 3720 3553
2939 3726 3645
1194 860 462
1192 950 818
1191 1041 1175
1193 1154 1529
1203 1312 1877
1213 1470 2226
1235 1647 2511
1264 1833 2765
1293 2019 3019
1341 2195 3167
1389 2371 3314
1442 2534 3436
1505 2671 3506
1568 2808 3576
1632 2912 3617
1698 3000 3644
1763 3087 3671
1122 1223 536
1131 1298 857
1141 1373 1177
1154 1470 1505
1175 1608 1846
1195 1746 2188
1228 1900 2476
1266 2063 2736
1304 2226 2997
1360 2378 3153
1416 2531 3309
1476 2673 3438
1544 2792 3511
1613 2911 3584
1683 3002 3626
1753 3079 3653
1824 3156 3680
1049 1586 611
1070 1646 895
1090 1706 1180
1115 1785 1481
1146 1903 1815
1178 2021 2150
1220 2154 2440
1268 2293 2708
1315 2432 2976
1379 2561 3140
1442 2691 3304
1509 2811 3439
1583 2912 3515
1658 3013 3591
1733 3092 3635
1809 3158 3662
1885 3225 3689
1002 1918 677
1032 1965 929
1062 2012 1181
1096 2077 1457
1137 2177 1783
1179 2277 2108
1231 2388 2399
1287 2506 2673
1344 2624 2946
1414 2732 3119
1484 2841 3291
1557 2942 3433
1637 3026 3514
1716 3111 3594
1795 3177 3639
1876 3234 3667
1956 3291 3695
1004 2190 727
1040 2228 953
1076 2267 1179
1117 2321 1434
1168 2406 1748
1218 2491 2061
1278 2586 2350
1342 2686 2626
1406 2787 2901
1482 2879 3082
1557 2971 3263
1635 3056 3412
1718 3128 3499
1800 3199 3586
1882 3255 3636
1963 3303 3666
2045 3352 3697
1006 2461 777
1048 2491 977
1091 2522 1177
1139 2565 1411
1198 2635 1713
1257 2705 2014
1325 2784 2300
1397 2867 2578
1468 2950 2856
1550 3025 3045
1631 3101 3235
1713 3171 3392
1799 3229 3485
1884 3287 3578
1968 3333 3632
2051 3373 3665
2134 3412 3698
1047 2663 805
1094 2689 986
1141 2715 1167
1194 2751 1384
1259 2811 1674
1323 2870 1964
1397 2937 2246
1474 3007 2524
1551 3077 2803
1636 3141 3000
1721 3205 3197
1806 3264 3362
1893 3312 3463
1980 3361 3564
2064 3399 3622
2147 3432 3659
2230 3464 3696
1108 2831 821
1158 2854 987
1209 2877 1152
1265 2909 1355
1334 2960 1633
1404 3011 1911
1481 3068 2189
1563 3127 2467
1644 3187 2745
1732 3242 2950
1820 3296 3155
1907 3346 3327
1994 3386 3437
2082 3427 3546
2165 3458 3610
2248 3485 3651
2330 3512 3692
1169 3000 838
1223 3019 988
1276 3039 1137
1336 3066 1326
1410 3108 1592
1484 3151 1858
1566 3198 2132
1652 3248 2410
1738 3298 2688
1828 3342 2900
1918 3387 3112
2008 3427 3293
2095 3460 3410
2183 3493 3528
2267 3518 3597
2348 3539 3643
2430 3560 3689
1269 3091 832
1322 3110 972
1375 3129 1112
1436 3155 1291
1510 3193 1547
1584 3231 1803
1667 3274 2073
1753 3318 2349
1840 3363 2625
1930 3403 2844
2020 3442 3063
2109 3479 3251
2196 3508 3378
2282 3537 3505
2364 3558 3581
2444 3577 3633
2523 3595 3685
1368 3182 825
1421 3201 957
1475 3219 1088
1535 3243 1257
1610 3277 1503
1685 3311 1748
1767 3349 2013
1854 3388 2288
1942 3428 2563
2032 3463 2788
2122 3498 3014
2210 3530 3210
2296 3555 3346
2381 3581 3482
2462 3599 3565
2539 3614 3623
2616 3629 3680
1469 3259 816
1522 3277 939
1575 3295 1062
1635 3317 1222
1709 3348 1458
1783 3379 1694
1865 3412 1954
1952 3447 2227
2039 3482 2500
2128 3514 2732
2217 3545 2964
2305 3573 3167
2389 3596 3312
2473 3618 3458
2551 3634 3549
2627 3647 3612
2702 3659 3676
1577 3308 801
1626 3325 918
1676 3342 1034
1733 3363 1187
1805 3391 1414
1876 3420 1640
1957 3451 1896
2041 3483 2166
2126 3515 2436
2213 3545 2674
2301 3574 2911
2386 3601 3122
2468 3622 3277
2550 3643 3432
2626 3658 3531
2699 3669 3602
2772 3681 3672
1684 3356 786
1731 3373 897
1778 3389 1007
1832 3409 1153
1901 3435 1370
1970 3461 1587
2048 3489 1837
2130 3519 2105
2213 3549 2372
2298 3576 2616
2384 3603 2859
2468 3628 3077
2547 3648 3242
2627 3668 3407
2701 3682 3513
2772 3692 3591
2842 3702 3668
1767 3388 774
1810 3403 877
1853 3418 981
1904 3437 1120
1970 3460 1327
2036 3484 1535
2111 3511 1780
2191 3539 2044
2271 3567 2308
2355 3593 2557
2439 3619 2805
2521 3643 3029
2599 3663 3203
2677 3683 3378
2748 3695 3492
2816 3704 3577
2883 3714 3661
1839 3411 762
1877 3425 859
1916 3439 957
1962 3455 1088
2025 3478 1286
2087 3500 1484
2160 3525 1724
2238 3551 1984
2316 3578 2244
2398 3603 2497
2479 3629 2750
2559 3653 2980
2636 3672 3164
2712 3692 3348
2780 3704 3470
2845 3712 3561
2910 3720 3653
1911 3435 750
1944 3447 841
1978 3459 932
2020 3474 1056
2080 3495 1245
2139 3515 1433
2209 3538 1667
2284 3563 1923
2360 3588 2179
2440 3613 2437
2520 3638 2695
2598 3662 2931
2673 3681 3124
2747 3701 3318
2813 3712 3448
2875 3719 3546
2937 3727 3644
1713 820 394
1697 903 743
1681 986 1093
1664 1092 1442
1647 1243 1789
1630 1393 2136
1624 1567 2424
1625 1753 2683
1626 1938 2941
1649 2120 3097
1673 2301 3252
1702 2471 3382
1744 2616 3459
1785 2761 3537
1829 2872 3584
1875 2965 3616
1920 3059 3648
1577 1157 461
1574 1224 775
1570 1291 1089
1567 1380 1412
1563 1515 1754
1559 1649 2097
1566 1804 2388
1579 1970 2655
1591 2135 2922
1624 2295 3086
1657 2455 3251
1696 2605 3387
1745 2733 3468
1795 2861 3548
1847 2959 3596
1900 3043 3628
1954 3126 3660
1441 1494 529
1450 1544 807
1460 1595 1085
1469 1668 1383
1479 1787 1720
1489 1905 2057
1508 2041 2352
1532 2187 2628
1556 2332 2903
1599 2471 3076
1642 2610 3249
1689 2739 3393
1747 2850 3476
1804 2961 3560
1865 3047 3609
1926 3120 3641
1988 3193 3672
1332 1811 593
1352 1848 839
1373 1886 1084
1394 1945 1357
1416 2048 1687
1439 2150 2016
1470 2268 2313
1506 2394 2595
1541 2520 2877
1593 2639 3059
1645 2758 3240
1701 2869 3391
1765 2963 3478
1830 3058 3566
1897 3132 3617
1965 3196 3649
2033 3259 3682
1278 2090 650
1305 2120 870
1333 2150 1089
1362 2199 1340
1396 2286 1657
1430 2374 1973
1472 2475 2268
1518 2583 2552
1564 2691 2836
1624 2793 3026
1684 2895 3216
1747 2989 3374
1817 3070 3468
1887 3150 3562
1959 3213 3617
2031 3268 3651
2103 3322 3686
1224 2369 707
1258 2391 900
1293 2413 1093
1331 2452 1323
1376 2525 1627
1421 2597 1930
1474 2681 2222
1531 2772 2508
1587 2862 2794
1656 2947 2993
1724 3031 3192
1794 3110 3358
1870 3176 3458
1945 3243 3559
2020 3295 3617
2096 3340 3653
2172 3384 3690
1219 2584 745
1258 2603 918
1297 2621 1091
1341 2654 1304
1394 2715 1594
1448 2776 1885
1509 2847 2173
1573 2924 2459
1638 3001 2745
1712 3072 2951
1787 3144 3157
1862 3210 3331
1941 3266 3439
2020 3321 3547
2098 3365 3610
2175 3402 3650
2252 3439 3690
1238 2767 772
1281 2784 929
1324 2800 1086
1373 2829 1284
1432 2881 1561
1492 2932 1839
1560 2993 2121
1631 3058 2406
1703 3123 2691
1782 3184 2904
1861 3244 3118
1941 3300 3299
2022 3347 3415
2104 3393 3531
2183 3429 3599
2260 3459 3643
2338 3490 3688
1258 2950 799
1304 2965 940
1351 2980 1081
1404 3004 1264
1470 3046 1528
1536 3089 1793
1611 3139 2070
1689 3192 2353
1767 3245 2637
1852 3295 2858
1936 3345 3079
2020 3390 3267
2103 3427 3391
2187 3465 3516
2267 3493 3589
2346 3517 3637
2424 3541 3685
1330 3052 800
1378 3067 933
1425 3082 1065
1479 3105 1237
1547 3143 1491
1615 3181 1744
1692 3225 2016
1772 3273 2297
1853 3320 2577
1938 3364 2804
2024 3408 3031
2109 3448 3226
2193 3480 3360
2276 3513 3493
2356 3537 3573
2433 3557 3627
2510 3578 3681
1403 3154 802
1451 3169 925
1499 3185 1048
1555 3206 1211
1624 3240 1453
1694 3274 1696
1772 3312 1962
1855 3354 2240
1938 3395 2518
2025 3433 2751
2112 3471 2983
2198 3505 3186
2282 3533 3328
2365 3561 3470
2444 3582 3557
2520 3598 3617
2596 3615 3677
1483 3240 799
1531 3255 915
1579 3270 1030
1635 3291 1184
1705 3321 1415
1775 3351 1647
1855 3385 1908
1938 3421 2182
2022 3457 2457
2110 3491 2696
2197 3524 2934
2283 3554 3143
2367 3579 3295
2450 3603 3446
2527 3620 3541
2602 3634 3607
2677 3647 3673
1578 3292 789
1624 3307 898
1670 3323 1007
1724 3342 1154
1793 3370 1376
1861 3398 1598
1939 3429 1853
2022 3462 2124
2104 3496 2396
2191 3527 2639
2277 3557 2882
2362 3586 3098
2443 3608 3259
2525 3631 3419
2601 3647 3522
2674 3659 3595
2747 3671 3668
1673 3345 778
1717 3360 881
1762 3375 985
1813 3394 1125
1880 3419 1337
1947 3445 1549
2024 3473 1798
2105 3504 2066
2186 3534 2334
2271 3562 2582
2357 3591 2830
2440 3617 3052
2520 3638 3223
2601 3659 3393
2675 3673 3503
2746 3684 3584
2817 3695 3664
1756 3380 767
1797 3394 865
1838 3409 963
1886 3426 1095
1950 3449 1298
2015 3473 1501
2089 3500 1744
2168 3528 2007
2247 3556 2270
2331 3583 2523
2415 3610 2775
2497 3635 3003
2575 3655 3183
2654 3675 3363
2726 3689 3482
2795 3699 3570
2864 3709 3658
1833 3407 756
1870 3420 848
1906 3433 941
1951 3449 1067
2012 3470 1260
2073 3492 1452
2144 3517 1689
2221 3544 1948
2298 3570 2206
2380 3596 2462
2462 3622 2719
2542 3646 2953
2619 3666 3142
2696 3686 3332
2766 3699 3459
2833 3709 3554
2899 3718 3650
1910 3434 745
1943 3445 832
1975 3457 919
2015 3471 1038
2073 3491 1221
2131 3511 1404
2200 3535 1634
2274 3559 1888
2349 3584 2142
2429 3610 2402
2509 3635 2662
2588 3658 2902
2663 3678 3101
2739 3698 3300
2806 3710 3435
2870 3719 3539
2934 3728 3642
2174 790 340
2148 866 679
2123 941 1018
2094 1040 1358
2060 1183 1703
2025 1326 2047
2000 1496 2337
1981 1680 2600
1961 1863 2862
1965 2048 3026
1969 2233 3189
1980 2408 3327
2002 2561 3412
2025 2714 3497
2051 2831 3550
2079 2931 3588
2106 3031 3625
1998 1102 400
1985 1161 704
1973 1220 1008
1957 1303 1325
1937 1433 1666
1916 1563 2006
1904 1717 2301
1897 1883 2573
1891 2049 2845
1905 2215 3018
1919 2381 3190
1940 2537 3335
1972 2674 3423
2004 2810 3511
2039 2916 3565
2077 3006 3602
