Assets/1__3DArt/KimSe/artstation_asset/LUTs_pasterls/3DL/Candylandia 04.3dl
# Enhanced with VOXCOLOR algorithms
0 64 128 192 256 320 384 448 512 576 640 704 768 832 896 960 1023
626 1060 771
675 1182 1057
723 1305 1343
782 1435 1639
863 1582 1954
945 1728 2269
1012 1864 2550
1072 1995 2813
1132 2126 3076
1158 2222 3258
1185 2318 3439
1204 2401 3594
1208 2458 3695
1211 2516 3797
1210 2552 3856
1207 2577 3895
1204 2602 3934
463 1322 770
506 1433 1036
549 1545 1302
606 1665 1582
690 1803 1891
775 1940 2199
858 2069 2479
938 2193 2745
1019 2318 3011
1077 2410 3198
1134 2502 3385
1183 2581 3546
1215 2637 3654
1247 2693 3761
1268 2729 3828
1284 2755 3874
1299 2781 3919
300 1584 769
337 1684 1015
375 1785 1261
429 1895 1526
517 2024 1828
606 2152 2129
703 2274 2409
805 2392 2677
907 2510 2946
995 2597 3139
1083 2685 3332
1162 2762 3499
1222 2816 3612
1283 2870 3726
1326 2907 3799
1360 2934 3852
1394 2961 3905
176 1829 777
207 1918 1002
238 2007 1228
288 2107 1475
376 2226 1768
463 2345 2061
569 2459 2339
684 2571 2609
799 2682 2879
910 2766 3078
1021 2850 3277
1124 2923 3451
1210 2976 3571
1295 3029 3691
1358 3065 3771
1410 3093 3831
1463 3121 3891
128 2041 806
152 2117 1008
176 2193 1210
218 2281 1438
296 2390 1717
373 2499 1997
474 2605 2270
587 2710 2539
700 2815 2808
820 2896 3014
940 2976 3220
1054 3047 3401
1156 3098 3530
1258 3149 3658
1339 3185 3745
1408 3214 3812
1478 3243 3879
80 2253 835
97 2316 1013
114 2380 1192
148 2455 1400
216 2554 1666
283 2653 1933
379 2751 2200
490 2850 2469
600 2948 2737
729 3025 2950
858 3102 3163
983 3170 3351
1102 3220 3488
1221 3269 3625
1319 3305 3720
1406 3335 3793
1493 3365 3867
75 2426 878
86 2478 1034
97 2530 1190
124 2595 1377
184 2684 1627
244 2773 1877
335 2864 2136
442 2956 2400
550 3049 2665
682 3123 2884
814 3198 3103
944 3263 3298
1070 3312 3444
1196 3360 3590
1302 3396 3692
1398 3425 3773
1493 3454 3854
92 2579 928
97 2621 1062
103 2663 1196
124 2718 1363
177 2797 1594
229 2876 1825
316 2960 2074
420 3047 2333
524 3133 2591
656 3206 2816
789 3278 3041
920 3342 3242
1049 3390 3398
1178 3437 3554
1287 3472 3664
1386 3500 3752
1486 3528 3840
109 2732 979
108 2764 1091
108 2796 1203
123 2841 1348
169 2910 1561
215 2979 1773
297 3056 2012
397 3137 2265
498 3218 2518
631 3288 2748
764 3358 2979
897 3420 3187
1028 3467 3352
1160 3514 3517
1272 3548 3636
1375 3575 3731
1478 3602 3826
177 2835 1037
171 2861 1131
166 2886 1224
176 2924 1350
217 2983 1542
259 3043 1733
339 3114 1959
438 3189 2202
537 3265 2444
670 3334 2677
804 3403 2911
935 3465 3125
1064 3513 3300
1192 3560 3476
1299 3593 3603
1395 3619 3706
1491 3645 3809
245 2938 1096
234 2957 1171
223 2977 1246
228 3006 1353
266 3057 1523
303 3108 1694
381 3171 1906
479 3242 2138
577 3312 2370
710 3380 2607
843 3448 2843
974 3510 3062
1099 3558 3248
1225 3607 3434
1326 3639 3571
1416 3664 3682
1505 3688 3793
325 3028 1152
308 3041 1210
292 3055 1268
292 3079 1357
324 3121 1507
357 3163 1658
431 3220 1855
527 3285 2076
623 3349 2297
756 3417 2536
890 3485 2774
1019 3546 2998
1143 3596 3195
1267 3646 3391
1363 3678 3536
1445 3702 3656
1527 3725 3776
426 3092 1203
405 3101 1248
384 3111 1292
378 3129 1366
404 3164 1496
430 3199 1627
500 3250 1810
593 3309 2018
685 3369 2226
817 3436 2464
950 3503 2703
1080 3565 2930
1204 3618 3137
1327 3670 3344
1418 3703 3499
1492 3726 3627
1566 3750 3756
527 3156 1254
501 3162 1285
475 3167 1316
464 3180 1374
484 3208 1486
504 3235 1597
569 3280 1764
658 3334 1959
746 3388 2155
878 3455 2393
1011 3521 2632
1141 3584 2863
1264 3639 3080
1388 3694 3297
1473 3728 3461
1539 3751 3599
1605 3774 3737
606 3194 1286
578 3197 1309
551 3200 1332
537 3210 1379
550 3232 1474
564 3254 1570
622 3294 1724
704 3343 1906
785 3393 2089
915 3459 2326
1046 3525 2563
1175 3588 2796
1300 3646 3021
1425 3705 3247
1508 3740 3420
1570 3764 3566
1631 3789 3713
672 3219 1310
646 3220 1326
619 3222 1342
603 3229 1381
610 3247 1463
617 3264 1544
667 3300 1685
740 3345 1856
813 3390 2027
940 3455 2261
1067 3521 2495
1195 3585 2729
1323 3647 2963
1450 3708 3196
1532 3746 3377
1592 3771 3532
1651 3797 3687
739 3244 1333
713 3244 1343
687 3244 1353
670 3248 1383
670 3261 1451
669 3274 1519
712 3306 1647
776 3346 1806
840 3387 1964
965 3452 2196
1089 3517 2427
1215 3582 2663
1346 3647 2904
1476 3712 3146
1557 3751 3335
1614 3779 3498
1670 3806 3661
1194 1085 779
1221 1186 1062
1247 1287 1344
1281 1397 1637
1329 1525 1950
1378 1653 2264
1415 1775 2544
1448 1894 2808
1481 2013 3072
1489 2105 3255
1498 2196 3438
1501 2276 3594
1492 2335 3698
1483 2393 3802
1472 2433 3863
1459 2463 3904
1446 2492 3946
992 1326 773
1017 1417 1034
1042 1508 1295
1077 1610 1571
1132 1732 1878
1186 1855 2185
1239 1973 2465
1292 2089 2733
1345 2204 3000
1381 2294 3190
1418 2383 3380
1448 2462 3543
1466 2519 3654
1484 2577 3764
1493 2616 3833
1498 2646 3880
1503 2676 3928
790 1567 767
814 1648 1007
838 1729 1246
873 1822 1506
934 1939 1806
994 2056 2106
1063 2170 2387
1136 2283 2657
1208 2395 2928
1273 2483 3125
1338 2570 3322
1396 2647 3492
1441 2704 3610
1485 2760 3727
1515 2799 3802
1537 2830 3856
1560 2861 3911
621 1798 772
642 1869 990
663 1940 1207
698 2024 1449
760 2134 1741
822 2244 2032
901 2353 2311
988 2462 2583
1074 2570 2856
1162 2656 3060
1249 2741 3264
1330 2816 3441
1398 2871 3565
1466 2927 3690
1516 2966 3772
1556 2997 3833
1596 3028 3895
518 2007 800
533 2068 995
549 2129 1189
578 2203 1411
635 2304 1689
691 2405 1966
769 2508 2239
857 2611 2511
945 2714 2782
1044 2796 2993
1142 2878 3204
1237 2951 3389
1323 3005 3522
1409 3059 3655
1476 3098 3744
1534 3129 3813
1593 3161 3881
415 2217 828
425 2267 1000
435 2317 1171
458 2382 1373
509 2474 1637
560 2567 1900
636 2662 2168
726 2760 2438
815 2857 2709
925 2937 2927
1035 3016 3144
1143 3086 3337
1247 3139 3478
1351 3192 3619
1437 3231 3717
1513 3262 3792
1589 3294 3868
360 2391 871
365 2433 1021
370 2475 1170
388 2530 1352
434 2613 1598
479 2697 1845
554 2786 2104
643 2877 2370
733 2969 2635
848 3046 2859
964 3123 3082
1079 3191 3282
1192 3243 3432
1305 3295 3582
1401 3332 3688
1487 3363 3770
1573 3394 3853
330 2548 921
330 2582 1050
330 2616 1178
343 2663 1340
384 2737 1567
424 2811 1795
496 2893 2043
585 2979 2303
673 3065 2562
792 3140 2791
911 3214 3019
1029 3281 3225
1147 3331 3385
1266 3382 3545
1366 3419 3658
1458 3449 3748
1550 3479 3838
300 2704 972
295 2731 1079
290 2757 1186
298 2797 1327
334 2861 1536
369 2926 1745
439 3001 1983
527 3081 2236
614 3162 2489
736 3234 2723
857 3306 2956
979 3370 3168
1103 3420 3338
1226 3470 3507
1332 3506 3628
1430 3534 3725
1527 3563 3823
334 2811 1030
324 2833 1120
314 2854 1209
317 2887 1332
349 2943 1520
381 3000 1708
450 3068 1932
538 3143 2174
625 3218 2417
748 3289 2653
871 3359 2888
994 3423 3106
1116 3473 3285
1238 3523 3464
1341 3558 3594
1433 3586 3700
1526 3613 3805
368 2918 1088
353 2934 1160
337 2951 1232
337 2978 1336
365 3026 1504
394 3074 1671
462 3136 1881
549 3205 2113
636 3274 2344
761 3344 2583
885 3413 2821
1008 3476 3043
1129 3527 3232
1251 3577 3422
1349 3611 3560
1437 3637 3674
1524 3663 3788
416 3012 1144
397 3024 1200
377 3035 1256
372 3056 1342
396 3097 1490
421 3137 1637
486 3193 1833
572 3256 2053
659 3320 2273
784 3388 2513
910 3457 2752
1034 3519 2978
1155 3571 3177
1275 3622 3377
1370 3656 3525
1452 3681 3647
1533 3706 3769
495 3079 1195
471 3087 1238
447 3095 1282
437 3112 1353
456 3145 1481
475 3179 1610
537 3229 1790
621 3287 1997
704 3345 2203
830 3413 2442
957 3480 2681
1081 3543 2910
1203 3597 3119
1324 3650 3328
1415 3685 3486
1489 3710 3618
1564 3734 3749
574 3145 1246
545 3150 1277
517 3155 1307
503 3168 1364
516 3194 1473
530 3220 1582
588 3264 1747
669 3317 1940
749 3370 2134
876 3437 2372
1003 3503 2610
1129 3567 2841
1251 3623 3060
1373 3679 3280
1459 3714 3447
1527 3738 3588
1594 3763 3729
642 3187 1281
613 3190 1303
584 3193 1325
568 3202 1371
575 3223 1464
583 3244 1557
635 3283 1708
710 3331 1888
784 3379 2068
909 3445 2304
1035 3511 2539
1160 3574 2772
1285 3633 3000
1409 3692 3227
1494 3729 3404
1558 3755 3555
1622 3781 3706
706 3216 1306
678 3218 1323
650 3219 1339
633 3226 1376
634 3242 1455
636 3259 1534
681 3294 1672
747 3337 1838
813 3381 2005
936 3445 2237
1058 3510 2469
1183 3574 2702
1311 3636 2938
1438 3698 3174
1523 3738 3359
1586 3766 3520
1648 3794 3681
769 3245 1332
743 3245 1343
716 3245 1353
697 3249 1381
693 3262 1446
689 3274 1511
726 3304 1635
784 3343 1788
842 3382 1942
962 3446 2171
1082 3509 2399
1206 3574 2633
1337 3639 2876
1468 3705 3120
1552 3746 3315
1613 3776 3485
1675 3806 3656
1761 1110 787
1767 1190 1066
1772 1270 1346
1780 1359 1636
1795 1469 1947
1811 1579 2258
1819 1687 2538
1825 1794 2803
1830 1901 3067
1820 1988 3252
1810 2074 3437
1797 2152 3595
1776 2212 3701
1755 2271 3807
1733 2314 3870
1711 2349 3914
1688 2383 3957
1521 1330 776
1529 1401 1032
1536 1472 1288
1549 1554 1561
1573 1662 1866
1596 1769 2171
1621 1877 2452
1645 1984 2720
1670 2091 2989
1686 2178 3182
1702 2265 3374
1714 2342 3541
1717 2401 3654
1721 2461 3767
1718 2503 3838
1712 2537 3887
1707 2572 3937
1281 1551 766
1291 1612 998
1300 1674 1231
1318 1750 1486
1350 1855 1785
1382 1960 2083
1422 2066 2365
1466 2174 2637
1510 2281 2910
1552 2368 3111
1593 2455 3312
1630 2532 3486
1659 2591 3607
1687 2650 3727
1703 2692 3805
1714 2726 3861
1725 2760 3917
1067 1767 768
1078 1819 977
1088 1872 1187
1107 1941 1423
1144 2042 1713
1182 2143 2002
1233 2247 2282
1292 2353 2557
1350 2459 2833
1413 2545 3041
1477 2631 3250
1536 2708 3432
1587 2767 3560
1638 2825 3688
1673 2867 3773
1702 2900 3836
1730 2934 3899
909 1973 795
915 2019 982
922 2064 1169
938 2125 1385
973 2218 1660
1009 2312 1935
1063 2410 2209
1127 2511 2483
1190 2612 2756
1268 2696 2972
1345 2780 3188
1419 2855 3377
1489 2913 3514
1559 2970 3651
1614 3011 3743
1661 3045 3813
1707 3078 3884
750 2180 822
753 2218 986
756 2255 1151
769 2309 1347
802 2395 1607
836 2480 1868
893 2573 2136
962 2670 2408
1031 2766 2680
1122 2848 2903
1212 2929 3125
1303 3002 3322
1392 3059 3468
1481 3115 3614
1554 3156 3714
1620 3189 3791
1685 3223 3868
645 2356 865
644 2388 1008
643 2419 1151
653 2466 1327
684 2543 1570
715 2621 1813
773 2707 2072
844 2798 2339
916 2889 2606
1015 2969 2834
1114 3048 3062
1213 3119 3266
1314 3174 3420
1414 3229 3575
1499 3269 3683
1575 3302 3768
1652 3334 3852
568 2517 915
563 2543 1037
557 2569 1160
563 2609 1317
591 2678 1541
619 2747 1765
677 2827 2013
750 2912 2273
823 2998 2533
928 3074 2765
1032 3151 2998
1138 3220 3208
1245 3273 3372
1353 3327 3536
1445 3366 3652
1530 3398 3744
1614 3429 3836
492 2677 965
481 2698 1067
471 2718 1169
473 2752 1306
498 2813 1511
523 2873 1716
581 2947 1953
656 3026 2207
730 3106 2460
840 3180 2697
950 3254 2934
1062 3321 3150
1177 3373 3323
1292 3426 3497
1392 3463 3621
1484 3494 3720
1576 3524 3819
491 2788 1023
476 2805 1108
461 2822 1194
459 2851 1313
482 2903 1497
504 2956 1682
562 3023 1905
637 3097 2147
713 3171 2389
826 3243 2628
939 3316 2866
1052 3381 3086
1168 3434 3270
1284 3486 3453
1382 3523 3586
1471 3552 3693
1560 3581 3801
490 2899 1080
471 2912 1149
452 2925 1218
445 2949 1319
465 2994 1484
485 3039 1648
543 3100 1857
619 3168 2088
696 3237 2318
811 3307 2559
927 3378 2799
1043 3442 3023
1160 3495 3216
1276 3547 3409
1372 3583 3550
1458 3610 3666
1543 3637 3782
508 2996 1136
485 3006 1190
461 3015 1244
451 3034 1328
468 3072 1472
484 3111 1617
541 3165 1811
617 3228 2030
694 3291 2249
812 3360 2489
930 3428 2730
1048 3492 2958
1166 3545 3160
1283 3598 3363
1377 3634 3513
1458 3660 3638
1540 3686 3763
564 3066 1187
537 3073 1229
510 3079 1271
496 3095 1340
508 3126 1466
520 3158 1592
574 3207 1771
649 3264 1976
723 3322 2181
843 3389 2420
963 3457 2659
1083 3521 2889
1202 3576 3101
1321 3631 3313
1411 3667 3473
1486 3693 3608
1561 3719 3742
620 3135 1239
589 3139 1268
559 3144 1298
541 3155 1353
548 3180 1460
556 3206 1567
607 3249 1730
680 3301 1921
752 3353 2112
874 3419 2350
996 3486 2588
1117 3549 2820
1238 3606 3041
1359 3663 3263
1445 3700 3433
1514 3725 3577
1583 3751 3722
679 3180 1275
648 3183 1296
618 3186 1318
598 3194 1363
600 3214 1454
603 3234 1545
648 3272 1693
716 3319 1870
783 3366 2047
903 3432 2282
1024 3497 2516
1145 3560 2749
1270 3620 2978
1394 3680 3208
1479 3718 3388
1546 3746 3543
1613 3773 3699
739 3213 1303
711 3215 1319
682 3216 1335
662 3222 1371
659 3238 1447
656 3254 1524
694 3287 1658
754 3329 1821
813 3371 1984
931 3435 2214
1049 3499 2443
1171 3563 2676
1299 3626 2913
1426 3689 3151
1513 3730 3341
1580 3760 3508
1646 3790 3675
800 3246 1332
773 3247 1342
746 3247 1352
725 3251 1379
717 3262 1441
708 3274 1503
740 3302 1622
792 3339 1771
844 3376 1920
960 3439 2145
1075 3501 2371
1196 3565 2603
1327 3631 2848
1459 3698 3094
1547 3741 3294
1613 3774 3473
1679 3807 3651
2272 1136 801
2262 1198 1075
2252 1260 1350
2242 1332 1636
2233 1424 1945
2224 1516 2253
2211 1609 2532
2196 1703 2796
2182 1796 3060
2158 1876 3246
2134 1955 3432
2108 2027 3592
2078 2085 3699
2048 2143 3806
2018 2188 3872
1988 2225 3917
1958 2263 3962
2013 1339 785
2008 1392 1036
2002 1445 1286
1998 1511 1554
1998 1603 1856
1999 1695 2159
2001 1790 2439
2003 1887 2708
2006 1983 2977
2005 2065 3172
2004 2146 3366
2000 2220 3535
1992 2279 3650
1984 2338 3766
1971 2382 3838
1956 2418 3890
