Assets/1__3DArt/KimSe/artstation_asset/LUTs_pasterls/3DL/Candylandia 02 S.3dl
# Enhanced with VOXCOLOR algorithms
0 64 128 192 256 320 384 448 512 576 640 704 768 832 896 960 1023
674 899 530
688 998 893
701 1096 1257
722 1216 1616
759 1381 1966
796 1546 2316
846 1726 2598
903 1913 2847
959 2100 3096
1032 2271 3237
1106 2441 3377
1182 2598 3491
1266 2726 3553
1350 2855 3616
1435 2952 3651
1521 3034 3672
1606 3115 3694
666 1288 611
689 1372 938
711 1456 1265
741 1559 1597
786 1701 1938
832 1842 2279
889 1996 2563
953 2156 2817
1017 2316 3072
1095 2461 3220
1174 2607 3368
1256 2740 3488
1343 2851 3554
1431 2961 3619
1519 3044 3656
1606 3115 3678
1694 3186 3700
658 1678 692
689 1747 983
721 1817 1274
760 1902 1579
814 2020 1911
867 2138 2243
932 2266 2527
1003 2399 2788
1074 2532 3048
1158 2652 3204
1242 2773 3359
1329 2883 3486
1420 2975 3554
1511 3066 3623
1602 3136 3661
1692 3197 3683
1783 3257 3706
671 2025 760
711 2082 1019
751 2139 1277
798 2209 1557
859 2306 1879
919 2403 2201
991 2508 2485
1069 2618 2751
1146 2727 3016
1235 2826 3179
1323 2924 3342
1414 3015 3476
1507 3089 3549
1601 3164 3622
1694 3223 3662
1786 3273 3685
1878 3323 3709
729 2289 803
775 2337 1036
820 2384 1269
873 2444 1528
939 2526 1839
1006 2608 2150
1083 2697 2432
1165 2790 2699
1247 2882 2967
1339 2964 3138
1430 3047 3310
1522 3123 3451
1617 3185 3530
1711 3248 3610
1804 3297 3654
1895 3339 3681
1987 3382 3708
787 2553 846
838 2591 1053
889 2630 1261
948 2678 1499
1020 2746 1799
1093 2813 2099
1175 2886 2379
1262 2961 2648
1349 3037 2918
1443 3103 3098
1537 3170 3277
1631 3231 3426
1726 3281 3512
1822 3332 3598
1914 3371 3647
2005 3406 3676
2096 3440 3706
874 2743 864
929 2775 1053
984 2808 1242
1046 2849 1464
1122 2907 1753
1199 2964 2042
1284 3026 2319
1373 3090 2590
1463 3153 2861
1558 3209 3049
1653 3265 3236
1748 3316 3392
1843 3358 3486
1938 3400 3580
2029 3433 3634
2118 3461 3668
2208 3489 3702
976 2896 870
1034 2924 1044
1091 2953 1217
1156 2989 1425
1235 3039 1704
1314 3088 1983
1401 3142 2256
1492 3196 2528
1583 3251 2800
1679 3299 2995
1775 3346 3190
1870 3390 3355
1963 3425 3457
2057 3460 3560
2147 3487 3620
2234 3511 3659
2322 3534 3697
1078 3049 877
1138 3073 1034
1199 3098 1192
1266 3128 1387
1348 3170 1655
1429 3213 1923
1518 3257 2194
1611 3303 2466
1704 3349 2738
1800 3388 2941
1896 3428 3145
1991 3463 3317
2084 3492 3428
2176 3520 3539
2264 3542 3605
2350 3561 3649
2435 3580 3692
1200 3130 861
1260 3153 1010
1321 3176 1159
1388 3204 1344
1469 3242 1603
1549 3281 1862
1637 3321 2129
1729 3363 2400
1821 3404 2672
1915 3440 2883
2009 3476 3094
2102 3508 3274
2193 3534 3395
2283 3559 3516
2369 3579 3589
2452 3595 3638
2536 3612 3688
1322 3211 845
1383 3232 985
1443 3254 1125
1510 3280 1301
1590 3314 1551
1669 3349 1800
1756 3385 2064
1847 3423 2335
1937 3460 2606
2030 3492 2824
2123 3524 3043
2214 3553 3232
2302 3576 3362
2390 3599 3492
2474 3616 3572
2555 3630 3628
2637 3644 3684
1442 3279 828
1501 3300 960
1561 3320 1091
1627 3344 1259
1705 3375 1499
1783 3406 1739
1868 3439 1999
1957 3473 2270
2045 3506 2540
2136 3535 2765
2227 3565 2991
2316 3591 3188
2402 3612 3328
2488 3633 3468
2569 3647 3556
2648 3659 3618
2727 3671 3680
1557 3323 808
1614 3342 933
1670 3361 1058
1733 3384 1218
1808 3412 1450
1883 3441 1681
1965 3471 1937
2050 3503 2205
2136 3534 2474
2224 3562 2706
2312 3590 2938
2398 3615 3143
2481 3635 3293
2565 3655 3443
2644 3669 3539
2721 3680 3607
2797 3690 3676
1673 3367 788
1726 3385 906
1780 3403 1025
1839 3424 1178
1911 3450 1400
1982 3476 1622
2061 3504 1874
2144 3533 2141
2226 3562 2408
2311 3588 2647
2397 3615 2886
2480 3639 3098
2561 3658 3259
2642 3677 3419
2719 3690 3522
2793 3700 3597
2868 3709 3672
1761 3396 775
1809 3412 886
1857 3428 997
1912 3447 1142
1980 3471 1355
2049 3495 1568
2125 3522 1815
2205 3549 2079
2285 3577 2343
2368 3602 2588
2452 3628 2833
2533 3651 3053
2612 3670 3222
2690 3689 3392
2763 3701 3502
2833 3710 3584
2903 3718 3665
1836 3416 765
1878 3431 868
1919 3445 971
1968 3462 1108
2033 3485 1311
2098 3507 1515
2172 3532 1757
2250 3558 2018
2328 3584 2280
2410 3610 2530
2491 3635 2780
2571 3658 3006
2647 3677 3185
2723 3696 3364
2791 3708 3481
2856 3715 3568
2921 3722 3655
1911 3437 755
1946 3449 850
1981 3462 946
2025 3477 1074
2086 3498 1268
2147 3519 1462
2219 3542 1699
2295 3567 1958
2371 3592 2216
2451 3617 2472
2531 3642 2727
2609 3665 2960
2682 3684 3148
2756 3704 3336
2820 3714 3460
2879 3720 3553
2939 3726 3645
1194 860 462
1191 949 818
1188 1039 1174
1189 1152 1528
1199 1309 1876
1208 1467 2225
1231 1644 2510
1260 1830 2764
1289 2017 3018
1338 2194 3166
1388 2370 3314
1441 2533 3436
1504 2671 3506
1567 2808 3576
1632 2912 3617
1698 3000 3644
1763 3087 3671
1115 1218 534
1122 1292 855
1128 1365 1175
1139 1459 1503
1159 1596 1843
1180 1734 2184
1213 1889 2472
1253 2052 2732
1293 2216 2993
1351 2370 3150
1409 2525 3306
1471 2668 3435
1541 2789 3509
1611 2909 3583
1682 3001 3626
1753 3079 3653
1824 3156 3680
1037 1577 606
1052 1634 891
1068 1690 1176
1089 1767 1477
1120 1884 1810
1152 2001 2143
1196 2133 2433
1246 2274 2700
1297 2415 2968
1364 2547 3133
1431 2680 3299
1501 2803 3435
1578 2907 3512
1655 3010 3590
1732 3090 3634
1808 3157 3661
1885 3225 3689
985 1905 670
1009 1948 923
1033 1990 1176
1062 2051 1453
1104 2150 1777
1145 2248 2101
1199 2360 2390
1259 2480 2663
1319 2600 2936
1394 2713 3110
1469 2825 3284
1547 2930 3427
1629 3018 3509
1712 3107 3592
1793 3175 3638
1875 3233 3667
1956 3291 3695
985 2173 718
1016 2206 946
1046 2239 1173
1083 2289 1429
1133 2373 1741
1183 2456 2053
1245 2552 2341
1313 2655 2615
1380 2758 2890
1461 2855 3072
1541 2952 3254
1624 3042 3405
1710 3118 3494
1795 3194 3583
1879 3252 3634
1962 3302 3665
2045 3352 3697
986 2441 766
1023 2465 969
1060 2488 1171
1104 2527 1406
1162 2596 1706
1221 2664 2006
1290 2744 2291
1366 2830 2568
1441 2916 2845
1527 2997 3035
1614 3079 3225
1701 3154 3384
1790 3218 3480
1879 3281 3575
1965 3330 3630
2049 3371 3664
2134 3412 3698
1027 2642 793
1070 2661 977
1112 2680 1160
1161 2712 1378
1225 2769 1667
1289 2827 1956
1364 2896 2237
1445 2969 2514
1525 3043 2792
1614 3112 2990
1704 3182 3188
1793 3247 3354
1884 3300 3457
1974 3354 3560
2061 3395 3620
2145 3430 3658
2230 3464 3696
1090 2811 810
1136 2826 977
1182 2842 1145
1236 2869 1349
1304 2919 1626
1373 2968 1904
1452 3027 2181
1536 3090 2458
1620 3154 2735
1711 3214 2940
1803 3274 3146
1894 3329 3320
1985 3374 3431
2076 3420 3542
2162 3454 3608
2246 3483 3650
2330 3512 3693
1152 2979 826
1202 2992 978
1253 3005 1130
1310 3027 1320
1383 3068 1586
1456 3109 1852
1539 3158 2125
1627 3211 2402
1715 3264 2679
1808 3315 2891
1902 3365 3104
1995 3411 3286
2086 3449 3405
2177 3486 3524
2263 3514 3595
2346 3537 3642
2430 3560 3689
1251 3074 820
1303 3087 963
1354 3100 1106
1413 3121 1286
1487 3158 1542
1560 3196 1798
1643 3240 2067
1731 3287 2342
1819 3334 2617
1911 3379 2837
2004 3424 3056
2096 3465 3245
2185 3498 3373
2275 3531 3502
2359 3555 3580
2441 3575 3632
2523 3595 3685
1351 3169 814
1403 3182 948
1456 3196 1081
1516 3216 1252
1590 3249 1498
1664 3282 1744
1747 3321 2008
1835 3363 2282
1922 3405 2556
2014 3444 2782
2106 3483 3008
2197 3518 3204
2285 3547 3342
2373 3576 3479
2455 3596 3564
2536 3613 3622
2616 3629 3681
1452 3250 805
1505 3263 931
1558 3277 1056
1618 3296 1218
1692 3326 1454
1765 3356 1690
1848 3390 1950
1934 3427 2222
2021 3464 2494
2111 3498 2726
2202 3533 2959
2291 3564 3162
2377 3589 3309
2463 3614 3455
2544 3632 3547
2623 3646 3612
2701 3659 3676
1558 3301 791
1609 3315 910
1660 3330 1029
1718 3348 1183
1790 3376 1410
1861 3403 1637
1941 3435 1892
2025 3469 2162
2109 3502 2431
2197 3534 2669
2285 3565 2907
2372 3594 3118
2456 3617 3274
2539 3640 3430
2618 3656 3530
2695 3669 3601
2771 3681 3673
1664 3353 777
1713 3368 889
1762 3382 1001
1818 3400 1149
1887 3426 1366
1957 3451 1584
2034 3480 1835
2116 3510 2102
2197 3541 2369
2283 3569 2612
2368 3598 2856
2452 3624 3073
2534 3645 3239
2616 3666 3405
2692 3681 3512
2767 3691 3590
2841 3702 3669
1752 3387 767
1797 3401 872
1842 3415 977
1894 3432 1117
1960 3456 1325
2026 3479 1533
2101 3506 1778
2181 3534 2042
2260 3562 2305
2344 3589 2554
2427 3616 2802
2509 3641 3027
2588 3661 3202
2667 3681 3377
2741 3695 3492
2812 3704 3577
2883 3714 3662
1831 3411 758
1871 3424 857
1910 3437 955
1957 3453 1086
2020 3475 1285
2083 3497 1483
2155 3522 1723
2233 3549 1982
2310 3575 2242
2392 3601 2495
2474 3627 2749
2554 3651 2979
2631 3671 3163
2707 3691 3347
2777 3703 3470
2843 3712 3561
2910 3720 3653
1911 3435 750
1944 3447 841
1978 3459 932
2020 3474 1056
2080 3495 1245
2139 3515 1433
2209 3538 1667
2284 3563 1923
2360 3588 2179
2440 3613 2437
2520 3638 2695
2598 3662 2931
2673 3681 3124
2747 3701 3318
2813 3712 3448
2875 3719 3546
2937 3727 3644
1713 820 394
1694 901 743
1675 983 1092
1656 1087 1440
1638 1237 1787
1620 1387 2134
1616 1561 2422
1618 1748 2681
1619 1934 2939
1644 2116 3095
1670 2299 3251
1700 2469 3381
1742 2615 3459
1784 2761 3537
1829 2872 3584
1875 2965 3616
1920 3059 3648
1565 1148 457
1555 1211 771
1545 1273 1085
1537 1359 1408
1532 1492 1749
1528 1625 2089
1537 1781 2380
1553 1948 2647
1569 2116 2913
1607 2279 3079
1645 2443 3245
1687 2596 3382
1739 2727 3464
1792 2858 3547
1845 2958 3595
1900 3042 3628
1954 3126 3660
1416 1476 521
1416 1520 800
1415 1564 1079
1417 1632 1376
1427 1748 1710
1436 1864 2044
1459 2001 2339
1489 2149 2613
1519 2297 2888
1569 2442 3063
1619 2587 3238
1674 2722 3383
1736 2838 3470
1799 2954 3556
1862 3043 3607
1925 3118 3640
1988 3193 3672
1298 1785 581
1306 1814 828
1314 1842 1075
1327 1894 1348
1349 1993 1674
1371 2093 2000
1407 2213 2296
1450 2342 2576
1492 2472 2856
1554 2599 3041
1615 2727 3225
1680 2845 3378
1751 2947 3470
1823 3049 3561
1893 3127 3614
1963 3193 3648
2033 3259 3682
1241 2057 634
1257 2076 856
1272 2094 1078
1294 2135 1330
1327 2219 1643
1360 2304 1957
1406 2407 2249
1460 2521 2531
1513 2634 2814
1583 2746 3006
1653 2857 3199
1725 2962 3360
1802 3051 3458
1879 3140 3557
1954 3207 3614
2028 3265 3650
2102 3322 3686
1184 2329 687
1207 2338 884
1231 2347 1081
1261 2376 1312
1305 2445 1613
1349 2515 1913
1406 2602 2203
1470 2699 2487
1534 2795 2771
1612 2892 2972
1690 2988 3173
1770 3078 3342
1853 3154 3447
1936 3230 3552
2016 3288 3613
2094 3336 3651
2172 3384 3690
1181 2542 723
1210 2547 901
1239 2551 1078
1276 2574 1293
1328 2632 1581
1380 2690 1869
1444 2765 2154
1516 2849 2438
1587 2932 2722
1670 3015 2931
1754 3099 3139
1838 3177 3316
1924 3243 3428
2010 3308 3540
2092 3357 3606
2172 3398 3648
2252 3439 3690
1204 2726 749
1238 2728 911
1273 2731 1073
1315 2750 1273
1374 2799 1549
1432 2848 1825
1502 2912 2105
1579 2984 2388
1656 3056 2671
1743 3128 2886
1831 3201 3101
1918 3268 3285
2006 3324 3405
2094 3380 3525
2177 3422 3596
2257 3456 3642
2338 3490 3688
1227 2909 776
1267 2910 922
1306 2911 1068
1355 2925 1254
1419 2965 1517
1484 3006 1780
1561 3059 2056
1643 3120 2338
1725 3180 2619
1817 3241 2841
1908 3302 3063
1998 3359 3254
2088 3405 3382
2178 3452 3510
2262 3486 3586
2343 3513 3636
2424 3540 3686
1303 3018 779
1345 3021 916
1388 3024 1053
1438 3038 1228
1505 3074 1481
1572 3110 1734
1649 3158 2004
1733 3211 2284
1817 3265 2563
1907 3318 2791
1998 3372 3018
2089 3421 3215
2177 3462 3352
2266 3502 3488
2349 3531 3570
2429 3554 3626
2510 3578 3681
1379 3127 783
1424 3132 910
1469 3137 1037
1522 3151 1203
1591 3183 1445
1659 3215 1688
1738 3257 1953
1823 3303 2230
1908 3349 2507
1998 3395 2740
2089 3441 2973
2179 3483 3177
2267 3518 3321
2355 3553 3466
2437 3577 3555
2516 3596 3616
2595 3615 3677
1462 3220 783
1509 3227 901
1555 3234 1020
1609 3248 1177
1679 3277 1409
1748 3305 1641
1828 3342 1901
1912 3382 2175
1997 3422 2449
2087 3461 2688
2177 3501 2926
2266 3537 3136
2353 3567 3289
2439 3596 3443
2520 3616 3539
2598 3632 3606
2676 3647 3673
1559 3279 774
1604 3288 887
1650 3298 999
1704 3313 1148
1771 3339 1371
1839 3366 1593
1917 3399 1848
2000 3435 2119
2083 3471 2389
2171 3506 2633
2259 3541 2876
2345 3573 3092
2430 3600 3254
2514 3626 3417
2593 3644 3520
2669 3657 3595
2745 3671 3669
1655 3339 766
1700 3350 872
1745 3361 978
1798 3377 1120
1864 3402 1333
1931 3427 1546
2007 3456 1795
2088 3488 2062
2168 3520 2329
2254 3550 2577
2340 3581 2826
2425 3610 3048
2507 3633 3219
2589 3656 3391
2666 3671 3502
2740 3683 3584
2815 3695 3665
1743 3377 759
1785 3389 858
1826 3401 958
1876 3417 1092
1940 3440 1295
2004 3463 1498
2077 3490 1741
2156 3519 2004
2235 3548 2267
2319 3576 2520
2403 3605 2772
2485 3631 3001
2565 3652 3181
2645 3674 3362
2719 3688 3481
2791 3698 3570
2862 3709 3658
1827 3405 752
1864 3417 845
1901 3429 938
1946 3444 1065
2006 3466 1258
2067 3487 1451
2139 3512 1688
2215 3539 1946
2292 3566 2205
2374 3593 2461
2456 3620 2717
2536 3644 2951
2614 3665 3141
2692 3686 3331
2763 3699 3458
2831 3709 3554
2898 3718 3650
1910 3434 745
1943 3445 832
1975 3457 919
2015 3471 1038
2073 3491 1221
2131 3511 1404
2200 3535 1635
2274 3560 1888
2348 3585 2142
2429 3610 2402
2509 3635 2662
2588 3658 2902
2663 3678 3101
2739 3698 3300
2806 3710 3435
2870 3719 3539
2934 3728 3642
2174 790 340
2143 862 678
2112 934 1016
2079 1030 1356
2043 1172 1699
2008 1314 2043
1984 1485 2333
1967 1670 2596
1950 1854 2859
1957 2042 3023
1963 2229 3187
1976 2405 3325
2000 2559 3411
2024 2713 3497
2050 2831 3550
2078 2931 3587
2106 3031 3625
1977 1088 393
1953 1140 698
1930 1192 1002
1907 1269 1318
1885 1396 1657
1864 1524 1995
1856 1679 2289
1855 1848 2560
1853 2017 2831
1875 2189 3006
1897 2361 3180
1924 2522 3327
1961 2663 3418
1999 2805 3508
2037 2913 3564
2076 3004 3602
