Assets/1__3DArt/KimSe/artstation_asset/LUTs_pasterls/3DL/Candylandia 03.3dl
# Enhanced with VOXCOLOR algorithms
0 64 128 192 256 320 384 448 512 576 640 704 768 832 896 960 1023
707 947 931
673 990 1083
640 1033 1235
609 1074 1393
582 1111 1561
555 1148 1730
536 1182 1889
521 1215 2044
507 1248 2199
504 1275 2323
501 1303 2446
500 1328 2557
504 1349 2642
507 1370 2726
509 1386 2784
512 1400 2829
514 1413 2875
660 1170 1038
635 1214 1186
609 1258 1334
585 1301 1489
566 1342 1656
547 1382 1823
535 1419 1982
526 1454 2136
517 1490 2291
517 1518 2414
517 1547 2538
518 1573 2648
522 1594 2733
526 1616 2818
529 1632 2879
532 1646 2927
535 1661 2975
614 1392 1144
596 1438 1289
578 1483 1433
562 1528 1584
551 1572 1750
540 1616 1916
534 1656 2074
531 1694 2229
528 1732 2383
530 1761 2506
532 1791 2629
535 1818 2739
540 1840 2825
544 1861 2910
548 1878 2973
552 1893 3024
556 1908 3075
580 1609 1251
568 1655 1391
556 1701 1531
547 1747 1680
542 1794 1844
538 1841 2008
537 1883 2165
539 1923 2319
540 1963 2472
544 1994 2594
549 2025 2717
554 2053 2827
559 2075 2912
564 2097 2997
568 2114 3061
572 2130 3114
576 2146 3167
570 1815 1358
562 1860 1494
554 1906 1630
549 1952 1774
548 2000 1936
547 2048 2097
549 2091 2252
553 2133 2404
556 2174 2556
562 2206 2677
567 2238 2798
573 2267 2907
578 2290 2991
584 2312 3075
588 2331 3138
592 2346 3191
596 2362 3244
560 2021 1465
556 2066 1597
553 2111 1728
551 2157 1868
554 2206 2027
556 2255 2186
561 2300 2340
567 2343 2490
573 2386 2640
579 2419 2760
586 2452 2880
592 2481 2987
598 2505 3070
604 2528 3153
608 2547 3215
612 2563 3267
617 2579 3320
563 2199 1563
562 2243 1689
561 2287 1815
562 2332 1951
566 2381 2107
571 2430 2262
576 2475 2413
583 2518 2561
590 2562 2709
597 2596 2828
604 2630 2947
610 2661 3053
616 2685 3135
621 2709 3217
626 2728 3278
630 2745 3330
634 2761 3381
572 2364 1655
573 2407 1776
574 2449 1897
577 2493 2028
582 2541 2179
587 2588 2331
593 2633 2479
600 2677 2625
607 2721 2771
614 2756 2889
620 2791 3006
627 2823 3112
632 2848 3193
638 2873 3274
643 2893 3334
647 2910 3385
651 2927 3436
581 2530 1747
584 2570 1863
588 2611 1979
592 2653 2105
597 2700 2252
603 2747 2400
610 2792 2545
617 2836 2689
624 2880 2832
631 2916 2949
637 2952 3066
644 2985 3170
649 3011 3251
654 3037 3331
659 3058 3391
663 3075 3440
668 3092 3490
596 2648 1819
600 2686 1928
604 2724 2037
608 2764 2157
614 2809 2299
619 2854 2441
625 2898 2583
632 2942 2724
638 2985 2866
644 3022 2982
650 3059 3099
656 3093 3204
661 3120 3284
666 3147 3365
670 3168 3425
675 3186 3475
679 3204 3525
612 2767 1891
616 2802 1993
620 2837 2095
625 2875 2209
630 2918 2346
635 2961 2482
641 3004 2621
646 3047 2760
652 3090 2899
657 3128 3016
663 3166 3132
668 3200 3237
672 3229 3318
677 3257 3399
681 3279 3459
686 3298 3509
691 3317 3559
626 2871 1955
631 2903 2050
636 2935 2145
640 2971 2252
645 3011 2383
650 3052 2514
654 3095 2649
659 3137 2786
664 3180 2923
669 3218 3040
674 3257 3157
678 3292 3262
682 3321 3344
686 3351 3426
691 3374 3487
695 3393 3537
700 3413 3587
639 2944 2003
643 2974 2090
648 3003 2178
652 3035 2277
656 3074 2402
660 3113 2527
665 3154 2658
669 3196 2793
673 3238 2928
677 3277 3046
681 3316 3164
685 3352 3271
689 3382 3355
692 3413 3439
696 3437 3501
701 3457 3552
705 3477 3602
652 3018 2051
656 3044 2131
660 3070 2210
664 3100 2303
668 3137 2421
671 3174 2540
675 3214 2668
678 3255 2801
682 3296 2933
685 3336 3052
688 3375 3171
692 3411 3280
695 3443 3366
698 3475 3452
702 3499 3515
706 3520 3566
710 3541 3618
661 3061 2081
664 3084 2153
668 3108 2225
671 3135 2310
674 3171 2423
677 3206 2536
680 3245 2661
683 3286 2791
686 3327 2922
689 3366 3043
693 3406 3164
696 3443 3274
698 3476 3363
701 3509 3452
704 3533 3516
707 3554 3568
711 3575 3621
668 3088 2100
670 3110 2165
673 3131 2230
675 3157 2310
678 3190 2416
681 3224 2523
683 3263 2645
686 3303 2774
689 3343 2902
692 3384 3025
695 3424 3148
698 3462 3261
700 3495 3353
703 3528 3446
705 3553 3512
707 3574 3564
709 3594 3617
674 3115 2120
676 3135 2178
678 3154 2236
679 3178 2309
682 3210 2410
684 3243 2511
686 3280 2629
689 3320 2756
692 3360 2883
695 3401 3008
697 3441 3133
700 3480 3248
702 3514 3344
704 3548 3440
705 3573 3507
706 3593 3560
707 3613 3613
993 871 889
964 913 1039
935 954 1189
904 994 1345
871 1029 1513
838 1065 1681
810 1098 1841
783 1129 1996
757 1161 2152
739 1188 2276
722 1215 2401
707 1240 2513
696 1260 2599
686 1281 2685
677 1296 2746
668 1310 2794
660 1323 2841
930 1086 986
907 1128 1131
884 1169 1275
860 1211 1428
834 1251 1595
808 1291 1763
786 1328 1923
765 1364 2080
744 1399 2237
729 1427 2362
715 1456 2488
702 1482 2601
693 1502 2688
683 1523 2775
676 1539 2837
669 1552 2888
662 1566 2938
867 1301 1083
850 1343 1222
833 1384 1361
815 1427 1510
797 1472 1678
778 1517 1845
762 1558 2006
746 1598 2164
730 1637 2322
719 1667 2448
707 1697 2575
697 1724 2688
689 1745 2776
681 1766 2864
675 1782 2929
669 1795 2982
664 1809 3035
813 1514 1183
801 1555 1317
789 1597 1451
777 1641 1596
765 1690 1763
753 1738 1929
741 1783 2090
730 1825 2248
719 1867 2406
710 1899 2533
701 1930 2660
693 1958 2774
687 1980 2862
681 2001 2951
675 2017 3017
671 2031 3071
667 2045 3126
777 1724 1290
768 1765 1419
759 1806 1549
751 1850 1689
743 1899 1853
735 1949 2017
727 1994 2176
719 2038 2332
712 2082 2489
705 2115 2615
699 2147 2742
693 2177 2855
688 2199 2943
683 2221 3030
679 2238 3096
676 2252 3150
672 2266 3205
741 1933 1397
735 1974 1521
730 2015 1646
725 2059 1783
721 2109 1943
717 2159 2104
713 2206 2261
708 2251 2417
704 2296 2572
700 2331 2698
696 2365 2823
692 2395 2936
689 2418 3023
685 2441 3110
683 2459 3175
680 2473 3229
677 2488 3283
718 2119 1497
715 2159 1617
712 2198 1737
709 2242 1869
707 2291 2025
706 2341 2182
704 2388 2336
702 2433 2490
700 2479 2643
698 2515 2768
695 2550 2892
693 2582 3004
691 2606 3090
689 2630 3177
687 2648 3241
685 2663 3295
684 2678 3348
702 2293 1595
700 2331 1709
699 2370 1824
698 2412 1951
698 2460 2103
698 2508 2255
697 2555 2406
697 2600 2557
697 2646 2708
696 2683 2831
695 2719 2955
695 2752 3066
694 2777 3151
692 2802 3237
692 2821 3301
691 2837 3353
690 2852 3406
686 2466 1692
686 2504 1801
686 2541 1911
687 2582 2033
688 2629 2181
690 2676 2328
691 2722 2476
693 2767 2624
694 2813 2773
695 2851 2895
696 2888 3018
696 2922 3128
696 2948 3213
696 2975 3297
696 2994 3360
696 3011 3412
696 3027 3464
682 2593 1770
683 2629 1873
684 2664 1977
685 2702 2093
687 2747 2235
689 2792 2377
690 2837 2521
692 2882 2666
694 2927 2812
695 2965 2934
697 3003 3056
698 3038 3165
698 3065 3250
699 3093 3335
700 3114 3398
700 3131 3450
701 3148 3502
678 2721 1848
679 2754 1945
681 2787 2043
683 2823 2153
685 2866 2289
687 2909 2425
690 2952 2566
692 2997 2708
694 3041 2851
696 3080 2972
698 3118 3093
699 3154 3203
700 3183 3288
702 3211 3373
703 3233 3436
704 3252 3488
706 3270 3540
675 2832 1918
678 2863 2009
680 2894 2100
682 2928 2204
684 2968 2334
687 3009 2464
689 3052 2601
692 3095 2740
694 3139 2880
696 3178 3001
698 3217 3122
700 3253 3232
702 3283 3317
704 3313 3403
706 3336 3467
708 3356 3519
710 3375 3571
676 2913 1971
679 2941 2055
681 2968 2139
683 3000 2237
685 3039 2361
688 3078 2485
690 3119 2617
692 3162 2754
695 3204 2891
697 3244 3012
699 3283 3134
701 3320 3244
703 3351 3331
705 3382 3419
707 3406 3483
709 3426 3536
712 3447 3589
677 2993 2025
680 3018 2102
682 3043 2179
684 3072 2269
686 3109 2387
689 3146 2505
691 3186 2633
693 3228 2767
696 3270 2901
698 3309 3023
700 3349 3145
702 3386 3256
704 3418 3345
706 3451 3435
708 3476 3500
711 3497 3554
714 3519 3607
678 3043 2060
680 3065 2130
682 3088 2200
684 3115 2284
686 3150 2396
688 3185 2507
691 3224 2632
693 3266 2763
695 3307 2895
698 3347 3018
700 3387 3141
702 3425 3253
704 3458 3345
706 3491 3437
708 3516 3504
710 3538 3558
713 3560 3613
679 3077 2085
681 3098 2149
682 3118 2213
684 3143 2290
686 3177 2396
688 3210 2501
690 3249 2622
692 3289 2751
695 3329 2879
697 3370 3004
699 3410 3128
702 3449 3243
703 3483 3338
705 3517 3433
707 3542 3502
708 3564 3557
710 3586 3612
680 3111 2111
681 3130 2168
682 3148 2225
683 3172 2296
685 3204 2395
687 3236 2495
689 3273 2612
692 3312 2738
694 3352 2864
696 3393 2990
699 3434 3116
701 3473 3232
703 3508 3331
705 3542 3429
706 3568 3499
707 3590 3555
707 3612 3611
1280 795 846
1255 835 995
1229 875 1143
1199 914 1298
1160 948 1465
1122 982 1632
1083 1013 1792
1045 1044 1948
1006 1074 2104
974 1100 2230
943 1127 2356
913 1151 2469
889 1171 2557
865 1191 2645
844 1206 2707
825 1219 2758
806 1232 2808
1200 1002 933
1179 1041 1075
1158 1081 1217
1134 1120 1367
1102 1160 1535
1069 1200 1703
1036 1237 1865
1003 1273 2024
970 1308 2183
941 1336 2310
912 1365 2438
886 1390 2553
863 1410 2642
841 1431 2732
823 1446 2796
806 1458 2849
789 1471 2902
1121 1209 1021
1104 1247 1155
1088 1286 1290
1068 1326 1436
1043 1373 1605
1017 1419 1775
990 1461 1939
961 1502 2100
933 1542 2261
907 1572 2391
882 1603 2521
858 1630 2638
838 1650 2728
818 1670 2819
801 1685 2886
786 1698 2941
772 1710 2996
1047 1419 1115
1034 1456 1243
1022 1493 1371
1007 1535 1513
987 1585 1682
967 1636 1851
945 1682 2015
922 1727 2178
898 1771 2341
876 1803 2472
854 1835 2603
833 1863 2721
815 1884 2812
797 1905 2904
783 1920 2972
770 1932 3029
757 1945 3085
984 1632 1222
974 1669 1345
964 1706 1468
953 1747 1605
937 1798 1770
922 1849 1936
904 1897 2099
886 1943 2261
867 1989 2423
848 2023 2554
830 2057 2685
813 2086 2803
798 2108 2894
782 2130 2985
770 2145 3053
759 2158 3110
748 2171 3166
922 1846 1329
915 1882 1446
907 1919 1564
898 1960 1697
888 2012 1859
877 2063 2021
864 2112 2183
850 2159 2343
836 2207 2504
821 2242 2635
806 2278 2766
792 2309 2884
780 2332 2976
767 2355 3067
757 2371 3135
748 2384 3191
738 2397 3247
874 2039 1432
868 2074 1545
862 2110 1658
856 2151 1786
848 2201 1944
840 2252 2102
831 2301 2260
820 2348 2418
810 2396 2577
799 2433 2707
787 2470 2838
776 2502 2955
766 2526 3046
756 2550 3136
748 2567 3204
740 2581 3259
733 2595 3315
832 2221 1534
828 2256 1642
824 2291 1751
819 2330 1874
814 2379 2026
809 2428 2179
802 2476 2334
794 2524 2489
787 2571 2645
779 2609 2774
770 2647 2904
762 2681 3020
755 2706 3110
747 2731 3200
741 2749 3267
735 2764 3322
729 2778 3377
790 2403 1636
788 2437 1740
785 2471 1843
782 2510 1962
780 2557 2109
777 2604 2257
773 2652 2408
768 2699 2560
764 2746 2713
759 2785 2841
754 2824 2970
748 2859 3085
743 2885 3175
738 2912 3264
733 2931 3330
729 2946 3384
724 2962 3438
767 2539 1720
765 2571 1818
763 2604 1917
762 2641 2029
760 2686 2171
758 2730 2312
756 2776 2459
753 2823 2608
750 2869 2757
746 2908 2885
743 2947 3012
739 2983 3127
736 3011 3216
732 3039 3305
729 3059 3371
726 3076 3425
723 3093 3479
744 2674 1804
743 2705 1897
742 2736 1990
741 2771 2097
740 2814 2232
739 2857 2368
738 2901 2510
737 2946 2656
736 2992 2802
734 3031 2928
732 3071 3054
730 3107 3168
728 3136 3257
726 3166 3347
725 3188 3412
723 3205 3466
721 3223 3520
724 2794 1880
724 2823 1967
724 2852 2054
724 2885 2155
724 2925 2285
724 2966 2415
724 3009 2553
724 3053 2695
724 3097 2837
724 3138 2962
723 3178 3088
723 3214 3201
722 3245 3291
721 3276 3380
721 3299 3446
720 3318 3500
720 3337 3554
714 2881 1940
714 2908 2020
714 2934 2101
714 2965 2196
715 3004 2319
715 3042 2442
716 3084 2576
716 3127 2714
717 3170 2853
717 3210 2978
717 3251 3103
718 3288 3217
717 3319 3308
717 3351 3399
718 3375 3466
718 3396 3521
719 3417 3576
703 2968 1999
703 2992 2074
704 3017 2148
704 3045 2236
705 3082 2353
706 3118 2470
707 3159 2599
708 3201 2734
709 3243 2870
710 3283 2994
711 3323 3119
712 3361 3233
713 3394 3325
714 3427 3418
715 3452 3485
716 3474 3541
717 3496 3597
696 3024 2040
696 3047 2108
697 3069 2176
698 3095 2258
699 3130 2368
700 3165 2479
701 3204 2604
703 3245 2736
704 3286 2867
706 3327 2993
707 3367 3118
708 3406 3233
710 3439 3328
711 3473 3422
712 3499 3492
713 3522 3548
715 3544 3605
691 3065 2071
691 3086 2133
692 3106 2195
692 3130 2271
694 3164 2375
695 3197 2479
697 3235 2599
698 3275 2728
700 3315 2856
702 3356 2982
704 3397 3108
705 3436 3225
707 3470 3323
708 3505 3421
709 3531 3492
710 3554 3549
711 3577 3607
686 3107 2102
686 3125 2158
686 3143 2214
687 3166 2283
689 3197 2381
690 3228 2478
692 3265 2594
694 3305 2720
696 3344 2845
698 3385 2972
700 3426 3099
702 3466 3217
704 3501 3318
706 3536 3419
707 3564 3492
707 3587 3550
708 3610 3609
1543 721 804
1522 759 950
1501 797 1097
1473 833 1250
1433 865 1416
1393 897 1583
1349 927 1743
1304 956 1899
1260 985 2056
1218 1010 2183
1177 1036 2311
1138 1059 2425
1105 1079 2515
1071 1098 2604
1041 1113 2669
1014 1126 2722
987 1139 2774
1456 921 883
1438 957 1021
1420 993 1159
1396 1030 1308
1361 1069 1476
1326 1109 1644
1288 1145 1807
1247 1180 1968
1207 1215 2129
1168 1243 2259
1130 1271 2389
1094 1296 2506
1062 1315 2597
1030 1335 2689
1003 1350 2756
978 1362 2810
