Assets/1__3DArt/KimSe/artstation_asset/LUTs_pasterls/3DL/Candylandia 01 S.3dl
# Enhanced with VOXCOLOR algorithms
0 128 256 384 512 640 768 896 1023
642 899 434
665 988 1136
769 1172 1818
932 1427 2426
1133 1728 2908
1353 2033 3189
1567 2306 3375
1767 2536 3488
1943 2714 3549
396 1476 558
463 1575 1132
605 1742 1761
804 1959 2372
1043 2202 2895
1299 2432 3215
1545 2632 3422
1774 2800 3542
1980 2931 3599
300 1953 649
395 2049 1109
561 2200 1681
781 2384 2282
1043 2582 2833
1320 2757 3196
1584 2903 3434
1829 3022 3571
2048 3115 3634
328 2330 702
440 2419 1067
617 2551 1580
847 2708 2161
1117 2872 2732
1402 3009 3139
1673 3119 3415
1923 3204 3580
2146 3267 3655
455 2611 713
575 2688 1005
755 2801 1463
983 2936 2017
1249 3075 2597
1532 3190 3049
1802 3279 3369
2050 3343 3569
2270 3387 3664
662 2788 679
782 2852 922
952 2947 1332
1166 3061 1854
1415 3184 2433
1685 3289 2926
1945 3371 3293
2188 3430 3538
2403 3467 3663
874 2918 634
988 2969 838
1143 3047 1204
1336 3144 1692
1563 3252 2262
1817 3351 2790
2067 3431 3206
2302 3489 3497
2513 3523 3656
1060 3000 590
1161 3041 762
1299 3105 1085
1472 3188 1537
1676 3285 2092
1913 3381 2649
2152 3461 3109
2379 3521 3448
2580 3556 3640
1188 3035 562
1273 3071 701
1394 3127 984
1548 3201 1397
1734 3289 1930
1958 3383 2509
2187 3466 3009
2402 3530 3390
2585 3565 3613
1738 848 251
1711 930 907
1724 1098 1581
1774 1336 2211
1858 1628 2737
1973 1939 3065
2093 2223 3288
2211 2466 3430
2319 2657 3510
1302 1401 372
1309 1442 910
1363 1577 1533
1460 1780 2164
1599 2028 2724
1772 2283 3089
1947 2512 3335
2113 2706 3486
2263 2857 3564
993 1875 480
1028 1895 915
1116 2004 1480
1253 2175 2094
1435 2385 2674
1652 2594 3079
1865 2776 3355
2067 2927 3524
2246 3041 3606
811 2264 564
868 2279 913
982 2370 1417
1149 2514 2001
1361 2690 2591
1605 2861 3036
1844 3006 3348
2067 3121 3543
2264 3203 3636
752 2563 614
827 2583 894
959 2663 1340
1142 2785 1889
1369 2934 2480
1626 3077 2963
1877 3193 3314
2111 3281 3542
2316 3339 3653
831 2757 616
915 2783 846
1050 2855 1242
1232 2961 1755
1455 3090 2337
1709 3213 2854
1959 3313 3247
2193 3387 3515
2400 3432 3655
954 2898 598
1039 2928 789
1171 2993 1138
1343 3085 1614
1554 3196 2181
1799 3304 2726
2043 3394 3163
2275 3461 3475
2483 3500 3649
1090 2991 571
1173 3023 729
1295 3081 1035
1454 3160 1471
1648 3257 2017
1879 3356 2585
2116 3441 3063
2343 3505 3423
2549 3544 3634
1210 3037 546
1287 3069 675
1398 3121 939
1542 3191 1333
1718 3277 1850
1935 3371 2434
2162 3456 2951
2384 3524 3358
2583 3566 3610
2507 817 143
2460 886 733
2438 1040 1381
2443 1267 2020
2476 1556 2579
2535 1873 2952
2598 2167 3212
2659 2421 3382
2714 2623 3481
2048 1326 234
2002 1322 736
2000 1425 1341
2042 1613 1973
2128 1866 2557
2254 2146 2963
2382 2404 3249
2501 2627 3433
2602 2800 3533
1667 1785 328
1636 1746 752
1661 1815 1306
1739 1969 1917
1870 2185 2511
2045 2428 2953
2221 2649 3268
2383 2836 3471
2521 2977 3577
1379 2184 415
1372 2139 768
1425 2188 1267
1536 2314 1847
1698 2496 2444
1907 2700 2920
2114 2884 3267
2307 3035 3495
2472 3143 3612
1203 2513 482
1221 2480 775
1299 2522 1219
1431 2627 1763
1613 2778 2356
1838 2946 2863
2063 3094 3245
2273 3211 3503
2455 3290 3635
1174 2739 514
1209 2726 754
1298 2770 1148
1437 2861 1655
1621 2987 2236
1846 3125 2770
2073 3244 3189
2288 3337 3483
2479 3397 3641
1200 2903 526
1247 2908 720
1341 2954 1064
1479 3034 1532
1658 3140 2096
1878 3254 2654
2102 3353 3111
2319 3429 3446
2516 3477 3638
1258 3009 524
1312 3027 678
1407 3075 975
1539 3146 1400
1709 3236 1940
1919 3334 2516
2139 3421 3012
2356 3489 3393
2557 3533 3625
1324 3059 515
1383 3085 635
1475 3131 885
1599 3195 1263
1756 3275 1770
1956 3366 2359
2171 3450 2893
2387 3519 3324
2590 3566 3603
3004 807 93
2955 859 612
2933 999 1224
2936 1218 1857
2962 1506 2441
3003 1830 2852
3039 2131 3147
3068 2395 3344
3087 2607 3461
2622 1250 143
2538 1216 612
2508 1294 1190
2528 1468 1810
2597 1722 2403
2702 2025 2845
2804 2311 3167
2891 2562 3382
2954 2757 3504
2267 1685 207
2182 1608 627
2163 1645 1166
2206 1781 1763
2307 1998 2359
2457 2269 2829
2606 2527 3180
2738 2750 3417
2838 2920 3546
1967 2095 276
1901 2007 647
1902 2022 1142
1968 2127 1711
2092 2306 2305
2269 2538 2803
2448 2757 3182
2611 2946 3443
2742 3086 3583
1748 2463 343
1709 2387 664
1733 2395 1113
1815 2477 1651
1952 2621 2237
2140 2808 2760
2334 2984 3169
2516 3134 3456
2669 3241 3611
1646 2736 394
1630 2687 660
1669 2701 1060
1759 2770 1563
1897 2886 2139
2083 3032 2684
2278 3168 3124
2466 3281 3443
2633 3362 3623
1591 2933 430
1593 2912 642
1643 2936 991
1738 2998 1456
1874 3092 2016
2055 3205 2581
2247 3308 3055
2439 3394 3412
2617 3454 3624
1565 3055 454
1583 3059 614
1641 3092 911
1738 3150 1333
1870 3230 1868
2046 3321 2451
2236 3404 2961
2429 3473 3361
2615 3521 3614
1549 3105 467
1582 3124 583
1648 3163 825
1745 3220 1196
1874 3292 1696
2045 3374 2292
2234 3451 2840
2431 3517 3291
2624 3564 3592
3286 817 84
3242 849 539
3232 975 1110
3250 1186 1728
3293 1474 2324
3339 1803 2768
3372 2111 3092
3392 2382 3313
3397 2602 3445
3008 1171 98
2912 1127 538
2877 1191 1086
2899 1354 1684
2970 1606 2275
3073 1925 2741
3166 2233 3093
3238 2507 3336
3279 2723 3479
2741 1574 127
2629 1487 548
2591 1507 1069
2619 1627 1646
2707 1838 2232
2845 2127 2720
2977 2414 3097
3088 2670 3363
3161 2870 3517
2506 2000 170
2402 1895 563
2371 1887 1054
2406 1971 1608
2503 2139 2188
2655 2385 2696
2809 2632 3099
2946 2856 3388
3048 3031 3553
2322 2418 221
2238 2316 576
2218 2295 1033
2258 2351 1563
2354 2478 2137
2506 2672 2664
2666 2869 3092
2817 3050 3405
2942 3192 3585
2206 2751 275
2142 2673 575
2133 2658 989
2175 2701 1492
2266 2796 2058
2408 2939 2604
2563 3085 3059
2717 3218 3399
2857 3326 3601
2105 2989 324
2062 2944 563
2066 2944 927
2113 2982 1396
2200 3057 1951
2333 3160 2516
2482 3262 3001
2637 3356 3374
2788 3432 3606
2008 3133 365
1988 3121 542
2006 3138 850
2059 3180 1277
2146 3242 1812
2274 3319 2396
2420 3392 2915
2576 3458 3329
2736 3510 3599
1904 3182 399
1908 3194 517
1942 3227 762
2005 3275 1136
2095 3337 1639
2225 3404 2239
2373 3467 2798
2535 3520 3262
2701 3561 3580
3392 834 96
3359 858 504
3361 975 1039
3392 1177 1637
3446 1458 2235
3501 1785 2700
3541 2094 3046
3566 2368 3285
3574 2594 3430
3210 1109 96
3135 1077 509
3116 1140 1026
3145 1295 1601
3217 1539 2183
3314 1858 2663
3399 2173 3033
3464 2458 3296
3497 2691 3455
3051 1486 108
2958 1412 519
2927 1431 1020
2954 1540 1574
3032 1738 2145
3150 2024 2638
3262 2319 3030
3355 2594 3316
3413 2823 3488
2921 1926 132
2825 1827 530
2790 1811 1012
2812 1877 1549
2887 2025 2112
3009 2262 2618
3133 2517 3031
3242 2763 3338
3321 2977 3524
2825 2393 166
2734 2282 539
2698 2242 998
2714 2273 1519
2777 2372 2076
2890 2551 2595
3012 2751 3029
3128 2954 3357
3226 3141 3557
2754 2785 208
2673 2689 533
2640 2650 960
2651 2664 1463
2702 2730 2016
2798 2854 2550
2908 2996 3006
3022 3144 3357
3130 3288 3578
2666 3070 249
2604 3006 517
2579 2983 901
2590 2997 1380
2635 3044 1928
2718 3125 2480
2816 3216 2961
2925 3312 3340
3037 3407 3587
2555 3242 290
2514 3218 491
2504 3221 823
2522 3246 1266
2566 3289 1803
2642 3341 2376
2734 3394 2889
2839 3447 3304
2953 3499 3584
2410 3299 328
2395 3310 458
2404 3342 723
2435 3387 1117
2487 3438 1633
2565 3481 2232
2659 3514 2786
2765 3540 3247
2880 3561 3568
3448 839 104
3431 868 472
3444 982 976
3482 1176 1557
3537 1445 2155
3594 1764 2638
3636 2069 3002
3664 2344 3257
3676 2576 3412
3356 1064 103
3314 1050 482
3313 1118 971
3347 1267 1526
3411 1499 2103
3491 1806 2594
3560 2117 2979
3611 2407 3258
3638 2653 3431
3291 1421 113
3236 1367 498
3224 1390 975
3252 1491 1512
3315 1672 2072
3403 1943 2569
3485 2232 2972
3551 2517 3272
3591 2771 3460
3251 1870 133
3189 1783 515
3170 1765 981
3189 1818 1503
3242 1943 2053
3327 2160 2555
3410 2408 2974
3483 2668 3293
3534 2918 3495
3233 2373 160
3168 2260 528
3141 2208 981
3149 2218 1492
3188 2290 2034
3259 2444 2544
3335 2636 2978
3408 2854 3316
3467 3085 3531
3211 2814 191
3149 2707 525
3119 2650 956
3118 2641 1456
3144 2679 1997
3198 2778 2516
3260 2908 2967
3325 3065 3323
3385 3245 3557
3158 3142 222
3106 3065 508
3080 3025 907
3077 3019 1392
3094 3042 1931
3135 3098 2465
3184 3172 2936
3239 3266 3315
3297 3380 3571
3065 3347 254
3028 3315 477
3012 3310 830
3014 3323 1289
3032 3349 1825
3064 3376 2382
3103 3405 2880
3151 3440 3288
3207 3488 3571
2926 3423 287
2907 3439 432
2907 3477 721
2922 3524 1139
2947 3568 1669
2979 3583 2257
3017 3580 2795
3063 3570 3241
3120 3563 3557
3472 829 105
3471 872 440
3491 988 920
3530 1175 1487
3582 1429 2085
3635 1735 2582
3677 2034 2961
3706 2310 3229
3720 2547 3393
3452 1026 112
3447 1036 449
3466 1113 910
3504 1259 1451
3558 1475 2028
3615 1763 2530
3663 2061 2929
3697 2349 3222
3714 2606 3405
3459 1366 132
3454 1339 474
3472 1372 924
3508 1468 1446
3557 1631 2003
3611 1877 2507
3656 2152 2920
3687 2436 3232
3702 2711 3432
3487 1815 160
3483 1750 504
3498 1737 948
3529 1782 1457
3570 1886 2000
3614 2075 2502
3650 2307 2927
3674 2570 3254
3682 2852 3467
3528 2338 192
3523 2235 534
3534 2182 971
3556 2179 1472
3585 2228 2004
3616 2354 2506
3640 2530 2940
3654 2753 3282
3652 3021 3507
3552 2819 221
3546 2711 544
3552 2646 969
3566 2624 1464
3584 2640 1992
3601 2713 2497
3613 2827 2942
3615 2985 3299
3603 3194 3539
3541 3187 246
3536 3105 535
3541 3058 939
3551 3040 1423
3563 3046 1951
3569 3079 2466
3568 3134 2925
3559 3221 3298
3541 3348 3557
3489 3431 268
3485 3397 503
3492 3389 871
3503 3397 1338
3513 3412 1869
3512 3417 2404
3502 3420 2883
3486 3435 3278
3469 3476 3559
3391 3538 291
3384 3564 448
3395 3612 759
3412 3666 1197
3428 3706 1734
3423 3695 2302
3409 3655 2814
3395 3606 3239
3391 3570 3546
3485 803 96
3489 861 407
3512 982 869
3549 1163 1426
3596 1403 2024
3643 1695 2531
3683 1989 2922
3712 2265 3201
3726 2505 3372
3505 985 118
3532 1026 403
3571 1117 835
3616 1260 1366
3662 1458 1948
3697 1721 2467
3721 2002 2881
3734 2283 3186
3736 2548 3379
3552 1307 156
3604 1316 435
3661 1365 852
3715 1461 1364
3760 1605 1928
3781 1821 2446
3785 2074 2872
3774 2350 3195
3749 2640 3403
3618 1744 203
3693 1711 487
3765 1715 899
3826 1759 1398
3869 1846 1944
3876 2006 2454
3860 2215 2886
3821 2472 3221
3761 2775 3439
3691 2269 253
3783 2191 546
3865 2151 958
3928 2149 1448
3967 2184 1976
3963 2283 2478
3930 2437 2913
3866 2655 3257
3769 2945 3486
3747 2780 293
3842 2685 584
3922 2629 992
3982 2606 1475
4016 2613 1994
4005 2664 2491
3962 2759 2930
3883 2910 3284
3763 3134 3526
3777 3188 322
3863 3112 595
3937 3068 990
3992 3051 1465
4022 3050 1980
4006 3066 2479
3956 3103 2925
3869 3179 3290
3742 3310 3547
3777 3477 341
3839 3447 574
3902 3444 943
3952 3455 1406
3980 3466 1925
3958 3455 2436
3902 3437 2894
3817 3433 3273
3708 3463 3550
3742 3629 353
3766 3667 518
3810 3729 841
3855 3791 1286
3883 3831 1815
3854 3798 2353
3793 3726 2833
3722 3643 3234
3661 3581 3533
