Assets/1__3DArt/KimSe/artstation_asset/LUTs_pasterls/3DL/Candylandia 01.3dl
# Enhanced with VOXCOLOR algorithms
0 256 512 768 1023
642 899 434
769 1172 1818
1133 1728 2908
1567 2306 3375
1943 2714 3549
300 1953 649
561 2200 1681
1043 2582 2834
1584 2904 3434
2048 3115 3634
458 2610 715
756 2801 1463
1253 3076 2598
1805 3280 3370
2270 3387 3664
886 2912 640
1150 3044 1205
1573 3252 2263
2077 3431 3207
2513 3523 3656
1188 3035 562
1394 3127 984
1734 3289 1930
2187 3466 3009
2585 3565 3613
2507 817 143
2465 1062 1381
2496 1573 2582
2602 2170 3213
2714 2623 3481
1779 1885 347
1838 1970 1281
2002 2313 2522
2263 2694 3281
2521 2977 3577
1302 2626 510
1426 2691 1176
1714 2912 2341
2101 3143 3252
2456 3290 3634
1231 2936 542
1377 3013 1038
1692 3189 2076
2120 3371 3109
2519 3477 3637
1324 3059 515
1474 3130 884
1756 3273 1768
2171 3449 2893
2590 3566 3603
3286 817 84
3302 1041 1107
3344 1525 2329
3383 2123 3094
3397 2602 3445
3001 1783 165
2977 1819 984
3004 2106 2218
3080 2523 3116
3162 2871 3516
2573 2667 270
2554 2648 878
2627 2778 2034
2777 3005 3084
2944 3194 3583
2184 3075 347
2186 3086 813
2310 3181 1832
2535 3323 2964
2790 3433 3604
1904 3182 399
1940 3216 749
2092 3314 1617
2371 3453 2788
2701 3561 3580
3448 839 104
3491 1036 971
3571 1487 2157
3643 2078 3004
3676 2576 3412
3459 1565 150
3464 1648 871
3503 1929 2020
3555 2368 2976
3591 2773 3458
3408 2549 202
3383 2539 770
3389 2635 1838
3422 2854 2925
3466 3090 3527
3217 3207 241
3178 3185 689
3179 3202 1636
3219 3279 2794
3297 3384 3565
2926 3423 287
2888 3423 652
2906 3456 1555
2992 3511 2746
3120 3563 3557
3485 803 96
3512 982 869
3596 1403 2024
3683 1989 2922
3726 2505 3372
3550 1307 156
3582 1416 789
3646 1713 1871
3712 2185 2858
3747 2643 3399
3685 2269 254
3704 2287 806
3732 2415 1819
3756 2667 2851
3760 2958 3471
3772 3188 328
3772 3162 774
3763 3159 1664
3749 3209 2726
3732 3323 3531
3742 3629 353
3717 3612 690
3697 3594 1567
3674 3572 2724
3661 3581 3533
