Assets/1__3DArt/KimSe/artstation_asset/LUTs_pasterls/3DL/Candylandia 02 S.3dl
# Enhanced with VOXCOLOR algorithms
0 128 256 384 512 640 768 896 1023
674 899 530
701 1096 1257
759 1381 1966
846 1726 2598
959 2100 3096
1106 2441 3377
1266 2726 3553
1435 2952 3651
1606 3115 3694
658 1678 692
721 1817 1274
814 2020 1911
932 2266 2527
1074 2532 3048
1242 2773 3359
1420 2975 3554
1602 3136 3661
1783 3257 3706
729 2289 803
820 2384 1269
939 2526 1839
1083 2697 2432
1247 2882 2967
1430 3047 3310
1617 3185 3530
1804 3297 3654
1987 3382 3708
874 2743 864
984 2808 1242
1122 2907 1753
1284 3026 2319
1463 3153 2861
1653 3265 3236
1843 3358 3486
2029 3433 3634
2208 3489 3702
1078 3049 877
1199 3098 1192
1348 3170 1655
1518 3257 2194
1704 3349 2738
1896 3428 3145
2084 3492 3428
2264 3542 3605
2435 3580 3692
1322 3211 845
1443 3254 1125
1590 3314 1551
1756 3385 2064
1937 3460 2606
2123 3524 3043
2302 3576 3362
2474 3616 3572
2637 3644 3684
1557 3323 808
1670 3361 1058
1808 3412 1450
1965 3471 1937
2136 3534 2474
2312 3590 2938
2481 3635 3293
2644 3669 3539
2797 3690 3676
1761 3396 775
1857 3428 997
1980 3471 1355
2125 3522 1815
2285 3577 2343
2452 3628 2833
2612 3670 3222
2763 3701 3502
2903 3718 3665
1911 3437 755
1981 3462 946
2086 3498 1268
2219 3542 1699
2371 3592 2216
2531 3642 2727
2682 3684 3148
2820 3714 3460
2939 3726 3645
1713 820 394
1675 983 1092
1638 1237 1787
1616 1561 2422
1619 1934 2939
1670 2299 3251
1742 2615 3459
1829 2872 3584
1920 3059 3648
1416 1476 521
1415 1564 1079
1427 1748 1710
1459 2001 2339
1519 2297 2888
1619 2587 3238
1736 2838 3470
1862 3043 3607
1988 3193 3672
1241 2057 634
1272 2094 1078
1327 2219 1643
1406 2407 2249
1513 2634 2814
1653 2857 3199
1802 3051 3458
1954 3207 3614
2102 3322 3686
1181 2542 723
1239 2551 1078
1328 2632 1581
1444 2765 2154
1587 2932 2722
1754 3099 3139
1924 3243 3428
2092 3357 3606
2252 3439 3690
1227 2909 776
1306 2911 1068
1419 2965 1517
1561 3059 2056
1725 3180 2619
1908 3302 3063
2088 3405 3382
2262 3486 3586
2424 3540 3686
1379 3127 783
1469 3137 1037
1591 3183 1445
1738 3257 1953
1908 3349 2507
2089 3441 2973
2267 3518 3321
2437 3577 3555
2595 3615 3677
1559 3279 774
1650 3298 999
1771 3339 1371
1917 3399 1848
2083 3471 2389
2259 3541 2876
2430 3600 3254
2593 3644 3520
2745 3671 3669
1743 3377 759
1826 3401 958
1940 3440 1295
2077 3490 1741
2235 3548 2267
2403 3605 2772
2565 3652 3181
2719 3688 3481
2862 3709 3658
1910 3434 745
1975 3457 919
2073 3491 1221
2200 3535 1635
2348 3585 2142
2509 3635 2662
2663 3678 3101
2806 3710 3435
2934 3728 3642
2517 778 315
2450 903 953
2380 1122 1615
2320 1420 2241
2281 1782 2775
2280 2162 3120
2296 2502 3361
2321 2788 3515
2349 3003 3602
2108 1316 392
2052 1359 916
2014 1513 1525
2004 1756 2149
2026 2064 2714
2090 2394 3101
2167 2692 3372
2248 2942 3543
2323 3129 3633
1801 1848 481
1768 1838 910
1769 1937 1462
1806 2123 2064
1880 2372 2644
1994 2648 3068
2116 2897 3368
2237 3106 3559
2348 3259 3655
1604 2339 568
1601 2302 920
1640 2359 1415
1717 2493 1986
1831 2685 2567
1980 2905 3021
2133 3103 3350
2280 3268 3563
2414 3385 3669
1523 2755 641
1551 2714 933
1621 2746 1376
1728 2839 1912
1868 2981 2486
2036 3146 2963
2205 3295 3318
2366 3416 3554
2512 3498 3673
1579 3035 684
1627 3011 933
1714 3039 1332
1834 3109 1835
1982 3214 2396
2153 3335 2889
2322 3442 3268
2484 3527 3529
2631 3585 3668
1681 3236 709
1742 3232 923
1837 3260 1283
1962 3316 1752
2111 3393 2296
2278 3479 2804
2443 3553 3208
2601 3613 3497
2748 3652 3661
1810 3366 722
1875 3379 905
1971 3410 1227
2094 3457 1662
2240 3516 2187
2401 3577 2707
2559 3630 3137
2710 3672 3457
2851 3700 3651
1949 3437 725
2005 3458 882
2094 3490 1166
2212 3531 1565
2352 3580 2066
2508 3630 2598
2660 3673 3055
2803 3707 3410
2933 3729 3636
3087 764 282
3016 853 842
2951 1037 1459
2899 1305 2071
2864 1650 2617
2849 2036 2994
2838 2393 3266
2828 2703 3449
2815 2947 3559
2683 1188 306
2588 1198 790
2529 1321 1367
2508 1543 1973
2526 1848 2543
2580 2206 2963
2637 2543 3270
2689 2835 3476
2726 3062 3591
2342 1662 355
2255 1620 774
2220 1693 1307
2233 1864 1894
2293 2120 2476
2397 2435 2931
2504 2734 3270
2601 2994 3497
2678 3191 3619
2084 2146 422
2024 2077 782
2020 2111 1269
2066 2235 1830
2158 2438 2413
2294 2698 2896
2433 2947 3261
2561 3163 3510
2667 3324 3642
1929 2601 497
1903 2528 804
1928 2537 1246
1999 2622 1777
2112 2772 2352
2264 2972 2855
2418 3164 3243
2564 3330 3512
2689 3452 3656
1904 2947 567
1906 2893 826
1951 2900 1224
2037 2961 1722
2157 3069 2284
2309 3212 2799
2463 3348 3207
2612 3466 3496
2746 3553 3657
1927 3201 624
1950 3175 839
2012 3187 1193
2106 3234 1658
2230 3310 2203
2378 3406 2728
2529 3496 3156
2675 3574 3470
2812 3632 3653
1982 3368 667
2021 3368 842
2092 3389 1154
2192 3430 1583
2317 3485 2107
2462 3548 2641
2607 3605 3091
2748 3654 3433
2882 3690 3643
2055 3451 694
2099 3469 836
2175 3499 1106
2277 3538 1495
2404 3585 1994
2547 3631 2537
2689 3672 3012
2825 3705 3387
2949 3728 3627
3428 774 280
3359 831 764
3315 980 1333
3291 1219 1925
3286 1544 2479
3286 1926 2884
3278 2292 3183
3263 2619 3391
3240 2888 3520
3091 1084 260
2981 1079 705
2924 1178 1246
2915 1374 1827
2950 1665 2393
3014 2035 2838
3073 2397 3174
3115 2724 3409
3134 2988 3549
2796 1497 269
2680 1448 679
2629 1502 1190
2638 1653 1755
2701 1899 2328
2807 2233 2803
2909 2568 3171
2994 2872 3431
3048 3115 3581
2561 1970 307
2462 1894 679
2428 1911 1158
2453 2018 1703
2533 2214 2275
2660 2495 2775
2788 2781 3170
2902 3045 3451
2985 3256 3611
2404 2462 370
2331 2373 700
2315 2364 1142
2354 2433 1664
2440 2575 2231
2573 2792 2747
2711 3018 3163
2840 3227 3464
2946 3399 3635
2339 2874 453
2292 2799 730
2295 2785 1131
2341 2829 1625
2429 2928 2181
2555 3080 2708
2689 3239 3139
2820 3390 3458
2939 3517 3644
2299 3184 530
2280 3137 755
2301 3131 1112
2357 3162 1575
2446 3228 2117
2567 3327 2653
2694 3428 3101
2823 3526 3439
2946 3610 3644
2275 3387 597
2281 3374 772
2320 3383 1083
2388 3413 1510
2482 3460 2034
2600 3519 2579
2723 3577 3047
2846 3632 3409
2966 3680 3636
2256 3482 649
2282 3496 780
2338 3524 1042
2420 3561 1427
2525 3604 1928
2647 3644 2485
2770 3677 2977
2888 3705 3367
2996 3726 3619
3546 794 291
3492 838 717
3467 968 1249
3465 1183 1824
3483 1483 2380
3501 1852 2804
3509 2214 3122
3507 2547 3347
3495 2831 3491
3308 1016 256
3217 1018 665
3178 1106 1173
3185 1283 1731
3231 1551 2289
3300 1911 2744
3360 2276 3098
3402 2618 3353
3419 2908 3511
3112 1379 248
3009 1346 640
2968 1395 1127
2980 1529 1668
3041 1752 2225
3139 2075 2706
3231 2416 3089
3305 2743 3370
3348 3026 3542
2964 1841 269
2866 1780 638
2827 1792 1101
2843 1882 1627
2907 2053 2181
3015 2322 2680
3124 2616 3088
3219 2909 3392
3286 3171 3577
2872 2361 318
2784 2277 654
2750 2257 1090
2765 2305 1598
2824 2422 2147
2929 2626 2660
3040 2858 3088
3146 3100 3412
3234 3329 3610
2828 2829 394
2756 2747 681
2729 2716 1082
2743 2737 1568
2795 2811 2110
2888 2950 2632
2991 3113 3076
3096 3291 3416
3196 3469 3630
2780 3190 471
2730 3130 705
2716 3106 1066
2736 3118 1526
2786 3163 2059
2869 3248 2592
2963 3349 3051
3063 3462 3408
3165 3582 3637
2718 3432 544
2694 3407 723
2699 3404 1038
2731 3421 1466
2787 3453 1989
2867 3499 2535
2955 3550 3012
3048 3606 3389
3143 3667 3633
2633 3543 606
2636 3557 731
2666 3585 994
2718 3621 1384
2791 3659 1893
2879 3685 2458
2967 3702 2959
3053 3714 3359
3131 3723 3619
3604 812 296
3571 857 680
3562 977 1184
3573 1173 1746
3598 1449 2304
3623 1800 2741
3638 2153 3073
3644 2486 3312
3641 2777 3467
3465 969 265
3407 986 637
3389 1072 1117
3404 1235 1657
3447 1480 2209
3504 1818 2670
3553 2174 3035
3586 2519 3304
3599 2827 3477
3363 1287 258
3294 1277 620
3271 1329 1081
3287 1450 1603
3336 1650 2147
3410 1950 2628
3477 2281 3020
3529 2617 3315
3557 2931 3504
3297 1731 277
3227 1693 624
3201 1709 1066
3213 1786 1572
3260 1932 2110
3336 2176 2604
3411 2461 3019
3475 2769 3337
3517 3076 3542
3269 2264 321
3200 2195 643
3170 2176 1064
3175 2209 1555
3212 2300 2086
3280 2477 2591
3353 2702 3024
3422 2962 3363
3478 3247 3583
3260 2780 389
3196 2700 670
3165 2662 1063
3164 2667 1537
3190 2716 2062
3245 2832 2575
3309 2988 3022
3375 3182 3377
3438 3410 3613
3231 3190 459
3180 3125 693
3154 3091 1051
3153 3087 1505
3175 3112 2025
3220 3177 2548
3274 3270 3010
3334 3392 3380
3397 3546 3630
3171 3475 528
3138 3444 709
3126 3434 1026
3134 3441 1454
3160 3461 1969
3202 3490 2508
3249 3528 2987
3302 3580 3373
3357 3652 3633
3072 3615 593
3060 3632 715
3070 3664 980
3098 3701 1375
3139 3736 1886
3188 3745 2450
3235 3740 2953
3280 3730 3357
3321 3723 3623
3624 826 295
3613 881 650
3617 997 1135
3632 1179 1688
3655 1431 2246
3678 1762 2692
3694 2103 3035
3703 2433 3284
3704 2727 3449
3571 934 281
3552 971 615
3555 1063 1070
3575 1216 1596
3608 1439 2144
3644 1752 2611
3671 2090 2984
3688 2431 3262
3691 2748 3446
3545 1207 289
3526 1224 610
3530 1287 1043
3553 1405 1548
3589 1583 2084
3629 1853 2565
3660 2164 2962
3678 2498 3266
3681 2834 3467
3543 1621 317
3528 1613 626
3534 1644 1042
3556 1719 1529
3589 1844 2054
3626 2057 2543
3654 2322 2960
3671 2631 3287
3671 2973 3504
3565 2151 365
3552 2110 656
3556 2103 1055
3573 2134 1528
3598 2206 2043
3627 2353 2538
3650 2558 2971
3663 2823 3318
3661 3151 3553
3593 2704 428
3579 2641 688
3578 2610 1065
3587 2610 1526
3603 2642 2034
3622 2732 2534
3637 2872 2980
3644 3071 3343
3641 3338 3595
3598 3164 492
3585 3105 715
3582 3072 1065
3587 3063 1509
3597 3075 2013
3608 3121 2522
3615 3199 2980
3618 3322 3357
3613 3502 3622
3571 3499 558
3559 3470 734
3558 3461 1048
3564 3465 1470
3575 3477 1972
3583 3490 2497
3585 3512 2971
3583 3555 3360
3579 3633 3633
3503 3681 626
3492 3705 744
3498 3745 1010
3514 3788 1404
3533 3820 1906
3543 3813 2457
3544 3784 2953
3541 3750 3355
3540 3724 3628
3629 835 289
3635 902 624
3647 1017 1098
3662 1188 1645
3678 1420 2203
3694 1731 2654
3706 2063 3005
3712 2388 3263
3710 2682 3437
3635 904 299
3653 964 590
3677 1066 1021
3703 1216 1539
3724 1420 2088
3735 1704 2561
3736 2022 2941
3729 2352 3227
3714 2674 3418
3654 1123 329
3694 1173 596
3737 1257 1000
3775 1378 1492
3803 1542 2027
3806 1781 2511
3793 2067 2913
3765 2389 3222
3725 2737 3430
3687 1490 376
3751 1522 631
3812 1580 1015
3862 1667 1488
3894 1783 2007
3890 1965 2495
3862 2203 2913
3813 2502 3242
3742 2863 3465
3733 1999 437
3817 2000 680
3890 2024 1050
3946 2071 1508
3978 2138 2013
3969 2257 2501
3931 2436 2932
3863 2692 3280
3764 3042 3520
3785 2581 502
3870 2552 728
3942 2546 1082
3995 2560 1527
4024 2591 2022
4011 2659 2512
3969 2777 2953
3893 2967 3317
3779 3252 3575
3827 3091 569
3901 3055 768
3964 3040 1101
4010 3041 1531
4035 3052 2019
4019 3082 2513
3974 3142 2963
3896 3257 3340
3783 3446 3611
3853 3487 640
3902 3470 803
3950 3473 1105
3988 3485 1514
4008 3497 1997
3988 3497 2501
3941 3503 2963
3869 3533 3350
3776 3609 3630
3854 3726 723
3867 3761 834
3894 3813 1092
3923 3864 1472
3938 3897 1952
3913 3876 2475
3864 3827 2952
3807 3770 3349
3758 3726 3629
