Assets/1__3DArt/KimSe/artstation_asset/LUTs_pasterls/3DL/Candylandia 03 S.3dl
# Enhanced with VOXCOLOR algorithms
0 128 256 384 512 640 768 896 1023
707 947 931
640 1033 1235
582 1111 1561
536 1182 1889
507 1248 2199
501 1303 2446
504 1349 2642
509 1386 2784
514 1413 2875
614 1392 1144
578 1483 1433
551 1572 1750
534 1656 2074
528 1732 2383
532 1791 2629
540 1840 2825
548 1878 2973
556 1908 3075
570 1815 1358
554 1906 1630
548 2000 1936
549 2091 2252
556 2174 2556
567 2238 2798
578 2290 2991
588 2330 3138
596 2362 3244
562 2200 1562
561 2287 1815
566 2381 2106
576 2475 2412
589 2562 2709
603 2630 2946
615 2685 3134
626 2728 3278
634 2761 3381
580 2530 1744
587 2611 1977
597 2700 2251
609 2792 2544
623 2880 2831
636 2952 3065
648 3011 3250
658 3057 3390
668 3092 3490
608 2769 1882
618 2839 2090
628 2919 2342
639 3004 2618
650 3090 2897
660 3165 3130
670 3228 3316
680 3279 3458
691 3317 3559
633 2947 1988
644 3005 2168
653 3076 2396
662 3155 2654
670 3238 2924
677 3315 3161
685 3382 3352
694 3436 3500
705 3477 3602
655 3064 2066
664 3110 2216
671 3172 2418
677 3246 2657
683 3327 2918
689 3406 3160
695 3476 3361
702 3533 3516
711 3575 3621
674 3115 2120
678 3154 2236
682 3210 2410
686 3280 2629
692 3360 2883
697 3441 3133
702 3514 3344
705 3573 3507
707 3613 3613
1280 795 846
1227 874 1143
1157 945 1465
1080 1011 1792
1004 1072 2104
941 1126 2356
888 1171 2557
844 1206 2707
806 1232 2808
1110 1206 1000
1070 1275 1269
1023 1357 1587
971 1443 1925
919 1526 2252
874 1592 2516
834 1644 2726
800 1684 2885
772 1710 2996
969 1626 1181
943 1688 1426
914 1773 1734
884 1868 2070
851 1963 2404
821 2039 2674
793 2099 2889
769 2143 3052
748 2171 3166
859 2031 1378
845 2090 1601
832 2172 1892
817 2268 2219
800 2366 2550
781 2450 2823
763 2516 3039
747 2564 3202
733 2595 3315
779 2396 1580
778 2453 1780
775 2531 2051
770 2622 2361
763 2719 2682
753 2806 2952
743 2876 3167
733 2928 3328
725 2962 3438
737 2672 1758
742 2726 1937
744 2798 2183
743 2883 2470
740 2975 2775
735 3059 3038
729 3130 3250
725 3185 3410
722 3223 3521
710 2883 1904
716 2931 2063
720 2997 2284
722 3076 2547
722 3162 2833
720 3245 3091
719 3317 3302
718 3374 3464
719 3417 3576
695 3028 2019
699 3070 2156
702 3130 2351
705 3203 2590
707 3285 2857
709 3366 3111
710 3439 3324
712 3499 3491
715 3544 3606
686 3107 2102
686 3143 2214
689 3197 2381
692 3265 2594
696 3344 2845
701 3426 3099
704 3501 3318
707 3564 3492
708 3610 3609
1759 654 764
1721 714 1048
1663 771 1365
1592 828 1693
1513 884 2009
1437 936 2267
1365 979 2474
1298 1013 2631
1237 1038 2740
1583 1034 854
1540 1081 1114
1489 1149 1435
1434 1228 1784
1374 1311 2127
1314 1382 2407
1255 1437 2630
1198 1478 2799
1144 1502 2917
1410 1447 989
1372 1486 1225
1334 1557 1540
1294 1646 1895
1250 1744 2254
1203 1829 2551
1155 1896 2787
1106 1944 2965
1058 1971 3087
1250 1864 1165
1224 1901 1375
1199 1970 1674
1171 2061 2023
1140 2163 2386
1103 2258 2693
1063 2334 2937
1022 2388 3121
981 2419 3245
1111 2257 1375
1099 2297 1557
1085 2364 1831
1067 2450 2162
1044 2551 2517
1013 2648 2826
979 2728 3073
945 2787 3258
911 2821 3381
1006 2568 1597
1001 2611 1753
992 2676 1997
979 2758 2299
960 2852 2631
935 2944 2929
907 3022 3171
879 3082 3354
853 3121 3477
916 2810 1794
912 2854 1931
905 2917 2145
895 2995 2416
882 3083 2719
863 3169 3003
842 3244 3239
822 3305 3421
804 3349 3546
837 2985 1957
830 3027 2078
824 3086 2264
818 3159 2502
809 3241 2777
797 3324 3047
785 3398 3278
772 3460 3460
762 3508 3587
763 3091 2077
755 3127 2182
750 3180 2341
746 3248 2549
744 3327 2797
740 3409 3057
736 3485 3286
731 3550 3471
726 3601 3599
2136 535 689
2113 569 956
2078 609 1266
2033 655 1594
1980 704 1916
1918 752 2181
1853 791 2393
1786 823 2557
1719 846 2674
2001 883 718
1960 910 974
1921 961 1298
1881 1028 1655
1838 1104 2011
1787 1173 2304
1730 1229 2537
1668 1269 2714
1601 1291 2839
1848 1282 803
1806 1307 1042
1771 1363 1366
1738 1441 1737
1702 1531 2116
1657 1618 2433
1605 1688 2686
1545 1738 2877
1480 1763 3007
1689 1703 949
1657 1731 1162
1629 1788 1472
1602 1869 1840
1570 1966 2230
1527 2063 2566
1476 2144 2835
1418 2202 3036
1355 2233 3171
1534 2117 1159
1515 2151 1335
1495 2210 1616
1472 2290 1968
1441 2386 2353
1396 2486 2696
1345 2571 2974
1288 2634 3182
1228 2671 3319
1390 2458 1423
1376 2501 1562
1360 2563 1804
1337 2642 2120
1306 2734 2477
1262 2827 2809
1212 2907 3083
1159 2970 3292
1105 3011 3429
1247 2731 1670
1232 2778 1785
1215 2843 1992
1194 2920 2268
1166 3008 2589
1126 3094 2902
1081 3169 3165
1035 3230 3372
991 3275 3512
1101 2935 1884
1082 2981 1985
1065 3044 2160
1046 3119 2396
1023 3203 2679
990 3284 2968
954 3356 3221
918 3417 3424
886 3466 3565
947 3070 2043
926 3106 2138
909 3161 2288
895 3231 2490
879 3312 2737
858 3394 3006
835 3469 3248
812 3534 3447
790 3586 3587
2405 449 623
2393 457 869
2382 479 1169
2368 511 1497
2349 552 1825
2314 593 2097
2270 626 2316
2219 652 2486
2163 670 2610
2333 756 601
2305 773 858
2286 808 1183
2271 858 1544
2255 919 1907
2226 979 2208
2186 1028 2448
2135 1063 2632
2073 1082 2762
2239 1135 643
2209 1160 893
2188 1204 1226
2173 1266 1606
2157 1340 1997
2128 1416 2327
2086 1480 2591
2031 1526 2790
1963 1549 2926
2127 1553 760
2103 1587 985
2085 1638 1307
2069 1706 1689
2049 1788 2095
2015 1876 2450
1967 1951 2736
1905 2007 2951
1831 2036 3093
2006 1979 964
1990 2023 1143
1974 2082 1434
1955 2153 1799
1928 2239 2204
1884 2330 2573
1826 2410 2876
1756 2472 3104
1676 2510 3251
1864 2345 1257
1849 2401 1384
1831 2468 1626
1808 2544 1951
1773 2629 2327
1718 2714 2688
1652 2790 2991
1577 2851 3224
1497 2892 3376
1700 2646 1544
1679 2707 1639
1657 2780 1837
1629 2860 2114
1590 2945 2450
1530 3024 2790
1460 3093 3084
1384 3150 3317
1311 3194 3473
1507 2878 1799
1477 2936 1880
1450 3008 2042
1420 3090 2274
1381 3175 2564
1323 3251 2876
1255 3317 3154
1185 3372 3381
1121 3418 3540
1279 3041 1995
1243 3082 2079
1212 3144 2219
1182 3222 2414
1147 3307 2662
1097 3387 2943
1041 3456 3201
985 3516 3418
933 3566 3573
2535 405 575
2530 400 797
2534 410 1084
2541 432 1407
2545 463 1738
2533 496 2019
2509 521 2246
2477 541 2423
2439 554 2551
2532 664 537
2532 683 785
2536 711 1102
2541 747 1457
2543 790 1818
2529 832 2123
2503 866 2367
2465 890 2554
2418 902 2687
2513 1010 563
2519 1051 813
2527 1095 1142
2532 1144 1518
2532 1197 1906
2515 1249 2239
2483 1293 2506
2436 1325 2708
2375 1340 2843
2476 1410 667
2490 1471 892
2502 1531 1213
2508 1591 1593
2504 1653 2000
2480 1715 2360
2439 1768 2652
2380 1808 2871
2304 1830 3011
2424 1834 862
2443 1913 1035
2457 1987 1323
2461 2058 1689
2451 2128 2098
2416 2195 2480
2362 2255 2795
2290 2302 3032
2200 2331 3177
2336 2218 1153
2352 2310 1264
2361 2398 1497
2358 2481 1821
2340 2557 2205
2290 2623 2586
2221 2680 2911
2135 2726 3161
2036 2760 3318
2213 2545 1446
2217 2641 1516
2217 2738 1698
2207 2832 1973
2179 2915 2317
2117 2979 2683
2034 3030 3005
1937 3072 3262
1836 3106 3431
2046 2808 1713
2031 2893 1767
2019 2991 1911
2000 3092 2137
1965 3183 2435
1893 3248 2772
1802 3296 3080
1701 3334 3335
1602 3367 3514
1826 3001 1925
1789 3057 1994
1762 3142 2120
1734 3241 2306
1693 3341 2555
1617 3414 2855
1526 3467 3139
1430 3508 3383
1339 3545 3563
2603 378 540
2603 368 739
2615 373 1010
2634 388 1325
2652 411 1657
2655 435 1946
2645 454 2181
2625 467 2364
2601 477 2495
2655 585 512
2682 610 738
2708 637 1036
2729 665 1379
2742 693 1735
2735 718 2042
2714 737 2290
2681 748 2481
2641 752 2613
2696 886 543
2748 947 771
2789 999 1083
2818 1044 1445
2831 1082 1827
2816 1111 2160
2783 1133 2429
2733 1145 2631
2670 1146 2761
2724 1256 643
2795 1351 849
2850 1429 1153
2886 1492 1523
2901 1542 1924
2880 1578 2287
2835 1603 2582
2768 1619 2799
2679 1622 2927
2735 1668 826
2819 1793 979
2883 1895 1253
2924 1976 1612
2939 2038 2021
2911 2080 2410
2855 2112 2732
2770 2132 2970
2658 2141 3102
2711 2071 1097
2791 2213 1183
2853 2334 1401
2890 2432 1721
2899 2505 2111
2861 2549 2508
2792 2581 2849
2693 2603 3108
2567 2617 3259
2653 2429 1373
2715 2572 1413
2765 2705 1580
2796 2819 1851
2797 2906 2205
2746 2952 2593
2662 2981 2939
2551 2998 3214
2419 3011 3389
2552 2727 1630
2582 2851 1655
2612 2985 1782
2630 3112 2003
2623 3215 2309
2560 3266 2672
2463 3292 3009
2344 3305 3292
2216 3316 3489
2399 2953 1848
2383 3031 1896
2385 3150 2004
2386 3284 2179
2368 3406 2430
2294 3470 2753
2190 3500 3066
2072 3512 3343
1957 3526 3554
2626 362 515
2626 354 693
2641 357 949
2665 368 1256
2691 384 1586
2702 401 1881
2699 413 2122
2687 423 2309
2669 429 2442
2703 510 518
2750 542 710
2795 572 983
2832 599 1307
2858 621 1655
2854 634 1965
2833 639 2218
2798 638 2412
2755 632 2543
2781 755 567
2877 836 758
2957 902 1040
3016 954 1382
3048 989 1753
3035 1001 2088
2993 1001 2360
2929 990 2560
2847 971 2681
2855 1081 672
2995 1213 840
3108 1320 1117
3189 1398 1469
3232 1449 1863
3212 1464 2227
3153 1462 2523
3059 1445 2735
2934 1417 2845
2920 1475 839
3094 1653 959
3232 1795 1211
3329 1899 1560
3378 1964 1967
3355 1985 2361
3286 1986 2687
3170 1970 2918
3007 1941 3027
2962 1900 1073
3140 2102 1130
3281 2266 1334
3378 2390 1650
3426 2468 2046
3400 2493 2455
3325 2497 2807
3199 2484 3067
3021 2461 3201
2980 2295 1315
3135 2496 1327
3262 2673 1482
3353 2815 1754
3397 2909 2119
3365 2939 2526
3283 2942 2891
3152 2929 3177
2976 2908 3348
2964 2634 1551
3067 2805 1549
3166 2982 1662
3244 3142 1882
3282 3259 2200
3243 3298 2586
3153 3300 2948
3025 3282 3253
2867 3263 3465
2907 2895 1767
2930 3002 1793
2983 3163 1881
3040 3339 2045
3073 3489 2300
3025 3543 2645
2931 3546 2989
2813 3525 3299
2693 3512 3545
2618 353 498
2616 349 660
2630 353 904
2654 362 1202
2681 373 1529
2696 383 1826
2696 392 2071
2685 398 2261
2666 401 2393
2676 434 546
2729 468 697
2789 504 936
2847 538 1238
2893 565 1577
2898 574 1893
2875 571 2152
2831 560 2349
2773 542 2478
2756 608 624
2887 703 763
3010 790 1004
3113 861 1319
3181 909 1681
3175 916 2021
3120 901 2298
3027 867 2496
2904 819 2604
2852 878 735
3067 1044 852
3255 1187 1093
3401 1298 1423
3487 1367 1809
3471 1374 2179
3389 1349 2476
3246 1295 2679
3049 1220 2764
2959 1246 881
3247 1481 960
3484 1674 1188
3658 1816 1525
3756 1901 1931
3735 1910 2331
3637 1882 2658
3461 1821 2877
3203 1732 2954
3063 1700 1068
3372 1968 1095
3619 2186 1287
3796 2345 1605
3893 2439 2009
3875 2452 2429
3780 2428 2785
3602 2373 3038
3332 2292 3146
3153 2140 1266
3434 2406 1255
3666 2634 1406
3836 2809 1687
3932 2918 2066
3919 2936 2488
3832 2915 2864
3667 2863 3152
3419 2794 3311
3221 2528 1474
3425 2753 1451
3616 2977 1559
3772 3171 1785
3871 3306 2117
3864 3335 2522
3789 3313 2902
3652 3263 3222
3461 3208 3442
3260 2826 1686
3336 2967 1692
3462 3175 1763
3599 3395 1918
3706 3574 2177
3707 3620 2541
3646 3596 2910
3551 3542 3251
3453 3501 3533
