Assets/1__3DArt/KimSe/artstation_asset/LUTs_pasterls/3DL/Candylandia 04 S.3dl
# Enhanced with VOXCOLOR algorithms
0 64 128 192 256 320 384 448 512 576 640 704 768 832 896 960 1023
626 1060 771
675 1182 1057
723 1305 1343
782 1435 1639
863 1582 1954
945 1728 2269
1012 1864 2550
1072 1995 2813
1132 2126 3076
1158 2222 3258
1185 2318 3439
1204 2401 3594
1208 2458 3695
1211 2516 3797
1210 2552 3856
1207 2577 3895
1204 2602 3934
463 1322 770
506 1433 1036
549 1545 1302
606 1665 1582
690 1803 1891
775 1940 2199
858 2069 2479
938 2193 2745
1019 2318 3011
1077 2410 3198
1134 2501 3385
1183 2581 3546
1215 2637 3654
1247 2693 3761
1268 2729 3828
1284 2755 3874
1299 2781 3919
300 1584 769
337 1684 1015
375 1785 1261
429 1895 1526
517 2024 1828
606 2152 2129
703 2274 2409
805 2392 2677
907 2509 2946
995 2597 3139
1083 2685 3332
1162 2762 3499
1222 2816 3612
1283 2870 3726
1326 2906 3799
1360 2934 3852
1394 2961 3905
176 1829 777
207 1918 1002
238 2007 1228
288 2107 1475
376 2226 1768
463 2345 2061
569 2459 2339
684 2570 2609
799 2682 2879
910 2766 3078
1021 2850 3277
1124 2923 3450
1209 2976 3571
1295 3028 3691
1358 3065 3771
1410 3093 3831
1463 3121 3891
128 2041 806
152 2117 1008
176 2193 1210
218 2281 1437
296 2390 1717
373 2499 1997
474 2605 2270
587 2710 2539
699 2815 2808
819 2895 3014
939 2976 3220
1053 3046 3401
1156 3097 3529
1258 3149 3658
1338 3185 3745
1408 3214 3812
1478 3243 3879
80 2253 834
97 2316 1013
114 2380 1192
148 2455 1400
216 2554 1666
283 2652 1933
379 2751 2200
489 2850 2469
600 2948 2737
729 3025 2950
857 3102 3163
983 3169 3351
1102 3219 3488
1221 3269 3625
1319 3305 3719
1406 3335 3793
1493 3365 3867
75 2426 877
86 2478 1033
97 2530 1190
124 2595 1377
184 2684 1627
243 2772 1876
335 2864 2136
442 2956 2400
549 3049 2664
681 3123 2884
813 3197 3103
943 3263 3297
1070 3311 3443
1196 3360 3589
1302 3396 3692
1398 3425 3773
1493 3454 3854
91 2579 927
97 2621 1061
102 2664 1196
123 2718 1362
176 2797 1593
229 2875 1824
315 2959 2074
419 3046 2333
523 3133 2591
655 3205 2816
788 3277 3040
919 3341 3242
1048 3389 3397
1177 3436 3553
1286 3471 3664
1386 3500 3752
1486 3528 3840
107 2732 976
107 2764 1089
107 2797 1201
123 2841 1347
168 2910 1560
214 2979 1773
296 3055 2012
396 3136 2265
496 3217 2518
629 3287 2748
762 3357 2978
895 3419 3186
1026 3466 3352
1158 3513 3517
1271 3547 3635
1374 3574 3731
1478 3602 3826
175 2836 1032
169 2861 1127
164 2887 1222
175 2924 1349
216 2984 1541
258 3043 1733
337 3113 1959
436 3189 2201
535 3264 2444
668 3333 2677
801 3402 2910
932 3464 3124
1061 3511 3300
1190 3559 3475
1297 3593 3603
1394 3619 3706
1491 3645 3809
242 2939 1089
231 2958 1166
221 2977 1242
226 3007 1350
264 3057 1522
301 3108 1693
378 3171 1905
476 3241 2138
574 3311 2370
706 3379 2606
839 3447 2842
969 3509 3062
1095 3557 3248
1221 3605 3434
1324 3638 3570
1414 3663 3682
1505 3688 3793
320 3030 1143
304 3043 1203
289 3056 1263
289 3079 1354
322 3121 1505
354 3163 1656
429 3220 1854
524 3285 2076
619 3349 2297
752 3416 2535
884 3483 2773
1014 3545 2998
1138 3595 3194
1262 3644 3391
1359 3677 3536
1443 3701 3656
1527 3725 3776
420 3095 1191
400 3104 1239
380 3113 1286
375 3130 1362
401 3165 1494
427 3200 1626
497 3250 1809
588 3309 2017
680 3368 2226
812 3435 2464
944 3502 2702
1074 3564 2930
1198 3616 3137
1321 3669 3343
1414 3702 3498
1490 3726 3627
1566 3750 3756
520 3159 1240
495 3164 1274
470 3169 1309
460 3181 1369
480 3209 1482
500 3236 1595
565 3281 1763
653 3334 1959
740 3388 2155
872 3454 2393
1004 3521 2631
1133 3583 2863
1257 3638 3080
1381 3693 3296
1468 3727 3461
1537 3751 3599
1605 3774 3737
600 3197 1275
574 3199 1300
547 3202 1326
534 3211 1375
547 3233 1472
561 3255 1568
619 3295 1723
700 3344 1906
780 3393 2089
910 3458 2326
1040 3524 2563
1169 3588 2796
1294 3646 3021
1419 3704 3247
1504 3739 3420
1568 3764 3566
1631 3789 3713
669 3220 1304
643 3222 1322
617 3223 1339
602 3229 1379
609 3247 1461
615 3264 1544
666 3300 1685
738 3345 1856
810 3390 2027
938 3455 2261
1065 3521 2495
1192 3585 2729
1320 3646 2963
1448 3708 3196
1530 3745 3377
1591 3771 3532
1651 3797 3687
739 3244 1333
713 3244 1343
687 3244 1353
670 3248 1383
670 3261 1451
669 3274 1519
712 3306 1647
776 3346 1806
840 3387 1964
965 3452 2196
1089 3517 2427
1215 3582 2663
1346 3647 2904
1476 3712 3146
1557 3751 3335
1614 3779 3498
1670 3806 3661
1194 1085 779
1219 1185 1061
1244 1284 1342
1276 1394 1635
1324 1521 1948
1372 1649 2261
1410 1771 2541
1444 1891 2805
1477 2011 3070
1486 2103 3253
1496 2195 3437
1499 2275 3594
1491 2334 3697
1483 2393 3801
1472 2433 3863
1459 2463 3904
1446 2492 3946
985 1321 768
1007 1409 1029
1029 1498 1289
1061 1597 1565
1115 1719 1871
1170 1841 2177
1224 1960 2458
1279 2077 2726
1333 2194 2994
1372 2285 3185
1411 2377 3376
1444 2457 3540
1463 2516 3652
1482 2575 3763
1492 2615 3832
1498 2646 3880
1503 2676 3928
776 1557 758
795 1634 997
814 1711 1235
847 1801 1495
907 1917 1794
967 2033 2094
1038 2148 2375
1114 2263 2646
1190 2377 2918
1258 2468 3117
1327 2559 3315
1388 2639 3487
1435 2698 3606
1482 2757 3725
1513 2798 3801
1536 2829 3856
1560 2861 3911
602 1783 759
617 1849 976
633 1915 1193
664 1995 1435
727 2104 1725
789 2213 2016
870 2324 2296
961 2435 2569
1051 2546 2843
1143 2636 3049
1235 2725 3255
1320 2805 3434
1391 2864 3561
1463 2923 3687
1514 2964 3771
1555 2996 3833
1596 3028 3895
497 1990 784
508 2045 978
519 2100 1173
546 2170 1395
603 2270 1672
660 2370 1950
740 2474 2224
831 2580 2496
923 2686 2769
1026 2773 2982
1128 2860 3195
1227 2938 3382
1316 2996 3517
1405 3054 3652
1474 3095 3743
1533 3128 3812
1593 3161 3881
392 2196 808
399 2241 980
406 2285 1152
428 2345 1355
479 2436 1619
530 2527 1883
609 2625 2152
702 2726 2423
795 2826 2695
908 2911 2915
1022 2996 3135
1133 3071 3329
1240 3129 3473
1347 3186 3616
1434 3227 3715
1512 3261 3791
1589 3294 3868
339 2371 850
342 2406 1000
345 2442 1151
362 2493 1334
408 2575 1581
454 2658 1828
531 2748 2088
623 2843 2355
715 2938 2622
834 3020 2848
952 3102 3073
1070 3176 3274
1186 3232 3427
1302 3288 3579
1398 3329 3686
1486 3362 3769
1573 3394 3853
311 2528 899
310 2557 1029
309 2585 1159
322 2629 1321
364 2701 1550
405 2774 1779
479 2858 2029
569 2947 2290
660 3036 2550
780 3115 2781
901 3195 3011
1022 3266 3219
1142 3321 3380
1262 3376 3542
1364 3416 3656
1457 3447 3747
1550 3479 3838
283 2686 949
279 2707 1058
274 2728 1166
283 2764 1309
319 2827 1520
356 2891 1730
427 2968 1970
516 3051 2224
604 3134 2479
727 3211 2714
850 3287 2949
974 3356 3163
1098 3410 3334
1223 3464 3504
1330 3502 3627
1428 3533 3725
1527 3563 3823
320 2797 1008
311 2814 1099
302 2830 1191
306 2860 1315
340 2916 1505
373 2971 1695
442 3041 1921
530 3118 2165
618 3195 2408
742 3269 2645
865 3344 2883
989 3411 3101
1112 3465 3282
1235 3518 3462
1338 3555 3593
1432 3584 3699
1526 3613 3805
356 2908 1067
343 2920 1141
329 2933 1215
330 2957 1321
360 3004 1491
389 3051 1660
457 3114 1872
544 3185 2105
632 3256 2338
756 3328 2577
880 3400 2816
1004 3466 3039
1125 3519 3230
1247 3573 3420
1346 3608 3560
1435 3635 3674
1524 3663 3788
407 3005 1124
389 3014 1182
371 3022 1240
368 3041 1329
393 3081 1479
418 3120 1629
484 3177 1826
570 3242 2047
656 3306 2268
781 3377 2509
906 3447 2749
1029 3512 2976
1150 3565 3176
1271 3618 3376
1367 3653 3524
1450 3679 3647
1533 3705 3770
487 3076 1176
465 3081 1222
443 3087 1268
434 3102 1342
454 3135 1472
473 3168 1603
535 3218 1785
618 3277 1992
701 3336 2200
827 3405 2440
952 3473 2679
1076 3538 2908
1198 3593 3118
1319 3648 3328
1411 3683 3485
1487 3708 3618
1564 3734 3750
567 3146 1228
540 3149 1261
514 3152 1295
500 3163 1354
515 3189 1466
529 3215 1577
587 3259 1743
666 3312 1938
746 3366 2132
873 3433 2370
999 3500 2609
1124 3563 2841
1246 3620 3060
1368 3677 3279
1455 3712 3447
1525 3737 3588
1594 3762 3730
638 3188 1267
610 3190 1292
582 3192 1316
566 3200 1364
574 3221 1459
582 3242 1554
634 3281 1706
708 3329 1887
782 3377 2067
906 3443 2303
1031 3509 2539
1156 3573 2772
1280 3632 3000
1405 3691 3227
1490 3728 3404
1556 3754 3555
1622 3781 3706
703 3217 1300
676 3218 1317
649 3219 1334
632 3225 1373
634 3241 1452
636 3258 1532
680 3292 1670
746 3336 1838
812 3379 2005
934 3444 2237
1057 3509 2469
1181 3573 2702
1309 3635 2938
1436 3698 3174
1521 3737 3359
1585 3765 3520
1648 3793 3681
769 3245 1332
743 3245 1343
716 3245 1353
697 3250 1381
693 3262 1446
689 3274 1511
726 3304 1635
784 3343 1788
842 3382 1942
962 3446 2171
1082 3509 2399
1206 3574 2633
1337 3639 2876
1468 3705 3120
1552 3746 3315
1613 3776 3485
1675 3806 3656
1761 1110 787
1763 1187 1064
1764 1264 1342
1770 1352 1631
1785 1461 1941
1799 1570 2252
1809 1679 2533
1816 1787 2798
1823 1895 3063
1815 1983 3249
1806 2071 3434
1794 2150 3594
1774 2210 3700
1754 2271 3806
1733 2314 3870
1711 2349 3913
1688 2383 3957
1507 1320 767
1508 1385 1022
1509 1450 1276
1517 1529 1547
1540 1636 1851
1564 1742 2155
1591 1851 2437
1619 1961 2707
1648 2070 2976
1668 2161 3171
1689 2252 3367
1705 2333 3535
1711 2395 3650
1718 2457 3765
1717 2502 3837
1712 2537 3887
1707 2572 3937
1252 1530 747
1253 1583 979
1253 1637 1210
1264 1707 1463
1296 1810 1761
1329 1914 2059
1373 2023 2341
1423 2134 2615
1473 2245 2890
1522 2339 3094
1571 2432 3299
1615 2516 3476
1648 2580 3600
1681 2644 3723
1700 2689 3803
1713 2725 3860
1725 2760 3917
1028 1737 741
1028 1780 950
1028 1822 1158
1040 1884 1394
1078 1983 1683
1115 2082 1971
1172 2189 2252
1238 2300 2529
1303 2411 2807
1376 2506 3019
1449 2601 3232
1516 2686 3418
1573 2751 3551
1631 2817 3683
1670 2862 3770
1700 2898 3835
1730 2934 3899
867 1938 762
865 1972 949
863 2006 1136
874 2060 1352
910 2151 1627
946 2242 1902
1005 2344 2178
1076 2451 2453
1146 2558 2729
1232 2652 2949
1318 2745 3169
1400 2830 3363
1476 2895 3504
1552 2960 3646
1610 3006 3740
1659 3042 3812
1707 3078 3884
705 2140 782
702 2165 948
698 2190 1113
707 2235 1310
742 2319 1572
777 2402 1833
839 2499 2103
914 2602 2378
989 2704 2652
1088 2797 2879
1186 2890 3106
1284 2973 3308
1379 3038 3458
1474 3103 3608
1550 3150 3711
1618 3186 3789
1685 3223 3868
603 2315 822
598 2335 967
592 2354 1112
600 2392 1290
632 2467 1535
665 2543 1779
727 2633 2040
804 2730 2310
881 2828 2580
986 2918 2812
1092 3008 3044
1197 3089 3252
1302 3153 3411
1408 3217 3570
1495 3262 3680
1574 3298 3766
1652 3334 3852
531 2478 872
524 2492 997
516 2507 1122
521 2539 1280
551 2606 1507
582 2673 1733
643 2757 1984
720 2848 2247
797 2939 2510
906 3026 2746
1015 3113 2982
1125 3191 3195
1236 3254 3363
1348 3316 3531
1442 3360 3649
1528 3394 3742
1614 3429 3836
459 2641 922
450 2650 1027
440 2660 1132
443 2686 1271
471 2745 1479
498 2804 1687
558 2880 1927
636 2966 2183
713 3051 2439
825 3134 2680
938 3218 2920
1052 3294 3139
1170 3354 3315
1287 3415 3492
1389 3457 3618
1483 3491 3719
1576 3524 3819
465 2759 983
452 2766 1071
439 2774 1160
438 2796 1281
463 2848 1469
488 2899 1657
547 2969 1883
624 3047 2128
701 3126 2373
815 3206 2614
930 3286 2855
1045 3359 3078
1162 3418 3263
1280 3477 3449
1379 3518 3584
1469 3549 3692
1560 3581 3801
471 2877 1045
454 2882 1116
438 2888 1188
434 2906 1292
455 2950 1460
477 2994 1628
536 3057 1839
613 3129 2073
690 3201 2306
806 3277 2548
921 3354 2790
1038 3424 3017
1155 3482 3211
1272 3540 3406
1369 3578 3549
1456 3608 3666
1543 3637 3783
495 2981 1105
475 2984 1161
454 2988 1217
446 3003 1305
464 3040 1453
482 3077 1601
539 3133 1798
616 3199 2019
692 3264 2240
810 3337 2482
927 3411 2724
1044 3478 2954
1162 3535 3157
1280 3592 3361
1374 3630 3513
1457 3658 3638
1539 3686 3764
554 3057 1160
530 3059 1205
505 3062 1249
494 3074 1322
507 3105 1451
520 3136 1580
574 3185 1761
648 3245 1968
722 3304 2175
841 3374 2415
960 3445 2655
1079 3511 2886
1198 3569 3099
1317 3626 3312
1408 3664 3473
1485 3691 3608
1561 3718 3743
614 3133 1216
585 3134 1248
557 3136 1281
541 3145 1339
549 3169 1449
557 3194 1559
608 3238 1724
680 3291 1916
752 3343 2109
873 3411 2348
993 3479 2586
1114 3544 2819
1234 3602 3041
1355 3660 3262
1442 3697 3433
1513 3724 3578
1583 3751 3723
675 3180 1259
646 3181 1283
617 3182 1307
598 3189 1353
601 3209 1446
604 3229 1539
649 3267 1689
716 3314 1867
783 3362 2046
902 3427 2280
1022 3493 2515
1143 3557 2748
1267 3618 2978
1391 3678 3208
1477 3717 3388
1545 3745 3544
1612 3773 3700
738 3213 1295
710 3214 1312
681 3214 1329
662 3220 1366
659 3236 1444
656 3251 1521
695 3285 1656
754 3327 1819
814 3369 1983
931 3433 2213
1049 3497 2443
1169 3561 2676
1297 3625 2913
1425 3688 3151
1512 3729 3341
1579 3759 3508
1646 3790 3675
800 3246 1332
773 3247 1342
746 3247 1352
725 3251 1379
717 3262 1441
708 3274 1503
740 3302 1622
792 3339 1771
844 3377 1920
960 3439 2145
1075 3502 2371
1196 3565 2603
1328 3632 2848
1459 3698 3094
1547 3742 3294
1613 3774 3473
1679 3807 3651
2272 1136 801
2255 1193 1072
2238 1249 1343
2223 1317 1626
2213 1408 1934
2203 1499 2241
2191 1593 2521
2179 1689 2786
2167 1785 3051
2147 1867 3239
2126 1949 3427
2103 2023 3589
2075 2083 3697
2047 2142 3805
2017 2187 3872
1987 2225 3917
1958 2263 3962
1988 1321 770
1971 1365 1017
1954 1410 1265
1942 1469 1530
1942 1559 1831
1942 1650 2132
1948 1747 2413
1957 1848 2684
1966 1949 2955
1973 2037 3154
1980 2125 3353
1984 2205 3525
1981 2269 3643
1978 2332 3762
1968 2379 3837
1955 2417 3889
