Assets/1__3DArt/KimSe/artstation_asset/LUTs_pasterls/3DL/Candylandia 03.3dl
# Enhanced with VOXCOLOR algorithms
0 256 512 768 1023
707 947 931
582 1111 1561
507 1248 2199
504 1349 2642
514 1413 2875
570 1815 1358
548 2000 1936
556 2174 2556
578 2290 2991
596 2362 3244
581 2530 1747
597 2700 2252
624 2880 2832
649 3011 3251
668 3092 3490
639 2944 2003
656 3074 2402
673 3238 2928
689 3382 3355
705 3477 3602
674 3115 2120
682 3210 2410
692 3360 2883
702 3514 3344
707 3613 3613
1759 654 764
1671 781 1366
1520 891 2009
1366 980 2473
1237 1038 2740
1449 1453 1094
1391 1597 1613
1291 1791 2286
1167 1915 2794
1058 1971 3087
1142 2264 1515
1105 2401 1951
1054 2596 2573
982 2747 3085
911 2822 3381
921 2808 1864
894 2924 2218
867 3092 2758
835 3249 3249
803 3349 3545
763 3091 2077
749 3179 2342
742 3324 2798
735 3483 3287
726 3601 3599
2405 449 623
2395 507 1168
2360 573 1821
2272 630 2315
2163 670 2610
2299 1108 873
2271 1212 1332
2220 1380 2012
2106 1503 2586
1962 1549 2925
2062 1948 1263
2013 2061 1623
1947 2255 2254
1829 2431 2872
1675 2510 3249
1713 2630 1680
1633 2738 1971
1548 2907 2505
1431 3081 3086
1308 3194 3471
1279 3041 1995
1202 3127 2227
1126 3273 2675
1029 3437 3207
933 3566 3573
2603 378 540
2615 396 1006
2653 428 1652
2645 457 2180
2601 477 2495
2686 822 724
2709 900 1124
2746 1017 1771
2736 1113 2381
2670 1146 2759
2729 1594 1053
2745 1705 1357
2767 1881 1955
2744 2060 2639
2655 2142 3095
2649 2398 1477
2623 2509 1701
2596 2675 2192
2522 2868 2857
2414 3011 3382
2399 2953 1848
2324 3046 2040
2250 3212 2483
2121 3392 3089
1957 3526 3554
2618 353 498
2630 353 904
2681 373 1529
2696 392 2071
2666 401 2393
2750 605 627
2797 656 967
2876 739 1571
2922 808 2196
2900 818 2600
2946 1238 891
3032 1355 1172
3133 1530 1753
3201 1683 2446
3185 1731 2933
3137 2126 1289
3218 2252 1485
3310 2437 1962
3382 2637 2658
3400 2796 3289
3260 2826 1686
3281 2921 1824
3365 3112 2236
3443 3334 2923
3453 3501 3533
