Assets/1__3DArt/KimSe/artstation_asset/LUTs_pasterls/3DL/Candylandia 04 S.3dl
# Enhanced with VOXCOLOR algorithms
0 128 256 384 512 640 768 896 1023
626 1060 771
723 1305 1343
863 1582 1954
1012 1864 2550
1132 2126 3076
1185 2318 3439
1208 2458 3695
1210 2552 3856
1204 2602 3934
300 1584 769
375 1785 1261
517 2024 1828
703 2274 2409
907 2509 2946
1083 2685 3332
1222 2816 3612
1326 2906 3799
1394 2961 3905
128 2041 806
176 2193 1210
296 2390 1717
474 2605 2270
699 2815 2808
939 2976 3220
1156 3097 3529
1338 3185 3745
1478 3243 3879
75 2426 877
97 2530 1190
184 2684 1627
335 2864 2136
549 3049 2664
813 3197 3103
1070 3311 3443
1302 3396 3692
1493 3454 3854
107 2732 976
107 2797 1201
168 2910 1560
296 3055 2012
496 3217 2518
762 3357 2978
1026 3466 3352
1271 3547 3635
1478 3602 3826
242 2939 1089
221 2977 1242
264 3057 1522
378 3171 1905
574 3311 2370
839 3447 2842
1095 3557 3248
1324 3638 3570
1505 3688 3793
420 3095 1191
380 3113 1286
401 3165 1494
497 3250 1809
680 3368 2226
944 3502 2702
1198 3616 3137
1414 3702 3498
1566 3750 3756
600 3197 1275
547 3202 1326
547 3233 1472
619 3295 1723
780 3393 2089
1040 3524 2563
1294 3646 3021
1504 3739 3420
1631 3789 3713
739 3244 1333
687 3244 1353
670 3261 1451
712 3306 1647
840 3387 1964
1089 3517 2427
1346 3647 2904
1557 3751 3335
1670 3806 3661
1761 1110 787
1764 1264 1342
1785 1461 1941
1809 1679 2533
1823 1895 3063
1806 2071 3434
1774 2210 3700
1733 2314 3870
1688 2383 3957
1252 1530 747
1253 1637 1210
1296 1810 1761
1373 2023 2341
1473 2245 2890
1571 2432 3299
1648 2580 3600
1700 2689 3803
1725 2760 3917
867 1938 762
863 2006 1136
910 2151 1627
1005 2344 2178
1146 2558 2729
1318 2745 3169
1476 2895 3504
1610 3006 3740
1707 3078 3884
603 2315 822
592 2354 1112
632 2467 1535
727 2633 2040
881 2828 2580
1092 3008 3044
1302 3153 3411
1495 3262 3680
1652 3334 3852
459 2641 922
440 2660 1132
471 2745 1479
558 2880 1927
713 3051 2439
938 3218 2920
1170 3354 3315
1389 3457 3618
1576 3524 3819
471 2877 1045
438 2888 1188
455 2950 1460
536 3057 1839
690 3201 2306
921 3354 2790
1155 3482 3211
1369 3578 3549
1543 3637 3783
554 3057 1160
505 3062 1249
507 3105 1451
574 3185 1761
722 3304 2175
960 3445 2655
1198 3569 3099
1408 3664 3473
1561 3718 3743
675 3180 1259
617 3182 1307
601 3209 1446
649 3267 1689
783 3362 2046
1022 3493 2515
1267 3618 2978
1477 3717 3388
1612 3773 3700
800 3246 1332
746 3247 1352
717 3262 1441
740 3302 1622
844 3377 1920
1075 3502 2371
1328 3632 2848
1547 3742 3294
1679 3807 3651
2669 1164 825
2617 1246 1347
2576 1370 1924
2542 1522 2503
2510 1684 3031
2465 1828 3410
2410 1949 3683
2348 2046 3862
2282 2120 3956
2111 1491 735
2043 1518 1167
2017 1625 1697
2030 1786 2268
2075 1978 2822
2135 2161 3251
2179 2313 3573
2202 2431 3794
2196 2511 3919
1635 1848 713
1567 1842 1065
1552 1929 1540
1590 2084 2084
1679 2282 2643
1808 2482 3108
1928 2651 3470
2026 2782 3728
2086 2867 3885
1261 2210 754
1200 2189 1032
1191 2256 1445
1239 2393 1946
1346 2581 2491
1514 2781 2978
1684 2953 3371
1839 3087 3664
1958 3174 3850
1008 2553 852
953 2528 1058
945 2579 1401
992 2693 1846
1101 2859 2361
1282 3045 2857
1475 3207 3275
1659 3334 3598
1815 3417 3814
919 2824 995
860 2806 1136
844 2844 1404
883 2935 1781
989 3074 2246
1173 3237 2738
1369 3382 3173
1555 3496 3526
1708 3569 3773
906 3034 1133
838 3023 1220
809 3052 1419
837 3121 1724
937 3233 2132
1129 3376 2612
1331 3507 3062
1517 3612 3446
1657 3678 3731
940 3181 1253
868 3177 1300
828 3197 1435
841 3247 1670
929 3333 2015
1125 3460 2476
1337 3584 2938
1528 3688 3357
1659 3753 3685
995 3262 1342
933 3263 1362
885 3275 1445
880 3309 1613
946 3374 1892
1138 3490 2327
1364 3616 2800
1573 3729 3255
1709 3803 3635
3342 1216 873
3263 1242 1355
3202 1307 1903
3156 1401 2466
3121 1512 2991
3079 1618 3376
3027 1712 3656
2965 1790 3842
2895 1853 3943
2822 1455 730
2701 1423 1133
2636 1471 1639
2622 1581 2196
2651 1735 2752
2704 1901 3199
2741 2046 3540
2753 2163 3778
2733 2242 3915
2351 1763 668
2224 1702 1005
2166 1736 1464
2172 1847 1998
2237 2017 2559
2347 2215 3045
2449 2392 3431
2525 2533 3713
2560 2626 3883
1956 2112 685
1843 2043 960
1794 2066 1365
1809 2168 1860
1886 2335 2407
2024 2540 2912
2165 2727 3329
2289 2879 3645
2374 2981 3848
1665 2474 781
1569 2411 991
1525 2426 1332
1536 2513 1774
1607 2662 2288
1749 2853 2796
1904 3031 3232
2053 3179 3576
2175 3281 3808
1515 2786 948
1424 2739 1090
1374 2752 1358
1374 2820 1733
1433 2943 2194
1569 3106 2690
1721 3260 3135
1870 3390 3502
1996 3482 3765
1423 3029 1113
1332 3001 1200
1273 3013 1398
1261 3066 1700
1310 3163 2100
1445 3299 2576
1599 3432 3028
1749 3547 3421
1868 3627 3719
1367 3200 1257
1280 3189 1303
1215 3201 1437
1190 3240 1666
1227 3313 2000
1364 3428 2449
1527 3547 2907
1683 3653 3329
1797 3728 3670
1326 3293 1361
1254 3293 1383
1187 3303 1463
1152 3331 1623
1173 3386 1886
1311 3487 2303
1492 3604 2766
1669 3714 3221
1793 3794 3616
3773 1259 920
3682 1243 1360
3624 1269 1879
3593 1326 2427
3581 1400 2950
3567 1475 3342
3537 1537 3630
3494 1588 3822
3439 1628 3928
3332 1412 730
3184 1346 1108
3109 1355 1592
3096 1425 2135
3138 1543 2688
3207 1685 3150
3258 1813 3508
3280 1915 3761
3261 1983 3908
2934 1676 630
2772 1586 958
2695 1583 1404
2693 1656 1927
2758 1792 2486
2873 1972 2988
2975 2140 3394
3047 2279 3696
3071 2372 3881
2598 2020 626
2449 1925 903
2375 1914 1303
2374 1980 1792
2440 2116 2335
2567 2306 2853
2694 2491 3289
2800 2648 3626
2864 2760 3846
2345 2410 721
2213 2321 937
2142 2306 1278
2131 2360 1718
2179 2479 2227
2294 2658 2742
2422 2836 3192
2542 2995 3555
2638 3115 3805
2189 2766 911
2068 2697 1056
1991 2684 1325
1963 2725 1697
1987 2821 2154
2080 2969 2648
2192 3121 3100
2307 3260 3480
2408 3372 3758
2056 3046 1102
1945 3002 1189
1863 2996 1387
1820 3029 1688
1825 3103 2083
1903 3221 2551
2005 3347 3001
2112 3465 3399
2207 3561 3709
1930 3240 1269
1832 3222 1315
1749 3225 1449
1695 3252 1678
1685 3308 2005
1755 3403 2440
1857 3508 2888
1964 3609 3307
2052 3694 3657
1795 3340 1387
1716 3341 1412
1638 3351 1494
1578 3376 1653
1556 3419 1908
1628 3501 2307
1745 3599 2753
1869 3697 3199
1962 3779 3598
3944 1282 946
3864 1256 1359
3820 1272 1860
3805 1316 2397
3814 1375 2919
3823 1428 3318
3817 1468 3612
3797 1498 3812
3765 1519 3927
3611 1377 748
3477 1310 1108
3414 1308 1574
3413 1359 2104
3465 1452 2652
3545 1566 3119
3607 1667 3487
3642 1749 3751
3638 1801 3908
3327 1614 638
3173 1525 953
3102 1510 1385
3105 1558 1895
3171 1662 2447
3284 1808 2952
3387 1948 3369
3461 2068 3683
3491 2153 3882
3097 1958 624
2946 1862 893
2872 1835 1283
2867 1873 1761
2927 1972 2295
3043 2125 2814
3161 2283 3260
3259 2426 3611
3321 2539 3847
2931 2375 714
2789 2278 922
2710 2242 1257
2690 2265 1689
2726 2346 2190
2823 2488 2703
2933 2642 3161
3039 2792 3537
3125 2924 3805
2815 2774 909
2686 2691 1045
2602 2656 1309
2564 2670 1679
2572 2730 2131
2638 2844 2621
2723 2974 3075
2815 3107 3463
2903 3234 3756
2693 3088 1109
2579 3032 1187
2495 3010 1384
2444 3022 1687
2431 3067 2081
2472 3154 2542
2535 3256 2988
2609 3365 3386
2685 3472 3704
2549 3305 1286
2456 3281 1326
2377 3278 1463
2319 3295 1698
2291 3333 2029
2316 3398 2456
2367 3476 2892
2428 3559 3301
2488 3643 3648
2373 3411 1412
2303 3417 1440
2235 3436 1531
2178 3465 1700
2142 3503 1963
2164 3556 2352
2218 3619 2778
2280 3687 3203
2327 3752 3587
4029 1294 956
3973 1282 1358
3945 1302 1849
3940 1341 2378
3955 1386 2897
3971 1419 3298
3976 1441 3597
3971 1456 3804
3956 1467 3931
3817 1362 787
3716 1310 1130
3671 1310 1582
3675 1350 2099
3720 1420 2638
3788 1502 3102
3844 1575 3471
3879 1634 3742
3885 1673 3910
3645 1580 688
3522 1505 984
3466 1488 1398
3468 1520 1893
3522 1593 2432
3613 1700 2931
3698 1805 3350
3762 1900 3672
3794 1973 3883
3512 1919 671
3384 1831 920
3320 1798 1292
3312 1816 1755
3357 1879 2276
3448 1990 2789
3541 2111 3237
3623 2230 3598
3679 2337 3850
3419 2350 749
3294 2252 937
3221 2205 1257
3199 2205 1678
3222 2250 2168
3294 2349 2676
3378 2468 3137
3463 2599 3523
3537 2732 3808
3343 2783 932
3229 2693 1048
3154 2644 1303
3117 2635 1668
3117 2664 2116
3160 2739 2602
3219 2838 3057
3288 2954 3452
3359 3085 3757
3242 3130 1124
3146 3066 1186
3076 3032 1379
3032 3027 1684
3016 3049 2081
3034 3102 2540
3068 3174 2983
3114 3263 3381
3168 3371 3703
3106 3373 1300
3034 3346 1329
2974 3340 1469
2931 3352 1712
2904 3375 2053
2906 3411 2479
2922 3455 2907
2947 3512 3306
2977 3585 3646
2928 3492 1433
2878 3507 1460
2835 3539 1560
2798 3578 1742
2771 3615 2019
2767 3640 2408
2777 3662 2820
2790 3687 3223
2797 3723 3584
4059 1300 955
4032 1313 1355
4020 1344 1843
4019 1383 2367
4030 1416 2880
4042 1431 3279
4049 1438 3582
4050 1444 3797
4044 1450 3934
3965 1362 845
3910 1340 1175
3886 1351 1614
3890 1386 2117
3917 1432 2641
3957 1480 3094
3991 1523 3459
4015 1559 3732
4022 1586 3910
3892 1564 776
3821 1517 1049
3788 1508 1442
3790 1531 1918
3820 1576 2437
3872 1640 2923
3922 1706 3336
3962 1771 3661
3985 1829 3883
3838 1888 762
3760 1821 980
3720 1793 1329
3715 1799 1771
3739 1833 2274
3790 1898 2775
3843 1976 3220
3892 2064 3586
3928 2155 3852
3799 2315 819
3721 2231 976
3676 2184 1275
3661 2171 1681
3673 2189 2159
3711 2245 2658
3758 2323 3118
3805 2422 3512
3848 2542 3813
3754 2773 969
3686 2687 1061
3642 2635 1303
3621 2614 1663
3620 2619 2108
3641 2659 2591
3668 2722 3046
3700 2810 3446
3734 2929 3763
3679 3155 1141
3627 3089 1182
3591 3052 1370
3571 3038 1679
3563 3042 2082
3567 3066 2542
3575 3105 2984
3586 3168 3383
3600 3260 3709
3568 3433 1309
3534 3406 1324
3511 3402 1465
3497 3412 1718
3488 3426 2071
3480 3436 2501
3471 3447 2927
3462 3472 3319
3454 3523 3651
3415 3578 1449
3395 3603 1472
3387 3649 1576
3385 3700 1770
3382 3740 2064
3368 3739 2460
3350 3720 2866
3327 3701 3253
3302 3701 3592
4063 1301 947
4062 1342 1351
4062 1388 1838
4062 1428 2359
4065 1449 2865
4068 1448 3261
4069 1445 3565
4067 1443 3786
4063 1445 3934
4071 1374 919
4068 1393 1241
4067 1423 1667
4068 1454 2155
4070 1478 2658
4071 1489 3093
4071 1500 3447
4070 1512 3719
4067 1526 3904
4072 1558 895
4071 1553 1144
4072 1563 1514
4074 1582 1966
4076 1601 2460
4076 1621 2923
4075 1645 3323
4071 1675 3646
4066 1712 3878
4068 1851 888
4071 1822 1072
4075 1812 1391
4079 1814 1808
4082 1826 2287
4081 1848 2769
4077 1882 3205
4069 1930 3573
4056 1993 3851
4057 2253 912
4066 2200 1034
4074 2169 1309
4081 2157 1697
4086 2158 2160
4083 2178 2649
4074 2214 3105
4058 2273 3503
4034 2358 3818
4029 2725 1011
4045 2659 1076
4060 2620 1307
4073 2600 1662
4079 2596 2105
4074 2607 2585
4059 2634 3040
4030 2685 3445
3988 2769 3774
3979 3145 1151
4002 3089 1172
4025 3060 1356
4045 3047 1670
4056 3046 2080
4048 3047 2544
4025 3057 2989
3984 3085 3391
3926 3145 3722
3902 3471 1308
3926 3449 1309
3957 3451 1449
3986 3464 1711
4004 3477 2077
3994 3468 2516
3964 3452 2946
3916 3444 3338
3854 3462 3668
3790 3661 1461
3808 3695 1477
3844 3755 1579
3883 3817 1778
3912 3861 2085
3901 3841 2492
3866 3789 2902
3820 3732 3286
3774 3694 3613
