Assets/1__3DArt/KimSe/artstation_asset/LUTs_pasterls/3DL/Candylandia 01.3dl
# Enhanced with VOXCOLOR algorithms
0 128 256 384 512 640 768 896 1023
642 899 434
665 988 1136
769 1172 1818
932 1427 2426
1133 1728 2908
1353 2033 3189
1567 2306 3375
1767 2536 3488
1943 2714 3549
396 1476 558
463 1575 1132
605 1742 1761
804 1959 2372
1043 2202 2895
1299 2432 3215
1545 2632 3422
1775 2800 3542
1980 2931 3599
300 1953 649
395 2049 1109
561 2200 1681
782 2384 2282
1043 2582 2834
1321 2757 3197
1584 2904 3434
1829 3022 3572
2048 3115 3634
329 2330 702
440 2418 1067
617 2551 1580
848 2708 2162
1118 2872 2732
1404 3010 3140
1674 3120 3415
1924 3204 3580
2146 3267 3655
458 2610 715
577 2687 1005
756 2801 1463
985 2936 2017
1253 3076 2598
1536 3191 3050
1805 3280 3370
2052 3344 3570
2270 3387 3664
670 2784 683
787 2849 923
957 2945 1333
1171 3061 1855
1422 3184 2433
1693 3290 2927
1952 3372 3294
2192 3431 3539
2403 3467 3663
886 2912 640
996 2965 841
1150 3044 1205
1344 3143 1692
1573 3252 2263
1828 3351 2792
2077 3431 3207
2309 3489 3498
2513 3523 3656
1071 2995 596
1169 3037 764
1306 3103 1087
1479 3187 1538
1685 3284 2092
1923 3380 2651
2161 3461 3110
2385 3521 3448
2580 3556 3640
1188 3035 562
1273 3071 701
1394 3127 984
1548 3201 1397
1734 3289 1930
1958 3383 2509
2187 3466 3009
2402 3530 3390
2585 3565 3613
1738 848 251
1716 934 906
1732 1104 1581
1782 1342 2212
1864 1633 2737
1976 1942 3065
2094 2224 3289
2211 2466 3430
2319 2657 3510
1328 1424 376
1353 1477 907
1413 1617 1531
1508 1820 2167
1636 2062 2731
1795 2305 3096
1957 2522 3340
2116 2709 3488
2263 2857 3564
1032 1914 488
1086 1953 910
1182 2070 1475
1315 2240 2095
1484 2439 2683
1682 2628 3088
1880 2793 3361
2071 2932 3526
2246 3041 3606
851 2310 576
922 2347 908
1042 2447 1409
1206 2589 1999
1407 2752 2598
1635 2902 3045
1860 3027 3354
2072 3127 3545
2264 3203 3636
784 2605 628
864 2645 889
999 2733 1330
1181 2853 1883
1402 2990 2482
1650 3113 2969
1891 3212 3319
2116 3287 3544
2317 3339 3653
853 2781 628
936 2822 844
1072 2901 1234
1254 3006 1748
1476 3126 2336
1726 3237 2856
1970 3325 3250
2199 3391 3517
2401 3432 3654
968 2906 609
1051 2945 789
1182 3015 1134
1356 3107 1609
1568 3214 2179
1812 3316 2727
2053 3400 3164
2282 3463 3476
2485 3500 3648
1098 2989 578
1179 3025 730
1300 3085 1033
1460 3166 1469
1656 3261 2016
1888 3359 2585
2123 3442 3064
2349 3506 3423
2551 3544 3634
1210 3037 546
1287 3069 675
1398 3121 939
1542 3191 1333
1718 3277 1850
1935 3371 2434
2162 3456 2951
2384 3524 3358
2583 3566 3610
2507 817 143
2478 901 732
2465 1062 1381
2470 1289 2021
2496 1573 2582
2545 1883 2954
2602 2170 3213
2660 2422 3382
2714 2623 3481
2121 1383 243
2120 1407 724
2134 1524 1330
2168 1712 1973
2227 1949 2569
2315 2200 2977
2411 2433 3258
2509 2636 3436
2602 2800 3533
1779 1885 347
1797 1884 732
1838 1970 1281
1907 2121 1906
2002 2313 2522
2129 2513 2970
2263 2694 3281
2396 2851 3477
2521 2977 3577
1500 2306 441
1530 2303 745
1596 2370 1230
1697 2489 1822
1829 2642 2444
1992 2799 2932
2159 2937 3279
2322 3053 3501
2472 3143 3611
1302 2626 510
1341 2633 751
1426 2691 1176
1553 2788 1726
1714 2912 2341
1907 3037 2865
2101 3143 3252
2287 3229 3507
2456 3290 3634
1235 2811 537
1279 2828 735
1373 2884 1110
1510 2971 1618
1684 3079 2214
1892 3188 2764
2100 3279 3190
2300 3350 3485
2481 3397 3640
1231 2936 542
1280 2959 708
1377 3013 1038
1515 3091 1504
1692 3189 2076
1905 3287 2645
2120 3371 3109
2329 3436 3446
2519 3477 3637
1268 3014 533
1322 3040 674
1417 3090 962
1551 3162 1385
1722 3250 1927
1931 3344 2510
2148 3426 3010
2362 3491 3392
2559 3533 3624
1324 3059 515
1383 3084 635
1474 3130 884
1599 3193 1262
1756 3273 1768
1956 3364 2358
2171 3449 2893
2387 3519 3324
2590 3566 3603
3004 807 93
2989 887 609
2983 1042 1222
2985 1262 1859
2999 1540 2445
3022 1849 2856
3046 2139 3149
3069 2397 3344
3087 2607 3461
2746 1341 158
2732 1353 589
2728 1454 1165
2737 1628 1802
2761 1858 2417
2804 2116 2864
2854 2360 3181
2906 2577 3388
2954 2757 3504
2463 1848 235
2453 1827 587
2460 1890 1112
2486 2021 1730
2531 2202 2362
2602 2409 2849
2680 2604 3198
2761 2778 3425
2838 2921 3546
2180 2296 315
2177 2269 596
2200 2308 1064
2248 2403 1649
2321 2541 2285
2421 2701 2810
2529 2850 3196
2639 2980 3451
2743 3087 3583
1927 2653 384
1929 2635 609
1968 2665 1019
2039 2737 1562
2139 2842 2188
2269 2963 2747
2406 3074 3172
2543 3169 3461
2670 3242 3611
1758 2861 426
1765 2858 614
1814 2890 975
1901 2953 1474
2020 3043 2077
2172 3143 2655
2330 3233 3116
2487 3308 3443
2635 3362 3622
1646 2994 451
1660 3002 610
1716 3037 928
1812 3097 1385
1941 3177 1959
2106 3266 2549
2280 3345 3042
2454 3410 3409
2619 3455 3622
1579 3070 464
1602 3084 599
1664 3122 877
1762 3180 1291
1895 3254 1830
2066 3338 2427
2250 3415 2949
2437 3478 3357
2617 3521 3612
1549 3105 467
1582 3123 581
1648 3160 820
1744 3214 1189
1872 3284 1688
2044 3367 2286
2233 3447 2837
2431 3515 3290
2624 3564 3592
3286 817 84
3290 893 534
3302 1041 1107
3320 1254 1730
3344 1525 2329
3366 1832 2772
3383 2123 3094
3394 2384 3313
3397 2602 3445
3171 1287 118
3159 1304 505
3157 1399 1045
3165 1563 1663
3181 1786 2285
3207 2047 2761
3234 2300 3109
3259 2529 3343
3279 2723 3479
3001 1783 165
2982 1766 488
2977 1819 984
2984 1935 1583
3004 2106 2218
3039 2317 2734
3080 2523 3116
3122 2711 3373
3162 2871 3516
2796 2258 218
2774 2228 483
2772 2252 927
2786 2327 1496
2817 2450 2134
2868 2609 2688
2926 2766 3109
2988 2910 3397
3049 3033 3552
2573 2667 270
2551 2639 485
2554 2648 878
2581 2694 1407
2627 2778 2034
2697 2892 2622
2777 3005 3084
2861 3108 3408
2944 3194 3583
2365 2919 312
2344 2902 494
2355 2913 842
2394 2951 1330
2457 3016 1931
2547 3103 2535
2647 3188 3030
2752 3265 3393
2859 3328 3599
2184 3075 347
2167 3070 503
2186 3086 813
2234 3124 1261
2310 3181 1832
2417 3253 2442
2535 3323 2964
2661 3384 3363
2790 3433 3604
2029 3156 375
2021 3160 509
2047 3182 784
2103 3222 1192
2189 3278 1730
2308 3345 2339
2443 3410 2883
2588 3467 3318
2737 3510 3597
1904 3182 399
1908 3191 512
1940 3216 749
2002 3258 1116
2092 3314 1617
2222 3384 2223
2371 3453 2788
2534 3515 3259
2701 3561 3580
3392 834 96
3404 904 498
3427 1044 1034
3458 1249 1637
3494 1512 2238
3527 1815 2704
3551 2106 3048
3567 2370 3286
3574 2594 3430
3358 1218 118
3356 1248 472
3365 1346 977
3383 1506 1568
3408 1724 2182
3437 1988 2676
3463 2246 3046
3484 2486 3303
3498 2692 3455
3291 1680 149
3279 1682 451
3279 1740 917
3289 1853 1489
3308 2020 2110
3335 2233 2639
3363 2447 3043
3390 2648 3325
3413 2824 3487
3192 2168 183
3174 2152 436
3169 2177 857
3175 2247 1400
3192 2361 2021
3220 2520 2586
3253 2683 3029
3288 2840 3343
3322 2980 3522
3066 2629 215
3042 2605 426
3034 2609 800
3041 2644 1306
3059 2713 1915
3093 2819 2511
3133 2932 2997
3179 3044 3352
3227 3145 3555
2910 2948 244
2883 2929 424
2876 2928 758
2886 2949 1225
2911 2993 1808
2954 3064 2418
3005 3142 2939
3065 3219 3336
3131 3291 3575
2746 3155 271
2719 3143 428
2714 3145 728
2729 3163 1162
2762 3195 1717
2815 3247 2331
2879 3302 2875
2954 3358 3308
3038 3409 3584
2577 3266 298
2553 3262 435
2553 3271 707
2574 3291 1110
2614 3323 1640
2680 3368 2253
2759 3415 2814
2851 3460 3273
2954 3500 3582
2410 3299 328
2392 3300 444
2397 3314 688
2425 3341 1064
2473 3379 1574
2553 3428 2188
2650 3478 2761
2761 3524 3239
2880 3561 3568
3448 839 104
3463 904 467
3491 1036 971
3528 1232 1555
3571 1487 2157
3612 1786 2640
3643 2078 3004
3665 2346 3257
3676 2576 3412
3458 1145 124
3464 1185 447
3481 1285 920
3507 1443 1487
3541 1658 2091
3575 1923 2598
3603 2188 2987
3625 2436 3263
3639 2654 3430
3459 1565 150
3456 1583 433
3464 1648 871
3480 1762 1416
3503 1929 2020
3530 2145 2556
3555 2368 2976
3576 2581 3278
3591 2773 3458
3445 2050 177
3435 2048 422
3434 2080 822
3441 2151 1339
3454 2265 1938
3474 2426 2503
3495 2597 2959
3516 2766 3293
3534 2922 3492
3408 2549 202
3391 2533 411
3383 2539 770
3383 2571 1253
3389 2635 1838
3404 2738 2429
3422 2854 2925
3443 2974 3300
3466 3090 3527
3327 2938 221
3305 2920 402
3293 2914 723
3289 2925 1169
3293 2956 1727
3307 3016 2329
3326 3089 2860
3351 3169 3281
3384 3249 3551
3217 3207 241
3192 3192 398
3178 3185 689
3174 3188 1104
3179 3202 1636
3195 3236 2239
3219 3279 2794
3252 3329 3253
3297 3384 3565
3082 3366 262
3055 3357 398
3041 3354 665
3039 3359 1059
3049 3370 1575
3072 3392 2180
3106 3421 2749
3150 3454 3229
3207 3490 3567
2926 3423 287
2900 3418 403
2888 3423 652
2890 3436 1036
2906 3456 1555
2943 3483 2172
2992 3511 2746
3051 3539 3226
3120 3563 3557
3472 829 105
3485 890 438
3512 1016 917
3551 1203 1485
3598 1450 2085
3643 1746 2583
3680 2039 2961
3707 2311 3229
3720 2547 3393
3497 1067 126
3507 1114 422
3530 1215 867
3562 1372 1412
3601 1585 2007
3641 1851 2525
3674 2121 2931
3699 2379 3224
3714 2607 3405
3536 1441 156
3541 1468 420
3557 1540 833
3580 1659 1354
3610 1828 1943
3640 2050 2482
3667 2282 2915
3688 2507 3233
3701 2713 3429
3577 1908 189
3577 1916 424
3584 1958 805
3598 2036 1301
3616 2154 1880
3636 2322 2439
3655 2502 2900
3670 2685 3246
3680 2857 3462
3610 2429 219
3605 2421 427
3605 2433 775
3608 2471 1242
3614 2537 1805
3623 2644 2381
3633 2766 2874
3641 2897 3256
3649 3028 3499
3607 2883 241
3597 2868 423
3590 2864 738
3585 2874 1170
3583 2900 1704
3583 2956 2285
3585 3028 2809
3590 3111 3237
3599 3203 3529
3569 3222 259
3554 3206 417
3542 3195 702
3532 3190 1103
3525 3193 1610
3521 3214 2190
3520 3249 2738
3525 3296 3207
3537 3355 3547
3497 3441 275
3477 3429 409
3461 3419 671
3449 3411 1054
3441 3407 1551
3438 3411 2138
3440 3423 2701
3449 3446 3190
3467 3480 3554
3391 3538 291
3366 3531 401
3349 3528 650
3338 3528 1035
3334 3532 1554
3338 3537 2167
3349 3545 2737
3366 3555 3213
3391 3570 3546
3485 803 96
3489 861 407
3512 982 869
3549 1163 1426
3596 1403 2024
3643 1695 2531
3683 1989 2922
3712 2265 3201
3726 2505 3372
3504 985 118
3513 1033 388
3537 1134 809
3571 1289 1337
3614 1500 1926
3657 1769 2455
3693 2045 2876
3720 2310 3185
3736 2548 3379
3550 1307 156
3561 1339 398
3582 1416 789
3611 1540 1292
3646 1713 1871
3682 1943 2415
3712 2185 2858
3734 2423 3189
3747 2643 3399
3613 1744 204
3623 1758 425
3640 1807 792
3662 1895 1275
3687 2024 1841
3713 2202 2394
3734 2396 2854
3749 2593 3205
3756 2782 3431
3685 2269 254
3694 2265 460
3704 2287 806
3717 2336 1268
3732 2415 1819
3746 2532 2375
3756 2667 2851
3761 2811 3223
3760 2958 3471
3742 2780 296
3747 2767 482
3752 2768 801
3755 2785 1232
3759 2818 1755
3761 2878 2306
3761 2955 2801
3759 3046 3211
3752 3149 3507
3772 3188 328
3773 3172 487
3772 3162 774
3768 3157 1172
3763 3159 1664
3757 3177 2209
3749 3209 2726
3741 3257 3179
3732 3323 3531
3773 3477 347
3768 3463 477
3761 3449 734
3752 3436 1108
3743 3423 1587
3732 3415 2143
3720 3418 2682
3710 3435 3163
3702 3470 3541
3742 3629 353
3729 3621 452
3717 3612 690
3707 3603 1063
3697 3594 1567
3686 3582 2165
3674 3572 2724
3665 3570 3197
3661 3581 3533
