Assets/1__3DArt/KimSe/artstation_asset/LUTs_pasterls/3DL/Candylandia 04 S.3dl
# Enhanced with VOXCOLOR algorithms
0 256 512 768 1023
626 1060 771
863 1582 1954
1132 2126 3076
1208 2458 3695
1204 2602 3934
128 2041 806
296 2390 1717
699 2815 2808
1156 3097 3529
1478 3243 3879
107 2732 976
168 2910 1560
496 3217 2518
1026 3466 3352
1478 3602 3826
420 3095 1191
401 3165 1494
680 3368 2226
1198 3616 3137
1566 3750 3756
739 3244 1333
670 3261 1451
840 3387 1964
1346 3647 2904
1670 3806 3661
2669 1164 825
2576 1370 1924
2510 1684 3031
2410 1949 3683
2282 2120 3956
1635 1848 713
1552 1929 1540
1679 2282 2643
1928 2651 3470
2086 2867 3885
1008 2553 852
945 2579 1401
1101 2859 2361
1475 3207 3275
1815 3417 3814
906 3034 1133
809 3052 1419
937 3233 2132
1331 3507 3062
1657 3678 3731
995 3262 1342
885 3275 1445
946 3374 1892
1364 3616 2800
1709 3803 3635
3773 1259 920
3624 1269 1879
3581 1400 2950
3537 1537 3630
3439 1628 3928
2934 1676 630
2695 1583 1404
2758 1792 2486
2975 2140 3394
3071 2372 3881
2345 2410 721
2142 2306 1278
2179 2479 2227
2422 2836 3192
2638 3115 3805
2056 3046 1102
1863 2996 1387
1825 3103 2083
2005 3347 3001
2207 3561 3709
1795 3340 1387
1638 3351 1494
1556 3419 1908
1745 3599 2753
1962 3779 3598
4029 1294 956
3945 1302 1849
3955 1386 2897
3976 1441 3597
3956 1467 3931
3645 1580 688
3466 1488 1398
3522 1593 2432
3698 1805 3350
3794 1973 3883
3419 2350 749
3221 2205 1257
3222 2250 2168
3378 2468 3137
3537 2732 3808
3242 3130 1124
3076 3032 1379
3016 3049 2081
3068 3174 2983
3168 3371 3703
2928 3492 1433
2835 3539 1560
2771 3615 2019
2777 3662 2820
2797 3723 3584
4063 1301 947
4062 1388 1838
4065 1449 2865
4069 1445 3565
4063 1445 3934
4072 1558 895
4072 1563 1514
4076 1601 2460
4075 1645 3323
4066 1712 3878
4057 2253 912
4074 2169 1309
4086 2158 2160
4074 2214 3105
4034 2358 3818
3979 3145 1151
4025 3060 1356
4056 3046 2080
4025 3057 2989
3926 3145 3722
3790 3661 1461
3844 3755 1579
3912 3861 2085
3866 3789 2902
3774 3694 3613
