Assets/1__3DArt/KimSe/artstation_asset/LUTs_pasterls/3DL/Candylandia 03.3dl
# Enhanced with VOXCOLOR algorithms
0 128 256 384 512 640 768 896 1023
707 947 931
640 1033 1235
582 1111 1561
536 1182 1889
507 1248 2199
501 1303 2446
504 1349 2642
509 1386 2784
514 1413 2875
614 1392 1144
578 1483 1433
551 1572 1750
534 1656 2074
528 1732 2383
532 1791 2629
540 1840 2825
548 1878 2973
556 1908 3075
570 1815 1358
554 1906 1630
548 2000 1936
549 2091 2252
556 2174 2556
567 2238 2798
578 2290 2991
588 2331 3138
596 2362 3244
563 2199 1563
561 2287 1815
566 2381 2107
576 2475 2413
590 2562 2709
604 2630 2947
616 2685 3135
626 2728 3278
634 2761 3381
581 2530 1747
588 2611 1979
597 2700 2252
610 2792 2545
624 2880 2832
637 2952 3066
649 3011 3251
659 3058 3391
668 3092 3490
612 2767 1891
620 2837 2095
630 2918 2346
641 3004 2621
652 3090 2899
663 3166 3132
672 3229 3318
681 3279 3459
691 3317 3559
639 2944 2003
648 3003 2178
656 3074 2402
665 3154 2658
673 3238 2928
681 3316 3164
689 3382 3355
696 3437 3501
705 3477 3602
661 3061 2081
668 3108 2225
674 3171 2423
680 3245 2661
686 3327 2922
693 3406 3164
698 3476 3363
704 3533 3516
711 3575 3621
674 3115 2120
678 3154 2236
682 3210 2410
686 3280 2629
692 3360 2883
697 3441 3133
702 3514 3344
705 3573 3507
707 3613 3613
1280 795 846
1229 875 1143
1160 948 1465
1083 1013 1792
1006 1074 2104
943 1127 2356
889 1171 2557
844 1206 2707
806 1232 2808
1121 1209 1021
1088 1286 1290
1043 1373 1605
990 1461 1939
933 1542 2261
882 1603 2521
838 1650 2728
801 1685 2886
772 1710 2996
984 1632 1222
964 1706 1468
937 1798 1770
904 1897 2099
867 1989 2423
830 2057 2685
798 2108 2894
770 2145 3053
748 2171 3166
874 2039 1432
862 2110 1658
848 2201 1944
831 2301 2260
810 2396 2577
787 2470 2838
766 2526 3046
748 2567 3204
733 2595 3315
790 2403 1636
785 2471 1843
780 2557 2109
773 2652 2408
764 2746 2713
754 2824 2970
743 2885 3175
733 2931 3330
724 2962 3438
744 2674 1804
742 2736 1990
740 2814 2232
738 2901 2510
736 2992 2802
732 3071 3054
728 3136 3257
725 3188 3412
721 3223 3520
714 2881 1940
714 2934 2101
715 3004 2319
716 3084 2576
717 3170 2853
717 3251 3103
717 3319 3308
718 3375 3466
719 3417 3576
696 3024 2040
697 3069 2176
699 3130 2368
701 3204 2604
704 3286 2867
707 3367 3118
710 3439 3328
712 3499 3492
715 3544 3605
686 3107 2102
686 3143 2214
689 3197 2381
692 3265 2594
696 3344 2845
700 3426 3099
704 3501 3318
707 3564 3492
708 3610 3609
1759 654 764
1727 720 1049
1671 781 1366
1600 837 1693
1520 891 2009
1440 939 2267
1366 980 2473
1299 1013 2631
1237 1038 2740
1609 1038 910
1581 1098 1161
1537 1177 1471
1478 1262 1808
1409 1343 2142
1335 1403 2414
1265 1449 2632
1201 1482 2799
1144 1502 2917
1449 1453 1094
1426 1511 1318
1391 1597 1613
1347 1695 1947
1291 1791 2286
1228 1863 2568
1167 1915 2794
1110 1950 2966
1058 1971 3087
1290 1872 1301
1270 1929 1502
1245 2014 1778
1212 2114 2098
1171 2216 2433
1122 2296 2718
1072 2355 2948
1024 2396 3123
981 2419 3244
1142 2264 1515
1124 2321 1697
1105 2401 1951
1082 2496 2252
1054 2596 2573
1019 2681 2856
982 2747 3085
946 2794 3260
911 2822 3381
1022 2570 1705
1006 2624 1869
990 2698 2101
973 2785 2379
953 2879 2682
929 2964 2957
904 3034 3183
878 3087 3356
853 3122 3476
921 2808 1864
907 2857 2010
894 2924 2218
881 3004 2473
867 3092 2758
852 3177 3025
835 3249 3249
819 3307 3423
803 3349 3545
836 2981 1990
824 3023 2115
814 3083 2300
805 3157 2531
797 3240 2798
788 3323 3059
778 3397 3283
769 3459 3461
761 3508 3586
763 3091 2077
754 3126 2182
749 3179 2342
745 3245 2550
742 3324 2798
738 3407 3058
735 3483 3287
730 3550 3472
726 3601 3599
2136 535 689
2122 582 957
2091 628 1266
2047 673 1593
1990 718 1915
1923 759 2179
1855 794 2393
1786 823 2557
1719 846 2674
2038 880 812
2019 927 1046
1988 993 1347
1945 1069 1683
1888 1144 2024
1818 1201 2309
1745 1244 2538
1672 1274 2714
1601 1291 2839
1906 1278 978
1884 1324 1181
1855 1400 1466
1815 1492 1799
1763 1586 2148
1696 1660 2448
1624 1713 2691
1551 1747 2877
1480 1763 3007
1750 1699 1174
1727 1745 1352
1700 1823 1615
1665 1919 1934
1619 2023 2281
1558 2109 2590
1491 2172 2842
1423 2213 3036
1355 2233 3170
1583 2112 1389
1558 2160 1547
1530 2235 1786
1498 2328 2085
1459 2432 2419
1407 2525 2728
1350 2596 2984
1289 2645 3182
1227 2671 3317
1417 2452 1596
1389 2501 1738
1360 2571 1956
1330 2657 2230
1295 2754 2542
1252 2845 2842
1204 2920 3093
1154 2976 3291
1104 3011 3428
1256 2724 1778
1227 2771 1905
1198 2835 2101
1170 2915 2352
1139 3005 2642
1104 3093 2929
1065 3169 3175
1026 3231 3372
990 3275 3510
1100 2930 1928
1072 2971 2041
1046 3030 2216
1022 3103 2442
997 3186 2711
968 3272 2986
939 3349 3228
910 3414 3424
885 3466 3563
947 3070 2043
924 3104 2139
905 3155 2291
888 3221 2494
871 3300 2742
851 3384 3010
831 3462 3250
810 3531 3448
790 3586 3587
2405 449 623
2402 477 870
2395 507 1168
2382 539 1494
2360 573 1821
2320 604 2095
2272 630 2315
2219 653 2486
2163 670 2610
2371 741 727
2362 776 944
2351 829 1233
2334 890 1565
2306 954 1910
2259 1005 2205
2202 1043 2444
2139 1069 2629
2073 1082 2761
2299 1108 873
2286 1147 1060
2271 1212 1332
2251 1293 1659
2220 1380 2012
2169 1451 2328
2106 1503 2586
2036 1536 2785
1962 1549 2925
2194 1520 1054
2177 1562 1214
2158 1631 1462
2134 1721 1775
2101 1822 2128
2048 1911 2458
1983 1977 2731
1909 2019 2944
1830 2037 3091
2062 1948 1263
2038 1992 1400
2013 2061 1623
1984 2150 1913
1947 2255 2254
1894 2354 2588
1829 2431 2872
1755 2484 3095
1675 2510 3249
1898 2322 1481
1864 2368 1602
1831 2434 1803
1795 2517 2068
1754 2615 2385
1700 2713 2708
1636 2794 2990
1567 2855 3216
1496 2893 3374
1713 2630 1680
1672 2675 1790
1633 2738 1971
1592 2816 2213
1548 2907 2505
1493 2999 2813
1431 3081 3086
1368 3147 3310
1308 3194 3471
1507 2870 1854
1463 2912 1953
1422 2970 2116
1380 3043 2336
1336 3127 2605
1282 3214 2896
1225 3294 3159
1169 3363 3378
1119 3418 3538
1279 3041 1995
1239 3075 2082
1202 3127 2227
1165 3194 2426
1126 3273 2675
1079 3358 2953
1029 3437 3207
980 3508 3420
933 3566 3573
2535 405 575
2534 420 797
2541 439 1081
2548 461 1401
2551 485 1732
2536 507 2015
2510 526 2245
2477 541 2423
2439 554 2551
2549 634 663
2548 662 863
2552 702 1137
2557 749 1458
2556 800 1801
2537 841 2105
2506 872 2354
2465 892 2548
2418 902 2686
2540 956 791
2539 992 964
2541 1047 1221
2542 1114 1536
2539 1189 1887
2517 1253 2211
2480 1300 2481
2432 1329 2693
2375 1341 2842
2509 1344 954
2504 1385 1101
2502 1448 1335
2500 1529 1636
2492 1621 1986
2466 1707 2327
2424 1772 2618
2370 1813 2848
2304 1830 3008
2453 1772 1151
2442 1817 1273
2433 1882 1480
2423 1966 1758
2408 2067 2095
2377 2168 2446
2330 2249 2753
2270 2305 3001
2199 2332 3173
2354 2176 1369
2332 2222 1474
2312 2286 1656
2290 2366 1907
2264 2462 2219
2223 2564 2560
2169 2651 2870
2105 2719 3128
2034 2760 3314
2220 2519 1577
2186 2565 1670
2155 2628 1833
2122 2705 2060
2084 2794 2347
2031 2890 2671
1968 2978 2974
1900 3052 3233
1833 3106 3427
2045 2797 1765
2002 2840 1850
1962 2899 1998
1920 2973 2207
1873 3057 2472
1810 3147 2778
1739 3232 3067
1667 3306 3319
1599 3367 3511
1826 3001 1925
1778 3037 2003
1734 3091 2140
1688 3162 2335
1635 3245 2587
1568 3333 2879
1493 3414 3153
1416 3485 3388
1339 3545 3563
2603 378 540
2602 384 738
2615 396 1006
2634 411 1320
2653 428 1652
2655 444 1943
2645 457 2180
2626 468 2363
2601 477 2495
2647 550 614
2652 570 794
2666 599 1051
2685 635 1361
2703 673 1701
2706 705 2010
2695 730 2267
2672 746 2469
2641 752 2613
2686 822 724
2694 854 883
2709 900 1124
2728 955 1427
2746 1017 1771
2749 1072 2101
2736 1113 2381
2709 1139 2603
2670 1146 2759
2714 1176 870
2723 1217 1006
2738 1275 1226
2754 1347 1515
2770 1430 1857
2771 1509 2206
2756 1569 2509
2724 1608 2752
2677 1622 2923
2729 1594 1053
2735 1641 1164
2745 1705 1357
2757 1785 1624
2767 1881 1955
2764 1979 2315
2744 2060 2639
2707 2116 2906
2655 2142 3095
2707 2020 1266
2705 2069 1358
2705 2133 1524
2705 2212 1762
2704 2306 2067
2689 2408 2419
2659 2500 2752
2617 2573 3038
2562 2617 3251
2649 2398 1477
2635 2446 1555
2623 2509 1701
2611 2586 1914
2596 2675 2192
2565 2774 2527
2522 2868 2857
2471 2950 3151
2414 3011 3382
2548 2713 1675
2521 2758 1744
2498 2819 1877
2473 2894 2072
2444 2980 2330
2398 3073 2648
2341 3164 2965
2277 3247 3252
2212 3316 3484
2399 2953 1848
2359 2989 1914
2324 3046 2040
2290 3122 2230
2250 3212 2483
2192 3306 2792
2121 3392 3089
2042 3466 3351
1957 3526 3554
2626 362 515
2624 362 692
2638 369 946
2662 380 1252
2689 393 1583
2701 405 1879
2699 415 2121
2687 423 2309
2669 429 2442
2684 484 576
2691 497 737
2710 518 978
2737 543 1275
2767 572 1609
2784 598 1922
2786 617 2186
2776 629 2394
2755 632 2543
2751 705 670
2766 732 815
2790 770 1040
2820 815 1329
2854 866 1665
2875 913 1998
2880 948 2285
2870 968 2515
2845 971 2678
2822 1019 800
2843 1058 925
2871 1112 1133
2904 1177 1410
2940 1251 1745
2963 1322 2095
2970 1376 2406
2959 1409 2659
2930 1417 2838
2893 1416 966
2917 1464 1070
2946 1529 1255
2979 1608 1514
3013 1701 1839
3036 1793 2202
3043 1870 2535
3031 1921 2814
2999 1941 3015
2943 1858 1171
2964 1909 1254
2988 1976 1413
3014 2058 1643
3039 2152 1943
3055 2253 2300
3056 2345 2646
3042 2417 2951
3010 2462 3187
2966 2267 1381
2978 2317 1448
2993 2384 1583
3009 2463 1786
3024 2554 2058
3027 2655 2399
3019 2753 2747
2999 2840 3070
2966 2908 3336
2956 2620 1583
2953 2666 1640
2957 2729 1759
2962 2807 1943
2965 2897 2195
2956 2995 2522
2934 3094 2862
2903 3185 3184
2861 3264 3457
2907 2895 1767
2885 2930 1820
2873 2991 1933
2868 3072 2113
2862 3170 2365
2842 3273 2690
2806 3367 3013
2756 3447 3307
2693 3512 3545
2618 353 498
2616 349 660
2630 353 904
2654 362 1202
2681 373 1529
2696 383 1826
2696 392 2071
2685 398 2261
2666 401 2393
2674 433 547
2681 439 691
2701 453 916
2731 473 1201
2766 496 1528
2789 518 1843
2797 533 2111
2791 542 2325
2773 542 2478
2750 605 627
2768 625 756
2797 656 967
2834 695 1243
2876 739 1571
2908 779 1904
2922 808 2196
2919 822 2432
2900 818 2600
2842 873 741
2872 907 856
2910 957 1053
2955 1019 1321
3003 1088 1649
3040 1151 1999
3060 1197 2311
3061 1222 2569
3040 1219 2753
2946 1238 891
2986 1287 990
3032 1355 1172
3082 1437 1429
3133 1530 1753
3176 1616 2114
3201 1683 2446
3205 1724 2727
3185 1731 2933
3049 1689 1084
3092 1743 1164
3139 1817 1323
3188 1906 1557
3237 2006 1859
3280 2105 2216
3309 2190 2562
3320 2255 2873
3309 2293 3120
3137 2126 1289
3176 2180 1351
3218 2252 1485
3264 2339 1689
3310 2437 1962
3351 2539 2304
3382 2637 2658
3400 2725 2996
3400 2796 3289
3209 2516 1494
3234 2563 1542
3267 2630 1654
3308 2714 1832
3352 2810 2080
3393 2914 2412
3425 3019 2768
3446 3120 3116
3450 3209 3430
3260 2826 1686
3261 2860 1726
3281 2921 1824
3318 3006 1990
3365 3112 2236
3411 3228 2574
3443 3334 2923
3458 3427 3253
3453 3501 3533
