Assets/1__3DArt/KimSe/artstation_asset/LUTs_pasterls/3DL/Candylandia 04.3dl
# Enhanced with VOXCOLOR algorithms
0 128 256 384 512 640 768 896 1023
626 1060 771
723 1305 1343
863 1582 1954
1012 1864 2550
1132 2126 3076
1185 2318 3439
1208 2458 3695
1210 2552 3856
1204 2602 3934
300 1584 769
375 1785 1261
517 2024 1828
703 2274 2409
907 2510 2946
1083 2685 3332
1222 2816 3612
1326 2907 3799
1394 2961 3905
128 2041 806
176 2193 1210
296 2390 1717
474 2605 2270
700 2815 2808
940 2976 3220
1156 3098 3530
1339 3185 3745
1478 3243 3879
75 2426 878
97 2530 1190
184 2684 1627
335 2864 2136
550 3049 2665
814 3198 3103
1070 3312 3444
1302 3396 3692
1493 3454 3854
109 2732 979
108 2796 1203
169 2910 1561
297 3056 2012
498 3218 2518
764 3358 2979
1028 3467 3352
1272 3548 3636
1478 3602 3826
245 2938 1096
223 2977 1246
266 3057 1523
381 3171 1906
577 3312 2370
843 3448 2843
1099 3558 3248
1326 3639 3571
1505 3688 3793
426 3092 1203
384 3111 1292
404 3164 1496
500 3250 1810
685 3369 2226
950 3503 2703
1204 3618 3137
1418 3703 3499
1566 3750 3756
606 3194 1286
551 3200 1332
550 3232 1474
622 3294 1724
785 3393 2089
1046 3525 2563
1300 3646 3021
1508 3740 3420
1631 3789 3713
739 3244 1333
687 3244 1353
670 3261 1451
712 3306 1647
840 3387 1964
1089 3517 2427
1346 3647 2904
1557 3751 3335
1670 3806 3661
1761 1110 787
1772 1270 1346
1795 1469 1947
1819 1687 2538
1830 1901 3067
1810 2074 3437
1776 2212 3701
1733 2314 3870
1688 2383 3957
1281 1551 766
1300 1674 1231
1350 1855 1785
1422 2066 2365
1510 2281 2910
1593 2455 3312
1659 2591 3607
1703 2692 3805
1725 2760 3917
909 1973 795
922 2064 1169
973 2218 1660
1063 2410 2209
1190 2612 2756
1345 2780 3188
1489 2913 3514
1614 3011 3743
1707 3078 3884
645 2356 865
643 2419 1151
684 2543 1570
773 2707 2072
916 2889 2606
1114 3048 3062
1314 3174 3420
1499 3269 3683
1652 3334 3852
492 2677 965
471 2718 1169
498 2813 1511
581 2947 1953
730 3106 2460
950 3254 2934
1177 3373 3323
1392 3463 3621
1576 3524 3819
490 2899 1080
452 2925 1218
465 2994 1484
543 3100 1857
696 3237 2318
927 3378 2799
1160 3495 3216
1372 3583 3550
1543 3637 3782
564 3066 1187
510 3079 1271
508 3126 1466
574 3207 1771
723 3322 2181
963 3457 2659
1202 3576 3101
1411 3667 3473
1561 3719 3742
679 3180 1275
618 3186 1318
600 3214 1454
648 3272 1693
783 3366 2047
1024 3497 2516
1270 3620 2978
1479 3718 3388
1613 3773 3699
800 3246 1332
746 3247 1352
717 3262 1441
740 3302 1622
844 3376 1920
1075 3501 2371
1327 3631 2848
1547 3741 3294
1679 3807 3651
2669 1164 825
2643 1267 1361
2614 1401 1945
2580 1552 2525
2537 1706 3048
2479 1839 3419
2415 1953 3687
2349 2047 3862
2282 2120 3956
2197 1547 788
2180 1612 1226
2172 1735 1761
2174 1895 2331
2186 2067 2877
2203 2217 3288
2212 2341 3592
2211 2439 3800
2196 2511 3919
1764 1942 806
1746 1982 1153
1746 2089 1624
1768 2240 2163
1818 2412 2711
1895 2567 3156
1972 2695 3496
2039 2796 3737
2087 2867 3885
1395 2320 869
1367 2345 1131
1366 2433 1531
1398 2565 2020
1471 2724 2554
1595 2876 3023
1727 3003 3396
1853 3103 3672
1958 3175 3850
1114 2652 966
1072 2669 1153
1063 2737 1477
1098 2846 1905
1185 2987 2407
1339 3131 2890
1506 3253 3293
1671 3350 3605
1815 3418 3813
982 2887 1081
925 2899 1208
905 2951 1460
937 3039 1821
1033 3160 2274
1205 3296 2757
1389 3414 3183
1563 3508 3529
1708 3570 3773
934 3064 1188
864 3071 1267
833 3107 1453
858 3175 1746
955 3278 2145
1143 3407 2620
1341 3525 3066
1522 3620 3447
1657 3679 3730
946 3187 1278
873 3190 1321
832 3213 1450
844 3262 1679
932 3346 2018
1128 3469 2477
1341 3590 2939
1531 3691 3356
1659 3754 3684
995 3262 1342
933 3262 1362
885 3274 1445
879 3307 1613
945 3372 1892
1137 3488 2327
1364 3615 2800
1573 3728 3255
1709 3803 3635
3342 1216 873
3312 1283 1382
3274 1368 1944
3227 1462 2509
3172 1556 3024
3106 1642 3394
3037 1721 3663
2966 1792 3843
2895 1853 3943
2977 1551 824
2942 1579 1237
2908 1654 1751
2876 1760 2306
2849 1881 2847
2826 1994 3263
2801 2094 3574
2771 2177 3788
2733 2242 3915
2586 1922 830
2546 1928 1153
2515 1991 1604
2495 2095 2129
2492 2224 2673
2511 2353 3126
2533 2465 3476
2552 2557 3728
2560 2627 3883
2204 2296 883
2158 2293 1125
2126 2344 1505
2115 2437 1980
2131 2561 2509
2186 2695 2986
2252 2812 3372
2318 2909 3661
2375 2982 3848
1866 2641 975
1809 2638 1147
1772 2677 1453
1764 2755 1866
1793 2867 2359
1876 2996 2849
1976 3112 3263
2080 3210 3588
2175 3282 3808
1637 2895 1090
1565 2894 1209
1518 2924 1447
1508 2988 1793
1545 3086 2234
1648 3207 2717
1769 3319 3151
1890 3414 3508
1997 3483 3764
1480 3084 1199
1398 3083 1274
1340 3106 1452
1324 3157 1734
1364 3240 2118
1485 3354 2586
1625 3466 3033
1760 3561 3422
1868 3628 3718
1381 3214 1292
1297 3213 1335
1232 3228 1460
1207 3267 1679
1242 3335 2004
1376 3444 2449
1535 3557 2906
1687 3658 3327
1797 3728 3669
1326 3293 1361
1253 3292 1383
1186 3299 1463
1150 3325 1622
1171 3378 1885
1309 3481 2303
1491 3600 2766
1668 3712 3221
1793 3794 3616
3773 1259 920
3754 1306 1401
3728 1363 1942
3695 1419 2492
3655 1469 2999
3605 1511 3369
3553 1552 3641
3497 1591 3824
3439 1628 3928
3546 1540 862
3512 1553 1255
3478 1598 1749
3444 1663 2289
3411 1737 2822
3378 1810 3240
3344 1877 3556
3305 1935 3776
3261 1983 3908
3263 1885 856
3220 1880 1164
3182 1913 1597
3150 1976 2106
3125 2061 2642
3111 2154 3099
3100 2240 3457
3089 2314 3718
3071 2373 3881
2950 2261 897
2901 2247 1127
2860 2269 1490
2829 2325 1951
2811 2410 2470
2817 2513 2953
2832 2609 3349
2850 2694 3649
2865 2762 3846
2637 2629 984
2578 2615 1144
2530 2629 1435
2498 2674 1833
2486 2751 2316
2509 2854 2809
2547 2954 3234
2592 3044 3572
2638 3117 3804
2370 2912 1102
2297 2902 1213
2237 2913 1439
2200 2950 1771
2191 3016 2199
2228 3113 2679
2283 3211 3119
2345 3301 3488
2408 3373 3757
2143 3120 1214
2060 3113 1288
1990 3123 1459
1945 3153 1729
1936 3211 2099
1986 3302 2557
2058 3399 3003
2136 3490 3398
2206 3562 3708
1953 3260 1313
1866 3256 1358
1788 3264 1481
1735 3288 1693
1722 3337 2005
1784 3424 2435
1876 3523 2882
1974 3618 3303
2052 3694 3655
1795 3340 1387
1715 3338 1413
1635 3341 1494
1573 3359 1652
1551 3398 1906
1623 3483 2305
1742 3587 2751
1868 3692 3198
1962 3779 3598
3944 1282 946
3934 1323 1402
3922 1370 1925
3905 1415 2464
3886 1448 2970
3860 1467 3346
3832 1484 3623
3800 1500 3814
3765 1519 3927
3821 1501 889
3798 1518 1267
3777 1555 1745
3758 1603 2272
3739 1652 2798
3719 1696 3218
3696 1736 3540
3669 1771 3768
3638 1801 3908
3653 1815 873
3622 1815 1174
3595 1840 1594
3573 1884 2091
3554 1940 2619
3540 2002 3077
3526 2060 3441
3511 2111 3710
3492 2154 3882
3451 2188 902
3414 2178 1128
3382 2191 1482
3357 2226 1932
3338 2281 2443
3329 2352 2927
3326 2422 3330
3324 2486 3641
3322 2541 3847
3230 2585 979
3184 2571 1137
3145 2573 1420
3115 2597 1808
3095 2643 2282
3091 2715 2775
3097 2790 3209
3109 2863 3559
3126 2927 3804
3004 2915 1100
2946 2902 1208
2898 2901 1427
2860 2917 1749
2838 2954 2165
2839 3019 2642
2852 3093 3087
2874 3168 3468
2903 3236 3754
2785 3161 1221
2718 3151 1293
2659 3150 1459
2614 3162 1721
2587 3193 2080
2594 3254 2529
2616 3327 2973
2648 3403 3377
2685 3474 3701
2575 3325 1330
2502 3319 1376
2434 3320 1500
2380 3331 1709
2347 3359 2014
2362 3418 2431
2398 3491 2869
2444 3570 3287
2487 3644 3646
2373 3411 1412
2300 3407 1442
2226 3409 1532
2163 3421 1699
2124 3447 1957
2148 3508 2345
2208 3587 2773
2276 3672 3201
2327 3752 3587
4029 1294 956
4025 1333 1390
4019 1378 1898
4013 1417 2430
4007 1442 2936
3998 1448 3319
3987 1453 3605
3973 1458 3806
3956 1467 3931
3977 1457 906
3963 1478 1270
3952 1514 1734
3943 1554 2249
3935 1590 2770
3927 1615 3194
3917 1637 3523
3903 1656 3760
3886 1673 3910
3895 1733 884
3875 1740 1178
3859 1764 1589
3847 1800 2075
3837 1839 2595
3829 1878 3055
3819 1914 3425
3808 1946 3703
3795 1975 3883
3786 2093 901
3761 2089 1126
3741 2101 1476
3725 2127 1918
3712 2163 2422
3702 2209 2906
3694 2255 3314
3687 2299 3633
3680 2340 3849
3654 2508 965
3623 2497 1125
3597 2497 1406
3576 2509 1790
3559 2536 2257
3547 2581 2750
3539 2632 3188
3536 2685 3549
3538 2736 3806
3492 2890 1086
3454 2876 1195
3421 2870 1412
3393 2873 1729
3371 2889 2138
3358 2927 2610
3351 2976 3059
3350 3031 3452
3359 3089 3754
3316 3186 1217
3270 3174 1287
3229 3167 1451
3194 3166 1709
3167 3176 2059
3155 3208 2501
3151 3255 2946
3155 3311 3358
3168 3374 3699
3127 3389 1338
3075 3381 1383
3026 3376 1508
2983 3377 1717
2951 3387 2018
2943 3418 2427
2948 3465 2859
2961 3522 3277
2976 3587 3643
2928 3492 1433
2870 3488 1464
2813 3488 1562
2764 3495 1739
2727 3511 2008
2729 3548 2394
2751 3600 2810
2779 3660 3218
2797 3723 3584
4059 1300 955
4056 1339 1372
4055 1384 1868
4054 1423 2393
4055 1445 2900
4055 1446 3290
4054 1445 3586
4051 1445 3797
4044 1450 3934
4048 1414 915
4040 1439 1265
4036 1476 1715
4034 1515 2221
4034 1545 2737
4034 1559 3165
4033 1569 3502
4029 1577 3749
4023 1586 3910
4023 1645 892
4012 1659 1177
4005 1686 1578
4001 1720 2056
3999 1753 2571
3998 1776 3031
3995 1796 3407
3991 1814 3693
3985 1830 3882
3983 1979 897
3969 1982 1121
3959 1998 1468
3953 2023 1907
3948 2052 2406
3943 2080 2888
3938 2107 3299
3933 2133 3625
3928 2159 3850
3924 2398 944
3908 2391 1108
3896 2395 1393
3886 2407 1780
3877 2425 2247
3868 2451 2738
3859 2481 3177
3852 2514 3542
3848 2549 3808
3834 2828 1061
3815 2817 1173
3798 2811 1395
3784 2810 1717
3771 2816 2126
3758 2833 2595
3746 2859 3044
3736 2894 3442
3732 2937 3757
3718 3184 1200
3695 3172 1271
3674 3162 1439
3655 3155 1699
3638 3152 2049
3624 3162 2485
3611 3184 2928
3602 3219 3346
3599 3268 3703
3579 3441 1337
3550 3432 1381
3522 3424 1507
3498 3418 1718
3478 3415 2020
3467 3423 2425
3460 3443 2855
3456 3478 3274
3453 3527 3647
3415 3578 1449
3378 3572 1479
3343 3572 1580
3313 3575 1765
3292 3583 2045
3289 3600 2437
3296 3625 2848
3303 3658 3245
3302 3701 3592
4063 1301 947
4062 1342 1351
4062 1388 1838
4062 1428 2359
4065 1449 2865
4068 1448 3261
4069 1445 3565
4067 1443 3786
4063 1445 3934
4071 1374 920
4067 1402 1253
4065 1442 1691
4065 1482 2189
4066 1511 2701
4068 1519 3133
4069 1523 3476
4069 1524 3733
4067 1527 3904
4072 1558 898
4068 1575 1170
4065 1607 1561
4065 1644 2033
4066 1676 2543
4067 1692 3005
4067 1702 3385
4067 1709 3678
4065 1714 3876
4068 1851 894
4063 1859 1111
4061 1881 1456
4060 1912 1895
4060 1941 2395
4060 1961 2876
4059 1976 3287
4057 1988 3615
4055 1999 3846
4057 2253 921
4053 2252 1086
4051 2264 1382
4049 2283 1780
4048 2304 2256
4045 2322 2744
4042 2337 3178
4037 2353 3539
4031 2370 3809
4027 2725 1026
4024 2717 1142
4021 2717 1380
4019 2721 1719
4015 2728 2142
4010 2735 2608
4003 2745 3048
3994 2760 3441
3983 2784 3762
3976 3145 1170
3972 3134 1245
3968 3126 1424
3964 3120 1699
3960 3115 2060
3954 3111 2491
3946 3115 2928
3936 3129 3344
3922 3159 3712
3899 3471 1325
3892 3461 1368
3884 3451 1499
3878 3443 1718
3873 3435 2026
3871 3427 2430
3868 3427 2857
3862 3440 3278
3851 3470 3662
3790 3661 1461
3775 3654 1487
3762 3651 1586
3752 3653 1771
3748 3657 2056
3756 3659 2458
3766 3662 2877
3774 3672 3274
3774 3694 3613
