Assets/1__3DArt/KimSe/artstation_asset/LUTs_pasterls/3DL/Candylandia 01 S.3dl
# Enhanced with VOXCOLOR algorithms
0 256 512 768 1023
642 899 434
769 1172 1818
1133 1728 2908
1567 2306 3375
1943 2714 3549
300 1953 649
561 2200 1681
1043 2582 2833
1584 2903 3434
2048 3115 3634
455 2611 713
755 2801 1463
1249 3075 2597
1802 3279 3369
2270 3387 3664
874 2918 634
1143 3047 1204
1563 3252 2262
2067 3431 3206
2513 3523 3656
1188 3035 562
1394 3127 984
1734 3289 1930
2187 3466 3009
2585 3565 3613
2507 817 143
2438 1040 1381
2476 1556 2579
2598 2167 3212
2714 2623 3481
1667 1785 328
1661 1815 1306
1870 2185 2511
2221 2649 3268
2521 2977 3577
1203 2513 482
1299 2522 1219
1613 2778 2356
2063 3094 3245
2455 3290 3635
1200 2903 526
1341 2954 1064
1658 3140 2096
2102 3353 3111
2516 3477 3638
1324 3059 515
1475 3131 885
1756 3275 1770
2171 3450 2893
2590 3566 3603
3286 817 84
3232 975 1110
3293 1474 2324
3372 2111 3092
3397 2602 3445
2741 1574 127
2591 1507 1069
2707 1838 2232
2977 2414 3097
3161 2870 3517
2322 2418 221
2218 2295 1033
2354 2478 2137
2666 2869 3092
2942 3192 3585
2105 2989 324
2066 2944 927
2200 3057 1951
2482 3262 3001
2788 3432 3606
1904 3182 399
1942 3227 762
2095 3337 1639
2373 3467 2798
2701 3561 3580
3448 839 104
3444 982 976
3537 1445 2155
3636 2069 3002
3676 2576 3412
3291 1421 113
3224 1390 975
3315 1672 2072
3485 2232 2972
3591 2771 3460
3233 2373 160
3141 2208 981
3188 2290 2034
3335 2636 2978
3467 3085 3531
3158 3142 222
3080 3025 907
3094 3042 1931
3184 3172 2936
3297 3380 3571
2926 3423 287
2907 3477 721
2947 3568 1669
3017 3580 2795
3120 3563 3557
3485 803 96
3512 982 869
3596 1403 2024
3683 1989 2922
3726 2505 3372
3552 1307 156
3661 1365 852
3760 1605 1928
3785 2074 2872
3749 2640 3403
3691 2269 253
3865 2151 958
3967 2184 1976
3930 2437 2913
3769 2945 3486
3777 3188 322
3937 3068 990
4022 3050 1980
3956 3103 2925
3742 3310 3547
3742 3629 353
3810 3729 841
3883 3831 1815
3793 3726 2833
3661 3581 3533
