Assets/1__3DArt/KimSe/artstation_asset/LUTs_pasterls/3DL/Cotton Candy 04 S.3dl
# Enhanced with VOXCOLOR algorithms
0 64 128 192 256 320 384 448 512 576 640 704 768 832 896 960 1023
225 241 337
267 311 547
309 382 757
355 463 984
406 567 1243
458 672 1503
514 793 1759
573 924 2013
633 1054 2267
698 1200 2475
764 1345 2684
831 1492 2871
902 1639 3014
972 1787 3158
1040 1923 3260
1106 2054 3340
1172 2184 3421
225 451 402
264 529 610
303 608 819
346 696 1044
397 805 1305
448 913 1565
507 1037 1822
570 1168 2078
633 1298 2333
706 1440 2540
779 1581 2748
855 1721 2933
936 1859 3073
1017 1998 3213
1100 2125 3312
1183 2247 3390
1267 2369 3469
225 661 467
261 748 673
296 834 880
337 929 1105
388 1042 1367
438 1155 1628
500 1280 1886
567 1412 2143
633 1543 2399
714 1680 2605
794 1816 2811
879 1950 2995
970 2079 3131
1062 2208 3268
1160 2327 3365
1260 2440 3441
1361 2554 3517
230 895 539
265 986 745
299 1078 950
339 1177 1174
392 1292 1436
445 1407 1698
511 1531 1956
584 1661 2212
656 1790 2468
745 1920 2672
834 2050 2876
927 2176 3056
1030 2295 3188
1132 2414 3321
1243 2523 3414
1357 2627 3488
1472 2730 3561
246 1176 628
283 1266 832
321 1357 1037
365 1454 1260
425 1566 1520
485 1678 1781
560 1797 2036
641 1920 2289
723 2042 2542
823 2162 2741
923 2282 2940
1026 2398 3115
1139 2504 3242
1251 2611 3369
1371 2707 3458
1494 2798 3527
1617 2889 3596
261 1457 717
302 1546 920
342 1636 1123
392 1732 1345
458 1841 1605
525 1949 1864
608 2063 2117
699 2179 2367
791 2295 2617
901 2404 2811
1011 2514 3005
1126 2619 3174
1248 2713 3296
1370 2808 3418
1499 2892 3502
1631 2970 3566
1763 3048 3631
307 1735 804
353 1819 1006
399 1903 1209
455 1993 1429
530 2095 1685
605 2196 1942
697 2301 2190
798 2407 2435
899 2514 2680
1018 2613 2868
1137 2712 3057
1259 2805 3221
1387 2888 3338
1516 2971 3454
1649 3043 3534
1784 3111 3595
1919 3178 3656
367 2011 891
421 2087 1092
474 2164 1293
538 2246 1511
621 2338 1764
705 2431 2016
807 2525 2260
917 2621 2499
1027 2717 2738
1154 2804 2920
1280 2892 3102
1409 2974 3261
1542 3045 3373
1675 3117 3485
1810 3179 3561
1946 3235 3619
2081 3292 3677
428 2287 978
488 2356 1178
549 2425 1378
620 2499 1594
713 2582 1842
806 2665 2091
917 2750 2329
1036 2835 2562
1155 2920 2795
1289 2996 2972
1424 3072 3148
1559 3142 3301
1696 3203 3408
1833 3263 3515
1970 3314 3588
2107 3360 3642
2244 3407 3697
545 2502 1041
613 2562 1241
681 2622 1441
760 2686 1656
860 2760 1900
959 2833 2145
1075 2907 2377
1198 2982 2604
1322 3057 2831
1457 3123 3002
1592 3189 3173
1727 3251 3321
1862 3303 3426
1997 3355 3530
2129 3399 3600
2261 3439 3654
2392 3478 3707
663 2717 1105
739 2768 1305
814 2819 1505
900 2874 1718
1006 2937 1958
1113 3000 2198
1233 3065 2425
1361 3129 2646
1489 3194 2867
1625 3250 3032
1761 3307 3198
1895 3359 3342
2028 3403 3443
2160 3447 3545
2288 3484 3613
2414 3517 3666
2540 3550 3718
796 2905 1159
878 2947 1359
960 2990 1559
1052 3037 1771
1163 3091 2008
1274 3145 2244
1397 3200 2466
1526 3255 2681
1656 3311 2896
1791 3359 3057
1925 3407 3218
2058 3451 3358
2186 3488 3457
2314 3525 3556
2437 3555 3623
2556 3583 3675
2676 3610 3727
960 3037 1193
1046 3073 1394
1132 3109 1596
1226 3149 1808
1338 3196 2041
1450 3243 2274
1571 3291 2492
1698 3340 2703
1824 3388 2913
1953 3430 3071
2082 3472 3228
2208 3510 3365
2329 3543 3463
2450 3575 3561
2564 3601 3628
2675 3625 3680
2786 3648 3732
1123 3169 1227
1213 3199 1429
1303 3228 1632
1401 3261 1844
1513 3301 2074
1626 3342 2305
1746 3382 2519
1869 3424 2725
1993 3465 2931
2116 3501 3085
2239 3537 3238
2359 3570 3373
2473 3597 3470
2586 3624 3566
2692 3647 3633
2794 3667 3685
2896 3687 3737
1293 3253 1250
1382 3278 1453
1470 3304 1655
1566 3333 1867
1674 3368 2095
1783 3403 2324
1897 3440 2535
2015 3476 2738
2132 3513 2941
2248 3545 3093
2364 3578 3244
2476 3607 3378
2582 3632 3474
2688 3656 3569
2785 3676 3636
2877 3693 3688
2970 3710 3740
1465 3313 1267
1550 3335 1470
1635 3358 1673
1726 3383 1883
1828 3415 2110
1930 3447 2337
2038 3480 2546
2147 3514 2747
2256 3547 2948
2364 3577 3098
2472 3606 3248
2576 3634 3380
2674 3656 3476
2772 3678 3572
2860 3696 3638
2943 3711 3689
3027 3726 3741
1638 3372 1285
1719 3392 1487
1800 3411 1690
1886 3434 1900
1982 3462 2125
2078 3491 2350
2178 3520 2557
2279 3551 2756
2381 3581 2954
2481 3608 3103
2580 3635 3252
2677 3660 3383
2766 3680 3478
2856 3701 3574
2936 3716 3639
3009 3729 3691
3083 3742 3742
587 286 303
624 351 509
661 415 716
701 491 940
748 593 1201
795 694 1463
848 817 1722
904 950 1982
960 1083 2241
1023 1236 2456
1086 1390 2670
1150 1544 2863
1217 1701 3011
1284 1858 3160
1350 2004 3266
1415 2144 3350
1481 2284 3435
562 488 362
603 560 567
644 633 771
687 716 995
733 821 1257
778 926 1519
831 1050 1781
888 1183 2041
944 1316 2302
1012 1464 2516
1080 1611 2730
1151 1759 2920
1227 1906 3065
1304 2052 3211
1382 2188 3313
1462 2317 3395
1541 2446 3477
536 689 421
582 770 624
627 850 827
673 941 1049
717 1050 1313
762 1159 1576
815 1283 1839
872 1416 2101
929 1548 2363
1001 1691 2576
1074 1833 2789
1152 1974 2978
1237 2110 3120
1323 2247 3261
1414 2371 3361
1508 2490 3440
1601 2608 3520
517 914 489
565 1000 690
614 1086 891
662 1180 1113
708 1290 1377
754 1401 1641
810 1524 1903
871 1654 2166
931 1784 2428
1011 1920 2639
1091 2055 2849
1176 2187 3036
1271 2313 3173
1366 2438 3311
1469 2552 3407
1574 2659 3483
1680 2766 3559
510 1187 573
559 1271 774
608 1356 974
658 1448 1196
711 1555 1458
764 1662 1720
829 1780 1980
900 1903 2239
971 2027 2498
1061 2152 2704
1152 2277 2911
1247 2398 3092
1352 2511 3225
1457 2624 3357
1568 2725 3449
1681 2819 3520
1795 2913 3592
503 1460 657
552 1543 857
601 1626 1057
654 1716 1278
714 1820 1539
774 1923 1800
849 2036 2057
930 2152 2313
1010 2269 2569
1112 2384 2770
1213 2499 2972
1319 2610 3149
1434 2710 3276
1548 2810 3403
1667 2898 3491
1789 2979 3558
1910 3060 3625
527 1732 742
578 1810 941
630 1887 1141
687 1971 1360
755 2068 1618
824 2165 1876
907 2269 2130
999 2376 2380
1090 2484 2631
1201 2588 2827
1311 2692 3023
1425 2790 3194
1546 2879 3317
1667 2967 3439
1791 3043 3523
1915 3112 3586
2040 3182 3650
565 2004 827
620 2074 1026
675 2144 1225
737 2221 1442
815 2309 1697
893 2397 1951
986 2491 2199
1088 2588 2444
1189 2685 2689
1308 2777 2879
1427 2869 3069
1549 2956 3235
1675 3033 3352
1801 3110 3470
1926 3174 3550
2052 3233 3610
2177 3291 3670
603 2275 912
662 2338 1110
720 2401 1309
788 2470 1525
875 2549 1775
961 2629 2026
1065 2713 2269
1177 2799 2508
1289 2886 2747
1416 2966 2931
1544 3047 3115
1672 3122 3275
1803 3187 3388
1934 3252 3501
2062 3305 3577
2188 3353 3634
2315 3401 3691
699 2490 978
764 2545 1177
828 2600 1375
902 2660 1590
996 2730 1837
1089 2800 2084
1198 2875 2321
1315 2951 2554
1432 3027 2787
1561 3097 2965
1691 3167 3143
1820 3233 3298
1949 3289 3408
2078 3344 3517
2202 3390 3591
2325 3431 3647
2447 3472 3702
795 2705 1044
865 2752 1243
936 2799 1442
1016 2850 1656
1116 2911 1898
1216 2972 2141
1331 3036 2373
1453 3102 2599
1575 3168 2826
1706 3228 2998
1837 3287 3170
1967 3343 3321
2094 3390 3427
2222 3437 3533
2343 3475 3605
2461 3509 3659
2579 3542 3714
907 2894 1102
983 2933 1301
1059 2972 1501
1144 3016 1713
1250 3069 1952
1355 3121 2192
1473 3176 2418
1597 3233 2639
1722 3289 2860
1852 3340 3027
1983 3391 3194
2111 3438 3339
2235 3477 3443
2360 3516 3546
2476 3547 3616
2588 3575 3670
2701 3603 3723
1053 3028 1142
1132 3062 1342
1212 3096 1543
1301 3134 1756
1408 3180 1992
1514 3226 2228
1631 3274 2451
1753 3323 2666
1876 3372 2882
2001 3416 3045
2127 3460 3207
2250 3500 3350
2367 3534 3451
2485 3568 3553
2594 3595 3623
2699 3618 3676
2804 3642 3730
1198 3163 1182
1282 3192 1384
1366 3220 1586
1458 3252 1798
1566 3291 2031
1673 3330 2265
1789 3371 2483
1910 3413 2693
2030 3455 2904
2150 3492 3063
2271 3529 3221
2388 3563 3360
2499 3591 3460
2610 3619 3560
2712 3642 3629
2810 3662 3682
2907 3681 3736
1356 3251 1211
1439 3275 1413
1522 3300 1616
1613 3328 1828
1717 3362 2058
1822 3397 2289
1933 3433 2504
2048 3470 2711
2162 3507 2918
2276 3540 3074
2390 3573 3230
2500 3603 3366
2603 3628 3465
2707 3653 3564
2801 3672 3632
2891 3689 3685
2980 3706 3739
1520 3314 1235
1600 3336 1437
1681 3358 1640
1767 3383 1851
1866 3414 2079
1965 3445 2308
2070 3478 2520
2177 3511 2724
2284 3545 2928
2390 3575 3082
2496 3604 3236
2598 3632 3371
2694 3654 3469
2790 3677 3566
2876 3694 3634
2957 3709 3687
3038 3723 3740
1684 3378 1259
1761 3397 1461
1839 3416 1663
1922 3438 1874
2015 3466 2100
2109 3493 2326
2206 3523 2536
2306 3552 2737
2406 3582 2939
2504 3609 3090
2602 3636 3242
2696 3661 3375
2785 3681 3472
2873 3701 3569
2951 3716 3636
3023 3728 3689
3096 3741 3742
950 332 268
981 390 471
1013 448 674
1048 520 897
1090 618 1159
1132 716 1422
1182 840 1686
1234 976 1951
1287 1112 2215
1347 1273 2436
1408 1434 2657
1469 1597 2855
1533 1763 3008
1597 1929 3161
1661 2084 3272
1725 2234 3361
1789 2384 3449
898 524 322
942 591 523
986 658 723
1028 736 945
1068 838 1209
1109 939 1473
1156 1063 1739
1206 1198 2005
1256 1333 2272
1318 1488 2492
1381 1642 2712
1447 1797 2908
1518 1952 3058
1590 2107 3208
1665 2250 3315
1740 2387 3400
1816 2523 3486
847 716 376
903 791 575
959 867 773
1009 952 994
1047 1057 1259
1085 1162 1524
1129 1286 1792
1177 1420 2060
1224 1553 2328
1289 1702 2547
1354 1850 2767
1424 1997 2962
1504 2141 3108
1584 2285 3255
1669 2416 3358
1755 2539 3440
1842 2663 3522
803 932 439
866 1013 636
929 1094 833
984 1183 1052
1024 1289 1318
1063 1394 1584
1109 1517 1851
1158 1647 2119
1207 1778 2388
1277 1919 2605
1348 2060 2823
1424 2198 3016
1513 2330 3158
1601 2462 3301
1695 2580 3400
1791 2691 3478
1888 2801 3556
774 1198 518
835 1276 715
895 1355 912
951 1442 1131
997 1544 1396
1044 1646 1660
1099 1763 1924
1159 1887 2189
1218 2011 2455
1300 2141 2668
1381 2272 2881
1468 2399 3069
1566 2518 3207
1664 2638 3345
1765 2742 3440
1869 2839 3514
1973 2936 3587
745 1463 597
803 1540 794
861 1616 991
917 1700 1210
971 1799 1473
1024 1898 1736
1089 2009 1998
1160 2126 2259
1230 2243 2521
1323 2364 2730
1415 2484 2939
1512 2600 3123
1619 2707 3256
1726 2813 3389
1836 2904 3480
1946 2988 3549
2057 3071 3619
746 1729 679
803 1801 876
860 1872 1073
918 1950 1291
981 2042 1551
1043 2134 1811
1118 2237 2069
1199 2345 2326
1281 2453 2582
1383 2563 2786
1486 2672 2989
1592 2776 3168
1705 2870 3296
1819 2964 3424
1933 3043 3511
2047 3114 3577
2160 3186 3643
763 1996 762
819 2060 960
876 2125 1157
937 2195 1373
1008 2279 1630
1080 2363 1886
1165 2457 2139
1259 2555 2390
1352 2652 2641
1463 2750 2838
1575 2847 3036
1689 2939 3208
1808 3021 3332
1927 3102 3456
2043 3170 3539
2158 3230 3601
2273 3291 3664
779 2264 846
836 2320 1043
892 2377 1240
956 2441 1455
1036 2517 1708
1117 2593 1961
1213 2676 2209
1318 2764 2454
1422 2851 2699
1543 2937 2890
1664 3022 3082
1786 3102 3249
1910 3171 3368
2034 3241 3487
2153 3297 3566
2270 3346 3625
2386 3395 3685
853 2478 915
914 2528 1112
975 2578 1310
1044 2633 1524
1131 2701 1773
1218 2768 2023
1321 2842 2265
1431 2919 2504
1542 2996 2742
1665 3071 2927
1789 3145 3113
1912 3214 3274
2036 3274 3389
2159 3334 3504
2275 3382 3581
2388 3423 3639
2501 3465 3697
927 2693 984
992 2736 1181
1057 2778 1379
1132 2826 1593
1226 2885 1839
1320 2944 2084
1429 3008 2321
1545 3075 2553
1661 3141 2785
1788 3205 2964
1914 3268 3143
2039 3327 3300
2161 3377 3411
2284 3427 3522
2397 3467 3597
2507 3501 3653
2617 3535 3709
1019 2882 1045
1088 2918 1243
1158 2955 1442
1237 2996 1655
1336 3047 1897
1436 3098 2139
1548 3153 2371
1668 3210 2597
1788 3268 2823
1914 3321 2996
2041 3375 3169
2165 3424 3321
2285 3466 3429
2405 3507 3537
2515 3539 3609
2620 3567 3665
2726 3595 3720
1145 3020 1091
1219 3052 1291
1293 3083 1491
1376 3119 1704
1477 3163 1943
1578 3208 2182
1691 3256 2409
1809 3306 2629
1927 3356 2850
2049 3402 3018
2172 3448 3187
2291 3490 3334
2405 3526 3439
2519 3561 3545
2623 3588 3617
2723 3612 3672
2822 3635 3727
1272 3158 1136
1350 3185 1338
1428 3211 1539
1515 3242 1752
1618 3280 1988
1721 3319 2224
1833 3360 2447
1950 3402 2662
2067 3444 2877
2185 3483 3041
2303 3521 3204
2417 3556 3347
2525 3585 3450
2633 3615 3553
2732 3637 3624
2825 3657 3679
2919 3676 3734
1418 3249 1172
1496 3272 1374
1575 3296 1576
1660 3323 1788
1761 3357 2022
1861 3391 2255
1969 3427 2473
2081 3464 2684
2193 3501 2896
2304 3535 3055
2415 3568 3215
2523 3599 3355
2625 3624 3457
2726 3650 3558
2817 3669 3628
2904 3686 3683
2990 3702 3738
1574 3316 1203
1650 3337 1405
1726 3358 1606
1809 3382 1818
1905 3413 2048
2000 3443 2279
2102 3476 2494
2207 3509 2702
2312 3543 2909
2415 3573 3066
2519 3603 3223
2620 3630 3361
2714 3653 3461
2808 3675 3561
2892 3692 3631
2970 3707 3685
3049 3721 3740
1729 3383 1234
1803 3402 1435
1878 3420 1637
1958 3442 1847
2048 3469 2075
2139 3496 2303
2235 3525 2515
2333 3554 2719
2431 3584 2923
2527 3610 3077
2623 3637 3231
2716 3661 3367
2803 3681 3466
2889 3701 3565
2966 3716 3634
3037 3728 3688
3108 3740 3742
1325 379 231
1349 431 431
1374 483 630
1403 549 851
1440 645 1115
1477 740 1380
1522 864 1648
1570 1003 1918
1619 1142 2187
1676 1309 2415
1732 1477 2642
1789 1647 2846
1848 1822 3005
1907 1996 3163
1967 2160 3278
2028 2317 3371
2089 2475 3464
1250 562 279
1291 622 477
1332 682 675
1371 755 895
1406 853 1161
1440 951 1426
1481 1075 1696
1526 1211 1968
1570 1348 2239
1628 1510 2466
1686 1671 2693
1747 1833 2896
1813 1996 3051
1880 2159 3206
1949 2309 3317
2019 2453 3406
