Assets/1__3DArt/KimSe/artstation_asset/LUTs_pasterls/3DL/Cotton Candy 04 S.3dl
# Enhanced with VOXCOLOR algorithms
0 128 256 384 512 640 768 896 1023
225 241 337
309 382 757
406 567 1243
514 793 1759
633 1054 2267
764 1345 2684
902 1639 3014
1040 1923 3260
1172 2184 3421
225 661 467
296 834 880
388 1042 1367
500 1280 1886
633 1543 2399
794 1816 2811
970 2079 3131
1160 2327 3365
1361 2554 3517
246 1176 628
321 1357 1037
425 1566 1520
560 1797 2036
723 2042 2542
923 2282 2940
1139 2504 3242
1371 2707 3458
1617 2889 3596
307 1735 804
399 1903 1209
530 2095 1685
697 2301 2190
899 2514 2680
1137 2712 3057
1387 2888 3338
1649 3043 3534
1919 3178 3656
428 2287 978
549 2425 1378
713 2582 1842
917 2750 2329
1155 2920 2795
1424 3072 3148
1696 3203 3408
1970 3314 3588
2244 3407 3697
663 2717 1105
814 2819 1505
1006 2937 1958
1233 3065 2425
1489 3194 2867
1761 3307 3198
2028 3403 3443
2288 3484 3613
2540 3550 3718
960 3037 1193
1132 3109 1596
1338 3196 2041
1571 3291 2492
1824 3388 2913
2082 3472 3228
2329 3543 3463
2564 3601 3628
2786 3648 3732
1293 3253 1250
1470 3304 1655
1674 3368 2095
1897 3440 2535
2132 3513 2941
2364 3578 3244
2582 3632 3474
2785 3676 3636
2970 3710 3740
1638 3372 1285
1800 3411 1690
1982 3462 2125
2178 3520 2557
2381 3581 2954
2580 3635 3252
2766 3680 3478
2936 3716 3639
3083 3742 3742
950 332 268
1013 448 674
1090 618 1159
1182 840 1686
1287 1112 2215
1408 1434 2657
1533 1763 3008
1661 2084 3272
1789 2384 3449
847 716 376
959 867 773
1047 1057 1259
1129 1286 1792
1224 1553 2328
1354 1850 2767
1504 2141 3108
1669 2416 3358
1842 2663 3522
774 1198 518
895 1355 912
997 1544 1396
1099 1763 1924
1218 2011 2455
1381 2272 2881
1566 2518 3207
1765 2742 3440
1973 2936 3587
746 1729 679
860 1872 1073
981 2042 1551
1118 2237 2069
1281 2453 2582
1486 2672 2989
1705 2870 3296
1933 3043 3511
2160 3186 3643
779 2264 846
892 2377 1240
1036 2517 1708
1213 2676 2209
1422 2851 2699
1664 3022 3082
1910 3171 3368
2153 3297 3566
2386 3395 3685
927 2693 984
1057 2778 1379
1226 2885 1839
1429 3008 2321
1661 3141 2785
1914 3268 3143
2161 3377 3411
2397 3467 3597
2617 3535 3709
1145 3020 1091
1293 3083 1491
1477 3163 1943
1691 3256 2409
1927 3356 2850
2172 3448 3187
2405 3526 3439
2623 3588 3617
2822 3635 3727
1418 3249 1172
1575 3296 1576
1761 3357 2022
1969 3427 2473
2193 3501 2896
2415 3568 3215
2625 3624 3457
2817 3669 3628
2990 3702 3738
1729 3383 1234
1878 3420 1637
2048 3469 2075
2235 3525 2515
2431 3584 2923
2623 3637 3231
2803 3681 3466
2966 3716 3634
3108 3740 3742
1725 430 190
1755 521 582
1805 674 1067
1874 891 1605
1961 1171 2155
2061 1517 2624
2163 1873 3000
2267 2223 3286
2373 2551 3481
1541 774 272
1625 892 665
1687 1058 1154
1746 1276 1696
1821 1549 2252
1937 1875 2719
2067 2197 3086
2205 2501 3358
2343 2770 3536
1395 1220 386
1487 1340 782
1560 1500 1270
1635 1704 1809
1734 1957 2359
1881 2249 2816
2046 2529 3172
2217 2783 3429
2382 2996 3591
1301 1726 523
1379 1829 921
1465 1969 1405
1572 2149 1934
1710 2369 2470
1897 2617 2911
2095 2849 3251
2293 3051 3493
2476 3211 3640
1271 2247 674
1339 2324 1073
1443 2436 1549
1584 2582 2064
1764 2761 2580
1984 2957 2999
2207 3135 3320
2421 3286 3546
2611 3399 3681
1350 2683 820
1433 2740 1219
1558 2826 1687
1723 2939 2187
1923 3074 2678
2152 3218 3070
2377 3347 3369
2587 3454 3580
2771 3532 3707
1494 3023 946
1597 3067 1351
1740 3134 1813
1917 3219 2297
2122 3318 2763
2344 3419 3129
2557 3507 3407
2753 3579 3605
2925 3632 3727
1691 3265 1055
1812 3302 1465
1965 3355 1922
2142 3420 2390
2339 3492 2834
2542 3561 3176
2733 3620 3436
2909 3667 3622
3063 3702 3740
1928 3408 1147
2057 3442 1558
2207 3487 2009
2374 3539 2464
2551 3596 2889
2728 3647 3212
2893 3689 3457
3043 3722 3633
3173 3746 3745
2449 529 120
2444 595 498
2467 732 979
2513 941 1523
2582 1226 2091
2661 1589 2587
2739 1966 2990
2815 2338 3299
2892 2687 3513
2215 831 175
2238 911 570
2265 1051 1060
2307 1257 1608
2379 1536 2176
2489 1888 2669
2606 2243 3065
2720 2578 3361
2822 2869 3556
2030 1243 257
2053 1318 663
2086 1446 1156
2141 1635 1701
2233 1891 2264
2378 2214 2750
2531 2533 3137
2679 2823 3422
2804 3060 3602
1901 1725 364
1913 1783 774
1955 1890 1265
2032 2051 1802
2153 2272 2355
2329 2550 2829
2513 2820 3205
2685 3060 3479
2828 3246 3647
1839 2237 494
1845 2272 902
1897 2353 1386
1998 2481 1913
2147 2658 2450
2346 2878 2907
2548 3089 3267
2735 3274 3528
2889 3414 3685
1875 2685 641
1896 2709 1047
1966 2769 1524
2082 2865 2038
2243 2996 2553
2444 3155 2982
2644 3307 3319
2829 3439 3563
2982 3540 3712
1960 3041 782
2006 3062 1192
2095 3110 1665
2222 3181 2165
2384 3275 2656
2575 3382 3054
2762 3483 3366
2935 3570 3592
3083 3638 3733
2082 3297 915
2157 3322 1333
2263 3363 1803
2397 3419 2289
2554 3485 2756
2727 3554 3124
2894 3616 3410
3048 3668 3616
3182 3710 3747
2227 3448 1035
2328 3477 1461
2449 3517 1929
2586 3565 2404
2735 3618 2850
2888 3665 3191
3032 3705 3451
3162 3736 3637
3273 3758 3754
3020 621 75
2987 665 437
2988 786 908
3019 988 1450
3077 1273 2027
3144 1645 2547
3205 2036 2976
3260 2426 3310
3311 2796 3544
2780 883 105
2743 928 502
2740 1043 989
2774 1236 1534
2848 1516 2108
2960 1890 2621
3070 2273 3043
3167 2637 3365
3240 2954 3580
2596 1262 156
2551 1298 573
2547 1396 1067
2589 1567 1612
2681 1822 2179
2826 2170 2688
2972 2524 3104
3102 2851 3418
3197 3121 3621
2475 1724 232
2421 1742 656
2419 1817 1150
2470 1957 1690
2577 2173 2249
2743 2473 2750
2913 2779 3160
3067 3060 3467
3182 3285 3661
2420 2231 336
2363 2230 755
2364 2278 1244
2422 2383 1776
2538 2549 2324
2713 2786 2812
2895 3030 3211
3061 3255 3510
3190 3436 3697
2446 2696 474
2403 2688 887
2413 2719 1369
2476 2793 1890
2590 2912 2420
2757 3080 2883
2932 3254 3261
3095 3417 3544
3229 3555 3724
2497 3072 619
2482 3068 1034
2509 3093 1513
2578 3146 2023
2687 3228 2532
2839 3337 2964
2998 3449 3314
3150 3556 3576
3281 3650 3745
2558 3344 767
2581 3354 1191
2633 3381 1671
2712 3424 2172
2819 3480 2659
2954 3546 3057
3093 3610 3375
3225 3670 3609
3342 3723 3761
2618 3502 909
2684 3525 1350
2766 3560 1837
2863 3604 2333
2974 3652 2801
3096 3694 3165
3212 3728 3445
3319 3755 3646
3408 3775 3771
3312 687 69
3275 726 414
3272 840 869
3299 1033 1401
3352 1310 1976
3415 1679 2507
3471 2071 2955
3520 2470 3310
3561 2857 3563
3128 924 86
3076 954 474
3066 1055 950
3097 1237 1486
3168 1509 2055
3272 1884 2579
3370 2278 3018
3454 2661 3362
3513 3004 3598
2998 1283 120
2934 1298 533
2918 1377 1019
2951 1532 1555
3033 1775 2117
3161 2124 2636
3289 2494 3072
3401 2850 3411
3480 3159 3637
2924 1731 178
2850 1727 598
2830 1778 1084
2862 1897 1616
2945 2094 2171
3084 2393 2684
3229 2717 3117
3360 3034 3454
3460 3314 3677
2908 2237 261
2827 2211 675
2800 2233 1155
2827 2311 1678
2906 2453 2223
3044 2684 2727
3193 2944 3156
3336 3210 3491
3453 3458 3714
2949 2714 382
2874 2682 786
2846 2688 1256
2867 2735 1767
2935 2829 2296
3059 2989 2781
3199 3174 3195
3340 3374 3521
3466 3574 3743
2993 3106 518
2941 3083 920
2924 3087 1386
2944 3118 1888
3002 3179 2398
3111 3279 2857
3236 3397 3248
3366 3528 3555
3490 3668 3766
3027 3394 664
3012 3391 1076
3017 3405 1546
3047 3435 2043
3105 3480 2536
3199 3536 2964
3305 3598 3321
3416 3666 3597
3522 3742 3784
3040 3563 815
3072 3583 1252
3114 3618 1738
3168 3662 2238
3237 3707 2719
3323 3741 3111
3410 3765 3423
3492 3781 3652
3562 3795 3796
3475 734 76
3449 779 403
3450 893 844
3475 1080 1366
3521 1345 1936
3578 1700 2473
3631 2086 2932
3677 2486 3301
3718 2883 3570
3366 960 89
3327 990 460
3323 1088 922
3353 1262 1448
3413 1521 2013
3497 1882 2542
3577 2272 2994
3645 2661 3353
3695 3025 3606
3301 1307 120
3252 1317 514
3243 1387 985
3271 1529 1511
3336 1753 2068
3433 2088 2592
3530 2456 3042
3615 2829 3399
3677 3177 3647
3278 1746 170
3221 1732 571
3205 1769 1042
3227 1867 1561
3287 2039 2109
3386 2321 2628
3491 2647 3078
3588 2992 3439
3666 3330 3691
3297 2248 244
3231 2209 637
3205 2210 1098
3216 2263 1607
3265 2375 2142
3357 2586 2654
3461 2850 3105
3567 3150 3472
3660 3474 3732
3348 2731 353
3281 2683 731
3248 2668 1178
3248 2691 1673
3282 2758 2192
3360 2899 2690
3456 3087 3134
3560 3319 3499
3664 3590 3765
3389 3132 478
3336 3095 851
3305 3083 1290
3300 3096 1773
3324 3136 2276
3390 3221 2755
3475 3339 3181
3571 3492 3534
3672 3685 3791
3412 3432 618
3383 3421 1000
3367 3428 1443
3369 3450 1921
3392 3483 2410
3449 3528 2863
3520 3585 3260
3601 3660 3582
3685 3760 3810
3405 3613 771
3413 3636 1184
3427 3676 1646
3450 3725 2131
3486 3772 2611
3540 3797 3031
3598 3807 3383
3654 3810 3651
3703 3815 3822
3547 762 87
3537 821 400
3545 939 829
3570 1120 1341
3610 1370 1906
3660 1708 2445
3709 2082 2910
3756 2477 3288
3798 2878 3565
3514 988 107
3504 1034 451
3516 1137 897
3546 1305 1415
3592 1546 1978
3651 1884 2512
3708 2257 2970
3758 2643 3340
3797 3018 3603
3510 1331 144
3502 1353 506
3515 1424 958
3546 1555 1474
3593 1756 2029
3653 2062 2556
3710 2416 3015
3761 2794 3386
3799 3174 3650
3532 1763 199
3525 1755 565
3536 1785 1013
3564 1867 1521
3606 2011 2062
3660 2262 2584
3715 2576 3045
3764 2938 3425
3804 3333 3700
3577 2259 274
3567 2218 630
3573 2208 1067
3592 2238 1559
3624 2321 2084
3669 2502 2599
3718 2757 3064
3766 3084 3456
3810 3482 3750
3632 2742 376
3619 2687 715
3616 2659 1133
3624 2663 1607
3644 2704 2115
3679 2821 2619
3722 3004 3084
3769 3260 3482
3816 3600 3788
3674 3146 494
3660 3102 824
3653 3080 1229
3655 3081 1687
3667 3104 2178
3695 3172 2670
3732 3284 3124
3774 3455 3516
3820 3698 3817
3695 3454 629
3686 3440 967
3682 3446 1370
3684 3465 1819
3695 3492 2296
3719 3526 2769
3750 3575 3202
3785 3654 3567
3823 3776 3836
3690 3648 782
3690 3678 1152
3697 3729 1571
3710 3788 2023
3729 3839 2490
3754 3856 2938
3779 3852 3332
3803 3840 3644
3824 3834 3848
3565 771 96
3571 846 399
3585 968 818
3609 1143 1324
3641 1378 1885
3685 1702 2426
3731 2064 2893
3778 2450 3273
3822 2842 3549
3588 1007 132
3614 1082 440
3646 1198 869
3680 1362 1383
3716 1582 1949
3750 1889 2488
3782 2237 2952
3810 2609 3324
3835 2985 3591
3628 1350 184
3677 1401 498
3727 1484 928
3772 1608 1438
3810 1783 1996
3833 2050 2529
3847 2377 2994
3854 2748 3372
3854 3150 3645
3680 1778 253
3751 1790 568
3816 1826 991
3870 1896 1488
3908 2010 2029
3920 2223 2554
3917 2513 3022
3902 2880 3414
3877 3321 3706
3738 2266 338
3825 2235 645
3899 2223 1053
3956 2239 1531
3991 2294 2049
3995 2441 2565
3980 2678 3039
3948 3020 3448
3900 3480 3767
3792 2742 442
3879 2690 734
3950 2659 1119
4003 2652 1573
4034 2674 2070
4034 2766 2577
4015 2935 3054
3975 3207 3474
3916 3603 3812
3833 3144 560
3908 3101 841
3971 3078 1207
4018 3074 1639
4047 3087 2116
4045 3139 2614
4024 3243 3088
3984 3423 3507
3925 3706 3842
3860 3456 696
3911 3446 979
3960 3457 1335
4000 3479 1749
4027 3505 2210
4026 3530 2696
4007 3572 3157
3973 3651 3556
3926 3790 3860
3870 3661 851
3886 3704 1162
3914 3770 1522
3947 3842 1926
3974 3900 2372
3976 3911 2843
3960 3895 3277
3938 3870 3634
3918 3854 3870
