Assets/1__3DArt/KimSe/artstation_asset/LUTs_pasterls/3DL/Cotton Candy 04.3dl
# Enhanced with VOXCOLOR algorithms
0 128 256 384 512 640 768 896 1023
225 241 337
309 382 757
406 567 1243
514 793 1759
633 1054 2267
764 1345 2684
902 1639 3014
1040 1923 3260
1172 2184 3421
225 661 467
296 834 880
388 1042 1367
500 1281 1886
633 1543 2399
794 1816 2811
970 2079 3131
1160 2327 3365
1361 2554 3517
246 1176 628
321 1357 1037
425 1566 1520
560 1797 2036
724 2043 2542
923 2283 2940
1139 2505 3242
1371 2708 3458
1617 2889 3596
307 1734 805
400 1903 1209
531 2095 1686
698 2301 2191
900 2515 2681
1139 2712 3057
1389 2889 3338
1650 3044 3534
1919 3178 3656
430 2286 980
550 2425 1379
715 2582 1844
919 2750 2330
1159 2921 2797
1428 3073 3149
1700 3204 3409
1973 3315 3588
2244 3407 3697
670 2716 1112
819 2818 1509
1011 2937 1961
1239 3065 2428
1496 3195 2869
1769 3308 3200
2036 3404 3445
2293 3484 3614
2540 3550 3718
972 3034 1205
1140 3108 1603
1345 3196 2046
1580 3292 2497
1836 3389 2918
2095 3473 3232
2341 3543 3466
2572 3602 3630
2786 3648 3732
1304 3250 1261
1478 3303 1663
1681 3368 2100
1905 3440 2539
2142 3514 2945
2375 3578 3248
2592 3632 3476
2791 3676 3637
2970 3710 3740
1638 3372 1285
1800 3411 1690
1982 3462 2125
2178 3520 2557
2381 3581 2954
2580 3635 3252
2766 3680 3478
2936 3716 3639
3083 3742 3742
950 332 268
1018 451 672
1097 623 1158
1189 845 1685
1293 1116 2214
1410 1436 2656
1534 1764 3008
1661 2085 3272
1789 2384 3449
867 721 381
1002 887 775
1099 1086 1262
1180 1319 1797
1263 1583 2335
1378 1870 2773
1515 2151 3112
1671 2419 3359
1842 2663 3522
807 1209 529
957 1389 922
1073 1592 1409
1173 1817 1941
1277 2059 2472
1417 2305 2894
1583 2536 3215
1770 2748 3442
1973 2936 3587
783 1744 695
926 1914 1093
1060 2101 1575
1197 2302 2096
1345 2512 2609
1526 2711 3009
1726 2891 3307
1939 3050 3515
2161 3186 3643
812 2279 864
947 2418 1265
1103 2574 1740
1281 2738 2243
1479 2907 2731
1702 3059 3104
1930 3191 3380
2160 3303 3570
2386 3395 3685
952 2703 1002
1096 2807 1404
1272 2925 1868
1477 3051 2352
1704 3180 2814
1944 3294 3163
2180 3391 3422
2406 3471 3600
2618 3535 3709
1163 3024 1108
1317 3098 1511
1506 3185 1965
1721 3280 2432
1957 3377 2871
2196 3462 3202
2422 3534 3448
2633 3591 3620
2824 3635 3726
1429 3248 1185
1586 3300 1588
1774 3363 2034
1984 3435 2485
2208 3508 2907
2430 3573 3224
2636 3627 3462
2825 3670 3630
2992 3702 3737
1729 3383 1234
1878 3420 1637
2048 3469 2075
2235 3525 2515
2431 3584 2923
2623 3637 3232
2803 3681 3466
2966 3716 3634
3108 3740 3742
1725 430 190
1772 533 577
1831 692 1060
1899 909 1598
1979 1185 2151
2071 1524 2622
2167 1876 3000
2268 2224 3286
2373 2551 3481
1602 790 284
1738 943 665
1821 1133 1153
1875 1360 1702
1923 1626 2264
1999 1928 2731
2097 2226 3095
2213 2511 3361
2343 2771 3536
1493 1252 410
1652 1423 797
1754 1618 1288
1823 1837 1837
1884 2080 2394
1977 2335 2846
2094 2577 3190
2231 2800 3435
2382 2996 3590
1412 1767 557
1556 1930 954
1673 2111 1446
1776 2307 1986
1878 2516 2527
2005 2721 2956
2151 2907 3278
2311 3072 3503
2476 3211 3640
1369 2290 713
1493 2425 1119
1625 2575 1608
1765 2735 2135
1916 2902 2652
2085 3057 3053
2262 3192 3352
2440 3307 3557
2612 3400 3681
1416 2714 853
1538 2813 1264
1685 2927 1746
1852 3049 2254
2036 3176 2745
2231 3291 3120
2423 3389 3399
2605 3470 3591
2773 3533 3707
1532 3038 972
1658 3108 1385
1815 3191 1858
1997 3282 2349
2195 3377 2815
2399 3461 3168
2592 3532 3431
2770 3589 3613
2928 3632 3726
1706 3268 1070
1837 3315 1484
1996 3375 1946
2178 3442 2419
2374 3513 2864
2571 3577 3199
2754 3630 3450
2920 3672 3627
3066 3702 3739
1928 3408 1147
2057 3442 1559
2208 3486 2010
2375 3538 2467
2553 3594 2892
2730 3646 3215
2894 3688 3459
3043 3722 3633
3173 3746 3745
2449 529 120
2477 619 488
2514 767 964
2560 978 1509
2616 1254 2081
2680 1604 2582
2746 1972 2989
2816 2339 3299
2892 2687 3513
2323 861 193
2424 999 564
2483 1177 1051
2518 1399 1609
2545 1668 2192
2593 1981 2687
2658 2294 3078
2735 2595 3367
2823 2870 3556
2203 1298 294
2326 1454 676
2401 1640 1172
2447 1855 1734
2482 2100 2314
2538 2365 2796
2614 2620 3168
2705 2855 3434
2804 3061 3602
2098 1796 416
2211 1947 813
2299 2119 1315
2370 2311 1873
2434 2521 2442
2515 2733 2903
2612 2928 3252
2719 3102 3497
2829 3248 3646
2015 2310 552
2109 2436 963
2206 2579 1467
2307 2735 2018
2410 2900 2566
2526 3059 3000
2649 3200 3326
2773 3319 3550
2890 3415 3684
1993 2739 688
2081 2831 1108
2188 2938 1610
2310 3054 2146
2444 3177 2669
2588 3293 3075
2729 3393 3377
2864 3476 3586
2984 3541 3711
2024 3070 815
2114 3133 1241
2230 3209 1737
2366 3294 2255
2518 3384 2753
2676 3466 3133
2826 3537 3416
2965 3595 3612
3086 3638 3731
2104 3306 931
2199 3347 1360
2321 3400 1846
2463 3461 2346
2621 3526 2818
2781 3587 3176
2931 3638 3443
3067 3679 3630
3186 3710 3746
2227 3448 1035
2329 3476 1463
2452 3515 1936
2590 3561 2415
2741 3613 2864
2893 3661 3203
3035 3702 3459
3163 3734 3640
3273 3758 3754
3020 621 75
3034 702 421
3056 842 885
3087 1044 1429
3126 1315 2013
3170 1669 2540
3216 2046 2974
3262 2428 3310
3311 2796 3544
2926 926 127
2982 1048 486
3017 1216 967
3041 1432 1526
3063 1700 2121
3096 2021 2642
3139 2347 3060
3188 2664 3373
3240 2955 3580
2833 1339 201
2904 1479 577
2950 1654 1072
2980 1865 1640
3003 2111 2237
3038 2386 2747
3085 2653 3146
3140 2903 3437
3198 3122 3620
2745 1821 295
2812 1958 689
2866 2122 1196
2910 2310 1768
2947 2520 2359
2995 2740 2851
3054 2946 3228
3118 3131 3497
3183 3287 3660
2664 2331 405
2719 2447 817
2778 2582 1333
2838 2733 1904
2899 2896 2481
2969 3059 2948
3044 3207 3302
3121 3335 3549
3193 3439 3695
2611 2770 528
2659 2853 956
2723 2951 1475
2798 3061 2037
2881 3180 2593
2972 3296 3030
3065 3399 3359
3153 3487 3586
3232 3557 3722
2585 3113 655
2635 3167 1094
2705 3234 1612
2792 3311 2160
2891 3395 2691
2998 3475 3100
3102 3545 3405
3199 3605 3616
3285 3652 3744
2588 3357 783
2644 3390 1229
2722 3434 1740
2818 3487 2270
2928 3546 2774
3044 3602 3156
3155 3651 3440
3257 3692 3638
3345 3724 3760
2618 3502 909
2686 3523 1357
2773 3554 1855
2875 3593 2363
2989 3639 2839
3109 3683 3198
3221 3721 3467
3322 3752 3654
3408 3775 3771
3312 687 69
3320 765 397
3338 899 845
3364 1094 1378
3399 1356 1961
3440 1703 2500
3481 2081 2952
3521 2472 3310
3561 2857 3563
3265 971 108
3293 1082 453
3317 1241 920
3340 1451 1470
3365 1713 2064
3399 2034 2599
3437 2367 3037
3476 2696 3371
3514 3005 3598
3221 1363 165
3257 1490 528
3285 1656 1013
3310 1861 1576
3334 2105 2176
3365 2384 2702
3402 2661 3123
3442 2925 3435
3481 3162 3636
3181 1830 237
3214 1955 620
3245 2110 1121
3274 2293 1694
3302 2503 2294
3337 2729 2806
3377 2946 3207
3420 3146 3496
3461 3318 3676
3142 2336 325
3168 2442 729
3199 2570 1244
3234 2717 1822
3271 2879 2415
3313 3048 2906
3361 3205 3283
3409 3345 3551
3455 3463 3712
3108 2787 433
3128 2862 855
3159 2953 1379
3200 3058 1955
3247 3174 2531
3302 3292 2995
3359 3401 3346
3415 3497 3593
3469 3578 3742
3079 3147 551
3099 3193 990
3134 3253 1518
3180 3324 2085
3238 3402 2640
3303 3481 3074
3368 3553 3400
3432 3617 3627
3492 3672 3765
3056 3407 679
3081 3432 1129
3122 3469 1655
3176 3514 2208
3243 3567 2738
3317 3619 3143
3390 3666 3445
3460 3708 3655
3524 3744 3783
3040 3563 815
3076 3575 1271
3126 3599 1788
3189 3631 2321
3264 3670 2823
3347 3710 3200
3427 3744 3482
3499 3772 3677
3562 3795 3796
3475 734 76
3480 810 390
3496 940 825
3521 1128 1347
3555 1380 1924
3596 1719 2467
3638 2093 2930
3679 2487 3301
3718 2883 3570
3464 1000 108
3479 1104 440
3498 1256 893
3521 1459 1433
3551 1715 2021
3587 2033 2563
3625 2368 3013
3661 2704 3363
3695 3026 3605
3461 1374 156
3479 1491 505
3499 1649 977
3522 1849 1532
3549 2089 2130
3581 2370 2665
3615 2654 3101
3648 2928 3429
3678 3180 3646
3464 1826 219
3480 1941 587
3499 2089 1077
3521 2269 1645
3546 2478 2247
3575 2709 2771
3606 2935 3188
3638 3148 3495
3667 3336 3689
3467 2327 295
3478 2424 684
3494 2546 1191
3515 2691 1768
3539 2854 2368
3568 3029 2875
3599 3195 3270
3631 3349 3555
3661 3482 3729
3464 2789 393
3470 2856 802
3483 2943 1322
3503 3045 1901
3528 3161 2489
3560 3282 2971
3594 3398 3341
3629 3505 3603
3665 3599 3762
3453 3164 505
3456 3205 933
3469 3260 1460
3490 3326 2035
3519 3403 2606
3555 3483 3060
3593 3559 3403
3633 3629 3643
3674 3693 3789
3433 3442 631
3438 3462 1073
3454 3493 1602
3478 3534 2167
3513 3583 2715
3556 3634 3139
3599 3681 3455
3643 3724 3675
3687 3764 3809
3405 3613 771
3417 3620 1220
3438 3638 1743
3470 3665 2290
3513 3700 2812
3564 3735 3206
3614 3766 3499
3661 3792 3701
3703 3815 3822
3547 762 87
3552 837 393
3567 963 819
3591 1145 1331
3625 1388 1899
3668 1718 2442
3713 2086 2909
3757 2478 3288
3798 2878 3565
3559 1012 119
3570 1111 438
3588 1258 880
3614 1456 1410
3647 1706 1992
3686 2020 2535
3726 2353 2992
3763 2691 3351
3797 3019 3603
3585 1370 166
3598 1479 500
3617 1632 960
3641 1828 1506
3671 2066 2098
3706 2347 2638
3740 2635 3082
3772 2917 3421
3799 3178 3649
3620 1809 228
3631 1916 580
3648 2059 1057
3669 2237 1617
3695 2446 2216
3725 2682 2747
3753 2917 3174
3780 3140 3493
3803 3342 3698
3658 2304 304
3666 2394 676
3678 2513 1170
3695 2657 1741
3716 2823 2341
3740 3005 2857
3765 3182 3265
3788 3348 3561
3808 3497 3746
3688 2773 401
3691 2836 793
3698 2920 1302
3710 3022 1877
3727 3141 2469
3748 3269 2962
3770 3394 3344
3792 3511 3617
3813 3618 3784
3704 3163 512
3703 3200 923
3707 3253 1441
3716 3319 2015
3731 3398 2593
3751 3482 3059
3772 3564 3414
3795 3641 3663
3819 3713 3813
3705 3460 639
3702 3476 1063
3704 3504 1584
3713 3543 2149
3729 3592 2708
3751 3645 3145
3774 3694 3473
3798 3740 3699
3823 3785 3834
3690 3648 782
3686 3652 1210
3690 3667 1724
3701 3691 2273
3721 3723 2807
3749 3757 3216
3776 3786 3519
3802 3811 3727
3824 3834 3848
3565 771 96
3571 846 399
3585 968 818
3609 1143 1324
3641 1378 1885
3685 1702 2426
3731 2064 2893
3778 2450 3273
3822 2842 3549
3587 1007 132
3599 1102 439
3619 1246 873
3646 1440 1397
3680 1686 1974
3720 1996 2517
3761 2327 2975
3800 2662 3337
3835 2986 3590
3625 1350 184
3641 1454 504
3663 1604 953
3690 1798 1492
3723 2036 2081
3760 2319 2621
3795 2609 3069
3827 2893 3413
3853 3156 3644
3676 1778 254
3692 1879 590
3713 2020 1055
3738 2198 1606
3768 2410 2202
3800 2652 2735
3830 2895 3168
3855 3126 3493
3873 3335 3702
3734 2266 340
3749 2352 695
3766 2470 1176
3787 2616 1738
3812 2788 2335
3838 2980 2854
3862 3168 3268
3881 3346 3572
3893 3506 3760
3787 2742 448
3798 2801 822
3811 2886 1317
3826 2992 1883
3845 3117 2473
3866 3255 2970
3886 3390 3359
3900 3518 3637
3909 3635 3804
3828 3144 569
3835 3179 959
3843 3232 1462
3853 3302 2027
3868 3386 2604
3886 3479 3076
3901 3569 3436
3913 3654 3688
3919 3733 3835
3856 3456 704
3857 3471 1101
3860 3500 1604
3867 3542 2160
3879 3594 2719
3895 3652 3165
3908 3706 3499
3917 3757 3727
3922 3805 3856
3870 3661 851
3863 3666 1243
3862 3681 1733
3866 3705 2271
3878 3737 2809
3894 3772 3232
3905 3802 3544
3913 3829 3753
3918 3854 3870
