Assets/1__3DArt/KimSe/artstation_asset/LUTs_pasterls/3DL/Cotton Candy 03 S.3dl
# Enhanced with VOXCOLOR algorithms
0 128 256 384 512 640 768 896 1023
578 289 369
657 473 932
734 680 1488
805 904 2009
868 1142 2465
917 1388 2795
962 1629 3047
1003 1854 3231
1044 2056 3356
600 872 476
668 1058 997
742 1255 1541
819 1458 2071
897 1665 2546
970 1866 2889
1041 2055 3145
1113 2232 3327
1189 2392 3448
698 1454 572
765 1628 1066
844 1805 1605
931 1982 2140
1024 2155 2627
1119 2311 2976
1213 2453 3233
1308 2581 3410
1406 2697 3522
878 2000 653
950 2151 1135
1035 2302 1671
1132 2449 2210
1238 2587 2702
1349 2703 3051
1458 2801 3304
1567 2886 3475
1676 2959 3580
1147 2476 715
1223 2597 1196
1313 2718 1732
1415 2833 2271
1527 2938 2762
1643 3018 3107
1757 3082 3355
1868 3131 3521
1977 3170 3619
1507 2813 749
1580 2905 1242
1666 2998 1781
1761 3086 2315
1863 3164 2798
1968 3220 3136
2070 3261 3379
2171 3291 3540
2271 3311 3636
1879 3066 775
1942 3135 1278
2014 3204 1816
2094 3270 2345
2178 3326 2818
2265 3364 3151
2351 3390 3390
2438 3406 3549
2526 3415 3642
2236 3245 797
2278 3293 1303
2329 3344 1837
2387 3392 2359
2449 3432 2825
2514 3458 3154
2582 3474 3391
2651 3482 3549
2723 3483 3640
2553 3356 819
2559 3389 1315
2580 3425 1842
2612 3460 2357
2651 3491 2819
2697 3510 3148
2744 3521 3387
2793 3523 3544
2842 3517 3629
1278 379 271
1309 506 787
1338 671 1330
1365 871 1863
1388 1105 2350
1404 1373 2716
1420 1643 3000
1439 1906 3210
1464 2149 3356
1181 890 352
1252 1027 832
1295 1189 1366
1320 1375 1911
1342 1585 2421
1375 1811 2803
1416 2030 3090
1464 2236 3295
1518 2422 3429
1160 1427 438
1237 1555 900
1290 1702 1431
1331 1867 1981
1374 2047 2501
1432 2232 2889
1499 2402 3175
1572 2555 3373
1647 2687 3495
1224 1951 521
1290 2060 981
1351 2185 1511
1413 2323 2062
1483 2472 2583
1569 2614 2968
1658 2740 3249
1748 2846 3439
1835 2931 3552
1384 2423 593
1437 2510 1061
1503 2611 1594
1582 2721 2143
1673 2836 2658
1776 2939 3035
1878 3024 3308
1975 3091 3491
2063 3138 3596
1656 2771 646
1705 2842 1128
1770 2922 1666
1850 3008 2210
1941 3093 2714
2040 3164 3078
2136 3220 3342
2227 3260 3519
2310 3285 3621
1961 3037 692
2005 3096 1185
2064 3159 1724
2135 3224 2263
2215 3285 2754
2299 3331 3108
2382 3364 3363
2461 3386 3535
2537 3397 3635
2274 3229 733
2307 3277 1232
2353 3326 1768
2408 3374 2298
2469 3416 2779
2533 3445 3123
2597 3463 3373
2662 3473 3540
2726 3475 3638
2572 3354 773
2584 3390 1267
2607 3427 1794
2640 3462 2315
2679 3492 2787
2722 3510 3126
2766 3521 3373
2812 3524 3537
2859 3521 3630
1981 477 178
1966 556 642
1956 681 1164
1950 856 1702
1945 1081 2214
1938 1360 2617
1930 1651 2935
1926 1939 3174
1929 2213 3342
1793 910 234
1822 998 683
1826 1124 1205
1820 1290 1755
1817 1500 2287
1833 1750 2703
1856 1999 3023
1885 2234 3254
1916 2445 3405
1679 1396 302
1714 1476 748
1730 1590 1271
1742 1739 1826
1762 1925 2366
1808 2139 2788
1863 2344 3106
1919 2529 3330
1971 2683 3468
1650 1895 376
1672 1958 827
1698 2053 1353
1733 2180 1908
1785 2336 2448
1860 2510 2868
1941 2669 3182
2017 2806 3398
2081 2911 3525
1720 2366 450
1728 2413 910
1759 2489 1441
1814 2590 1995
1890 2713 2530
1986 2843 2941
2081 2957 3246
2167 3049 3454
2236 3113 3574
1913 2733 517
1920 2775 990
1954 2838 1526
2012 2916 2078
2091 3007 2602
2184 3095 2999
2275 3170 3291
2357 3228 3491
2423 3264 3606
2147 3018 581
2159 3060 1066
2193 3112 1605
2247 3172 2153
2316 3236 2664
2395 3291 3045
2473 3335 3325
2546 3365 3516
2609 3383 3628
2400 3226 642
2415 3267 1134
2446 3312 1672
2489 3357 2213
2541 3400 2713
2601 3431 3079
2662 3452 3347
2721 3465 3530
2777 3470 3637
2649 3359 702
2661 3397 1193
2682 3434 1725
2710 3469 2257
2744 3498 2745
2784 3515 3100
2824 3525 3359
2867 3529 3534
2910 3527 3636
2608 572 102
2557 612 514
2521 705 1008
2496 855 1542
2479 1067 2071
2461 1349 2509
2439 1651 2860
2418 1957 3129
2403 2253 3319
2367 930 135
2338 973 560
2310 1066 1066
2289 1213 1612
2285 1419 2154
2301 1687 2599
2320 1962 2949
2336 2226 3208
2347 2462 3380
2197 1365 182
2170 1400 620
2151 1481 1134
2147 1614 1685
2166 1802 2234
2215 2042 2683
2267 2281 3032
2314 2500 3283
2345 2682 3441
2110 1838 240
2075 1859 689
2064 1924 1209
2080 2036 1762
2124 2196 2312
2200 2397 2761
2277 2592 3108
2344 2764 3353
2390 2897 3500
2120 2310 307
2075 2319 764
2070 2369 1290
2100 2457 1845
2163 2582 2392
2255 2736 2835
2345 2881 3175
2423 3005 3414
2475 3094 3553
2248 2701 381
2208 2713 847
2207 2755 1378
2239 2822 1935
2301 2912 2474
2388 3017 2903
2473 3113 3229
2548 3192 3458
2602 3248 3592
2415 3009 458
2389 3031 933
2393 3069 1469
2423 3121 2024
2475 3183 2554
2547 3246 2964
2619 3300 3275
2685 3343 3492
2739 3372 3621
2600 3234 536
2592 3266 1018
2601 3304 1557
2626 3345 2108
2664 3385 2627
2717 3418 3019
2772 3442 3313
2825 3458 3517
2875 3467 3639
2785 3374 616
2790 3412 1101
2803 3449 1638
2822 3483 2183
2849 3511 2690
2883 3527 3067
2920 3535 3345
2959 3537 3534
2998 3535 3645
3079 654 52
3011 666 417
2966 734 882
2941 864 1403
2929 1061 1939
2917 1339 2402
2897 1645 2782
2873 1962 3080
2850 2276 3295
2835 944 66
2763 955 473
2717 1021 961
2700 1150 1493
2709 1349 2034
2738 1627 2498
2762 1922 2873
2776 2211 3160
2775 2473 3355
2658 1333 93
2581 1335 527
2540 1390 1030
2533 1507 1569
2561 1690 2115
2621 1948 2582
2677 2215 2957
2720 2466 3236
2738 2680 3417
2558 1785 133
2476 1774 582
2439 1815 1094
2443 1910 1639
2485 2065 2188
2563 2285 2658
2640 2511 3032
2702 2718 3307
2735 2886 3477
2543 2261 186
2457 2241 642
2421 2266 1160
2430 2337 1710
2479 2456 2260
2564 2625 2728
2650 2797 3100
2721 2955 3371
2765 3079 3534
2630 2677 258
2550 2665 716
2515 2685 1240
2521 2737 1793
2563 2820 2341
2639 2933 2797
2717 3047 3158
2786 3152 3421
2834 3236 3580
2742 3010 338
2682 3014 801
2654 3037 1330
2656 3077 1886
2686 3132 2428
2746 3198 2869
2811 3261 3214
2873 3319 3463
2923 3365 3616
2864 3252 426
2831 3275 895
2814 3305 1430
2815 3340 1987
2835 3376 2522
2876 3407 2944
2925 3432 3269
2975 3452 3501
3021 3468 3643
2978 3399 520
2972 3435 995
2972 3473 1535
2978 3507 2093
2994 3536 2623
3022 3549 3026
3054 3552 3327
3089 3550 3535
3124 3545 3658
3304 705 37
3246 710 369
3213 768 807
3200 886 1311
3202 1067 1841
3206 1331 2316
3200 1629 2715
3188 1949 3035
3172 2276 3271
3122 953 42
3051 953 429
3015 1007 897
3008 1124 1412
3029 1310 1944
3066 1582 2415
3095 1880 2806
3112 2181 3114
3111 2466 3331
2995 1314 58
2918 1303 480
2880 1345 967
2879 1448 1492
2911 1617 2027
2969 1872 2500
3022 2148 2890
3059 2421 3191
3073 2669 3395
2929 1751 86
2847 1729 527
2809 1754 1026
2810 1833 1557
2846 1972 2096
2913 2189 2572
2978 2426 2965
3030 2662 3264
3056 2873 3459
2930 2230 128
2842 2197 574
2799 2205 1078
2797 2258 1614
2830 2358 2157
2897 2522 2635
2966 2706 3031
3024 2893 3330
3061 3068 3521
3000 2666 190
2914 2640 632
2867 2643 1139
2856 2678 1679
2878 2744 2222
2934 2852 2696
2995 2974 3087
3053 3102 3384
3096 3230 3574
3079 3018 264
3009 3011 705
2965 3022 1216
2948 3050 1760
2958 3093 2301
2999 3153 2765
3050 3219 3146
3101 3290 3433
3147 3365 3618
3156 3277 350
3110 3294 793
3077 3320 1310
3061 3351 1860
3063 3382 2401
3090 3407 2850
3127 3427 3212
3169 3448 3481
3211 3474 3651
3215 3433 447
3199 3471 898
3186 3514 1426
3180 3556 1984
3183 3588 2526
3202 3594 2959
3226 3586 3294
3254 3571 3532
3283 3557 3674
3427 736 35
3388 747 339
3369 805 755
3367 913 1245
3378 1078 1769
3391 1323 2250
3397 1608 2659
3396 1923 2993
3390 2256 3243
3322 961 36
3274 964 397
3254 1016 844
3258 1124 1347
3281 1294 1872
3314 1550 2347
3340 1838 2749
3355 2142 3071
3355 2443 3305
3257 1303 47
3206 1294 446
3186 1331 915
3193 1422 1428
3222 1575 1956
3265 1813 2432
3302 2084 2834
3327 2369 3151
3332 2647 3373
3234 1729 71
3181 1706 491
3160 1724 973
3166 1789 1492
3195 1908 2023
3240 2108 2503
3281 2344 2910
3310 2599 3228
3320 2856 3443
3254 2207 108
3197 2172 534
3171 2169 1020
3172 2205 1543
3194 2284 2077
3235 2432 2562
3275 2616 2975
3306 2828 3298
3320 3057 3513
3313 2655 165
3255 2624 584
3222 2617 1069
3213 2637 1593
3224 2685 2127
3255 2779 2612
3289 2902 3028
3319 3051 3355
3338 3225 3574
3371 3022 234
3319 3011 647
3285 3015 1132
3268 3035 1658
3269 3066 2192
3289 3116 2673
3316 3179 3084
3342 3262 3407
3365 3367 3624
3417 3296 315
3379 3313 726
3350 3340 1216
3332 3371 1747
3327 3400 2283
3338 3416 2756
3357 3429 3153
3378 3448 3460
3400 3482 3663
3442 3466 412
3422 3509 828
3407 3564 1328
3397 3618 1871
3394 3658 2414
3401 3655 2874
3412 3630 3247
3426 3597 3522
3442 3570 3690
3481 751 40
3460 775 323
3454 836 722
3460 939 1201
3474 1089 1721
3492 1314 2204
3505 1584 2618
3513 1888 2957
3512 2219 3213
3449 966 39
3433 984 368
3433 1041 797
3446 1143 1290
3467 1297 1814
3489 1528 2295
3505 1799 2704
3512 2096 3034
3509 2406 3277
3441 1296 52
3435 1301 415
3443 1341 865
3463 1424 1369
3488 1557 1897
3510 1770 2378
3522 2026 2789
3523 2312 3117
3511 2615 3351
3458 1712 79
3461 1700 464
3476 1718 926
3499 1772 1437
3525 1870 1966
3543 2045 2451
3549 2270 2868
3542 2535 3200
3518 2833 3432
3497 2187 120
3506 2157 513
3523 2151 980
3545 2175 1491
3566 2233 2019
3579 2358 2508
3580 2535 2935
3564 2764 3277
3530 3045 3513
3552 2639 178
3558 2611 566
3570 2601 1027
3585 2612 1535
3598 2644 2059
3605 2721 2551
3601 2838 2985
3583 3003 3337
3546 3222 3581
3598 3017 246
3600 3008 625
3606 3012 1082
3614 3028 1586
3621 3051 2108
3622 3089 2601
3614 3147 3036
3595 3237 3390
3562 3371 3636
3629 3306 326
3626 3326 699
3627 3359 1154
3629 3395 1659
3632 3425 2183
3629 3433 2673
3619 3437 3101
3602 3451 3444
3578 3491 3677
3640 3495 421
3628 3546 793
3626 3616 1253
3628 3686 1766
3631 3736 2299
3626 3725 2784
3614 3681 3194
3601 3627 3509
3592 3584 3707
3501 755 48
3489 792 314
3490 858 703
3498 957 1177
3512 1094 1695
3529 1302 2179
3543 1557 2594
3551 1849 2930
3549 2168 3180
3516 968 47
3529 1009 335
3549 1077 745
3571 1176 1237
3590 1311 1768
3598 1515 2257
3598 1763 2672
3589 2046 3005
3575 2355 3247
3546 1290 65
3591 1319 377
3638 1370 805
3678 1449 1309
3704 1562 1846
3704 1743 2339
3685 1975 2758
3651 2254 3093
3606 2574 3331
3588 1696 101
3667 1704 435
3740 1730 876
3797 1778 1384
3831 1856 1920
3823 2001 2415
3786 2206 2842
3725 2474 3184
3640 2806 3426
3641 2161 154
3747 2147 504
3838 2146 949
3907 2164 1453
3945 2205 1982
3931 2306 2478
3883 2469 2915
3798 2707 3271
3676 3032 3522
3697 2612 223
3807 2596 573
3899 2591 1010
3967 2599 1504
4004 2622 2022
3989 2682 2519
3938 2790 2965
3845 2963 3334
3706 3219 3599
3744 2996 298
3840 2996 641
3922 3008 1068
3984 3027 1550
4018 3048 2061
4003 3076 2559
3951 3127 3011
3859 3220 3386
3726 3375 3656
3777 3302 383
3840 3330 716
3903 3374 1132
3955 3420 1606
3985 3454 2114
3968 3456 2614
3918 3451 3066
3838 3459 3437
3733 3501 3697
3790 3517 482
3803 3576 804
3837 3663 1212
3874 3751 1683
3900 3812 2196
3880 3794 2699
3832 3733 3143
3775 3658 3497
3726 3597 3726
