Assets/1__3DArt/KimSe/artstation_asset/LUTs_pasterls/3DL/Cotton Candy 03.3dl
# Enhanced with VOXCOLOR algorithms
0 64 128 192 256 320 384 448 512 576 640 704 768 832 896 960 1023
578 289 369
618 381 651
657 473 932
696 571 1212
734 680 1488
771 789 1765
805 904 2009
836 1023 2237
868 1142 2465
892 1265 2630
917 1388 2795
941 1510 2940
962 1629 3047
982 1748 3154
1003 1854 3231
1023 1955 3294
1044 2056 3356
589 580 422
626 673 693
663 766 964
700 862 1237
738 967 1515
776 1072 1792
812 1181 2040
847 1292 2273
882 1404 2505
913 1515 2674
944 1627 2842
974 1737 2989
1001 1842 3096
1029 1948 3203
1058 2043 3279
1087 2134 3341
1116 2224 3402
600 872 476
634 965 736
668 1058 997
704 1154 1263
742 1255 1541
781 1355 1820
819 1458 2071
858 1562 2308
897 1665 2546
933 1765 2717
970 1866 2889
1006 1963 3039
1041 2056 3145
1076 2148 3252
1113 2232 3327
1151 2312 3387
1189 2392 3448
629 1163 526
662 1255 778
695 1347 1030
730 1440 1291
770 1536 1571
809 1632 1850
851 1727 2104
893 1823 2345
936 1918 2587
978 2008 2761
1021 2097 2934
1063 2182 3086
1104 2262 3192
1146 2341 3298
1190 2414 3372
1235 2483 3431
1280 2553 3489
698 1454 572
732 1541 819
765 1628 1066
802 1716 1325
844 1805 1605
886 1894 1885
931 1982 2140
978 2068 2384
1025 2155 2628
1072 2233 2802
1120 2312 2977
1167 2386 3128
1214 2453 3233
1260 2520 3338
1309 2581 3410
1357 2639 3466
1406 2697 3522
766 1744 617
801 1827 860
836 1909 1102
874 1991 1358
918 2074 1639
963 2157 1920
1011 2236 2177
1062 2314 2423
1113 2392 2668
1166 2459 2844
1219 2526 3019
1271 2589 3170
1323 2644 3274
1375 2699 3378
1428 2748 3448
1480 2794 3502
1533 2840 3556
879 2000 653
915 2075 894
951 2151 1135
990 2227 1389
1036 2302 1671
1082 2378 1952
1133 2449 2210
1186 2518 2456
1240 2588 2702
1295 2645 2877
1351 2703 3052
1406 2757 3203
1460 2802 3305
1514 2847 3407
1568 2886 3476
1622 2922 3528
1676 2959 3580
1015 2237 685
1051 2306 925
1088 2374 1166
1128 2442 1420
1176 2510 1702
1223 2578 1983
1275 2641 2241
1330 2702 2487
1385 2763 2733
1442 2812 2907
1499 2861 3080
1555 2906 3230
1610 2942 3331
1665 2978 3431
1719 3009 3498
1773 3037 3549
1826 3065 3599
1150 2475 716
1188 2536 956
1225 2597 1197
1267 2657 1451
1315 2718 1733
1364 2778 2015
1418 2833 2272
1474 2886 2518
1531 2938 2763
1589 2978 2936
1647 3019 3109
1705 3055 3257
1761 3082 3356
1817 3110 3456
1871 3132 3521
1924 3151 3570
1977 3170 3619
1334 2643 734
1370 2697 978
1407 2751 1221
1447 2804 1477
1494 2858 1758
1541 2911 2039
1593 2960 2295
1647 3006 2538
1701 3051 2782
1756 3086 2953
1812 3120 3124
1867 3150 3270
1920 3172 3369
1973 3194 3467
2024 3212 3531
2074 3226 3579
2124 3241 3627
1517 2811 753
1553 2858 999
1588 2905 1245
1627 2951 1502
1672 2998 1783
1718 3045 2063
1767 3086 2317
1819 3126 2559
1871 3165 2800
1924 3193 2969
1977 3220 3139
2029 3245 3284
2079 3262 3381
2129 3279 3478
2177 3291 3541
2224 3301 3589
2271 3311 3636
1704 2958 769
1737 2999 1018
1771 3039 1266
1807 3079 1525
1850 3120 1804
1892 3160 2084
1939 3196 2336
1987 3229 2576
2036 3262 2815
2085 3284 2983
2134 3307 3150
2183 3326 3294
2229 3339 3390
2275 3352 3486
2320 3360 3549
2364 3366 3595
2408 3373 3642
1897 3063 781
1926 3099 1032
1955 3134 1282
1987 3169 1542
2025 3204 1820
2063 3239 2098
2104 3270 2348
2147 3298 2585
2190 3327 2822
2234 3346 2988
2278 3364 3154
2321 3380 3297
2363 3390 3392
2405 3400 3488
2445 3407 3550
2486 3411 3596
2526 3415 3642
2089 3169 793
2114 3199 1046
2139 3228 1298
2167 3258 1559
2200 3288 1835
2233 3318 2112
2269 3344 2360
2307 3368 2595
2345 3392 2830
2383 3407 2994
2422 3422 3159
2460 3435 3300
2497 3442 3395
2534 3449 3490
2570 3453 3552
2607 3456 3597
2644 3458 3643
2253 3242 802
2272 3267 1054
2290 3292 1306
2311 3317 1566
2339 3343 1841
2366 3369 2115
2396 3392 2362
2428 3412 2596
2460 3432 2829
2493 3445 2993
2526 3458 3157
2559 3469 3298
2592 3474 3393
2625 3480 3489
2658 3482 3550
2690 3483 3595
2723 3483 3640
2403 3299 811
2414 3320 1061
2424 3340 1311
2438 3362 1568
2459 3384 1841
2480 3406 2114
2504 3426 2360
2530 3444 2592
2555 3462 2824
2583 3473 2988
2611 3484 3153
2640 3493 3294
2668 3498 3390
2697 3502 3486
2726 3503 3547
2754 3501 3591
2783 3500 3635
2553 3356 819
2556 3372 1067
2559 3389 1315
2566 3406 1571
2580 3425 1842
2594 3444 2113
2612 3460 2357
2631 3475 2588
2651 3491 2819
2674 3500 2984
2697 3510 3148
2720 3517 3290
2744 3521 3387
2769 3524 3483
2793 3523 3544
2818 3520 3587
2842 3517 3629
928 334 320
957 413 589
985 491 859
1013 577 1131
1039 678 1408
1066 778 1686
1088 890 1935
1109 1008 2171
1130 1125 2407
1146 1253 2581
1162 1381 2755
1177 1509 2909
1192 1636 3023
1206 1764 3137
1221 1880 3221
1238 1991 3288
1254 2102 3356
915 610 368
949 691 627
984 773 886
1015 860 1152
1042 958 1431
1068 1055 1710
1091 1161 1964
1112 1272 2205
1134 1382 2447
1153 1498 2624
1172 1614 2802
1192 1729 2958
1212 1842 3071
1232 1955 3185
1255 2058 3266
1279 2156 3332
1304 2255 3397
901 886 415
942 970 664
982 1055 914
1017 1143 1173
1044 1238 1454
1070 1333 1735
1093 1433 1993
1115 1536 2239
1137 1639 2486
1160 1743 2667
1183 1847 2848
1207 1950 3007
1233 2048 3119
1259 2145 3232
1289 2235 3312
1321 2321 3375
1353 2407 3438
906 1165 462
950 1250 704
994 1335 945
1032 1422 1200
1060 1513 1482
1088 1605 1764
1113 1698 2025
1137 1794 2276
1161 1889 2527
1188 1981 2711
1215 2074 2894
1244 2163 3054
1276 2247 3165
1308 2331 3277
1345 2408 3355
1383 2481 3416
1421 2554 3476
947 1449 508
990 1531 746
1034 1612 985
1073 1695 1238
1105 1780 1521
1136 1866 1804
1167 1952 2066
1196 2038 2319
1226 2125 2571
1259 2206 2755
1292 2287 2938
1326 2364 3097
1364 2435 3207
1402 2506 3317
1442 2570 3392
1484 2631 3451
1527 2692 3509
987 1734 554
1031 1812 789
1074 1889 1025
1114 1968 1276
1150 2047 1560
1185 2127 1844
1220 2205 2107
1255 2283 2361
1291 2361 2615
1330 2430 2799
1369 2500 2982
1409 2565 3141
1452 2623 3249
1495 2681 3357
1540 2733 3430
1586 2781 3486
1632 2829 3541
1072 1987 591
1114 2059 827
1156 2130 1062
1197 2203 1314
1235 2276 1598
1273 2349 1882
1312 2420 2146
1352 2489 2400
1392 2558 2653
1435 2618 2836
1478 2677 3018
1522 2733 3175
1568 2780 3282
1614 2828 3388
1661 2869 3459
1708 2907 3512
1755 2945 3566
1179 2223 626
1219 2289 862
1259 2354 1099
1300 2419 1352
1340 2485 1636
1381 2551 1920
1424 2614 2183
1467 2675 2436
1511 2736 2688
1557 2786 2869
1604 2837 3050
1650 2883 3205
1698 2921 3309
1746 2959 3414
1793 2991 3483
1840 3021 3535
1888 3050 3587
1286 2460 660
1325 2518 898
1363 2577 1136
1403 2636 1389
1446 2695 1673
1489 2754 1958
1535 2809 2220
1582 2861 2472
1630 2914 2723
1680 2955 2902
1729 2996 3081
1779 3033 3235
1828 3062 3337
1878 3091 3440
1926 3114 3508
1973 3134 3557
2020 3154 3607
1445 2629 682
1481 2681 923
1517 2733 1164
1555 2785 1420
1597 2838 1703
1640 2891 1987
1685 2939 2248
1732 2985 2497
1779 3030 2746
1827 3065 2922
1876 3100 3099
1925 3131 3251
1972 3155 3352
2020 3178 3453
2066 3196 3520
2110 3211 3569
2155 3226 3618
1603 2798 705
1637 2843 949
1671 2889 1193
1707 2935 1450
1749 2981 1733
1790 3027 2016
1835 3069 2275
1881 3108 2522
1928 3147 2768
1975 3176 2943
2023 3204 3117
2070 3229 3266
2116 3247 3366
2162 3265 3466
2205 3278 3532
2248 3288 3580
2291 3298 3628
1767 2946 725
1798 2986 972
1829 3026 1219
1863 3065 1478
1903 3106 1760
1942 3146 2042
1985 3181 2299
2030 3214 2543
2075 3248 2787
2120 3271 2959
2166 3294 3131
2211 3314 3279
2254 3327 3377
2297 3340 3476
2338 3348 3541
2378 3355 3588
2419 3361 3636
1942 3053 741
1969 3088 990
1997 3123 1239
2027 3157 1499
2062 3193 1779
2098 3228 2060
2137 3258 2314
2177 3287 2555
2218 3316 2797
2259 3335 2967
2300 3354 3137
2341 3370 3283
2380 3381 3381
2420 3391 3480
2458 3397 3544
2495 3402 3591
2532 3406 3638
2117 3160 757
2141 3190 1008
2164 3220 1260
2190 3249 1520
2222 3279 1799
2254 3310 2077
2289 3336 2329
2325 3360 2568
2361 3384 2807
2398 3399 2975
2435 3415 3144
2471 3427 3288
2507 3435 3386
2542 3442 3483
2577 3446 3547
2611 3449 3594
2646 3451 3641
2272 3235 771
2290 3261 1022
2308 3286 1273
2328 3312 1532
2355 3338 1808
2382 3364 2085
2411 3386 2335
2442 3407 2572
2473 3427 2808
2505 3440 2976
2537 3453 3144
2569 3464 3288
2601 3470 3385
2632 3476 3483
2663 3478 3546
2694 3479 3592
2725 3479 3639
2417 3295 783
2429 3316 1033
2440 3338 1282
2454 3359 1539
2474 3382 1813
2495 3404 2087
2519 3424 2335
2544 3441 2571
2569 3459 2806
2596 3470 2973
2623 3482 3141
2650 3491 3285
2678 3495 3383
2705 3500 3480
2733 3501 3543
2760 3500 3589
2788 3499 3634
2562 3355 796
2567 3372 1043
2571 3389 1291
2579 3407 1546
2594 3426 1818
2608 3445 2090
2626 3461 2336
2645 3476 2569
2665 3491 2803
2687 3501 2970
2709 3510 3137
2732 3517 3281
2755 3521 3380
2779 3524 3478
2803 3524 3541
2827 3521 3585
2851 3519 3630
1278 379 271
1296 444 528
1314 509 786
1331 583 1050
1345 675 1328
1360 767 1606
1372 875 1862
1382 992 2105
1392 1108 2349
1400 1241 2532
1407 1375 2716
1414 1508 2879
1421 1644 3000
1429 1780 3121
1439 1906 3210
1452 2028 3283
1464 2149 3356
1240 639 313
1272 710 560
1305 780 808
1331 858 1067
1345 948 1347
1360 1039 1628
1370 1142 1888
1377 1251 2138
1385 1361 2388
1393 1481 2575
1401 1602 2762
1411 1722 2927
1423 1842 3047
1436 1962 3167
1453 2073 3253
1472 2179 3323
1491 2285 3393
1203 900 355
1249 975 593
1296 1051 831
1331 1132 1084
1345 1221 1367
1360 1310 1649
1368 1408 1914
1373 1510 2170
1377 1613 2427
1386 1721 2617
1396 1829 2808
1407 1936 2975
1425 2040 3093
1443 2143 3212
1466 2239 3296
1492 2330 3362
1518 2422 3429
1183 1166 398
1238 1245 629
1293 1323 860
1335 1404 1109
1351 1491 1394
1366 1577 1678
1375 1669 1947
1381 1764 2208
1386 1859 2468
1398 1955 2661
1410 2051 2854
1425 2144 3021
1448 2233 3139
1471 2321 3256
1500 2402 3337
1532 2479 3400
1563 2556 3464
1196 1445 444
1249 1521 674
1302 1596 904
1345 1674 1152
1366 1756 1438
1387 1837 1723
1402 1922 1992
1415 2008 2254
1427 2094 2515
1446 2178 2708
1464 2262 2900
1486 2343 3066
1514 2418 3181
1543 2492 3296
1576 2560 3375
1611 2623 3435
1647 2687 3495
1209 1724 490
1260 1797 718
1312 1870 947
1355 1944 1195
1381 2020 1481
1407 2097 1768
1429 2175 2038
1449 2252 2300
1468 2330 2562
1493 2401 2754
1518 2473 2946
1546 2541 3111
1580 2602 3224
1614 2663 3337
1652 2717 3412
1691 2768 3470
1731 2818 3527
1265 1974 529
1313 2042 760
1361 2110 990
1403 2179 1239
1434 2250 1525
1464 2320 1812
1492 2390 2082
1518 2459 2343
1544 2528 2604
1574 2590 2794
1605 2651 2984
1638 2709 3148
1676 2759 3258
1713 2808 3369
1753 2851 3442
1794 2891 3497
1835 2931 3552
1344 2209 566
1387 2271 799
1431 2334 1032
1471 2396 1283
1505 2461 1570
1539 2525 1856
1572 2587 2125
1604 2648 2385
1636 2709 2644
1672 2761 2831
1708 2812 3019
1746 2860 3180
1786 2900 3288
1826 2940 3397
1867 2974 3468
1908 3004 3521
1949 3035 3574
1422 2445 603
1461 2501 839
1500 2557 1074
1539 2614 1327
1577 2672 1614
1614 2730 1901
1652 2784 2168
1691 2837 2426
1729 2889 2684
1770 2931 2869
1811 2974 3053
1853 3012 3212
1896 3042 3318
1939 3072 3424
1981 3096 3494
2022 3117 3545
2064 3138 3596
1555 2615 630
1591 2665 869
1627 2715 1108
1663 2766 1363
1701 2818 1649
1738 2870 1935
1777 2918 2201
1817 2964 2455
1857 3009 2710
1898 3045 2892
1940 3081 3074
1982 3113 3231
2025 3137 3335
2067 3161 3440
2107 3180 3508
2147 3196 3558
2187 3212 3609
1688 2785 657
1721 2829 899
1753 2874 1142
1787 2919 1399
1825 2964 1684
1862 3010 1970
1902 3051 2233
1943 3090 2485
1984 3130 2737
2027 3159 2916
2069 3188 3095
2112 3214 3249
2153 3232 3352
2195 3250 3455
2234 3264 3522
2272 3275 3571
2311 3285 3621
1830 2934 681
1859 2973 927
1888 3012 1172
1919 3052 1431
1956 3092 1715
1992 3131 2000
2032 3167 2261
2073 3200 2510
2114 3234 2759
2155 3257 2935
2197 3281 3112
2239 3301 3263
2279 3314 3365
2319 3328 3466
2356 3337 3533
2393 3343 3582
2429 3350 3631
1988 3043 701
2013 3077 949
2038 3112 1197
2067 3146 1456
2100 3181 1739
2134 3216 2021
2170 3247 2280
2208 3276 2526
2246 3305 2772
2284 3324 2946
2323 3344 3120
2361 3360 3270
2398 3371 3371
2435 3382 3471
2470 3388 3537
2504 3393 3586
2538 3397 3635
2146 3151 721
2167 3181 971
2189 3211 1221
2214 3241 1482
2244 3271 1762
2275 3301 2043
2308 3327 2298
2343 3351 2541
2378 3376 2784
2413 3391 2957
2448 3407 3129
2483 3420 3277
2517 3428 3377
2550 3435 3476
2583 3440 3542
2615 3442 3590
2648 3444 3639
2292 3229 739
2309 3255 989
2326 3280 1239
2346 3306 1498
2371 3332 1776
2397 3358 2054
2426 3381 2307
2456 3402 2548
2486 3422 2788
2517 3435 2959
2548 3449 3130
2579 3459 3278
2609 3465 3377
2639 3471 3477
2669 3474 3542
2698 3474 3590
2728 3475 3638
2432 3291 756
2443 3313 1004
2455 3335 1253
2469 3357 1510
2489 3380 1785
2510 3402 2060
2533 3421 2311
2558 3439 2549
2582 3457 2788
2609 3468 2958
2635 3479 3128
2661 3488 3275
2687 3493 3375
2714 3498 3475
2740 3499 3539
2767 3498 3587
2793 3498 3634
2572 3354 773
2578 3372 1020
2584 3390 1267
2593 3408 1522
2608 3427 1794
2622 3446 2067
2640 3462 2315
2659 3477 2551
2679 3492 2787
2700 3501 2957
2722 3510 3126
2744 3517 3273
2766 3521 3373
2789 3524 3473
2812 3524 3537
2835 3522 3584
2859 3521 3630
1628 426 223
1637 479 467
1645 533 712
1652 596 968
1657 680 1245
1662 763 1523
1664 868 1783
1665 982 2034
1666 1096 2285
1665 1233 2478
1664 1369 2671
1664 1508 2843
1664 1650 2972
1665 1793 3101
1670 1928 3196
1678 2058 3274
1686 2188 3353
1573 671 259
1600 731 495
1628 792 731
1648 860 982
1652 944 1263
1657 1027 1543
1655 1127 1809
1652 1235 2066
1648 1343 2324
1646 1467 2521
1644 1590 2717
1645 1715 2891
1650 1841 3018
1655 1967 3145
1665 2084 3237
1679 2198 3311
