Assets/1__3DArt/KimSe/artstation_asset/LUTs_pasterls/3DL/Cotton Candy 01.3dl
# Enhanced with VOXCOLOR algorithms
0 256 512 768 1023
466 418 450
666 804 1277
876 1371 2278
1054 2043 3097
1204 2682 3629
677 1315 709
869 1738 1560
1087 2267 2545
1292 2782 3302
1480 3196 3758
1102 2490 1007
1273 2792 1890
1480 3133 2825
1680 3412 3480
1871 3605 3851
1682 3378 1222
1800 3502 2091
1970 3640 2959
2138 3745 3543
2296 3812 3879
2184 3806 1317
2266 3835 2137
2388 3868 2972
2500 3892 3538
2585 3902 3870
1664 585 331
1791 889 1132
1921 1423 2163
2006 2153 3065
2056 2847 3650
1590 1306 517
1801 1691 1364
1894 2215 2417
1974 2770 3250
2062 3214 3741
1702 2369 788
1853 2674 1700
1987 3037 2706
2109 3352 3425
2220 3566 3826
2007 3286 1042
2096 3426 1951
2226 3584 2881
2359 3708 3512
2471 3787 3865
2347 3796 1201
2413 3830 2055
2515 3865 2925
2617 3891 3523
2704 3908 3866
3055 827 350
3094 1064 1093
3127 1524 2093
3108 2224 3027
3055 2940 3670
2828 1380 425
2926 1705 1247
2945 2195 2309
2937 2767 3200
2931 3248 3744
2716 2316 607
2791 2595 1506
2837 2958 2569
2865 3306 3372
2894 3558 3824
2743 3237 849
2769 3371 1772
2821 3535 2782
2885 3679 3489
2945 3780 3880
2820 3812 1057
2836 3839 1950
2887 3871 2892
2965 3899 3546
3045 3921 3907
3749 1000 532
3778 1210 1203
3794 1606 2114
3776 2239 3007
3741 2950 3676
3639 1454 572
3671 1734 1312
3683 2182 2301
3670 2741 3183
3648 3255 3763
3570 2292 699
3587 2540 1501
3595 2890 2529
3589 3264 3368
3590 3569 3867
3537 3208 885
3525 3329 1729
3524 3493 2748
3536 3660 3515
3571 3801 3950
3496 3844 1070
3473 3856 1919
3475 3883 2899
3513 3916 3607
3568 3946 3990
3934 1076 658
3971 1278 1298
3993 1634 2150
4001 2211 2992
4015 2891 3645
3941 1458 758
3978 1726 1428
4006 2161 2351
4020 2712 3203
4024 3235 3779
3977 2225 947
4005 2467 1641
4028 2833 2599
4042 3245 3433
4050 3602 3946
4019 3140 1159
4028 3268 1877
4036 3458 2838
4048 3666 3618
4057 3848 4056
4031 3854 1333
4016 3851 2027
4014 3888 2967
4025 3936 3713
4031 3983 4095
