Assets/1__3DArt/KimSe/artstation_asset/LUTs_pasterls/3DL/Cotton Candy 03 S.3dl
# Enhanced with VOXCOLOR algorithms
0 256 512 768 1023
578 289 369
734 680 1488
868 1142 2465
962 1629 3047
1044 2056 3356
698 1454 572
844 1805 1605
1024 2155 2627
1213 2453 3233
1406 2697 3522
1147 2476 715
1313 2718 1732
1527 2938 2762
1757 3082 3355
1977 3170 3619
1879 3066 775
2014 3204 1816
2178 3326 2818
2351 3390 3390
2526 3415 3642
2553 3356 819
2580 3425 1842
2651 3491 2819
2744 3521 3387
2842 3517 3629
1981 477 178
1956 681 1164
1945 1081 2214
1930 1651 2935
1929 2213 3342
1679 1396 302
1730 1590 1271
1762 1925 2366
1863 2344 3106
1971 2683 3468
1720 2366 450
1759 2489 1441
1890 2713 2530
2081 2957 3246
2236 3113 3574
2147 3018 581
2193 3112 1605
2316 3236 2664
2473 3335 3325
2609 3383 3628
2649 3359 702
2682 3434 1725
2744 3498 2745
2824 3525 3359
2910 3527 3636
3079 654 52
2966 734 882
2929 1061 1939
2897 1645 2782
2850 2276 3295
2658 1333 93
2540 1390 1030
2561 1690 2115
2677 2215 2957
2738 2680 3417
2543 2261 186
2421 2266 1160
2479 2456 2260
2650 2797 3100
2765 3079 3534
2742 3010 338
2654 3037 1330
2686 3132 2428
2811 3261 3214
2923 3365 3616
2978 3399 520
2972 3473 1535
2994 3536 2623
3054 3552 3327
3124 3545 3658
3427 736 35
3369 805 755
3378 1078 1769
3397 1608 2659
3390 2256 3243
3257 1303 47
3186 1331 915
3222 1575 1956
3302 2084 2834
3332 2647 3373
3254 2207 108
3171 2169 1020
3194 2284 2077
3275 2616 2975
3320 3057 3513
3371 3022 234
3285 3015 1132
3269 3066 2192
3316 3179 3084
3365 3367 3624
3442 3466 412
3407 3564 1328
3394 3658 2414
3412 3630 3247
3442 3570 3690
3501 755 48
3490 858 703
3512 1094 1695
3543 1557 2594
3549 2168 3180
3546 1290 65
3638 1370 805
3704 1562 1846
3685 1975 2758
3606 2574 3331
3641 2161 154
3838 2146 949
3945 2205 1982
3883 2469 2915
3676 3032 3522
3744 2996 298
3922 3008 1068
4018 3048 2061
3951 3127 3011
3726 3375 3656
3790 3517 482
3837 3663 1212
3900 3812 2196
3832 3733 3143
3726 3597 3726
