Assets/1__3DArt/KimSe/artstation_asset/LUTs_pasterls/3DL/Cotton Candy 04.3dl
# Enhanced with VOXCOLOR algorithms
0 256 512 768 1023
225 241 337
406 567 1243
633 1054 2267
902 1639 3014
1172 2184 3421
246 1176 628
425 1566 1520
724 2043 2542
1139 2505 3242
1617 2889 3596
430 2286 980
715 2582 1844
1159 2921 2797
1700 3204 3409
2244 3407 3697
972 3034 1205
1345 3196 2046
1836 3389 2918
2341 3543 3466
2786 3648 3732
1638 3372 1285
1982 3462 2125
2381 3581 2954
2766 3680 3478
3083 3742 3742
1725 430 190
1831 692 1060
1979 1185 2151
2167 1876 3000
2373 2551 3481
1493 1252 410
1754 1618 1288
1884 2080 2394
2094 2577 3190
2382 2996 3590
1369 2290 713
1625 2575 1608
1916 2902 2652
2262 3192 3352
2612 3400 3681
1532 3038 972
1815 3191 1858
2195 3377 2815
2592 3532 3431
2928 3632 3726
1928 3408 1147
2208 3486 2010
2553 3594 2892
2894 3688 3459
3173 3746 3745
3020 621 75
3056 842 885
3126 1315 2013
3216 2046 2974
3311 2796 3544
2833 1339 201
2950 1654 1072
3003 2111 2237
3085 2653 3146
3198 3122 3620
2664 2331 405
2778 2582 1333
2899 2896 2481
3044 3207 3302
3193 3439 3695
2585 3113 655
2705 3234 1612
2891 3395 2691
3102 3545 3405
3285 3652 3744
2618 3502 909
2773 3554 1855
2989 3639 2839
3221 3721 3467
3408 3775 3771
3475 734 76
3496 940 825
3555 1380 1924
3638 2093 2930
3718 2883 3570
3461 1374 156
3499 1649 977
3549 2089 2130
3615 2654 3101
3678 3180 3646
3467 2327 295
3494 2546 1191
3539 2854 2368
3599 3195 3270
3661 3482 3729
3453 3164 505
3469 3260 1460
3519 3403 2606
3593 3559 3403
3674 3693 3789
3405 3613 771
3438 3638 1743
3513 3700 2812
3614 3766 3499
3703 3815 3822
3565 771 96
3585 968 818
3641 1378 1885
3731 2064 2893
3822 2842 3549
3625 1350 184
3663 1604 953
3723 2036 2081
3795 2609 3069
3853 3156 3644
3734 2266 340
3766 2470 1176
3812 2788 2335
3862 3168 3268
3893 3506 3760
3828 3144 569
3843 3232 1462
3868 3386 2604
3901 3569 3436
3919 3733 3835
3870 3661 851
3862 3681 1733
3878 3737 2809
3905 3802 3544
3918 3854 3870
