Assets/1__3DArt/KimSe/artstation_asset/LUTs_pasterls/3DL/Cotton Candy 02 S.3dl
# Enhanced with VOXCOLOR algorithms
0 256 512 768 1023
674 626 514
810 821 1041
980 1071 1780
1136 1311 2506
1253 1477 3035
838 1289 653
846 1549 1160
920 1818 1917
1051 2031 2634
1179 2166 3147
1060 2167 818
945 2415 1301
909 2654 2088
976 2802 2823
1081 2870 3314
1252 2907 942
1067 3085 1385
955 3267 2157
963 3364 2912
1020 3393 3426
1413 3340 1028
1182 3472 1407
1017 3604 2137
993 3669 2909
1012 3677 3453
1592 771 648
1641 841 1125
1728 1022 1865
1808 1295 2647
1850 1550 3227
1470 1278 603
1501 1439 1158
1522 1681 1954
1601 1964 2710
1678 2170 3239
1468 2053 693
1392 2245 1246
1355 2479 2069
1408 2690 2829
1482 2806 3333
1522 2777 865
1377 2956 1344
1270 3150 2130
1266 3279 2901
1306 3326 3428
1564 3269 994
1383 3420 1393
1224 3579 2118
1183 3666 2897
1197 3690 3462
2505 902 768
2511 868 1188
2560 962 1915
2590 1194 2747
2574 1466 3394
2277 1285 539
2273 1334 1143
2305 1523 1983
2373 1851 2795
2410 2140 3380
2162 1984 540
2134 2105 1173
2131 2301 2052
2172 2571 2866
2208 2785 3421
2112 2682 749
2050 2849 1282
1989 3042 2110
1968 3204 2926
1975 3309 3494
2033 3185 934
1934 3349 1383
1823 3555 2142
1774 3683 2954
1782 3726 3542
2986 963 829
3017 919 1212
3085 953 1902
3126 1091 2748
3125 1291 3460
2892 1289 614
2966 1313 1159
3034 1440 1977
3066 1706 2827
3051 2008 3480
2825 1934 578
2961 2049 1159
3034 2187 2037
3032 2425 2910
2973 2743 3546
2772 2627 698
2908 2824 1222
2973 3000 2083
2935 3145 2975
2854 3336 3633
2699 3149 832
2735 3352 1322
2773 3618 2153
2725 3747 3048
2685 3789 3700
3148 980 851
3209 976 1221
3288 969 1882
3340 1018 2719
3356 1124 3421
3151 1292 835
3381 1371 1229
3546 1441 1967
3543 1590 2829
3432 1842 3509
3172 1864 801
3628 2035 1217
3870 2138 2035
3809 2302 2954
3530 2675 3675
3216 2570 748
3693 2838 1199
3952 3011 2064
3884 3119 3034
3579 3375 3805
3212 3148 723
3435 3429 1219
3703 3756 2107
3652 3839 3121
3501 3854 3870
