Assets/1__3DArt/KimSe/artstation_asset/LUTs_pasterls/3DL/Cotton Candy 04.3dl
# Enhanced with VOXCOLOR algorithms
0 64 128 192 256 320 384 448 512 576 640 704 768 832 896 960 1023
225 241 337
267 311 547
309 382 757
355 463 984
406 567 1243
458 672 1503
514 793 1759
573 924 2013
633 1054 2267
698 1200 2475
764 1345 2684
831 1492 2871
902 1639 3014
972 1787 3158
1040 1923 3260
1106 2054 3340
1172 2184 3421
225 451 402
264 529 610
303 608 819
346 696 1044
397 805 1305
448 913 1565
507 1037 1822
570 1168 2078
633 1298 2333
706 1440 2540
779 1581 2748
855 1721 2933
936 1859 3073
1017 1998 3213
1100 2125 3312
1183 2247 3390
1267 2369 3469
225 661 467
261 748 673
296 834 880
337 929 1105
388 1042 1367
439 1155 1628
500 1281 1886
567 1412 2143
633 1543 2399
714 1680 2605
794 1816 2811
879 1950 2995
970 2079 3131
1062 2209 3268
1160 2327 3365
1260 2440 3441
1361 2554 3517
230 895 539
265 986 745
299 1078 950
339 1177 1174
392 1292 1436
445 1407 1698
511 1532 1956
584 1661 2212
656 1790 2468
745 1920 2672
834 2050 2876
928 2177 3056
1030 2296 3188
1132 2415 3321
1243 2523 3414
1357 2627 3488
1472 2730 3561
246 1176 628
283 1266 832
321 1357 1037
366 1454 1260
425 1566 1520
485 1678 1781
560 1797 2036
642 1920 2289
724 2043 2542
824 2163 2741
923 2283 2940
1027 2398 3115
1139 2505 3242
1252 2611 3370
1371 2708 3458
1494 2798 3527
1617 2889 3596
261 1457 717
302 1546 920
342 1636 1123
392 1732 1345
458 1841 1605
525 1949 1864
608 2063 2117
700 2179 2367
792 2295 2617
902 2405 2811
1013 2515 3005
1127 2620 3175
1249 2714 3296
1371 2808 3418
1499 2892 3502
1631 2970 3566
1763 3048 3631
307 1734 805
354 1819 1007
400 1903 1209
456 1993 1429
531 2095 1686
606 2196 1942
698 2301 2191
799 2408 2436
900 2515 2681
1020 2614 2869
1139 2712 3057
1261 2806 3222
1389 2889 3338
1517 2971 3455
1650 3044 3534
1785 3111 3595
1919 3178 3656
369 2010 893
422 2087 1093
475 2164 1294
539 2246 1512
623 2338 1765
707 2431 2017
808 2526 2261
919 2622 2500
1030 2718 2739
1156 2805 2921
1283 2893 3103
1412 2975 3262
1545 3046 3374
1677 3118 3486
1811 3179 3561
1946 3236 3619
2081 3292 3677
430 2286 980
490 2355 1180
550 2425 1379
621 2498 1595
715 2582 1844
808 2665 2092
919 2750 2330
1039 2836 2564
1159 2921 2797
1293 2997 2973
1428 3073 3149
1563 3144 3302
1700 3204 3409
1837 3264 3516
1973 3315 3588
2108 3361 3643
2244 3407 3697
550 2501 1046
618 2561 1245
685 2621 1444
763 2686 1658
863 2760 1903
963 2833 2147
1079 2908 2379
1203 2983 2606
1328 3058 2833
1463 3124 3004
1599 3191 3175
1734 3252 3323
1868 3304 3427
2002 3356 3531
2133 3399 3601
2263 3439 3654
2392 3478 3707
670 2716 1112
745 2767 1311
819 2818 1509
904 2874 1722
1011 2937 1961
1117 3001 2201
1239 3065 2428
1368 3130 2649
1496 3195 2869
1633 3251 3035
1769 3308 3200
1904 3361 3344
2036 3404 3445
2167 3448 3546
2293 3484 3614
2417 3517 3666
2540 3550 3718
806 2902 1168
886 2946 1367
967 2989 1565
1057 3036 1776
1169 3091 2012
1280 3145 2248
1404 3200 2470
1535 3256 2685
1665 3312 2900
1801 3360 3060
1936 3408 3221
2069 3453 3361
2196 3489 3459
2323 3526 3558
2443 3556 3625
2560 3583 3676
2676 3610 3727
972 3034 1205
1056 3071 1404
1140 3108 1603
1233 3148 1814
1345 3196 2046
1457 3243 2279
1580 3292 2497
1708 3340 2707
1836 3389 2918
1965 3431 3075
2095 3473 3232
2221 3512 3369
2341 3543 3466
2461 3575 3563
2572 3602 3630
2679 3625 3681
2786 3648 3732
1138 3165 1241
1225 3196 1441
1313 3227 1641
1409 3261 1851
1522 3301 2081
1635 3342 2310
1756 3383 2524
1881 3424 2730
2006 3466 2936
2130 3502 3089
2254 3538 3243
2374 3571 3377
2486 3598 3473
2598 3625 3569
2700 3647 3635
2798 3667 3686
2896 3687 3737
1304 3250 1261
1391 3276 1462
1478 3303 1663
1572 3332 1873
1681 3368 2100
1790 3403 2328
1905 3440 2539
2024 3477 2742
2142 3514 2945
2259 3546 3096
2375 3578 3248
2488 3608 3381
2592 3632 3476
2697 3656 3571
2791 3676 3637
2881 3693 3688
2970 3710 3740
1471 3311 1273
1555 3334 1475
1639 3357 1676
1729 3383 1886
1831 3415 2113
1934 3447 2339
2041 3480 2548
2152 3514 2749
2262 3547 2950
2370 3577 3100
2478 3607 3250
2582 3634 3382
2679 3656 3477
2777 3678 3572
2863 3696 3638
2945 3711 3690
3027 3726 3741
1638 3372 1285
1719 3392 1487
1800 3411 1690
1886 3434 1900
1982 3462 2125
2078 3491 2350
2178 3520 2557
2279 3551 2756
2381 3581 2954
2481 3608 3103
2580 3635 3252
2677 3660 3383
2766 3680 3478
2856 3701 3574
2936 3716 3639
3009 3729 3691
3083 3742 3742
587 286 303
625 351 509
663 416 715
705 494 939
752 595 1200
799 697 1462
852 819 1722
907 952 1981
963 1085 2240
1025 1238 2455
1087 1391 2670
1151 1545 2863
1218 1702 3011
1284 1858 3160
1350 2004 3266
1415 2144 3350
1481 2284 3435
567 489 363
611 564 567
656 638 771
701 724 995
748 830 1257
794 936 1520
846 1059 1782
901 1192 2043
955 1324 2304
1021 1470 2517
1087 1617 2731
1155 1763 2922
1230 1909 3066
1305 2054 3211
1383 2188 3314
1462 2317 3396
1541 2446 3477
546 691 424
598 776 626
649 860 828
698 954 1050
744 1064 1314
789 1175 1578
840 1300 1842
894 1431 2104
948 1563 2367
1017 1703 2580
1086 1843 2792
1160 1981 2981
1243 2115 3122
1326 2250 3262
1416 2373 3362
1509 2491 3441
1601 2608 3520
531 918 493
587 1009 693
643 1100 894
696 1198 1116
743 1310 1380
790 1423 1645
844 1547 1908
901 1676 2171
958 1804 2434
1032 1937 2644
1107 2069 2854
1187 2198 3040
1279 2320 3176
1370 2442 3312
1471 2554 3408
1575 2660 3483
1680 2766 3559
526 1192 579
583 1283 779
639 1373 980
695 1470 1201
749 1579 1464
804 1689 1728
866 1807 1989
933 1929 2248
1000 2051 2507
1085 2172 2712
1170 2294 2917
1261 2411 3098
1361 2520 3228
1462 2629 3359
1571 2728 3450
1683 2820 3521
1795 2913 3592
521 1467 664
578 1556 865
635 1646 1065
694 1741 1286
755 1848 1548
817 1955 1811
889 2067 2069
966 2182 2325
1043 2297 2581
1138 2408 2781
1234 2519 2981
1334 2624 3156
1444 2720 3281
1554 2816 3406
1671 2901 3492
1790 2981 3559
1910 3060 3625
545 1739 750
604 1824 950
663 1908 1151
725 1998 1371
795 2098 1630
865 2198 1890
947 2302 2143
1035 2407 2394
1123 2513 2645
1228 2612 2839
1332 2712 3033
1441 2806 3202
1557 2890 3323
1674 2974 3443
1794 3047 3524
1917 3114 3587
2040 3182 3650
583 2011 836
644 2088 1036
706 2165 1236
773 2247 1455
852 2338 1711
931 2429 1967
1024 2523 2215
1122 2618 2460
1221 2714 2704
1335 2801 2892
1449 2889 3080
1565 2972 3243
1686 3044 3359
1808 3116 3474
1931 3178 3552
2054 3235 3611
2177 3292 3670
621 2282 922
685 2352 1122
749 2421 1322
821 2495 1539
909 2578 1792
997 2660 2044
1100 2744 2287
1209 2829 2525
1319 2914 2764
1442 2990 2945
1565 3066 3127
1689 3137 3284
1815 3198 3395
1942 3258 3505
2067 3309 3579
2191 3355 3635
2315 3401 3691
716 2496 990
785 2556 1190
853 2617 1389
930 2682 1605
1025 2754 1853
1120 2827 2101
1229 2901 2338
1344 2976 2571
1459 3051 2803
1585 3117 2979
1711 3184 3154
1836 3245 3307
1961 3298 3414
2087 3350 3521
2208 3393 3593
2328 3433 3648
2447 3472 3702
811 2709 1057
884 2761 1257
958 2813 1457
1040 2868 1671
1142 2931 1915
1243 2994 2158
1358 3058 2390
1479 3123 2616
1600 3187 2842
1728 3244 3012
1857 3301 3182
1984 3354 3330
2108 3398 3433
2232 3442 3537
2350 3478 3607
2464 3510 3660
2579 3542 3713
923 2896 1116
1000 2939 1316
1077 2983 1515
1165 3030 1728
1271 3084 1968
1377 3138 2208
1496 3194 2434
1620 3249 2654
1744 3305 2874
1873 3353 3039
2002 3402 3204
2128 3446 3348
2249 3483 3449
2370 3520 3550
2484 3550 3619
2593 3576 3671
2702 3603 3723
1067 3029 1156
1148 3066 1357
1229 3103 1557
1318 3143 1769
1426 3191 2006
1533 3238 2242
1651 3286 2464
1773 3334 2679
1896 3383 2895
2021 3425 3056
2145 3468 3217
2267 3507 3357
2381 3539 3457
2496 3570 3557
2602 3596 3625
2704 3619 3677
2805 3642 3729
1212 3162 1197
1296 3192 1398
1380 3223 1599
1472 3257 1810
1580 3297 2043
1689 3337 2276
1806 3378 2494
1927 3420 2705
2048 3461 2915
2168 3498 3072
2288 3534 3229
2405 3567 3367
2514 3594 3465
2622 3621 3563
2721 3643 3631
2815 3662 3683
2908 3681 3735
1366 3249 1223
1449 3275 1424
1532 3301 1625
1623 3330 1837
1728 3366 2067
1833 3401 2298
1945 3437 2512
2060 3474 2719
2175 3511 2926
2289 3543 3081
2403 3576 3236
2512 3605 3371
2614 3630 3469
2716 3654 3566
2808 3673 3634
2895 3689 3686
2981 3706 3738
1525 3313 1241
1605 3336 1443
1685 3358 1644
1772 3384 1855
1871 3416 2084
1971 3447 2312
2075 3480 2524
2183 3513 2728
2291 3547 2932
2396 3576 3086
2502 3606 3239
2604 3633 3373
2699 3655 3471
2795 3677 3568
2879 3694 3635
2959 3709 3688
3039 3723 3740
1684 3378 1259
1761 3397 1461
1839 3416 1663
1922 3438 1874
2015 3466 2100
2109 3493 2326
2206 3523 2536
2306 3552 2737
2406 3582 2939
2504 3609 3090
2602 3636 3242
2696 3661 3375
2785 3681 3472
2873 3701 3569
2951 3716 3636
3023 3728 3689
3096 3741 3742
950 332 268
984 392 470
1018 451 672
1054 524 895
1097 623 1158
1140 722 1420
1189 845 1685
1241 980 1949
1293 1116 2214
1351 1276 2435
1410 1436 2656
1471 1598 2854
1534 1764 3008
1597 1930 3161
1661 2085 3272
1725 2234 3360
1789 2384 3449
909 527 325
959 598 524
1010 669 724
1057 751 945
1098 855 1210
1140 958 1475
1184 1082 1741
1231 1216 2008
1278 1349 2275
1336 1501 2495
1394 1653 2714
1456 1805 2911
1525 1958 3060
1593 2110 3209
1666 2252 3315
1741 2388 3401
1816 2524 3486
867 721 381
935 804 578
1002 887 775
1060 978 996
1099 1086 1262
1139 1195 1529
1180 1319 1797
1221 1451 2066
1263 1583 2335
1320 1726 2554
1378 1870 2773
1441 2012 2967
1515 2151 3112
1590 2291 3257
1671 2419 3359
1757 2541 3441
1842 2663 3522
832 941 447
909 1031 642
987 1121 838
1052 1219 1058
1093 1329 1325
1135 1439 1592
1176 1562 1861
1217 1690 2130
1259 1819 2399
1319 1953 2616
1380 2087 2832
1447 2219 3023
1528 2344 3164
1609 2470 3304
1699 2584 3402
1793 2693 3479
1888 2801 3556
807 1209 529
882 1299 726
957 1389 922
1024 1485 1142
1073 1592 1409
1122 1700 1675
1173 1817 1941
1225 1938 2206
1277 2059 2472
1347 2182 2683
1417 2305 2894
1494 2424 3080
1583 2536 3215
1673 2647 3349
1770 2748 3442
1871 2842 3515
1973 2936 3587
782 1477 611
855 1566 809
928 1656 1007
996 1751 1227
1053 1856 1492
1109 1961 1757
1170 2072 2020
1232 2186 2282
1294 2300 2544
1375 2411 2750
1455 2523 2956
1541 2629 3136
1639 2727 3265
1737 2825 3394
1842 2911 3483
1949 2991 3551
2057 3071 3619
783 1744 695
854 1829 894
926 1914 1093
995 2003 1313
1060 2101 1575
1125 2199 1837
1197 2302 2096
1271 2407 2353
1345 2512 2609
1436 2611 2809
1526 2711 3009
1621 2806 3183
1726 2891 3307
1830 2976 3431
1939 3050 3515
2050 3118 3579
2161 3186 3643
797 2011 780
867 2089 979
936 2166 1179
1007 2247 1398
1082 2337 1657
1156 2427 1916
1239 2520 2170
1325 2615 2420
1412 2709 2670
1513 2797 2863
1614 2885 3056
1718 2968 3225
1828 3041 3343
1938 3114 3462
2050 3177 3542
2162 3234 3603
2273 3291 3664
812 2279 864
879 2349 1065
947 2418 1265
1020 2492 1484
1103 2574 1740
1187 2655 1995
1281 2738 2243
1380 2823 2487
1479 2907 2731
1590 2983 2918
1702 3059 3104
1814 3130 3266
1930 3191 3380
2046 3253 3494
2160 3303 3570
2273 3349 3627
2386 3395 3685
882 2491 933
952 2552 1134
1021 2613 1334
1098 2677 1552
1188 2749 1804
1278 2821 2055
1379 2895 2297
1485 2969 2535
1591 3043 2772
1707 3110 2953
1823 3177 3134
1939 3239 3291
2055 3291 3401
2171 3344 3511
2283 3387 3585
2393 3426 3641
2502 3465 3697
952 2703 1002
1024 2755 1203
1096 2807 1404
1176 2862 1620
1272 2925 1868
1369 2988 2115
1477 3051 2352
1590 3116 2583
1704 3180 2814
1824 3237 2988
1944 3294 3163
2063 3347 3315
2180 3391 3422
2296 3435 3528
2406 3471 3600
2512 3503 3655
2618 3535 3709
1039 2889 1063
1114 2933 1264
1188 2977 1465
1272 3024 1681
1373 3078 1924
1474 3132 2168
1587 3187 2399
1705 3242 2624
1823 3298 2849
1946 3346 3018
2068 3395 3188
2188 3440 3335
2303 3477 3439
2418 3514 3542
2524 3543 3613
2626 3569 3666
2727 3595 3720
1163 3024 1108
1240 3061 1310
1317 3098 1511
1403 3138 1725
1506 3185 1965
1609 3232 2205
1721 3280 2432
1839 3329 2652
1957 3377 2871
2076 3420 3037
2196 3462 3202
2312 3501 3346
2422 3534 3448
2532 3566 3550
2633 3591 3620
2728 3613 3673
2824 3635 3726
1287 3158 1153
1367 3189 1355
1446 3219 1557
1534 3253 1770
1638 3293 2006
1743 3332 2243
1856 3374 2465
1973 3415 2679
2090 3457 2894
2207 3493 3055
2323 3530 3216
2436 3563 3357
2541 3590 3457
2647 3617 3557
2741 3639 3626
2831 3657 3680
2921 3676 3733
1429 3248 1185
1507 3274 1386
1586 3300 1588
1673 3328 1800
1774 3363 2034
1875 3398 2267
1984 3435 2485
2096 3472 2696
2208 3508 2907
2319 3541 3065
2430 3573 3224
2537 3603 3362
2636 3627 3462
2736 3651 3561
2825 3670 3630
2908 3686 3684
2992 3702 3737
1579 3316 1209
1655 3338 1411
1732 3360 1613
1815 3385 1824
1911 3416 2054
2007 3447 2285
2110 3480 2500
2215 3513 2708
2320 3546 2915
2423 3576 3071
2527 3605 3228
2627 3632 3365
2720 3654 3464
2813 3676 3563
2895 3693 3632
2973 3707 3686
3050 3721 3739
1729 3383 1234
1803 3402 1435
1878 3420 1637
1958 3441 1847
2048 3469 2075
2139 3496 2303
2235 3525 2515
2333 3554 2719
2431 3584 2923
2527 3610 3077
2623 3637 3232
2716 3661 3367
2803 3681 3466
2889 3701 3565
2966 3716 3634
3037 3728 3688
3108 3740 3742
1325 379 231
1354 434 429
1383 489 627
1415 558 848
1453 654 1112
1491 750 1376
1535 874 1644
1582 1011 1915
1629 1149 2185
1683 1315 2413
1737 1481 2641
1792 1649 2845
1850 1823 3004
1908 1997 3163
1968 2160 3278
2029 2318 3371
2089 2475 3464
1268 566 283
1320 634 479
1373 702 675
1420 780 894
1456 881 1160
1492 982 1427
1530 1106 1698
1568 1241 1970
1607 1376 2243
1658 1533 2470
1708 1689 2697
1762 1847 2899
1824 2006 3053
1885 2164 3208
1951 2312 3318
2020 2454 3407
