Assets/1__3DArt/KimSe/artstation_asset/LUTs_pasterls/3DL/Cotton Candy 04 S.3dl
# Enhanced with VOXCOLOR algorithms
0 256 512 768 1023
225 241 337
406 567 1243
633 1054 2267
902 1639 3014
1172 2184 3421
246 1176 628
425 1566 1520
723 2042 2542
1139 2504 3242
1617 2889 3596
428 2287 978
713 2582 1842
1155 2920 2795
1696 3203 3408
2244 3407 3697
960 3037 1193
1338 3196 2041
1824 3388 2913
2329 3543 3463
2786 3648 3732
1638 3372 1285
1982 3462 2125
2381 3581 2954
2766 3680 3478
3083 3742 3742
1725 430 190
1805 674 1067
1961 1171 2155
2163 1873 3000
2373 2551 3481
1395 1220 386
1560 1500 1270
1734 1957 2359
2046 2529 3172
2382 2996 3591
1271 2247 674
1443 2436 1549
1764 2761 2580
2207 3135 3320
2611 3399 3681
1494 3023 946
1740 3134 1813
2122 3318 2763
2557 3507 3407
2925 3632 3727
1928 3408 1147
2207 3487 2009
2551 3596 2889
2893 3689 3457
3173 3746 3745
3020 621 75
2988 786 908
3077 1273 2027
3205 2036 2976
3311 2796 3544
2596 1262 156
2547 1396 1067
2681 1822 2179
2972 2524 3104
3197 3121 3621
2420 2231 336
2364 2278 1244
2538 2549 2324
2895 3030 3211
3190 3436 3697
2497 3072 619
2509 3093 1513
2687 3228 2532
2998 3449 3314
3281 3650 3745
2618 3502 909
2766 3560 1837
2974 3652 2801
3212 3728 3445
3408 3775 3771
3475 734 76
3450 893 844
3521 1345 1936
3631 2086 2932
3718 2883 3570
3301 1307 120
3243 1387 985
3336 1753 2068
3530 2456 3042
3677 3177 3647
3297 2248 244
3205 2210 1098
3265 2375 2142
3461 2850 3105
3660 3474 3732
3389 3132 478
3305 3083 1290
3324 3136 2276
3475 3339 3181
3672 3685 3791
3405 3613 771
3427 3676 1646
3486 3772 2611
3598 3807 3383
3703 3815 3822
3565 771 96
3585 968 818
3641 1378 1885
3731 2064 2893
3822 2842 3549
3628 1350 184
3727 1484 928
3810 1783 1996
3847 2377 2994
3854 3150 3645
3738 2266 338
3899 2223 1053
3991 2294 2049
3980 2678 3039
3900 3480 3767
3833 3144 560
3971 3078 1207
4047 3087 2116
4024 3243 3088
3925 3706 3842
3870 3661 851
3914 3770 1522
3974 3900 2372
3960 3895 3277
3918 3854 3870
