Assets/1__3DArt/KimSe/artstation_asset/LUTs_pasterls/3DL/Cotton Candy 01.3dl
# Enhanced with VOXCOLOR algorithms
0 64 128 192 256 320 384 448 512 576 640 704 768 832 896 960 1023
466 418 450
514 502 637
562 586 825
612 682 1031
666 804 1277
720 925 1522
772 1067 1772
824 1219 2025
876 1371 2278
922 1538 2500
969 1706 2722
1013 1875 2927
1054 2043 3097
1094 2212 3267
1132 2372 3400
1168 2527 3515
1204 2682 3629
505 614 510
553 703 699
600 793 888
649 894 1096
703 1019 1341
756 1143 1586
810 1286 1835
863 1436 2087
915 1587 2340
964 1749 2559
1012 1911 2779
1059 2071 2981
1102 2228 3147
1145 2386 3313
1186 2532 3442
1225 2673 3552
1265 2813 3663
545 810 570
592 905 761
638 1000 951
687 1106 1160
740 1234 1404
793 1361 1649
847 1504 1898
901 1654 2150
955 1804 2401
1005 1959 2619
1056 2115 2836
1105 2268 3035
1150 2413 3197
1196 2559 3359
1239 2692 3484
1282 2819 3590
1325 2945 3696
598 1034 635
644 1133 828
689 1231 1020
738 1340 1230
791 1468 1475
844 1596 1720
898 1736 1968
953 1882 2218
1008 2028 2468
1060 2175 2682
1112 2322 2896
1162 2465 3092
1209 2598 3249
1257 2731 3406
1303 2850 3525
1348 2962 3627
1394 3074 3728
677 1315 709
722 1412 905
768 1509 1101
816 1615 1314
869 1738 1560
922 1861 1805
977 1994 2052
1032 2130 2299
1087 2267 2545
1140 2401 2754
1192 2535 2963
1243 2664 3152
1292 2782 3302
1340 2900 3453
1387 3003 3567
1433 3100 3662
1480 3196 3758
756 1596 782
801 1692 982
846 1788 1182
894 1891 1397
947 2009 1644
1000 2127 1891
1055 2252 2135
1111 2379 2379
1166 2507 2623
1220 2627 2826
1273 2748 3029
1324 2863 3212
1374 2965 3356
1423 3068 3500
1471 3156 3608
1518 3238 3698
1566 3319 3788
862 1890 857
905 1979 1060
949 2068 1263
996 2164 1481
1048 2272 1727
1100 2381 1973
1155 2494 2214
1210 2608 2454
1265 2723 2693
1317 2829 2890
1370 2935 3086
1422 3035 3263
1471 3123 3400
1520 3211 3538
1568 3285 3641
1616 3353 3726
1664 3421 3811
982 2190 932
1023 2270 1138
1065 2350 1344
1109 2435 1563
1160 2532 1808
1211 2629 2053
1264 2728 2291
1318 2828 2525
1372 2928 2759
1424 3019 2949
1476 3109 3139
1527 3194 3309
1576 3267 3440
1624 3341 3571
1672 3402 3669
1720 3458 3750
1768 3513 3831
1102 2490 1007
1141 2561 1216
1180 2631 1425
1223 2707 1646
1273 2792 1890
1322 2877 2133
1374 2962 2367
1427 3048 2596
1480 3133 2825
1531 3208 3008
1583 3283 3191
1633 3353 3355
1680 3412 3480
1728 3471 3605
1776 3519 3697
1823 3562 3774
1871 3605 3851
1247 2741 1068
1282 2801 1279
1318 2860 1489
1358 2923 1710
1405 2995 1950
1452 3066 2191
1501 3137 2420
1552 3208 2644
1603 3280 2868
1653 3342 3045
1702 3404 3222
1751 3461 3380
1797 3509 3501
1843 3557 3621
1889 3596 3711
1935 3630 3786
1981 3665 3860
1392 2992 1130
1424 3040 1342
1456 3088 1553
1492 3140 1773
1536 3197 2011
1581 3255 2248
1628 3312 2473
1677 3369 2691
1726 3426 2910
1774 3475 3081
1822 3524 3252
1869 3569 3405
1913 3606 3522
1957 3642 3638
2002 3672 3725
2047 3699 3797
2091 3725 3870
1537 3215 1184
1565 3252 1396
1594 3290 1607
1627 3330 1827
1668 3375 2061
1710 3420 2296
1755 3465 2516
1802 3509 2730
1849 3553 2943
1894 3590 3109
1940 3627 3276
1985 3661 3424
2027 3689 3537
2070 3716 3650
2112 3738 3735
2155 3757 3806
2198 3777 3877
1682 3378 1222
1707 3407 1432
1732 3436 1642
1761 3467 1860
1800 3502 2091
1839 3537 2323
1881 3572 2540
1926 3606 2749
1970 3640 2959
2013 3669 3122
2057 3698 3286
2099 3724 3431
2138 3745 3543
2178 3766 3654
2218 3783 3738
2257 3797 3808
2296 3812 3879
1828 3542 1261
1849 3562 1469
1870 3582 1678
1896 3604 1893
1932 3629 2121
1968 3654 2350
2008 3679 2563
2049 3703 2769
2091 3728 2975
2132 3748 3135
2173 3768 3295
2212 3786 3439
2250 3801 3548
2287 3816 3657
2323 3827 3740
2359 3837 3810
2395 3847 3880
1953 3649 1284
1972 3664 1489
1991 3678 1695
2015 3694 1907
2048 3713 2133
2082 3731 2359
2119 3749 2570
2157 3767 2774
2196 3784 2978
2233 3799 3137
2270 3814 3296
2306 3827 3438
2340 3838 3547
2373 3848 3655
2405 3856 3738
2436 3863 3808
2467 3869 3878
2069 3727 1301
2086 3738 1502
2104 3749 1702
2126 3760 1911
2157 3774 2135
2188 3787 2359
2222 3800 2569
2257 3813 2772
2292 3826 2975
2325 3837 3133
2358 3847 3291
2391 3857 3433
2420 3865 3542
2449 3873 3651
2476 3878 3734
2501 3882 3804
2526 3886 3874
2184 3806 1317
2201 3813 1514
2217 3819 1710
2238 3827 1915
2266 3835 2137
2295 3844 2360
2325 3852 2568
2356 3860 2770
2388 3868 2972
2417 3874 3129
2447 3881 3287
2475 3887 3429
2500 3892 3538
2525 3897 3647
2547 3899 3730
2566 3901 3800
2585 3902 3870
727 452 416
772 530 601
817 608 787
864 699 992
914 817 1238
964 934 1483
1012 1075 1735
1060 1227 1992
1108 1379 2249
1150 1552 2477
1193 1725 2705
1232 1898 2915
1268 2073 3090
1303 2248 3265
1336 2412 3402
1367 2570 3518
1398 2729 3635
749 636 472
799 721 658
848 806 845
898 903 1051
946 1024 1297
995 1145 1543
1042 1287 1796
1089 1438 2053
1135 1589 2309
1177 1755 2535
1219 1921 2761
1260 2086 2968
1297 2248 3139
1334 2411 3309
1369 2561 3441
1403 2704 3553
1437 2847 3665
771 821 527
825 912 715
879 1004 902
931 1107 1109
979 1231 1356
1027 1356 1603
1073 1498 1857
1117 1649 2113
1162 1799 2370
1204 1958 2594
1246 2117 2817
1287 2273 3021
1326 2423 3187
1365 2574 3353
1403 2709 3480
1440 2837 3587
1477 2965 3695
806 1034 588
862 1130 778
919 1226 967
972 1332 1176
1020 1458 1424
1067 1584 1672
1112 1723 1925
1156 1870 2181
1200 2017 2436
1242 2167 2656
1285 2317 2876
1326 2463 3077
1367 2599 3237
1408 2736 3397
1448 2857 3519
1487 2970 3622
1527 3083 3724
866 1306 660
921 1401 854
975 1496 1048
1028 1600 1261
1076 1722 1509
1124 1844 1758
1170 1976 2009
1215 2113 2262
1260 2251 2514
1304 2388 2728
1347 2525 2942
1390 2656 3136
1432 2777 3290
1474 2898 3443
1516 3003 3559
1556 3101 3656
1597 3198 3753
926 1578 732
979 1672 930
1031 1766 1129
1083 1868 1345
1132 1986 1594
1180 2103 1844
1228 2228 2094
1274 2357 2343
1320 2485 2592
1365 2609 2800
1410 2732 3008
1454 2849 3195
1497 2954 3342
1541 3060 3489
1583 3150 3599
1625 3232 3690
1667 3314 3781
1013 1866 805
1062 1954 1008
1112 2042 1211
1161 2137 1430
1209 2245 1679
1258 2354 1928
1305 2468 2174
1352 2584 2419
1399 2700 2663
1445 2808 2864
1490 2916 3065
1535 3019 3246
1579 3109 3386
1623 3199 3527
1666 3275 3631
1709 3344 3717
1751 3413 3804
1114 2161 881
1159 2240 1087
1204 2320 1294
1249 2405 1515
1297 2503 1763
1345 2600 2011
1392 2700 2253
1440 2802 2492
1487 2904 2731
1534 2997 2925
1580 3090 3119
1625 3177 3293
1669 3252 3426
1713 3327 3560
1756 3390 3660
1799 3446 3742
1841 3503 3824
1214 2455 956
1255 2527 1167
1295 2598 1377
1338 2674 1600
1385 2760 1847
1432 2846 2094
1480 2933 2332
1528 3021 2566
1576 3108 2799
1622 3185 2986
1669 3263 3172
1715 3335 3339
1759 3395 3467
1803 3456 3594
1846 3505 3688
1889 3549 3766
1932 3593 3843
1342 2707 1020
1378 2768 1232
1414 2828 1444
1453 2892 1667
1498 2965 1911
1542 3038 2155
1589 3111 2388
1636 3184 2616
1683 3257 2844
1729 3321 3024
1775 3385 3205
1820 3444 3366
1863 3493 3489
1906 3543 3612
1948 3583 3703
1989 3618 3778
2031 3654 3854
1470 2959 1084
1501 3009 1297
1533 3058 1511
1568 3110 1734
1611 3170 1975
1653 3229 2216
1698 3288 2444
1744 3347 2666
1790 3406 2888
1835 3456 3063
1880 3507 3237
1924 3553 3393
1966 3592 3511
2008 3630 3630
2049 3661 3718
2090 3688 3791
2130 3714 3864
1599 3184 1141
1627 3223 1354
1654 3261 1568
1686 3303 1790
1726 3350 2028
1766 3397 2266
1809 3443 2490
1854 3489 2707
1898 3535 2924
1942 3574 3094
1986 3613 3263
2029 3648 3414
2070 3677 3528
2110 3705 3643
2149 3728 3729
2188 3748 3800
2227 3767 3871
1732 3352 1183
1756 3383 1395
1780 3413 1607
1809 3445 1827
1846 3482 2062
1883 3518 2296
1924 3554 2516
1967 3590 2729
2009 3626 2942
2051 3656 3108
2093 3686 3274
2133 3713 3422
2172 3735 3535
2210 3757 3647
2247 3774 3732
2283 3789 3803
2319 3804 3874
1865 3521 1225
1886 3543 1436
1906 3564 1646
1931 3587 1864
1966 3613 2095
2001 3640 2326
2039 3666 2543
2080 3691 2752
2120 3717 2961
2160 3738 3123
2199 3759 3286
2238 3778 3431
2274 3793 3541
2310 3809 3652
2344 3821 3736
2378 3831 3806
2412 3841 3876
1984 3634 1252
2002 3649 1460
2021 3665 1667
2044 3682 1881
2076 3701 2110
2109 3721 2338
2144 3740 2552
2182 3758 2758
2219 3777 2965
2255 3792 3126
2292 3808 3287
2327 3821 3431
2360 3832 3541
2392 3843 3651
2423 3852 3734
2453 3859 3804
2482 3866 3874
2094 3718 1272
2112 3729 1475
2130 3741 1678
2151 3753 1889
2181 3767 2115
2211 3781 2340
2244 3795 2552
2278 3808 2757
2312 3822 2962
2345 3833 3122
2377 3844 3283
2409 3854 3426
2438 3862 3536
2466 3870 3646
2492 3875 3730
2517 3880 3800
2542 3885 3870
2205 3802 1292
2222 3809 1491
2238 3817 1690
2259 3824 1896
2286 3833 2120
2314 3842 2343
2344 3850 2553
2374 3859 2756
2405 3867 2959
2434 3873 3119
2463 3880 3279
2490 3886 3422
2515 3891 3532
2540 3896 3642
2562 3899 3726
2582 3901 3796
2602 3903 3866
988 486 382
1030 558 566
1072 631 749
1115 717 953
1162 830 1198
1208 943 1443
1252 1083 1698
1296 1235 1959
1341 1388 2219
1378 1566 2453
1416 1743 2687
1451 1922 2904
1482 2103 3084
1512 2284 3264
1539 2452 3403
1565 2614 3522
1591 2775 3641
993 659 433
1045 739 617
1096 819 801
1146 912 1006
1190 1030 1253
1234 1147 1500
1275 1288 1757
1315 1439 2018
1355 1591 2279
1390 1761 2511
1426 1931 2743
1460 2101 2956
1492 2268 3130
1523 2436 3305
1553 2589 3440
1582 2735 3553
1610 2880 3667
997 832 485
1059 920 669
1121 1008 853
1176 1107 1059
1218 1229 1308
1261 1351 1557
1298 1492 1815
1333 1643 2077
1368 1794 2339
1402 1957 2569
1436 2119 2798
1469 2279 3007
1502 2434 3177
1535 2588 3347
1567 2726 3476
1598 2856 3585
1629 2985 3694
1014 1035 542
1081 1128 728
1148 1221 915
1207 1324 1123
1249 1448 1373
1290 1572 1624
1326 1711 1882
1359 1859 2144
1392 2006 2405
1424 2159 2631
1457 2312 2856
1491 2461 3062
1525 2601 3225
1559 2741 3389
1593 2863 3513
1626 2978 3617
1660 3092 3720
1055 1298 611
1119 1390 803
1183 1483 995
1239 1585 1207
1282 1705 1459
1325 1826 1711
1363 1958 1967
1398 2096 2225
1433 2235 2483
1467 2375 2702
1502 2514 2922
1537 2648 3120
1573 2772 3277
1609 2896 3434
1644 3003 3551
1679 3102 3649
1714 3200 3747
1097 1561 681
1157 1653 878
1217 1745 1076
1272 1846 1292
1316 1962 1545
1361 2079 1798
1400 2205 2052
1437 2334 2306
1474 2464 2561
1510 2590 2774
1547 2716 2987
1584 2836 3179
1621 2944 3328
1659 3051 3478
1696 3143 3590
1732 3226 3682
1769 3309 3774
1164 1841 754
1219 1928 957
1274 2015 1159
1326 2110 1379
1370 2218 1631
1415 2327 1884
1455 2441 2134
1495 2559 2384
1534 2676 2634
1572 2787 2839
1610 2898 3045
1649 3003 3230
1687 3095 3372
1726 3188 3515
1764 3265 3621
1801 3334 3709
1838 3404 3796
1246 2131 830
1294 2211 1037
1342 2290 1244
1389 2375 1466
1434 2473 1718
1478 2571 1969
1520 2673 2216
1561 2776 2459
1603 2880 2703
1643 2975 2901
1683 3070 3099
1723 3159 3277
1763 3237 3413
1802 3314 3549
1840 3378 3650
1878 3435 3733
1915 3492 3816
1327 2421 905
1369 2493 1117
1410 2564 1329
1453 2641 1554
1497 2728 1804
1541 2815 2055
1585 2904 2297
1628 2994 2535
1671 3083 2773
1714 3163 2963
1756 3242 3154
1797 3316 3324
1838 3378 3453
1878 3441 3583
1917 3491 3679
1955 3536 3757
1992 3580 3836
1437 2674 971
1474 2735 1185
1510 2796 1399
1549 2861 1624
1591 2935 1871
1633 3009 2119
1676 3084 2356
1719 3159 2588
1763 3234 2820
1805 3300 3004
1847 3366 3188
1889 3427 3352
1929 3478 3477
1969 3529 3602
2007 3570 3694
2044 3606 3771
2081 3642 3847
1548 2926 1037
1579 2977 1253
1610 3027 1469
1644 3081 1694
1685 3142 1938
1725 3203 2183
1767 3264 2415
1810 3325 2641
1854 3385 2867
1896 3438 3045
1939 3490 3223
1980 3538 3381
2020 3578 3501
2059 3618 3621
2097 3649 3710
2133 3676 3784
2169 3704 3858
1661 3153 1097
1688 3193 1313
1715 3233 1530
1745 3277 1754
1783 3325 1995
1821 3374 2237
1863 3422 2464
1905 3470 2685
1948 3518 2905
1990 3558 3078
2032 3598 3250
2073 3635 3403
2112 3665 3520
2150 3694 3636
2187 3718 3722
2222 3738 3794
2257 3758 3866
1782 3327 1143
1805 3358 1358
1829 3390 1572
1856 3423 1794
1892 3461 2032
1928 3500 2270
1967 3537 2493
2007 3574 2710
2048 3612 2926
2089 3643 3094
2129 3674 3263
2168 3702 3413
2205 3725 3527
2242 3748 3641
2276 3766 3727
2309 3782 3798
2342 3797 3869
1903 3500 1189
1923 3523 1402
1943 3546 1615
1967 3570 1835
2000 3598 2069
2034 3625 2303
2071 3652 2522
2110 3679 2734
2149 3706 2946
2187 3728 3111
2226 3750 3276
2263 3770 3423
2298 3786 3535
2333 3802 3647
2365 3815 3731
2397 3825 3801
2428 3836 3872
2014 3618 1220
2032 3635 1430
2050 3652 1639
2073 3670 1856
2104 3690 2086
2135 3710 2317
2170 3730 2533
2206 3750 2742
2242 3769 2952
2278 3785 3115
2313 3801 3278
2348 3816 3424
2379 3827 3535
2411 3839 3646
2441 3848 3730
2469 3855 3800
2497 3863 3870
2120 3709 1243
2138 3721 1449
2155 3733 1654
2176 3746 1867
2205 3761 2094
2234 3775 2322
2266 3790 2535
2299 3804 2742
2332 3817 2949
2364 3829 3112
2396 3840 3274
2427 3850 3419
2455 3859 3530
2483 3867 3642
2509 3873 3726
2533 3879 3796
2557 3884 3866
2227 3799 1267
2243 3806 1468
2259 3814 1669
2279 3822 1878
2306 3831 2102
2333 3841 2326
2362 3849 2538
2392 3857 2742
2422 3866 2947
2451 3872 3109
2479 3879 3270
2506 3885 3415
2531 3890 3526
2556 3895 3637
2577 3899 3721
2598 3902 3792
2618 3905 3863
1288 527 352
1326 594 534
1363 661 715
1402 742 918
1443 851 1162
1484 960 1407
1524 1098 1664
1563 1249 1927
1602 1401 2190
1634 1582 2430
1666 1762 2669
1696 1945 2891
1720 2131 3076
1743 2316 3261
1765 2488 3403
1784 2652 3525
1804 2817 3646
1275 689 398
1326 764 580
1377 840 762
1424 928 966
1463 1042 1213
1502 1156 1460
1537 1295 1719
1570 1446 1984
1602 1597 2249
1631 1770 2487
1660 1943 2724
1688 2115 2942
1713 2287 3121
1738 2459 3300
1761 2615 3438
1783 2763 3554
