Assets/1__3DArt/KimSe/artstation_asset/LUTs_pasterls/3DL/Cotton Candy 03.3dl
# Enhanced with VOXCOLOR algorithms
0 256 512 768 1023
578 289 369
734 680 1488
868 1142 2465
962 1629 3047
1044 2056 3356
698 1454 572
844 1805 1605
1025 2155 2628
1214 2453 3233
1406 2697 3522
1150 2475 716
1315 2718 1733
1531 2938 2763
1761 3082 3356
1977 3170 3619
1897 3063 781
2025 3204 1820
2190 3327 2822
2363 3390 3392
2526 3415 3642
2553 3356 819
2580 3425 1842
2651 3491 2819
2744 3521 3387
2842 3517 3629
1981 477 178
1980 698 1156
1962 1093 2209
1933 1653 2934
1929 2213 3342
1780 1444 314
1913 1714 1271
1893 2039 2390
1901 2385 3120
1971 2683 3468
1825 2424 470
1940 2631 1469
2026 2841 2582
2125 3005 3271
2236 3114 3574
2194 3037 594
2273 3167 1630
2382 3286 2703
2502 3354 3343
2611 3383 3626
2649 3359 702
2682 3434 1726
2745 3496 2747
2825 3524 3360
2910 3527 3636
3079 654 52
3029 786 857
2974 1100 1923
2906 1653 2779
2850 2276 3295
2887 1437 112
2895 1642 983
2823 1937 2131
2761 2318 2980
2739 2681 3416
2779 2387 216
2785 2553 1167
2765 2746 2347
2754 2933 3158
2766 3081 3533
2831 3056 356
2825 3156 1371
2840 3255 2531
2879 3324 3276
2925 3366 3614
2978 3399 520
2975 3464 1547
3002 3517 2649
3058 3541 3343
3124 3545 3658
3427 736 35
3410 848 734
3407 1110 1755
3403 1615 2657
3390 2256 3243
3403 1380 60
3385 1555 838
3364 1834 1946
3347 2227 2853
3332 2649 3371
3408 2298 128
3380 2443 992
3350 2633 2166
3327 2852 3057
3320 3063 3509
3429 3055 246
3387 3133 1187
3356 3219 2381
3346 3298 3219
3364 3372 3619
3442 3466 412
3402 3512 1387
3384 3551 2548
3404 3564 3329
3442 3570 3690
3501 755 48
3490 858 703
3512 1094 1695
3543 1557 2594
3549 2168 3180
3543 1290 65
3543 1446 781
3565 1724 1855
3591 2126 2776
3604 2578 3329
3636 2161 156
3638 2293 943
3649 2506 2082
3664 2772 3006
3667 3050 3510
3739 2993 304
3724 3062 1154
3714 3162 2319
3716 3274 3205
3715 3392 3642
3790 3517 482
3752 3538 1326
3730 3568 2472
3724 3579 3326
3726 3597 3726
