Assets/1__3DArt/KimSe/artstation_asset/LUTs_pasterls/3DL/Cotton Candy 02 S.3dl
# Enhanced with VOXCOLOR algorithms
0 64 128 192 256 320 384 448 512 576 640 704 768 832 896 960 1023
674 626 514
705 670 628
736 714 742
770 762 874
810 821 1041
850 879 1208
893 942 1393
936 1007 1587
980 1071 1780
1021 1135 1971
1062 1198 2162
1101 1258 2344
1136 1311 2506
1171 1364 2668
1200 1406 2800
1226 1442 2918
1253 1477 3035
710 772 546
733 821 658
755 871 770
782 924 901
814 986 1068
847 1048 1235
884 1112 1420
923 1178 1614
963 1244 1809
1002 1307 1999
1042 1369 2189
1080 1429 2369
1115 1480 2529
1150 1532 2689
1181 1573 2821
1209 1608 2939
1237 1643 3057
745 917 578
760 973 688
775 1028 798
793 1087 927
819 1151 1094
844 1216 1261
876 1282 1447
910 1349 1642
945 1416 1837
984 1479 2026
1022 1541 2216
1059 1599 2395
1095 1650 2553
1130 1700 2711
1162 1740 2843
1191 1774 2960
1221 1808 3078
786 1083 613
793 1143 721
800 1203 828
810 1266 956
828 1333 1124
845 1400 1291
871 1468 1478
901 1535 1674
930 1603 1871
966 1664 2060
1002 1725 2250
1038 1782 2429
1073 1830 2585
1108 1878 2742
1141 1916 2872
1172 1948 2989
1203 1981 3106
838 1289 653
837 1352 759
835 1415 864
837 1480 991
846 1549 1160
855 1617 1329
874 1684 1518
897 1751 1718
920 1818 1917
952 1875 2108
984 1933 2299
1017 1987 2479
1051 2031 2634
1084 2075 2790
1117 2108 2918
1148 2137 3032
1179 2166 3147
891 1495 693
880 1561 797
870 1627 900
864 1694 1025
865 1764 1196
866 1834 1367
877 1901 1559
894 1966 1761
910 2032 1963
938 2087 2156
966 2142 2348
996 2192 2528
1028 2232 2683
1061 2271 2838
1092 2301 2964
1124 2326 3076
1156 2351 3187
946 1715 735
928 1780 835
910 1845 936
896 1912 1060
889 1980 1231
883 2049 1403
887 2114 1596
897 2178 1801
907 2241 2006
931 2292 2200
954 2343 2395
980 2389 2576
1009 2424 2731
1039 2460 2885
1070 2486 3010
1101 2506 3120
1132 2527 3229
1003 1941 776
978 2004 874
953 2067 972
931 2131 1094
917 2198 1266
903 2264 1438
901 2327 1633
904 2387 1840
908 2448 2047
926 2494 2243
945 2541 2440
966 2583 2622
993 2613 2777
1019 2644 2932
1048 2665 3056
1077 2682 3164
1106 2699 3272
1060 2167 818
1028 2228 913
995 2288 1008
966 2350 1129
945 2415 1301
923 2480 1473
914 2539 1670
911 2597 1879
909 2654 2088
922 2697 2286
936 2739 2484
952 2776 2668
976 2802 2823
999 2828 2979
1025 2845 3101
1053 2858 3208
1081 2870 3314
1112 2370 853
1074 2426 945
1037 2481 1037
1003 2539 1156
976 2600 1326
949 2660 1497
934 2716 1693
927 2770 1902
919 2824 2112
928 2863 2311
937 2902 2511
949 2935 2696
969 2957 2853
989 2980 3009
1012 2994 3133
1037 3003 3240
1062 3013 3347
1163 2573 888
1120 2624 977
1078 2675 1066
1039 2728 1183
1007 2784 1352
974 2841 1521
955 2894 1717
942 2943 1926
929 2993 2136
933 3029 2336
938 3064 2537
946 3094 2724
962 3113 2882
979 3131 3040
999 3142 3164
1021 3149 3272
1044 3156 3380
1210 2757 919
1164 2804 1005
1118 2850 1092
1075 2899 1206
1037 2952 1373
1000 3005 1540
976 3054 1735
958 3100 1944
940 3147 2153
941 3179 2355
942 3210 2557
946 3237 2744
959 3253 2904
972 3269 3063
990 3277 3189
1009 3282 3298
1028 3287 3408
1252 2907 942
1203 2949 1026
1155 2991 1110
1108 3036 1221
1067 3085 1385
1026 3135 1549
998 3180 1742
977 3224 1949
955 3267 2157
953 3296 2359
951 3326 2562
953 3350 2751
963 3364 2912
973 3378 3074
988 3385 3202
1004 3389 3314
1020 3393 3426
1293 3056 966
1242 3094 1048
1191 3132 1129
1142 3173 1236
1097 3219 1397
1052 3265 1558
1020 3307 1749
995 3347 1954
970 3387 2160
965 3414 2364
960 3441 2567
959 3463 2757
967 3475 2920
974 3488 3084
986 3493 3215
999 3496 3329
1012 3499 3444
1333 3165 988
1280 3200 1065
1227 3235 1142
1175 3273 1246
1126 3316 1403
1077 3358 1559
1042 3397 1747
1014 3434 1952
986 3472 2156
978 3496 2359
971 3521 2563
968 3541 2754
974 3552 2919
980 3562 3085
989 3567 3218
1000 3568 3334
1010 3570 3451
1373 3252 1008
1317 3286 1081
1261 3319 1154
1207 3354 1253
1154 3394 1405
1101 3434 1557
1063 3469 1742
1032 3504 1944
1001 3538 2146
992 3560 2351
984 3583 2555
979 3601 2747
984 3610 2914
988 3620 3081
995 3623 3216
1003 3623 3334
1011 3624 3452
1413 3340 1028
1355 3372 1096
1296 3403 1165
1238 3436 1260
1182 3472 1407
1125 3509 1555
1084 3542 1737
1050 3573 1937
1017 3604 2137
1006 3625 2342
996 3645 2547
990 3661 2740
993 3669 2909
997 3678 3078
1001 3680 3214
1006 3679 3333
1012 3677 3453
891 661 547
916 697 658
941 732 768
969 773 897
1003 825 1062
1038 877 1228
1075 936 1413
1113 999 1608
1151 1061 1803
1188 1127 1997
1224 1193 2191
1259 1256 2376
1289 1315 2542
1319 1373 2708
1344 1421 2843
1366 1464 2963
1387 1506 3084
906 796 567
928 838 677
950 880 788
973 927 917
1001 983 1084
1028 1038 1250
1060 1100 1436
1093 1164 1632
1126 1229 1828
1160 1295 2021
1195 1360 2215
1228 1423 2398
1259 1480 2561
1290 1537 2724
1316 1583 2858
1339 1624 2978
1363 1665 3097
920 931 587
939 980 697
958 1028 808
978 1081 937
998 1140 1105
1019 1200 1272
1044 1264 1459
1072 1330 1656
1100 1397 1853
1133 1462 2045
1165 1528 2238
1198 1590 2420
1229 1646 2580
1260 1701 2741
1288 1746 2874
1313 1784 2992
1339 1823 3110
941 1086 611
955 1141 721
970 1195 831
983 1252 960
997 1315 1129
1011 1377 1298
1030 1443 1487
1053 1511 1685
1076 1578 1884
1106 1643 2076
1136 1707 2268
1167 1768 2449
1199 1821 2608
1230 1874 2766
1258 1916 2897
1285 1952 3014
1312 1988 3131
976 1284 644
981 1341 752
986 1399 861
992 1458 990
999 1523 1161
1005 1587 1332
1019 1653 1523
1036 1720 1724
1054 1787 1925
1081 1849 2119
1108 1910 2312
1137 1968 2493
1167 2017 2651
1198 2065 2808
1227 2103 2937
1255 2135 3051
1282 2167 3165
1010 1482 676
1007 1542 783
1003 1602 891
1001 1665 1020
1000 1731 1193
999 1797 1366
1007 1863 1559
1020 1930 1763
1032 1996 1967
1056 2055 2162
1080 2114 2356
1106 2168 2538
1136 2212 2694
1166 2256 2850
1195 2290 2976
1224 2317 3088
1252 2345 3199
1051 1695 714
1039 1755 818
1027 1815 923
1016 1877 1051
1009 1943 1225
1001 2009 1399
1003 2074 1594
1010 2138 1800
1017 2202 2007
1038 2257 2203
1058 2312 2399
1081 2362 2581
1109 2401 2737
1136 2441 2892
1164 2469 3017
1193 2493 3127
1221 2516 3237
1095 1915 753
1074 1974 855
1054 2033 957
1036 2093 1083
1021 2158 1257
1007 2222 1432
1003 2284 1628
1005 2346 1837
1006 2407 2045
1022 2458 2242
1039 2508 2440
1058 2553 2624
1083 2588 2779
1108 2622 2935
1135 2646 3059
1162 2664 3167
1189 2683 3275
1138 2135 793
1110 2193 892
1081 2250 991
1055 2309 1116
1034 2372 1290
1013 2435 1465
1003 2495 1663
999 2554 1873
995 2612 2083
1007 2658 2282
1020 2704 2481
1035 2745 2666
1058 2774 2822
1080 2803 2978
1105 2822 3101
1131 2836 3207
1156 2850 3314
1180 2336 830
1146 2390 926
1112 2443 1022
1081 2499 1143
1054 2559 1316
1028 2618 1488
1013 2675 1686
1004 2730 1896
996 2785 2106
1004 2826 2306
1012 2868 2507
1024 2905 2693
1043 2930 2850
1062 2955 3007
1084 2971 3131
1107 2981 3238
1130 2992 3345
1222 2537 866
1183 2587 959
1143 2637 1052
1107 2689 1171
1075 2745 1341
1043 2802 1512
1023 2855 1709
1010 2906 1919
996 2957 2129
1000 2995 2330
1004 3032 2532
1012 3065 2719
1028 3086 2878
1043 3107 3036
1062 3119 3161
1083 3126 3269
1104 3134 3377
1262 2721 900
1218 2767 990
1174 2814 1079
1133 2862 1195
1096 2915 1363
1060 2969 1531
1035 3018 1727
1017 3066 1936
999 3114 2146
999 3148 2348
999 3182 2551
1004 3210 2739
1016 3228 2899
1029 3246 3059
1045 3255 3185
1063 3260 3295
1081 3265 3404
1296 2873 927
1250 2915 1013
1204 2958 1100
1160 3003 1212
1119 3053 1376
1079 3103 1541
1051 3149 1734
1029 3194 1942
1007 3239 2150
1004 3270 2353
1001 3301 2556
1003 3327 2745
1012 3342 2907
1022 3358 3069
1036 3366 3198
1051 3369 3310
1066 3373 3423
1331 3024 954
1282 3064 1037
1234 3103 1120
1187 3144 1229
1142 3191 1390
1098 3238 1551
1066 3281 1742
1040 3322 1948
1015 3364 2154
1009 3392 2357
1003 3420 2561
1001 3443 2751
1009 3457 2915
1016 3470 3080
1026 3476 3211
1039 3479 3326
1051 3482 3441
1365 3137 978
1314 3174 1057
1263 3211 1136
1213 3249 1240
1165 3293 1397
1117 3337 1553
1082 3377 1741
1053 3415 1945
1025 3454 2149
1016 3479 2353
1008 3505 2557
1005 3526 2748
1010 3538 2914
1015 3550 3080
1024 3555 3214
1033 3556 3331
1043 3558 3448
1398 3231 999
1345 3265 1074
1292 3300 1148
1240 3337 1248
1188 3377 1400
1136 3418 1551
1098 3455 1736
1067 3491 1938
1035 3526 2139
1025 3550 2344
1015 3573 2548
1010 3593 2740
1014 3603 2908
1018 3613 3076
1024 3617 3211
1032 3618 3331
1039 3619 3450
1432 3324 1021
1376 3357 1091
1321 3390 1161
1266 3424 1256
1211 3462 1403
1156 3500 1550
1114 3534 1731
1080 3566 1931
1046 3599 2130
1034 3620 2334
1022 3642 2539
1015 3659 2732
1018 3668 2902
1020 3677 3072
1024 3680 3209
1030 3679 3331
1035 3679 3452
1108 696 580
1127 724 687
1146 751 794
1168 784 920
1197 829 1084
1225 874 1247
1257 930 1432
1290 990 1628
1323 1051 1825
1355 1119 2023
1386 1187 2220
1416 1254 2409
1442 1318 2578
1467 1382 2748
1488 1437 2886
1505 1486 3009
1522 1535 3133
1101 820 588
1122 855 697
1144 890 806
1165 930 934
1187 979 1100
1210 1029 1265
1235 1087 1452
1262 1151 1649
1289 1214 1847
1318 1282 2044
1348 1351 2240
1376 1418 2427
1403 1480 2593
1429 1542 2759
1451 1594 2895
1470 1640 3017
1489 1687 3138
1095 944 596
1118 987 707
1141 1029 818
1162 1075 947
1178 1129 1115
1194 1183 1283
1213 1245 1472
1234 1311 1671
1255 1377 1869
1282 1446 2065
1309 1515 2260
1336 1581 2445
1363 1642 2608
1391 1702 2771
1414 1751 2905
1435 1795 3024
1457 1838 3143
1097 1090 610
1118 1138 721
1139 1187 833
1157 1238 965
1167 1296 1135
1176 1354 1305
1190 1418 1496
1206 1486 1696
1221 1553 1897
1246 1622 2091
1270 1690 2286
1296 1755 2469
1324 1813 2630
1352 1871 2791
1376 1916 2922
1399 1956 3039
1422 1996 3156
1113 1279 635
1125 1331 746
1138 1382 857
1147 1437 989
1151 1497 1162
1155 1557 1335
1164 1622 1528
1175 1689 1731
1187 1756 1934
1210 1822 2130
1232 1888 2325
1256 1949 2508
1284 2002 2667
1312 2056 2826
1337 2097 2955
1361 2132 3069
1385 2167 3183
1130 1469 659
1133 1523 770
1136 1578 881
1138 1635 1014
1136 1698 1189
1133 1760 1364
1138 1826 1560
1145 1893 1766
1153 1960 1972
1173 2023 2168
1194 2085 2364
1217 2143 2547
1244 2192 2705
1271 2241 2862
1297 2278 2989
1323 2308 3100
1348 2339 3211
1156 1675 693
1150 1730 802
1144 1785 911
1137 1843 1042
1129 1906 1218
1120 1969 1395
1120 2033 1592
1123 2098 1800
1127 2163 2008
1144 2222 2205
1162 2281 2402
1182 2334 2586
1208 2378 2743
1234 2422 2900
1259 2453 3025
1285 2479 3135
1310 2504 3244
1186 1889 730
1171 1944 836
1155 1999 942
1140 2056 1072
1126 2118 1249
1111 2180 1425
1106 2242 1624
1105 2304 1833
1104 2367 2043
1118 2421 2242
1133 2475 2440
1150 2524 2625
1174 2562 2782
1197 2600 2939
1222 2627 3063
1246 2647 3171
1271 2667 3279
1216 2103 767
1192 2158 871
1167 2212 974
1144 2269 1102
1123 2330 1279
1102 2391 1456
1092 2451 1656
1087 2511 1867
1081 2570 2078
1093 2620 2278
1104 2669 2478
1118 2713 2664
1140 2746 2821
1161 2779 2978
1184 2800 3101
1208 2815 3207
1232 2830 3314
1249 2302 806
1218 2354 906
1188 2405 1006
1159 2459 1130
1133 2518 1305
1107 2576 1479
1092 2633 1678
1082 2689 1889
1072 2745 2100
1080 2790 2301
1087 2835 2503
1098 2874 2689
1116 2903 2847
1135 2931 3005
1155 2948 3129
1176 2959 3237
1198 2971 3344
1281 2501 845
1245 2550 941
1209 2599 1037
1174 2650 1159
1143 2706 1331
1112 2762 1503
1092 2816 1701
1078 2868 1911
1063 2920 2122
1067 2961 2324
1070 3001 2527
1077 3036 2715
1093 3059 2874
1108 3083 3033
1126 3096 3158
1145 3104 3266
1164 3112 3374
1313 2684 881
1272 2731 974
1231 2777 1066
1191 2826 1184
1155 2879 1353
1119 2932 1522
1095 2983 1719
1076 3031 1928
1058 3080 2138
1057 3117 2341
1057 3153 2544
1061 3183 2733
1073 3203 2894
1085 3223 3055
1101 3233 3182
1117 3238 3291
1134 3243 3401
1341 2838 912
1297 2882 1000
1254 2925 1089
1211 2971 1203
1171 3021 1368
1131 3071 1533
1103 3119 1727
1081 3164 1935
1059 3210 2143
1055 3243 2346
1052 3276 2549
1052 3304 2739
1062 3321 2902
1071 3338 3065
1084 3346 3194
1098 3350 3307
1112 3354 3419
1369 2993 942
1323 3033 1027
1277 3073 1112
1231 3116 1222
1188 3163 1383
1144 3211 1544
1112 3255 1735
1085 3297 1941
1059 3340 2147
1053 3370 2351
1046 3399 2555
1044 3424 2746
1050 3438 2910
1057 3453 3075
1067 3459 3207
1079 3462 3322
1090 3465 3438
1396 3110 968
1348 3148 1048
1300 3186 1129
1252 3226 1234
1205 3271 1391
1157 3315 1547
1122 3357 1735
1093 3396 1938
1063 3436 2142
1054 3463 2346
1045 3490 2550
1041 3512 2742
1045 3525 2909
1050 3537 3075
1058 3543 3210
1067 3545 3328
1077 3546 3446
1423 3209 991
1373 3245 1067
1323 3281 1142
1273 3319 1243
1222 3361 1395
1171 3403 1546
1133 3441 1730
1101 3478 1931
1069 3515 2132
1058 3539 2336
1047 3564 2541
1041 3584 2733
1044 3595 2902
1047 3607 3071
1053 3611 3207
1060 3612 3328
1067 3614 3448
1450 3309 1013
1398 3343 1085
1346 3376 1156
1294 3412 1252
1240 3451 1399
1186 3490 1545
1144 3526 1725
1110 3560 1924
1075 3593 2122
1062 3616 2327
1049 3638 2531
1041 3656 2725
1042 3666 2895
1044 3676 3066
1048 3680 3205
1053 3680 3328
1058 3681 3451
1337 733 613
1351 752 717
1365 771 820
1382 797 943
1405 834 1105
1428 872 1266
1454 923 1451
1482 981 1648
1510 1039 1846
1537 1108 2047
1564 1177 2248
1589 1246 2440
1610 1314 2614
1631 1382 2787
1646 1442 2929
1659 1498 3055
1672 1554 3181
1312 846 608
1331 873 716
1350 900 823
1368 932 950
1386 976 1115
1403 1019 1280
1424 1074 1468
1445 1135 1667
1467 1196 1866
1492 1267 2066
1517 1337 2266
1540 1407 2455
1563 1473 2625
1585 1540 2795
1603 1597 2933
1617 1649 3056
