Assets/1__3DArt/KimSe/artstation_asset/LUTs_pasterls/3DL/Cotton Candy 03.3dl
# Enhanced with VOXCOLOR algorithms
0 128 256 384 512 640 768 896 1023
578 289 369
657 473 932
734 680 1488
805 904 2009
868 1142 2465
917 1388 2795
962 1629 3047
1003 1854 3231
1044 2056 3356
600 872 476
668 1058 997
742 1255 1541
819 1458 2071
897 1665 2546
970 1866 2889
1041 2056 3145
1113 2232 3327
1189 2392 3448
698 1454 572
765 1628 1066
844 1805 1605
931 1982 2140
1025 2155 2628
1120 2312 2977
1214 2453 3233
1309 2581 3410
1406 2697 3522
879 2000 653
951 2151 1135
1036 2302 1671
1133 2449 2210
1240 2588 2702
1351 2703 3052
1460 2802 3305
1568 2886 3476
1676 2959 3580
1150 2475 716
1225 2597 1197
1315 2718 1733
1418 2833 2272
1531 2938 2763
1647 3019 3109
1761 3082 3356
1871 3132 3521
1977 3170 3619
1517 2811 753
1588 2905 1245
1672 2998 1783
1767 3086 2317
1871 3165 2800
1977 3220 3139
2079 3262 3381
2177 3291 3541
2271 3311 3636
1897 3063 781
1955 3134 1282
2025 3204 1820
2104 3270 2348
2190 3327 2822
2278 3364 3154
2363 3390 3392
2445 3407 3550
2526 3415 3642
2253 3242 802
2290 3292 1306
2339 3343 1841
2396 3392 2362
2460 3432 2829
2526 3458 3157
2592 3474 3393
2658 3482 3550
2723 3483 3640
2553 3356 819
2559 3389 1315
2580 3425 1842
2612 3460 2357
2651 3491 2819
2697 3510 3148
2744 3521 3387
2793 3523 3544
2842 3517 3629
1278 379 271
1314 509 786
1345 675 1328
1372 875 1862
1392 1108 2349
1407 1375 2716
1421 1644 3000
1439 1906 3210
1464 2149 3356
1203 900 355
1296 1051 831
1345 1221 1367
1368 1408 1914
1377 1613 2427
1396 1829 2808
1425 2040 3093
1466 2239 3296
1518 2422 3429
1196 1445 444
1302 1596 904
1366 1756 1438
1402 1922 1992
1427 2094 2515
1464 2262 2900
1514 2418 3181
1576 2560 3375
1647 2687 3495
1265 1974 529
1361 2110 990
1434 2250 1525
1492 2390 2082
1544 2528 2604
1605 2651 2984
1676 2759 3258
1753 2851 3442
1835 2931 3552
1422 2445 603
1500 2557 1074
1577 2672 1614
1652 2784 2168
1729 2889 2684
1811 2974 3053
1896 3042 3318
1981 3096 3494
2064 3138 3596
1688 2785 657
1753 2874 1142
1825 2964 1684
1902 3051 2233
1984 3130 2737
2069 3188 3095
2153 3232 3352
2234 3264 3522
2311 3285 3621
1988 3043 701
2038 3112 1197
2100 3181 1739
2170 3247 2280
2246 3305 2772
2323 3344 3120
2398 3371 3371
2470 3388 3537
2538 3397 3635
2292 3229 739
2326 3280 1239
2371 3332 1776
2426 3381 2307
2486 3422 2788
2548 3449 3130
2609 3465 3377
2669 3474 3542
2728 3475 3638
2572 3354 773
2584 3390 1267
2608 3427 1794
2640 3462 2315
2679 3492 2787
2722 3510 3126
2766 3521 3373
2812 3524 3537
2859 3521 3630
1981 477 178
1982 567 637
1980 698 1156
1973 873 1694
1962 1093 2209
1946 1367 2615
1933 1653 2934
1926 1940 3174
1929 2213 3342
1856 937 240
1931 1057 674
1951 1202 1196
1936 1372 1753
1905 1571 2293
1885 1797 2712
1881 2023 3029
1892 2242 3256
1916 2445 3405
1780 1444 314
1876 1573 745
1913 1714 1271
1913 1869 1838
1893 2039 2390
1888 2216 2809
1901 2385 3120
1930 2542 3335
1971 2683 3468
1766 1955 394
1850 2074 834
1899 2202 1367
1922 2335 1937
1932 2471 2489
1951 2601 2902
1985 2719 3202
2030 2823 3405
2082 2911 3525
1825 2424 470
1887 2525 928
1940 2631 1469
1985 2738 2039
2026 2841 2582
2072 2930 2982
2125 3005 3271
2181 3066 3463
2236 3114 3574
1988 2772 535
2034 2853 1010
2084 2937 1557
2137 3020 2122
2193 3097 2652
2252 3157 3037
2312 3205 3315
2371 3240 3499
2425 3264 3606
2194 3037 594
2228 3101 1082
2273 3167 1630
2325 3230 2187
2382 3286 2703
2442 3325 3075
2502 3354 3343
2559 3372 3522
2611 3383 3626
2421 3230 650
2445 3279 1144
2480 3329 1687
2524 3376 2233
2573 3416 2735
2626 3442 3096
2678 3459 3358
2729 3467 3534
2779 3470 3636
2649 3359 702
2661 3397 1194
2682 3434 1726
2711 3468 2258
2745 3496 2747
2785 3514 3102
2825 3524 3360
2867 3528 3534
2910 3527 3636
2608 572 102
2588 634 502
2565 738 992
2539 889 1527
2511 1092 2061
2477 1362 2504
2446 1656 2858
2419 1958 3128
2403 2253 3319
2475 974 142
2513 1070 538
2508 1193 1040
2474 1347 1597
2426 1536 2156
2386 1767 2608
2361 2005 2956
2348 2240 3211
2347 2462 3379
2371 1444 198
2429 1552 602
2439 1677 1116
2416 1822 1687
2374 1987 2259
2344 2171 2711
2331 2353 3052
2333 2525 3291
2345 2682 3441
2308 1937 265
2360 2041 684
2381 2156 1211
2378 2281 1789
2359 2416 2364
2349 2553 2810
2353 2681 3140
2368 2797 3366
2391 2898 3499
2297 2407 335
2332 2496 775
2358 2592 1315
2374 2693 1897
2383 2794 2466
2398 2887 2900
2421 2969 3216
2448 3039 3429
2476 3095 3552
2370 2768 404
2392 2839 865
2417 2915 1414
2443 2992 1995
2469 3066 2553
2501 3128 2969
2536 3179 3271
2571 3219 3474
2603 3248 3591
2485 3043 474
2499 3100 951
2522 3159 1504
2551 3217 2078
2585 3269 2621
2625 3309 3021
2665 3338 3311
2705 3359 3506
2741 3372 3619
2627 3242 545
2637 3288 1031
2656 3333 1581
2684 3376 2144
2718 3413 2671
2757 3438 3057
2798 3454 3337
2838 3464 3526
2877 3468 3637
2785 3374 616
2791 3411 1102
2804 3445 1642
2825 3477 2190
2852 3504 2700
2886 3521 3076
2922 3531 3350
2959 3535 3536
2998 3535 3645
3079 654 52
3054 701 400
3029 786 857
3002 916 1380
2974 1100 1923
2940 1360 2394
2906 1653 2779
2874 1964 3080
2850 2276 3295
2977 1003 75
2982 1081 434
2964 1188 911
2929 1328 1458
2886 1507 2025
2847 1737 2502
2816 1982 2881
2792 2231 3164
2775 2473 3355
2887 1437 112
2905 1529 486
2895 1642 983
2865 1777 1549
2823 1937 2131
2786 2126 2610
2761 2318 2980
2746 2506 3246
2739 2681 3416
2818 1913 160
2835 2004 555
2832 2109 1069
2813 2228 1649
2782 2360 2239
2756 2503 2714
2741 2642 3074
2736 2772 3325
2736 2888 3476
2779 2387 216
2785 2466 635
2785 2553 1167
2779 2647 1756
2765 2746 2347
2755 2843 2812
2754 2933 3158
2759 3013 3395
2766 3081 3533
2791 2766 283
2788 2828 724
2787 2895 1271
2788 2965 1864
2789 3035 2446
2795 3098 2894
2807 3153 3224
2822 3200 3448
2836 3237 3578
2831 3056 356
2825 3105 817
2825 3156 1371
2830 3207 1961
2840 3255 2531
2858 3294 2961
2879 3324 3276
2902 3348 3490
2925 3366 3614
2896 3265 435
2889 3304 909
2890 3344 1464
2898 3381 2046
2913 3414 2600
2937 3437 3013
2964 3452 3316
2993 3462 3521
3023 3469 3641
2978 3399 520
2973 3432 999
2975 3464 1547
2985 3492 2114
3002 3517 2649
3028 3532 3049
3058 3541 3343
3090 3545 3542
3124 3545 3658
3304 705 37
3288 747 350
3272 824 780
3258 941 1285
3244 1108 1824
3228 1353 2307
3209 1638 2711
3189 1950 3034
3172 2276 3271
3251 1011 50
3245 1081 379
3230 1179 832
3209 1310 1361
3185 1479 1922
3163 1703 2413
3144 1949 2811
3126 2207 3117
3112 2466 3331
3205 1414 75
3203 1496 422
3190 1601 896
3169 1730 1448
3141 1886 2027
3117 2076 2521
3099 2275 2912
3084 2476 3202
3073 2671 3394
3169 1873 110
3166 1956 478
3155 2055 973
3136 2170 1543
3111 2301 2135
3088 2448 2629
3073 2596 3011
3063 2741 3285
3057 2876 3457
3148 2350 154
3138 2421 545
3127 2503 1061
3112 2594 1646
3092 2692 2245
3076 2794 2733
3067 2894 3103
3062 2987 3363
3062 3071 3519
3149 2750 211
3133 2805 627
3119 2867 1161
3106 2932 1754
3094 2999 2351
3087 3065 2825
3085 3126 3179
3089 3182 3425
3097 3233 3571
3162 3062 279
3143 3105 716
3129 3150 1262
3118 3195 1858
3112 3240 2447
3113 3278 2905
3119 3311 3244
3131 3340 3477
3148 3367 3614
3184 3289 357
3167 3322 810
3153 3356 1362
3146 3388 1954
3145 3417 2531
3154 3437 2971
3168 3452 3296
3187 3464 3518
3212 3475 3649
3215 3433 447
3200 3461 909
3190 3488 1457
3187 3513 2038
3192 3534 2597
3208 3546 3022
3230 3553 3336
3256 3556 3550
3283 3557 3674
3427 736 35
3417 776 324
3410 848 734
3407 957 1225
3407 1110 1755
3406 1340 2243
3403 1615 2657
3397 1924 2992
3390 2256 3243
3411 1006 42
3403 1070 348
3395 1162 779
3387 1287 1293
3380 1448 1846
3375 1665 2341
3370 1910 2752
3363 2172 3074
3355 2444 3305
3403 1380 60
3395 1455 384
3385 1555 838
3375 1681 1374
3364 1834 1946
3354 2023 2448
3347 2227 2853
3340 2438 3161
3332 2649 3371
3401 1822 89
3392 1898 433
3381 1993 909
3369 2106 1465
3354 2238 2053
3342 2390 2558
3333 2548 2957
3326 2706 3251
3321 2860 3441
3408 2298 128
3394 2364 494
3380 2443 992
3366 2533 1567
3350 2633 2166
3336 2743 2668
3327 2852 3057
3322 2960 3336
3320 3063 3509
3419 2718 182
3400 2769 571
3383 2826 1087
3366 2890 1675
3350 2958 2277
3339 3029 2769
3333 3098 3144
3332 3166 3408
3337 3231 3569
3429 3055 246
3407 3092 656
3387 3133 1187
3370 3176 1782
3356 3219 2381
3348 3260 2859
3346 3298 3219
3351 3334 3469
3364 3372 3619
3436 3305 322
3414 3333 748
3394 3362 1288
3377 3390 1882
3367 3416 2473
3365 3436 2935
3370 3452 3281
3381 3467 3519
3400 3484 3659
3442 3466 412
3420 3489 848
3402 3512 1387
3389 3533 1972
3384 3551 2548
3391 3560 2995
3404 3564 3329
3422 3567 3557
3442 3570 3690
3481 751 40
3473 790 315
3473 859 711
3478 962 1191
3487 1106 1714
3499 1323 2200
3508 1587 2617
3513 1889 2957
3512 2219 3213
3489 991 43
3482 1050 332
3480 1139 748
3483 1259 1249
3490 1415 1793
3499 1626 2289
3505 1866 2706
3509 2129 3036
3509 2406 3276
3507 1338 60
3501 1407 365
3498 1503 801
3498 1627 1324
3501 1780 1888
3506 1969 2393
3509 2177 2807
3511 2395 3127
3511 2618 3350
3534 1762 90
3526 1832 413
3522 1924 870
3518 2039 1414
3517 2173 1995
3517 2332 2505
3518 2498 2915
3518 2669 3223
3517 2840 3428
3567 2234 132
3558 2295 475
3549 2373 953
3542 2465 1516
3536 2571 2111
3532 2689 2621
3529 2811 3024
3527 2934 3318
3526 3055 3506
3600 2671 189
3586 2718 553
3573 2774 1050
3561 2840 1627
3551 2913 2228
3544 2992 2731
3539 3072 3120
3538 3152 3400
3541 3234 3572
3624 3032 254
3607 3066 638
3589 3105 1150
3573 3148 1735
3560 3194 2336
3553 3240 2828
3549 3285 3204
3550 3331 3469
3558 3380 3627
3638 3309 331
3617 3332 728
3597 3358 1248
3579 3385 1835
3566 3411 2431
3561 3433 2911
3559 3452 3273
3564 3472 3524
3576 3496 3672
3640 3495 421
3616 3511 823
3595 3530 1341
3578 3548 1920
3568 3563 2505
3568 3570 2973
3572 3574 3325
3581 3577 3567
3592 3584 3707
3501 755 48
3489 792 314
3490 858 703
3498 957 1177
3512 1094 1695
3529 1302 2179
3543 1557 2594
3551 1849 2930
3549 2168 3180
3515 968 47
3508 1022 324
3510 1108 731
3519 1226 1225
3532 1379 1764
3548 1585 2259
3562 1822 2675
3571 2081 3007
3574 2356 3246
3543 1290 65
3539 1352 356
3543 1446 781
3552 1570 1295
3565 1724 1855
3579 1916 2359
3591 2126 2776
3600 2349 3101
3604 2578 3329
3584 1696 102
3583 1758 408
3587 1849 852
3594 1967 1385
3605 2107 1962
3617 2273 2474
3626 2449 2889
3633 2632 3206
3635 2816 3420
3636 2161 156
3635 2215 480
3638 2293 943
3642 2391 1493
3649 2506 2082
3657 2636 2596
3664 2772 3006
3667 2911 3312
3667 3050 3510
3691 2611 226
3689 2653 571
3686 2710 1050
3685 2781 1612
3687 2863 2207
3691 2954 2714
3695 3047 3113
3696 3143 3403
3695 3240 3583
3739 2993 304
3731 3023 663
3724 3062 1154
3718 3109 1724
3714 3162 2319
3715 3218 2819
3716 3274 3205
3717 3332 3479
3715 3392 3642
3773 3299 389
3760 3317 755
3747 3341 1249
3737 3369 1818
3730 3398 2411
3728 3426 2902
3727 3452 3277
3727 3479 3538
3727 3510 3688
3790 3517 482
3770 3524 842
3752 3538 1326
3739 3554 1885
3730 3568 2472
3727 3575 2958
3724 3579 3326
3724 3585 3580
3726 3597 3726
