Assets/1__3DArt/KimSe/artstation_asset/LUTs_pasterls/3DL/Cotton Candy 02.3dl
# Enhanced with VOXCOLOR algorithms
0 256 512 768 1023
674 626 514
810 821 1041
980 1071 1780
1136 1311 2506
1253 1477 3035
838 1289 653
846 1549 1160
921 1818 1917
1051 2031 2634
1179 2166 3147
1063 2167 820
946 2415 1301
910 2654 2088
977 2803 2823
1081 2870 3314
1264 2904 951
1073 3085 1388
960 3268 2158
968 3365 2912
1020 3393 3426
1413 3340 1028
1182 3472 1407
1017 3604 2137
993 3669 2909
1012 3677 3453
1592 771 648
1653 862 1127
1737 1037 1864
1810 1298 2647
1850 1550 3227
1504 1292 678
1580 1506 1187
1581 1750 1954
1618 1990 2709
1678 2170 3239
1499 2054 776
1455 2293 1285
1402 2541 2078
1421 2718 2831
1482 2807 3333
1536 2772 902
1396 2966 1366
1282 3169 2140
1269 3289 2904
1305 3326 3426
1564 3269 994
1382 3419 1394
1223 3577 2119
1182 3665 2897
1197 3690 3462
2505 902 768
2542 932 1194
2583 1008 1912
2595 1203 2746
2574 1466 3394
2337 1322 729
2394 1481 1211
2401 1679 1982
2402 1918 2793
2410 2141 3379
2212 1986 740
2219 2194 1254
2196 2436 2068
2188 2648 2873
2208 2787 3419
2128 2672 827
2062 2854 1327
1987 3073 2138
1957 3234 2941
1975 3309 3492
2033 3185 934
1927 3336 1387
1810 3532 2153
1766 3671 2960
1782 3726 3542
2986 963 829
3036 971 1217
3099 991 1900
3129 1098 2747
3125 1291 3460
2904 1323 788
2957 1449 1224
3014 1603 1974
3045 1797 2823
3051 2009 3479
2827 1933 755
2872 2115 1235
2921 2339 2057
2950 2561 2925
2971 2747 3542
2768 2614 765
2784 2779 1273
2806 2999 2143
2817 3198 3024
2852 3340 3629
2699 3149 832
2680 3280 1340
2670 3489 2204
2664 3679 3087
2685 3789 3700
3148 980 851
3209 976 1221
3288 969 1882
3340 1018 2719
3356 1124 3421
3148 1292 838
3222 1396 1237
3328 1523 1968
3405 1680 2831
3429 1845 3508
3165 1862 808
3257 2030 1251
3378 2251 2075
3477 2482 2994
3515 2691 3666
3202 2561 759
3286 2719 1253
3405 2949 2172
3510 3188 3144
3563 3391 3796
3212 3148 723
3250 3258 1242
3363 3464 2210
3452 3684 3216
3501 3854 3870
