Assets/1__3DArt/KimSe/artstation_asset/LUTs_pasterls/3DL/Cotton Candy 01 S.3dl
# Enhanced with VOXCOLOR algorithms
0 256 512 768 1023
466 418 450
666 804 1277
876 1371 2278
1054 2043 3097
1204 2682 3629
677 1315 708
869 1738 1560
1087 2267 2545
1291 2781 3302
1480 3196 3758
1098 2490 1004
1271 2792 1888
1477 3132 2824
1677 3410 3478
1871 3605 3851
1664 3378 1211
1791 3502 2086
1959 3638 2955
2128 3743 3539
2296 3812 3879
2184 3806 1317
2266 3835 2137
2388 3868 2972
2500 3892 3538
2585 3902 3870
1664 585 331
1763 866 1133
1901 1405 2164
2001 2149 3065
2056 2847 3650
1506 1282 476
1629 1578 1320
1760 2091 2372
1932 2721 3230
2061 3213 3741
1617 2341 731
1685 2546 1609
1847 2897 2619
2060 3293 3390
2219 3565 3826
1969 3273 1010
2022 3368 1891
2158 3521 2821
2329 3679 3485
2469 3785 3865
2347 3796 1201
2412 3830 2054
2513 3866 2922
2616 3891 3521
2704 3908 3866
3055 827 350
3012 990 1092
3069 1468 2093
3096 2212 3027
3055 2940 3670
2604 1310 318
2536 1447 1154
2634 1899 2209
2829 2633 3150
2930 3246 3744
2496 2244 474
2399 2313 1318
2496 2611 2360
2727 3123 3268
2893 3554 3824
2662 3207 789
2582 3231 1621
2630 3355 2589
2790 3572 3386
2943 3777 3880
2820 3812 1057
2829 3842 1930
2873 3879 2852
2957 3904 3523
3045 3921 3907
3749 1000 532
3717 1148 1199
3751 1559 2112
3767 2229 3007
3741 2950 3676
3460 1384 456
3361 1461 1183
3424 1830 2157
3568 2534 3102
3647 3251 3763
3393 2228 568
3251 2217 1236
3270 2401 2188
3426 2900 3159
3588 3560 3867
3473 3184 827
3332 3144 1444
3296 3193 2325
3399 3409 3247
3569 3793 3950
3496 3844 1070
3454 3878 1812
3436 3924 2682
3490 3939 3480
3568 3946 3990
3934 1076 658
3971 1278 1298
3993 1634 2150
4001 2211 2992
4015 2891 3645
3941 1458 755
3994 1603 1324
4026 1895 2189
4030 2465 3092
4024 3229 3779
3977 2225 939
4037 2222 1331
4068 2315 2137
4066 2721 3111
4050 3575 3946
4019 3140 1139
4059 3093 1434
4080 3104 2171
4076 3285 3161
4057 3820 4056
4031 3854 1333
4034 3902 1782
4050 3978 2473
4045 3988 3411
4031 3983 4095
