Assets/1__3DArt/KimSe/artstation_asset/LUTs_pasterls/3DL/Cotton Candy 03 S.3dl
# Enhanced with VOXCOLOR algorithms
0 64 128 192 256 320 384 448 512 576 640 704 768 832 896 960 1023
578 289 369
618 381 651
657 473 932
696 571 1212
734 680 1488
771 789 1765
805 904 2009
836 1023 2237
868 1142 2465
892 1265 2630
917 1388 2795
941 1510 2940
962 1629 3047
982 1748 3154
1003 1854 3231
1023 1955 3294
1044 2056 3356
589 580 422
626 673 693
663 766 964
700 862 1237
738 967 1515
776 1072 1792
812 1181 2040
847 1292 2273
882 1404 2505
913 1515 2674
944 1627 2842
973 1737 2989
1001 1842 3096
1029 1948 3203
1058 2043 3279
1087 2134 3341
1116 2224 3402
600 872 476
634 965 736
668 1058 997
704 1154 1263
742 1255 1541
781 1355 1820
819 1458 2071
858 1561 2308
897 1665 2546
933 1765 2717
970 1866 2889
1006 1963 3039
1041 2055 3145
1076 2148 3252
1113 2232 3327
1151 2312 3387
1189 2392 3448
629 1163 526
662 1255 778
695 1347 1030
730 1440 1291
770 1536 1571
809 1632 1850
851 1727 2104
893 1823 2345
936 1918 2587
978 2007 2760
1020 2097 2934
1062 2182 3086
1104 2262 3192
1145 2341 3298
1189 2413 3372
1234 2483 3431
1280 2553 3489
698 1454 572
731 1541 819
765 1628 1066
802 1716 1324
844 1805 1605
886 1894 1885
931 1982 2140
977 2068 2384
1024 2155 2627
1071 2233 2802
1119 2311 2976
1166 2386 3128
1213 2453 3233
1260 2520 3338
1308 2581 3410
1357 2639 3466
1406 2697 3522
766 1744 617
801 1827 860
835 1909 1102
873 1991 1358
918 2074 1639
962 2157 1919
1011 2236 2177
1062 2314 2422
1112 2392 2668
1165 2459 2843
1218 2526 3019
1270 2589 3170
1322 2644 3274
1374 2699 3377
1427 2748 3448
1480 2794 3502
1533 2840 3556
878 2000 653
914 2076 894
950 2151 1135
989 2227 1389
1035 2302 1671
1081 2378 1952
1132 2449 2210
1185 2518 2456
1238 2587 2702
1293 2645 2877
1349 2703 3051
1404 2756 3202
1458 2801 3304
1512 2846 3407
1567 2886 3475
1621 2922 3528
1676 2959 3580
1012 2238 684
1049 2306 925
1086 2374 1166
1127 2442 1420
1174 2510 1701
1221 2578 1983
1273 2641 2240
1328 2702 2486
1382 2763 2732
1439 2811 2906
1496 2860 3079
1552 2905 3229
1607 2941 3330
1663 2978 3431
1718 3009 3498
1772 3037 3549
1826 3065 3599
1147 2476 715
1185 2536 955
1223 2597 1196
1264 2657 1451
1313 2718 1732
1362 2778 2014
1415 2833 2271
1471 2885 2517
1527 2938 2762
1585 2978 2935
1643 3018 3107
1701 3054 3256
1757 3082 3355
1813 3109 3455
1868 3131 3521
1922 3151 3570
1977 3170 3619
1327 2644 732
1364 2698 976
1401 2751 1219
1442 2805 1475
1489 2858 1756
1536 2911 2037
1588 2960 2293
1641 3005 2536
1695 3051 2780
1750 3085 2951
1805 3119 3122
1860 3149 3269
1914 3171 3367
1967 3194 3465
2020 3211 3531
2072 3226 3579
2124 3241 3627
1507 2813 749
1543 2859 996
1580 2905 1242
1620 2952 1500
1666 2998 1781
1711 3045 2061
1761 3086 2315
1812 3125 2556
1863 3164 2798
1915 3192 2967
1968 3220 3136
2020 3244 3281
2070 3261 3379
2121 3278 3476
2171 3291 3540
2221 3301 3588
2271 3311 3636
1690 2961 764
1725 3000 1014
1760 3040 1263
1798 3080 1522
1841 3120 1802
1884 3160 2081
1930 3196 2334
1978 3228 2573
2026 3261 2812
2074 3284 2979
2123 3306 3147
2171 3326 3291
2219 3338 3387
2267 3351 3484
2314 3360 3547
2361 3366 3595
2408 3373 3642
1879 3066 775
1910 3101 1027
1942 3135 1278
1976 3169 1538
2014 3204 1816
2053 3239 2094
2094 3270 2345
2136 3298 2582
2178 3326 2818
2221 3345 2984
2265 3364 3151
2308 3380 3293
2351 3390 3390
2394 3400 3486
2438 3406 3549
2482 3411 3596
2526 3415 3642
2068 3172 786
2096 3201 1040
2123 3230 1293
2153 3259 1555
2187 3289 1831
2221 3318 2108
2257 3344 2356
2294 3368 2591
2331 3391 2825
2369 3407 2990
2406 3422 3154
2445 3434 3296
2483 3442 3392
2522 3449 3488
2562 3453 3551
2603 3456 3597
2644 3458 3643
2236 3245 797
2257 3269 1050
2278 3293 1303
2301 3318 1563
2329 3344 1837
2357 3369 2112
2387 3392 2359
2418 3412 2592
2449 3432 2825
2482 3445 2989
2514 3458 3154
2548 3469 3295
2582 3474 3391
2615 3480 3487
2651 3482 3549
2687 3483 3595
2723 3483 3640
2395 3301 808
2407 3321 1058
2418 3341 1309
2433 3362 1567
2454 3384 1840
2475 3407 2112
2499 3426 2358
2525 3444 2590
2550 3461 2822
2578 3473 2986
2605 3484 3151
2634 3493 3293
2663 3497 3389
2692 3502 3485
2722 3503 3547
2752 3501 3591
2783 3500 3635
2553 3356 819
2556 3372 1067
2559 3389 1315
2566 3406 1571
2580 3425 1842
2594 3444 2113
2612 3460 2357
2631 3475 2588
2651 3491 2819
2674 3500 2984
2697 3510 3148
2720 3517 3290
2744 3521 3387
2769 3524 3483
2793 3523 3544
2818 3520 3587
2842 3517 3629
928 334 320
955 412 590
983 490 859
1010 575 1132
1036 675 1409
1062 776 1687
1085 888 1936
1106 1006 2172
1128 1124 2407
1144 1252 2582
1161 1380 2756
1177 1509 2910
1191 1636 3024
1205 1764 3137
1221 1880 3221
1238 1991 3288
1254 2102 3356
909 607 367
940 687 627
972 766 887
1001 852 1153
1027 949 1432
1053 1046 1710
1077 1152 1964
1100 1263 2205
1124 1374 2445
1145 1492 2623
1167 1609 2801
1188 1726 2957
1210 1839 3071
1231 1953 3184
1255 2057 3266
1279 2156 3332
1304 2255 3397
890 881 414
925 962 664
960 1043 914
992 1128 1174
1018 1222 1454
1045 1315 1734
1070 1416 1991
1095 1521 2237
1120 1625 2483
1146 1732 2665
1173 1838 2846
1200 1943 3004
1228 2043 3118
1257 2143 3231
1288 2234 3311
1321 2321 3375
1353 2407 3438
890 1157 460
928 1238 703
965 1318 945
999 1402 1200
1026 1491 1481
1054 1581 1762
1081 1675 2022
1109 1772 2272
1137 1869 2523
1169 1965 2706
1201 2061 2890
1234 2154 3050
1270 2241 3163
1305 2328 3276
1343 2406 3354
1382 2480 3415
1421 2554 3476
929 1440 505
965 1516 744
1001 1592 983
1036 1670 1236
1067 1754 1518
1098 1837 1799
1131 1924 2061
1165 2013 2312
1199 2101 2564
1237 2186 2748
1276 2271 2933
1315 2353 3092
1356 2427 3204
1397 2502 3315
1440 2568 3391
1483 2630 3450
1527 2692 3509
967 1723 550
1002 1794 786
1038 1865 1021
1073 1938 1273
1108 2016 1555
1143 2094 1836
1181 2173 2099
1221 2253 2353
1260 2333 2606
1305 2408 2790
1350 2482 2975
1396 2552 3135
1443 2614 3245
1490 2676 3355
1537 2730 3429
1584 2780 3485
1632 2829 3541
1051 1975 587
1085 2040 822
1120 2106 1058
1155 2173 1309
1193 2244 1591
1231 2315 1873
1273 2386 2136
1317 2458 2389
1361 2530 2642
1410 2594 2826
1459 2659 3010
1508 2719 3168
1558 2770 3277
1608 2822 3385
1657 2866 3457
1706 2905 3512
1755 2945 3566
1158 2212 620
1191 2271 857
1225 2329 1093
1260 2390 1345
1300 2454 1627
1341 2518 1909
1386 2582 2172
1433 2645 2424
1480 2708 2676
1532 2763 2858
1584 2819 3040
1636 2869 3197
1688 2912 3304
1739 2954 3411
1789 2988 3481
1839 3019 3534
1888 3050 3587
1265 2449 654
1297 2501 891
1330 2553 1129
1365 2607 1381
1408 2664 1663
1450 2721 1946
1498 2777 2207
1549 2832 2459
1600 2887 2710
1655 2933 2890
1710 2979 3071
1764 3020 3227
1817 3053 3332
1871 3086 3437
1922 3111 3506
1971 3133 3556
2020 3154 3607
1423 2621 676
1455 2667 916
1486 2713 1157
1521 2761 1411
1563 2812 1693
1605 2863 1975
1652 2912 2235
1701 2960 2484
1751 3008 2733
1804 3047 2911
1857 3085 3089
1909 3120 3242
1960 3147 3346
2012 3173 3450
2060 3193 3518
2108 3210 3568
2155 3226 3618
1581 2792 698
1612 2833 942
1643 2874 1185
1677 2916 1442
1718 2960 1723
1759 3005 2005
1805 3047 2263
1854 3088 2509
1902 3129 2756
1953 3161 2931
2004 3192 3107
2054 3220 3258
2103 3241 3361
2152 3261 3463
2199 3275 3530
2245 3287 3579
2290 3298 3629
1745 2943 718
1774 2978 964
1804 3014 1211
1836 3051 1469
1876 3090 1750
1915 3129 2031
1959 3165 2287
2005 3199 2531
2051 3234 2775
2099 3259 2948
2147 3284 3122
2194 3306 3271
2240 3322 3372
2287 3337 3473
2331 3347 3539
2375 3354 3588
2418 3361 3636
1920 3052 733
1947 3084 983
1973 3115 1232
2003 3148 1491
2039 3182 1770
2075 3216 2050
2114 3247 2304
2155 3276 2545
2196 3306 2786
2239 3327 2958
2282 3348 3129
2324 3365 3277
2366 3377 3377
2408 3389 3476
2450 3396 3542
2490 3401 3590
2531 3406 3639
2095 3161 749
2119 3189 1001
2143 3216 1252
2170 3245 1513
2202 3274 1791
2234 3303 2069
2269 3329 2321
2306 3354 2559
2342 3378 2798
2379 3394 2967
2417 3411 3136
2455 3425 3282
2492 3433 3381
2530 3441 3480
2568 3446 3545
2606 3448 3593
2645 3451 3641
2255 3237 765
2274 3261 1016
2293 3285 1267
2314 3309 1527
2341 3335 1803
2368 3360 2079
2397 3383 2329
2428 3404 2565
2459 3424 2802
2491 3438 2970
2524 3451 3138
2556 3462 3283
2589 3469 3382
2623 3475 3481
2656 3478 3545
2690 3478 3592
2725 3479 3639
2409 3296 780
2420 3317 1030
2432 3337 1279
2447 3358 1537
2467 3380 1810
2488 3403 2084
2512 3422 2332
2537 3440 2567
2562 3458 2803
2589 3469 2970
2616 3481 3138
2644 3490 3282
2672 3495 3381
2701 3499 3479
2729 3501 3543
2759 3500 3589
2788 3499 3634
2562 3355 796
2567 3372 1043
2571 3389 1291
2579 3407 1546
2594 3426 1818
2608 3445 2090
2626 3461 2336
2645 3476 2569
2665 3491 2803
2687 3501 2970
2709 3510 3137
2732 3517 3281
2755 3521 3380
2779 3524 3478
2803 3524 3541
2827 3521 3585
2851 3519 3630
1278 379 271
1293 443 529
1309 506 787
1324 579 1052
1338 671 1330
1353 763 1609
1365 871 1863
1376 988 2107
1388 1105 2350
1396 1239 2533
1404 1373 2716
1412 1507 2879
1420 1643 3000
1428 1780 3121
1439 1906 3210
1452 2028 3283
1464 2149 3356
1229 634 311
1255 701 560
1281 767 809
1302 841 1068
1317 930 1348
1331 1019 1628
1343 1123 1887
1354 1234 2136
1365 1345 2385
1377 1468 2573
1390 1592 2760
1403 1715 2925
1418 1837 3045
1433 1959 3166
1451 2071 3253
1471 2178 3323
1491 2285 3393
1181 890 352
1217 959 592
1252 1027 832
1281 1102 1085
1295 1189 1366
1309 1276 1647
1320 1375 1911
1331 1480 2166
1342 1585 2421
1359 1698 2612
1375 1811 2803
1394 1922 2970
1416 2030 3090
1438 2138 3210
1464 2236 3295
1491 2329 3362
1518 2422 3429
1151 1152 394
1193 1221 627
1234 1289 860
1267 1363 1109
1283 1447 1391
1298 1530 1674
1312 1623 1941
1326 1722 2200
1339 1820 2459
1361 1923 2652
1382 2026 2846
1406 2126 3015
1436 2220 3134
1465 2314 3253
1497 2398 3336
1530 2477 3400
1563 2556 3464
1160 1427 438
1198 1491 669
1237 1555 900
1270 1624 1148
1290 1702 1431
1311 1780 1714
1331 1867 1981
1353 1957 2241
1374 2047 2501
1403 2139 2695
1432 2232 2889
1464 2320 3057
1499 2402 3175
1535 2484 3293
1572 2555 3373
1609 2621 3434
1647 2687 3495
1168 1702 482
1204 1762 711
1240 1821 941
1273 1885 1188
1298 1958 1471
1323 2031 1753
1351 2110 2022
1380 2192 2283
1408 2275 2544
1446 2356 2738
1483 2437 2931
1521 2515 3099
1563 2584 3216
1605 2653 3332
1647 2712 3410
1689 2765 3468
1731 2818 3527
1224 1951 521
1257 2005 751
1290 2060 981
1322 2118 1228
1351 2185 1511
1380 2252 1794
1413 2323 2062
1448 2398 2322
1483 2472 2583
1526 2543 2775
1569 2614 2968
1612 2681 3134
1658 2740 3249
1704 2798 3364
1748 2846 3439
1791 2888 3496
1835 2931 3552
1304 2187 557
1334 2236 789
1363 2285 1021
1394 2338 1270
1427 2398 1553
1460 2458 1836
1498 2522 2103
1538 2588 2361
1578 2654 2620
1625 2715 2811
1672 2777 3001
1720 2834 3166
1768 2882 3278
1816 2930 3391
1861 2968 3465
1905 3001 3519
1949 3035 3574
1384 2423 593
1410 2466 827
1437 2510 1061
1467 2557 1311
1503 2611 1594
1539 2665 1877
1582 2721 2143
1628 2779 2400
1673 2836 2658
1725 2888 2846
1776 2939 3035
1827 2986 3197
1878 3024 3308
1928 3062 3418
1975 3091 3491
2019 3115 3543
2063 3138 3596
1520 2597 620
1545 2636 857
1571 2676 1095
1600 2718 1347
1637 2767 1630
1673 2815 1913
1716 2865 2177
1762 2915 2431
1807 2965 2686
1858 3008 2871
1908 3052 3057
1958 3091 3216
2007 3122 3325
2056 3153 3434
2101 3175 3505
2144 3194 3557
2187 3212 3609
1656 2771 646
1681 2806 887
1705 2842 1128
1734 2880 1383
1770 2922 1666
1807 2965 1948
1850 3008 2210
1896 3051 2462
1941 3093 2714
1991 3129 2896
2040 3164 3078
2089 3196 3236
2136 3220 3342
2183 3244 3449
2227 3260 3519
2268 3273 3570
2310 3285 3621
1801 2925 671
1824 2956 915
1847 2988 1159
1875 3022 1416
1911 3060 1698
1947 3097 1980
1988 3134 2240
2032 3170 2489
2077 3206 2738
2124 3234 2917
2171 3262 3097
2217 3287 3251
2262 3305 3356
2307 3322 3461
2348 3334 3530
2388 3342 3581
2428 3350 3631
1961 3037 692
1983 3067 939
2005 3096 1185
2031 3126 1444
2064 3159 1724
2097 3193 2005
2135 3224 2263
2175 3255 2509
2215 3285 2754
2257 3308 2931
2299 3331 3108
2341 3351 3260
2382 3364 3363
2422 3378 3467
2461 3386 3535
2499 3392 3585
2537 3397 3635
2122 3150 712
2142 3177 962
2163 3203 1212
2187 3230 1471
2217 3259 1751
2248 3288 2030
2281 3314 2285
2317 3340 2528
2353 3365 2771
2390 3382 2945
2428 3400 3119
2465 3415 3268
2501 3424 3371
2538 3433 3473
2574 3438 3540
2610 3441 3590
2646 3444 3639
2274 3229 733
2291 3253 982
2307 3277 1232
2327 3301 1491
2353 3326 1768
2379 3351 2046
2408 3374 2298
2438 3395 2539
2469 3416 2779
2501 3431 2951
2533 3445 3123
2565 3456 3272
2597 3463 3373
2630 3470 3474
2662 3473 3540
2694 3474 3589
2726 3475 3638
2423 3291 753
2434 3312 1001
2446 3333 1249
2460 3354 1506
2480 3377 1781
2501 3399 2056
2524 3418 2306
2549 3436 2545
2574 3454 2783
2601 3466 2954
2627 3477 3125
2654 3487 3272
2682 3492 3373
2709 3497 3473
2737 3498 3539
2765 3498 3586
2793 3498 3634
2572 3354 773
2578 3372 1020
2584 3390 1267
2593 3408 1522
2607 3427 1794
2622 3446 2067
2640 3462 2315
2659 3477 2551
2679 3492 2787
2700 3501 2957
2722 3510 3126
2743 3517 3273
2766 3521 3373
2789 3524 3472
2812 3524 3537
2835 3522 3584
2859 3521 3630
1628 426 223
1632 476 469
1636 527 715
1640 588 971
1644 671 1249
1648 754 1527
1651 859 1787
1654 974 2037
1657 1090 2287
1658 1228 2480
1659 1366 2672
1661 1506 2843
1662 1649 2972
1664 1792 3101
1670 1927 3196
1678 2058 3274
1686 2188 3353
1554 663 257
1571 716 496
1588 770 734
1601 832 986
1605 914 1266
1608 995 1545
1611 1096 1809
1613 1206 2065
1615 1317 2322
1620 1445 2518
1625 1574 2714
1632 1703 2888
1641 1833 3016
1650 1962 3144
1663 2082 3236
1678 2197 3311
