Assets/1__3DArt/KimSe/artstation_asset/LUTs_pasterls/3DL/Cotton Candy 01 S.3dl
# Enhanced with VOXCOLOR algorithms
0 128 256 384 512 640 768 896 1023
466 418 450
562 586 825
666 804 1277
772 1067 1772
876 1371 2278
969 1706 2722
1054 2043 3097
1132 2372 3400
1204 2682 3629
545 810 570
638 1000 951
740 1234 1404
847 1504 1898
955 1804 2401
1056 2115 2836
1150 2413 3197
1239 2692 3484
1325 2945 3696
677 1315 708
767 1509 1101
869 1738 1560
976 1994 2052
1087 2267 2545
1191 2535 2962
1291 2781 3302
1386 3003 3566
1480 3196 3758
861 1890 856
948 2068 1263
1047 2272 1726
1154 2494 2214
1263 2722 2693
1368 2934 3085
1469 3122 3400
1567 3285 3640
1664 3421 3811
1098 2490 1004
1178 2631 1424
1271 2792 1888
1372 2961 2366
1477 3132 2824
1579 3282 3190
1677 3410 3478
1774 3518 3697
1871 3605 3851
1381 2992 1123
1449 3088 1548
1531 3197 2007
1623 3311 2470
1719 3424 2907
1814 3522 3249
1906 3603 3519
1997 3671 3724
2091 3725 3870
1664 3378 1211
1720 3436 1635
1791 3502 2086
1873 3571 2535
1959 3638 2955
2045 3695 3281
2128 3743 3539
2211 3781 3736
2296 3812 3879
1936 3649 1273
1980 3678 1687
2040 3712 2128
2111 3748 2566
2186 3783 2974
2260 3812 3292
2331 3836 3544
2400 3855 3737
2467 3869 3878
2184 3806 1317
2217 3819 1710
2266 3835 2137
2325 3852 2568
2388 3868 2972
2447 3881 3287
2500 3892 3538
2547 3899 3730
2585 3902 3870
988 486 382
1067 627 750
1154 824 1199
1245 1077 1699
1335 1383 2220
1413 1741 2688
1480 2102 3084
1539 2452 3403
1591 2775 3641
981 827 477
1085 989 846
1174 1201 1300
1255 1460 1806
1335 1764 2331
1416 2099 2792
1493 2423 3174
1564 2722 3475
1629 2985 3694
1029 1290 596
1129 1453 977
1217 1660 1438
1299 1906 1945
1382 2187 2463
1471 2481 2908
1558 2754 3269
1640 2997 3549
1714 3200 3747
1134 1832 733
1216 1980 1131
1298 2164 1598
1384 2379 2100
1476 2618 2603
1574 2858 3024
1669 3074 3361
1758 3258 3618
1838 3404 3796
1298 2411 882
1358 2529 1295
1433 2675 1763
1520 2843 2255
1618 3027 2736
1721 3204 3129
1820 3357 3440
1911 3484 3675
1992 3580 3836
1522 2919 1016
1570 3000 1437
1637 3102 1901
1719 3219 2377
1813 3345 2835
1910 3462 3201
2003 3562 3489
2090 3643 3706
2168 3703 3858
1760 3322 1124
1800 3374 1548
1860 3438 2005
1935 3511 2466
2020 3588 2902
2107 3657 3246
2190 3715 3518
2268 3762 3723
2341 3796 3869
1999 3617 1207
2035 3646 1625
2088 3682 2072
2154 3720 2519
2227 3760 2939
2300 3794 3268
2369 3823 3529
2434 3845 3727
2495 3862 3870
2227 3799 1267
2259 3814 1669
2306 3831 2102
2362 3849 2537
2422 3866 2947
2479 3879 3270
2531 3890 3526
2577 3899 3721
2618 3905 3863
1664 585 331
1706 694 690
1763 866 1133
1830 1103 1634
1901 1405 2164
1958 1773 2650
2001 2149 3065
2033 2513 3400
2056 2847 3650
1553 869 388
1621 992 754
1681 1173 1209
1738 1415 1721
1802 1719 2259
1874 2076 2742
1939 2425 3145
1994 2748 3464
2036 3025 3694
1506 1282 476
1571 1403 855
1629 1578 1320
1689 1807 1836
1760 2091 2372
1847 2414 2843
1932 2721 3230
2006 2993 3530
2061 3213 3741
1527 1785 591
1571 1892 986
1624 2047 1456
1691 2247 1969
1774 2493 2494
1876 2765 2947
1974 3017 3314
2060 3233 3594
2125 3398 3787
1617 2341 731
1639 2424 1138
1685 2546 1609
1756 2705 2113
1847 2897 2619
1956 3105 3047
2060 3293 3390
2150 3450 3650
2219 3565 3826
1783 2853 879
1796 2910 1294
1838 2996 1761
1904 3108 2250
1991 3242 2730
2092 3383 3128
2188 3509 3446
2274 3613 3685
2341 3688 3850
1969 3273 1010
1983 3311 1429
2022 3368 1891
2082 3439 2364
2158 3521 2821
2245 3605 3191
2329 3679 3485
2405 3741 3709
2469 3785 3865
2162 3592 1119
2181 3616 1538
2219 3649 1991
2273 3688 2450
2336 3730 2886
2406 3771 3234
2473 3806 3510
2536 3835 3721
2593 3858 3870
2347 3796 1201
2373 3812 1611
2412 3830 2054
2460 3849 2500
2513 3866 2922
2566 3880 3256
2616 3891 3521
2662 3900 3723
2704 3908 3866
2388 703 315
2387 778 660
2410 923 1094
2451 1141 1588
2502 1434 2119
2540 1804 2616
2559 2185 3044
2564 2557 3395
2558 2900 3659
2181 927 326
2192 1008 690
2215 1156 1142
2253 1376 1654
2310 1675 2196
2380 2048 2694
2439 2420 3116
2481 2766 3453
2502 3060 3697
2051 1289 374
2056 1365 755
2077 1504 1219
2120 1711 1738
2188 1991 2283
2282 2340 2777
2370 2680 3189
2440 2986 3513
2481 3230 3740
1999 1753 460
1989 1816 854
2007 1936 1323
2055 2115 1842
2134 2359 2381
2243 2660 2863
2348 2950 3262
2435 3205 3571
2491 3400 3782
2026 2283 585
2000 2328 983
2013 2420 1452
2062 2562 1963
2146 2754 2489
2260 2989 2951
2371 3215 3331
2465 3411 3623
2528 3557 3821
2140 2798 741
2111 2827 1143
2120 2891 1606
2164 2990 2103
2239 3125 2604
2341 3287 3037
2442 3442 3391
2530 3577 3662
2594 3680 3849
2275 3234 891
2255 3254 1299
2266 3296 1758
2303 3359 2239
2365 3442 2715
2448 3540 3116
2533 3632 3442
2610 3714 3693
2672 3779 3868
2415 3574 1024
2412 3590 1437
2428 3617 1892
2461 3652 2360
2510 3695 2813
2574 3741 3185
2639 3784 3485
2702 3823 3716
2758 3856 3878
2545 3801 1127
2560 3816 1544
2586 3834 1996
2621 3852 2455
2663 3870 2891
2710 3884 3242
2758 3895 3522
2803 3905 3733
2845 3913 3880
3055 827 350
3017 870 677
3012 990 1092
3033 1188 1572
3069 1468 2093
3093 1832 2591
3096 2212 3027
3082 2588 3390
3055 2940 3670
2786 996 312
2740 1036 671
2730 1151 1112
2755 1350 1613
2812 1637 2149
2884 2019 2654
2941 2408 3089
2976 2774 3443
2981 3088 3704
2604 1310 318
2549 1344 697
2536 1447 1154
2565 1629 1666
2634 1899 2209
2737 2264 2717
2829 2633 3150
2899 2971 3497
2930 3246 3744
2507 1737 371
2443 1761 759
2426 1845 1221
2456 1999 1735
2531 2231 2278
2646 2550 2782
2758 2874 3210
2849 3170 3549
2901 3405 3785
2496 2244 474
2421 2253 860
2399 2313 1318
2424 2430 1827
2496 2611 2360
2611 2863 2852
2727 3123 3268
2827 3362 3597
2893 3554 3824
2571 2759 630
2499 2759 1011
2472 2797 1461
2487 2877 1955
2544 3001 2468
2642 3176 2933
2745 3358 3326
2839 3531 3637
2910 3676 3856
2662 3207 789
2605 3207 1174
2582 3231 1621
2590 3280 2101
2630 3355 2589
2706 3461 3021
2790 3572 3386
2873 3680 3675
2943 3777 3880
2751 3566 936
2720 3571 1334
2708 3588 1782
2715 3616 2253
2743 3654 2718
2797 3704 3118
2861 3756 3451
2927 3808 3712
2988 3858 3897
2820 3812 1057
2820 3826 1473
2829 3842 1930
2846 3861 2400
2873 3879 2852
2912 3892 3224
2957 3904 3523
3002 3913 3751
3045 3921 3907
3482 927 441
3440 960 747
3429 1067 1140
3442 1249 1597
3471 1511 2097
3490 1857 2583
3491 2225 3016
3476 2597 3385
3449 2955 3677
3240 1063 376
3174 1084 716
3154 1181 1137
3173 1361 1617
3227 1632 2135
3295 2004 2634
3349 2392 3072
3379 2767 3436
3381 3099 3712
3074 1345 359
2994 1356 716
2966 1437 1151
2986 1596 1643
3050 1846 2171
3146 2204 2678
3233 2581 3121
3298 2942 3485
3327 3253 3753
2985 1744 392
2895 1745 751
2859 1803 1188
2874 1931 1681
2935 2139 2211
3040 2451 2720
3144 2788 3167
3232 3118 3532
3287 3408 3797
2970 2231 479
2872 2218 826
2826 2251 1253
2829 2339 1738
2879 2492 2260
2978 2737 2764
3086 3012 3208
3185 3293 3574
3262 3556 3841
3025 2741 622
2929 2721 955
2875 2734 1368
2864 2787 1838
2896 2887 2340
2977 3055 2825
3072 3252 3255
3169 3464 3612
3256 3680 3879
3086 3195 770
3006 3178 1106
2955 3182 1513
2935 3211 1969
2950 3268 2450
3010 3369 2909
3088 3491 3316
3175 3631 3654
3262 3783 3910
3137 3566 912
3085 3561 1267
3048 3566 1681
3030 3584 2132
3035 3613 2595
3077 3660 3024
3136 3718 3398
3205 3787 3705
3278 3867 3932
3162 3830 1033
3148 3842 1426
3139 3859 1865
3137 3879 2325
3146 3898 2780
3176 3911 3177
3217 3919 3510
3261 3926 3769
3304 3932 3946
3749 1000 532
3722 1043 824
3717 1148 1199
3728 1318 1635
3751 1559 2112
3765 1880 2582
3767 2229 3007
3758 2590 3375
3741 2950 3676
3577 1122 472
3521 1145 788
3505 1236 1185
3521 1404 1642
3564 1654 2140
3619 2003 2626
3661 2377 3060
3687 2750 3428
3690 3096 3716
3460 1384 456
3388 1391 778
3361 1461 1183
3374 1604 1649
3424 1830 2157
3499 2165 2656
3568 2534 3102
3620 2905 3477
3647 3251 3763
3399 1761 488
3316 1754 800
3279 1796 1198
3283 1901 1662
3327 2081 2171
3406 2371 2677
3488 2705 3134
3561 3060 3520
3613 3409 3815
3393 2228 568
3301 2204 856
3251 2217 1236
3241 2279 1688
3270 2401 2188
3342 2623 2695
3426 2900 3159
3512 3217 3557
3588 3560 3867
3435 2730 696
3341 2697 962
3281 2691 1322
3257 2720 1754
3268 2792 2236
3324 2942 2732
3399 3143 3191
3485 3392 3592
3575 3686 3913
3473 3184 827
3391 3155 1093
3332 3144 1444
3299 3155 1861
3296 3193 2325
3337 3282 2802
3399 3409 3247
3478 3579 3637
3569 3793 3950
3497 3564 955
3440 3551 1245
3393 3549 1606
3362 3558 2020
3353 3579 2469
3381 3620 2922
3429 3680 3339
3492 3765 3698
3567 3879 3976
3496 3844 1070
3475 3857 1416
3454 3878 1812
3439 3902 2240
3436 3924 2682
3457 3935 3106
3490 3939 3480
3529 3942 3783
3568 3946 3990
3889 1050 610
3886 1112 894
3892 1222 1256
3904 1384 1675
3920 1603 2132
3930 1898 2586
3933 2224 2999
3932 2571 3362
3930 2928 3665
3805 1172 583
3782 1216 874
3780 1313 1247
3795 1472 1683
3824 1699 2159
3857 2016 2630
3882 2365 3055
3898 2726 3421
3903 3080 3713
3752 1423 593
3717 1446 873
3707 1517 1242
3720 1648 1680
3751 1847 2164
3794 2147 2650
3834 2494 3092
3865 2866 3472
3882 3243 3772
3730 1782 642
3687 1782 895
3669 1820 1246
3674 1908 1674
3699 2057 2156
3743 2312 2653
3789 2632 3113
3833 3002 3515
3867 3408 3836
3738 2229 726
3688 2206 941
3660 2209 1264
3653 2250 1673
3667 2341 2146
3705 2531 2648
3752 2799 3124
3804 3144 3550
3856 3566 3902
3769 2717 840
3715 2681 1024
3678 2665 1320
3660 2676 1707
3662 2723 2164
3690 2849 2662
3732 3046 3144
3786 3324 3584
3849 3696 3957
3793 3167 953
3743 3134 1132
3704 3115 1416
3679 3114 1787
3672 3136 2227
3691 3210 2715
3727 3337 3192
3777 3530 3629
3841 3805 3999
3804 3555 1063
3765 3538 1273
3732 3533 1565
3708 3539 1930
3698 3555 2357
3711 3590 2829
3739 3650 3286
3779 3747 3696
3831 3894 4027
3795 3853 1168
3776 3867 1450
3758 3894 1781
3744 3925 2157
3739 3952 2575
3750 3962 3024
3769 3963 3444
3793 3961 3796
3817 3963 4039
3934 1076 658
3954 1160 943
3971 1278 1298
3984 1434 1707
3993 1634 2150
3997 1905 2589
4001 2211 2992
4006 2543 3347
4015 2891 3645
3934 1211 693
3957 1292 964
3978 1406 1317
3994 1561 1732
4006 1762 2188
4010 2039 2642
4013 2356 3056
4014 2698 3414
4015 3052 3704
3941 1458 755
3969 1517 992
3994 1603 1324
4013 1726 1730
4026 1895 2189
4029 2151 2658
4030 2465 3092
4028 2828 3472
4024 3229 3779
3956 1801 838
3988 1827 1027
4015 1873 1326
4035 1950 1714
4048 2068 2167
4050 2281 2650
4049 2575 3108
4043 2951 3520
4036 3408 3862
3977 2225 939
4011 2217 1071
4037 2222 1331
4057 2251 1694
4068 2315 2137
4069 2471 2630
4066 2721 3111
4059 3083 3558
4050 3575 3946
4000 2696 1042
4030 2669 1133
4053 2653 1361
4069 2656 1702
4078 2686 2132
4079 2787 2627
4075 2973 3121
4068 3271 3591
4057 3708 4010
4019 3140 1139
4041 3111 1223
4059 3093 1434
4072 3090 1756
4080 3104 2171
4080 3164 2663
4076 3285 3161
4068 3495 3636
4057 3820 4056
4030 3533 1234
4042 3519 1352
4053 3518 1568
4064 3528 1877
4071 3544 2277
4071 3574 2762
4067 3632 3251
4059 3738 3705
4048 3911 4084
4031 3854 1333
4030 3869 1535
4034 3902 1782
4042 3942 2089
4050 3978 2473
4051 3989 2945
4045 3988 3411
4038 3982 3813
4031 3983 4095
