Assets/1__3DArt/KimSe/artstation_asset/LUTs_pasterls/3DL/Cotton Candy 02.3dl
# Enhanced with VOXCOLOR algorithms
0 64 128 192 256 320 384 448 512 576 640 704 768 832 896 960 1023
674 626 514
705 670 628
736 714 742
770 762 874
810 821 1041
850 879 1208
893 942 1393
936 1007 1587
980 1071 1780
1021 1135 1971
1062 1198 2162
1101 1258 2344
1136 1311 2506
1171 1364 2668
1200 1406 2800
1226 1442 2918
1253 1477 3035
710 772 546
733 821 658
755 871 770
782 924 901
814 986 1068
847 1048 1235
884 1112 1420
923 1178 1614
963 1244 1809
1002 1307 1999
1042 1369 2189
1080 1429 2369
1115 1480 2529
1150 1532 2689
1181 1573 2821
1209 1608 2939
1237 1643 3057
745 917 578
760 973 688
775 1028 798
793 1087 927
819 1151 1094
844 1216 1261
876 1282 1447
910 1349 1642
945 1416 1837
984 1479 2026
1022 1541 2216
1059 1599 2395
1095 1650 2553
1130 1700 2711
1162 1740 2843
1191 1774 2960
1221 1808 3078
786 1083 613
793 1143 721
800 1203 828
810 1266 956
828 1333 1124
845 1400 1291
871 1468 1478
901 1535 1674
931 1603 1871
966 1664 2060
1002 1725 2250
1038 1782 2429
1073 1830 2585
1108 1878 2742
1141 1916 2872
1172 1948 2989
1203 1981 3106
838 1289 653
837 1352 759
835 1415 864
837 1480 991
846 1549 1160
855 1617 1329
874 1684 1518
897 1751 1718
921 1818 1917
953 1876 2108
985 1934 2299
1017 1987 2479
1051 2031 2634
1085 2075 2790
1117 2109 2918
1148 2137 3032
1179 2166 3147
891 1495 694
881 1561 797
870 1627 900
864 1694 1026
865 1764 1196
866 1834 1367
877 1901 1559
894 1967 1761
911 2032 1963
939 2087 2156
967 2142 2348
996 2192 2528
1029 2232 2683
1061 2272 2838
1093 2302 2964
1124 2326 3076
1156 2351 3187
947 1715 735
929 1780 836
911 1845 936
897 1912 1060
890 1980 1232
883 2049 1403
887 2115 1597
898 2178 1801
908 2242 2006
931 2293 2200
955 2344 2395
980 2390 2576
1010 2425 2731
1040 2460 2885
1070 2486 3010
1101 2507 3120
1132 2527 3229
1005 1941 778
979 2004 875
954 2067 973
932 2131 1095
918 2198 1267
904 2264 1438
901 2327 1633
905 2387 1840
909 2448 2047
928 2495 2243
946 2542 2440
967 2583 2622
994 2614 2777
1020 2644 2932
1048 2666 3055
1077 2682 3164
1106 2699 3272
1063 2167 820
1030 2227 915
997 2288 1009
968 2350 1129
946 2415 1301
924 2480 1474
915 2540 1670
913 2597 1879
910 2654 2088
924 2697 2286
937 2740 2485
954 2777 2668
977 2803 2823
1000 2829 2978
1026 2846 3101
1054 2858 3208
1081 2870 3314
1116 2369 857
1078 2425 948
1040 2481 1039
1005 2539 1157
978 2600 1327
951 2661 1498
936 2717 1694
929 2770 1903
921 2824 2112
930 2863 2312
939 2902 2511
952 2936 2696
971 2958 2853
991 2980 3009
1014 2994 3132
1038 3004 3240
1062 3013 3347
1170 2571 893
1126 2622 981
1083 2674 1070
1043 2727 1185
1010 2784 1353
977 2841 1522
958 2894 1718
945 2944 1927
932 2994 2136
936 3029 2337
941 3065 2538
950 3095 2724
966 3113 2882
981 3132 3039
1001 3143 3164
1022 3149 3272
1044 3156 3380
1220 2755 926
1172 2802 1011
1124 2849 1096
1080 2898 1208
1042 2952 1375
1004 3005 1541
979 3054 1736
962 3101 1945
944 3147 2154
945 3179 2355
946 3211 2557
951 3238 2745
963 3254 2904
976 3269 3063
992 3278 3189
1010 3282 3298
1028 3287 3408
1264 2904 951
1213 2947 1033
1162 2990 1116
1115 3035 1225
1073 3085 1388
1031 3135 1551
1003 3181 1743
981 3224 1950
960 3268 2158
958 3297 2360
956 3326 2562
958 3351 2751
968 3365 2912
977 3379 3073
991 3386 3202
1005 3389 3314
1020 3393 3426
1307 3053 977
1254 3092 1056
1201 3131 1135
1150 3172 1241
1104 3218 1400
1058 3265 1560
1026 3307 1750
1001 3347 1956
976 3388 2162
971 3415 2364
966 3442 2567
965 3464 2757
972 3476 2920
979 3488 3083
989 3494 3214
1001 3496 3329
1012 3499 3444
1345 3162 996
1289 3198 1072
1234 3234 1147
1181 3272 1250
1131 3315 1405
1081 3358 1561
1046 3397 1749
1018 3435 1953
990 3472 2156
983 3497 2360
976 3521 2563
973 3541 2754
978 3552 2919
984 3563 3084
992 3567 3217
1001 3568 3334
1010 3570 3451
1379 3251 1012
1322 3285 1084
1265 3318 1156
1209 3354 1255
1156 3394 1406
1103 3433 1558
1065 3470 1743
1034 3504 1945
1003 3538 2147
995 3561 2351
986 3583 2555
981 3601 2747
986 3611 2914
990 3620 3081
996 3623 3216
1004 3623 3334
1011 3624 3452
1413 3340 1028
1355 3372 1096
1296 3403 1165
1238 3436 1260
1182 3472 1407
1125 3509 1555
1084 3542 1737
1050 3573 1937
1017 3604 2137
1006 3625 2342
996 3645 2547
990 3661 2740
993 3669 2909
997 3678 3078
1001 3680 3214
1006 3679 3333
1012 3677 3453
891 661 547
917 698 658
942 734 769
971 776 898
1005 828 1063
1040 880 1228
1077 939 1413
1115 1001 1608
1153 1063 1802
1189 1128 1997
1225 1194 2191
1259 1257 2376
1289 1315 2542
1319 1374 2708
1344 1421 2843
1366 1464 2963
1387 1506 3084
908 797 571
931 841 681
955 885 791
980 933 920
1008 989 1085
1036 1045 1251
1066 1107 1436
1099 1171 1632
1131 1235 1828
1164 1299 2021
1198 1364 2214
1230 1426 2398
1260 1482 2561
1290 1538 2724
1316 1584 2858
1340 1624 2978
1363 1665 3097
924 933 594
946 984 704
968 1036 813
990 1090 942
1011 1150 1108
1032 1211 1274
1056 1275 1460
1083 1340 1656
1109 1406 1853
1140 1470 2045
1171 1534 2238
1201 1595 2419
1231 1649 2580
1261 1703 2741
1288 1747 2874
1314 1785 2992
1339 1823 3110
947 1089 622
965 1146 730
983 1204 839
1000 1264 966
1014 1327 1134
1028 1391 1301
1046 1457 1488
1067 1524 1686
1088 1590 1883
1115 1653 2076
1143 1716 2268
1172 1774 2449
1202 1825 2607
1232 1877 2766
1259 1917 2897
1286 1953 3014
1312 1988 3131
983 1286 657
992 1347 764
1001 1408 870
1010 1470 998
1017 1536 1166
1023 1602 1335
1036 1668 1525
1051 1735 1725
1067 1801 1926
1091 1860 2119
1116 1920 2312
1142 1975 2493
1171 2021 2651
1200 2068 2808
1228 2104 2937
1255 2135 3051
1282 2167 3165
1018 1484 692
1018 1548 797
1019 1612 902
1020 1677 1029
1019 1745 1199
1019 1813 1370
1026 1880 1562
1036 1946 1765
1046 2011 1968
1067 2068 2162
1088 2124 2356
1112 2176 2538
1140 2218 2694
1168 2260 2850
1196 2291 2976
1224 2318 3088
1252 2345 3199
1059 1696 730
1051 1760 833
1042 1824 935
1035 1889 1061
1027 1957 1232
1020 2025 1404
1021 2090 1598
1026 2154 1803
1031 2217 2008
1048 2270 2203
1066 2323 2399
1087 2370 2581
1113 2407 2737
1139 2444 2893
1166 2471 3017
1193 2494 3127
1221 2516 3237
1103 1916 770
1085 1978 870
1068 2040 969
1052 2104 1093
1038 2170 1265
1024 2237 1437
1019 2299 1633
1019 2360 1839
1018 2422 2046
1032 2470 2244
1046 2518 2441
1064 2561 2624
1087 2593 2780
1111 2625 2935
1136 2648 3059
1162 2665 3167
1189 2683 3275
1146 2135 809
1120 2196 907
1094 2256 1004
1070 2318 1126
1049 2383 1298
1028 2448 1471
1017 2509 1667
1012 2567 1876
1006 2626 2085
1016 2670 2284
1027 2714 2483
1040 2752 2667
1061 2779 2823
1082 2807 2978
1106 2824 3101
1131 2837 3207
1156 2850 3314
1189 2335 846
1157 2391 940
1124 2448 1034
1094 2506 1153
1068 2567 1324
1041 2629 1494
1025 2686 1690
1015 2741 1899
1005 2796 2108
1012 2836 2308
1018 2876 2508
1029 2911 2693
1046 2935 2850
1064 2958 3007
1085 2972 3131
1108 2982 3238
1130 2992 3345
1232 2535 882
1193 2587 973
1155 2639 1063
1118 2694 1180
1086 2752 1349
1054 2810 1518
1033 2863 1713
1019 2915 1922
1004 2966 2131
1007 3002 2332
1010 3039 2533
1017 3070 2720
1031 3090 2878
1046 3109 3036
1064 3121 3161
1084 3127 3269
1104 3134 3377
1272 2718 915
1228 2766 1002
1185 2815 1090
1143 2865 1204
1106 2920 1370
1069 2974 1537
1044 3024 1731
1025 3072 1940
1006 3120 2148
1005 3153 2350
1005 3187 2552
1008 3214 2740
1020 3231 2899
1032 3248 3059
1047 3256 3185
1064 3260 3295
1081 3265 3404
1308 2869 941
1261 2914 1025
1214 2958 1110
1169 3005 1220
1128 3056 1383
1087 3107 1546
1058 3154 1738
1035 3198 1945
1013 3243 2152
1010 3274 2354
1006 3304 2557
1007 3330 2746
1016 3345 2907
1026 3359 3069
1038 3366 3198
1052 3370 3310
1066 3373 3422
1344 3020 968
1294 3061 1049
1244 3101 1129
1195 3144 1236
1150 3192 1396
1104 3239 1555
1072 3283 1745
1046 3324 1950
1020 3366 2156
1014 3394 2359
1008 3422 2562
1006 3445 2752
1013 3458 2915
1019 3471 3079
1029 3477 3210
1040 3479 3325
1051 3482 3440
1374 3134 988
1322 3172 1065
1270 3209 1142
1219 3249 1245
1171 3293 1401
1122 3337 1556
1086 3378 1744
1057 3416 1947
1028 3455 2150
1020 3481 2354
1012 3506 2557
1008 3527 2748
1013 3539 2914
1018 3550 3080
1026 3555 3213
1034 3557 3331
1043 3558 3448
1403 3229 1004
1349 3264 1078
1296 3299 1151
1243 3336 1251
1191 3377 1402
1139 3418 1553
1100 3456 1737
1069 3491 1939
1037 3527 2140
1027 3550 2344
1017 3574 2548
1012 3593 2740
1015 3603 2908
1019 3614 3076
1025 3617 3211
1032 3618 3331
1039 3619 3450
1432 3324 1021
1376 3357 1091
1321 3390 1161
1266 3424 1256
1211 3462 1403
1156 3500 1550
1114 3534 1731
1080 3566 1931
1046 3599 2130
1034 3620 2334
1022 3642 2539
1015 3659 2732
1018 3668 2902
1020 3677 3072
1024 3680 3209
1030 3679 3331
1035 3679 3452
1108 696 580
1128 726 687
1149 755 795
1172 790 921
1200 835 1084
1229 880 1247
1260 935 1432
1293 995 1628
1325 1055 1824
1357 1122 2022
1388 1189 2220
1417 1255 2409
1442 1319 2578
1468 1383 2748
1488 1437 2886
1505 1486 3009
1522 1535 3133
1106 822 595
1130 861 703
1155 899 812
1179 941 939
1202 992 1103
1224 1043 1267
1249 1101 1453
1274 1163 1650
1299 1225 1847
1326 1292 2043
1353 1358 2240
1380 1423 2426
1405 1483 2593
1430 1544 2759
1451 1595 2895
1470 1641 3017
1489 1687 3138
1104 948 611
1133 996 720
1162 1043 828
1187 1093 956
1203 1149 1121
1220 1205 1287
1237 1267 1474
1255 1331 1671
1273 1395 1869
1296 1461 2064
1319 1527 2259
1343 1590 2444
1368 1648 2607
1393 1705 2771
1415 1753 2905
1436 1795 3024
1457 1838 3143
1108 1095 631
1137 1150 740
1166 1204 849
1189 1261 977
1200 1322 1144
1210 1382 1310
1222 1446 1498
1233 1512 1697
1245 1578 1896
1264 1642 2091
1284 1706 2285
1305 1767 2469
1330 1821 2630
1355 1875 2790
1378 1919 2922
1400 1957 3039
1422 1996 3156
1127 1284 661
1147 1342 768
1167 1400 876
1182 1461 1004
1187 1524 1173
1191 1588 1342
1198 1653 1532
1205 1718 1733
1213 1784 1934
1230 1845 2130
1247 1906 2325
1267 1963 2508
1291 2012 2667
1315 2061 2826
1339 2100 2955
1362 2134 3069
1385 2167 3183
1145 1472 690
1156 1534 797
1168 1596 904
1175 1660 1032
1174 1726 1202
1173 1793 1373
1174 1859 1566
1177 1925 1769
1181 1990 1973
1195 2048 2169
1210 2106 2364
1228 2159 2547
1251 2203 2705
1275 2247 2862
1299 2281 2989
1324 2310 3100
1348 2339 3211
1171 1677 725
1172 1740 829
1174 1802 934
1173 1866 1061
1165 1933 1233
1158 2000 1405
1155 2065 1599
1154 2129 1804
1153 2193 2010
1165 2247 2206
1177 2301 2403
1193 2350 2587
1215 2389 2743
1238 2428 2900
1261 2457 3025
1286 2481 3135
1310 2505 3244
1200 1890 762
1192 1952 864
1183 2013 966
1173 2076 1092
1159 2143 1264
1145 2209 1436
1137 2272 1632
1132 2333 1839
1128 2395 2046
1137 2445 2244
1147 2495 2442
1160 2539 2626
1180 2573 2783
1201 2606 2939
1224 2630 3063
1247 2649 3171
1271 2667 3279
1230 2104 799
1211 2164 899
1192 2224 999
1172 2286 1123
1152 2352 1295
1132 2417 1468
1120 2478 1665
1111 2538 1873
1102 2597 2082
1109 2642 2281
1116 2688 2481
1127 2728 2665
1146 2756 2822
1164 2784 2978
1186 2803 3101
1209 2817 3207
1232 2830 3314
1262 2301 835
1236 2358 931
1209 2415 1028
1183 2473 1149
1157 2535 1320
1131 2598 1491
1114 2655 1687
1102 2711 1896
1089 2767 2104
1093 2809 2305
1097 2851 2505
1105 2886 2691
1121 2911 2848
1138 2936 3006
1157 2951 3130
1177 2961 3237
1198 2971 3344
1294 2498 870
1260 2552 964
1227 2605 1057
1194 2660 1176
1162 2719 1345
1131 2778 1514
1109 2833 1709
1093 2885 1918
1077 2938 2126
1078 2975 2328
1078 3013 2529
1084 3045 2716
1097 3066 2875
1111 3087 3033
1127 3098 3158
1146 3105 3266
1164 3112 3374
1324 2681 904
1285 2731 993
1245 2780 1083
1206 2832 1199
1170 2888 1365
1133 2943 1532
1108 2995 1726
1088 3044 1934
1068 3093 2143
1066 3127 2345
1064 3162 2547
1066 3191 2735
1077 3208 2895
1088 3226 3055
1102 3234 3181
1118 3239 3291
1134 3243 3400
1352 2835 931
1309 2880 1017
1266 2926 1104
1224 2974 1215
1183 3026 1378
1142 3078 1541
1113 3127 1733
1090 3173 1940
1066 3219 2146
1062 3250 2349
1057 3282 2552
1057 3309 2741
1065 3324 2903
1074 3340 3065
1086 3347 3194
1099 3350 3306
1112 3354 3419
1380 2988 959
1333 3030 1041
1287 3072 1124
1241 3116 1232
1196 3165 1391
1151 3214 1550
1118 3258 1740
1092 3301 1945
1065 3344 2150
1058 3373 2353
1050 3403 2556
1048 3427 2746
1054 3440 2911
1060 3454 3075
1069 3460 3207
1079 3462 3322
1090 3465 3437
1404 3107 979
1356 3146 1058
1307 3184 1137
1258 3225 1241
1210 3271 1396
1162 3316 1551
1126 3358 1738
1097 3398 1941
1067 3438 2144
1058 3465 2348
1048 3492 2551
1044 3514 2742
1048 3526 2909
1052 3538 3075
1059 3543 3209
1068 3545 3327
1077 3546 3445
1427 3208 996
1377 3244 1072
1326 3280 1147
1276 3319 1247
1225 3361 1397
1174 3403 1548
1135 3442 1732
1103 3479 1932
1071 3516 2133
1060 3540 2337
1049 3565 2541
1042 3585 2734
1045 3596 2902
1048 3607 3071
1053 3611 3207
1060 3613 3328
1067 3614 3448
1450 3309 1013
1398 3343 1085
1346 3376 1156
1294 3412 1252
1240 3451 1399
1186 3490 1545
1144 3526 1725
1110 3560 1924
1075 3593 2122
1062 3616 2327
1049 3638 2531
1041 3656 2725
1042 3666 2895
1044 3676 3066
1048 3680 3205
1053 3680 3328
1058 3681 3451
1337 733 613
1353 756 717
1369 779 822
1388 807 945
1411 845 1105
1435 884 1266
1461 934 1451
1488 990 1648
1515 1046 1845
1541 1114 2047
1566 1181 2248
1590 1249 2440
1611 1316 2613
1631 1383 2787
1646 1443 2929
1659 1498 3055
1672 1554 3181
1319 850 621
1344 883 727
1368 916 833
1391 953 958
1409 998 1120
1427 1043 1283
1446 1097 1469
1465 1156 1667
1484 1215 1865
1505 1282 2065
1526 1349 2265
1547 1415 2455
1567 1479 2624
1587 1543 2794
1604 1599 2933
1618 1650 3056
