Assets/1__3DArt/KimSe/artstation_asset/LUTs_pasterls/3DL/Cotton Candy 02 S.3dl
# Enhanced with VOXCOLOR algorithms
0 128 256 384 512 640 768 896 1023
674 626 514
736 714 742
810 821 1041
893 942 1393
980 1071 1780
1062 1198 2162
1136 1311 2506
1200 1406 2800
1253 1477 3035
745 917 578
775 1028 798
819 1151 1094
876 1282 1447
945 1416 1837
1022 1541 2216
1095 1650 2553
1162 1740 2843
1221 1808 3078
838 1289 653
835 1415 864
846 1549 1160
874 1684 1518
920 1818 1917
984 1933 2299
1051 2031 2634
1117 2108 2918
1179 2166 3147
946 1715 735
910 1845 936
889 1980 1231
887 2114 1596
907 2241 2006
954 2343 2395
1009 2424 2731
1070 2486 3010
1132 2527 3229
1060 2167 818
995 2288 1008
945 2415 1301
914 2539 1670
909 2654 2088
936 2739 2484
976 2802 2823
1025 2845 3101
1081 2870 3314
1163 2573 888
1078 2675 1066
1007 2784 1352
955 2894 1717
929 2993 2136
938 3064 2537
962 3113 2882
999 3142 3164
1044 3156 3380
1252 2907 942
1155 2991 1110
1067 3085 1385
998 3180 1742
955 3267 2157
951 3326 2562
963 3364 2912
988 3385 3202
1020 3393 3426
1333 3165 988
1227 3235 1142
1126 3316 1403
1042 3397 1747
986 3472 2156
971 3521 2563
974 3552 2919
989 3567 3218
1010 3570 3451
1413 3340 1028
1296 3403 1165
1182 3472 1407
1084 3542 1737
1017 3604 2137
996 3645 2547
993 3669 2909
1001 3680 3214
1012 3677 3453
1108 696 580
1146 751 794
1197 829 1084
1257 930 1432
1323 1051 1825
1386 1187 2220
1442 1318 2578
1488 1437 2886
1522 1535 3133
1095 944 596
1141 1029 818
1178 1129 1115
1213 1245 1472
1255 1377 1869
1309 1515 2260
1363 1642 2608
1414 1751 2905
1457 1838 3143
1113 1279 635
1138 1382 857
1151 1497 1162
1164 1622 1528
1187 1756 1934
1232 1888 2325
1284 2002 2667
1337 2097 2955
1385 2167 3183
1156 1675 693
1144 1785 911
1129 1906 1218
1120 2033 1592
1127 2163 2008
1162 2281 2402
1208 2378 2743
1259 2453 3025
1310 2504 3244
1216 2103 767
1167 2212 974
1123 2330 1279
1092 2451 1656
1081 2570 2078
1104 2669 2478
1140 2746 2821
1184 2800 3101
1232 2830 3314
1281 2501 845
1209 2599 1037
1143 2706 1331
1092 2816 1701
1063 2920 2122
1070 3001 2527
1093 3059 2874
1126 3096 3158
1164 3112 3374
1341 2838 912
1254 2925 1089
1171 3021 1368
1103 3119 1727
1059 3210 2143
1052 3276 2549
1062 3321 2902
1084 3346 3194
1112 3354 3419
1396 3110 968
1300 3186 1129
1205 3271 1391
1122 3357 1735
1063 3436 2142
1045 3490 2550
1045 3525 2909
1058 3543 3210
1077 3546 3446
1450 3309 1013
1346 3376 1156
1240 3451 1399
1144 3526 1725
1075 3593 2122
1049 3638 2531
1042 3666 2895
1048 3680 3205
1058 3681 3451
1592 771 648
1610 793 847
1641 841 1125
1681 917 1469
1728 1022 1865
1773 1157 2275
1808 1295 2647
1835 1428 2970
1850 1550 3227
1514 978 609
1550 1029 832
1574 1101 1134
1595 1198 1496
1623 1323 1902
1663 1470 2306
1704 1613 2667
1741 1743 2975
1767 1850 3219
1470 1278 603
1493 1349 841
1501 1439 1158
1507 1549 1536
1522 1681 1954
1558 1828 2356
1601 1964 2710
1643 2081 3007
1678 2170 3239
1456 1646 631
1449 1729 871
1436 1829 1197
1427 1944 1585
1431 2074 2012
1461 2209 2417
1502 2329 2767
1545 2426 3057
1583 2493 3280
1468 2053 693
1429 2142 923
1392 2245 1246
1365 2358 1637
1355 2479 2069
1375 2594 2478
1408 2690 2829
1446 2763 3116
1482 2806 3333
1496 2440 781
1436 2529 992
1380 2628 1300
1334 2734 1680
1306 2842 2109
1311 2935 2520
1330 3008 2875
1358 3058 3165
1387 3082 3386
1522 2777 865
1449 2861 1055
1377 2956 1344
1314 3054 1710
1270 3150 2130
1260 3225 2543
1266 3279 2901
1283 3313 3199
1306 3326 3428
1545 3056 938
1464 3134 1109
1380 3221 1377
1302 3312 1724
1243 3397 2133
1221 3459 2545
1217 3500 2909
1226 3524 3215
1241 3531 3454
1564 3269 994
1477 3339 1146
1383 3420 1393
1294 3502 1722
1224 3579 2118
1193 3632 2529
1183 3666 2897
1186 3685 3211
1197 3690 3462
2075 842 712
2078 835 895
2095 855 1161
2121 905 1499
2155 991 1897
2184 1115 2318
2203 1251 2706
2211 1389 3044
2209 1525 3315
1956 1011 619
1970 1028 843
1982 1073 1148
1997 1149 1516
2020 1262 1931
2055 1414 2347
2087 1568 2723
2111 1713 3044
2123 1840 3300
1870 1282 568
1878 1319 820
1881 1382 1151
1886 1475 1542
1902 1601 1971
1936 1759 2387
1974 1914 2755
2007 2053 3065
2029 2164 3307
1816 1625 564
1807 1680 827
1796 1756 1171
1792 1856 1576
1799 1983 2015
1828 2133 2433
1865 2274 2797
1900 2396 3099
1926 2486 3332
1791 2014 611
1761 2083 866
1735 2168 1209
1717 2269 1616
1712 2387 2060
1730 2516 2481
1759 2633 2845
1790 2729 3143
1815 2793 3370
1788 2391 709
1744 2469 939
1701 2558 1263
1666 2657 1657
1643 2764 2096
1646 2868 2518
1660 2956 2883
1681 3024 3185
1700 3066 3414
1784 2725 808
1730 2805 1014
1674 2896 1315
1622 2994 1691
1583 3092 2120
1569 3175 2540
1570 3240 2909
1581 3286 3216
1595 3311 3452
1775 3005 898
1714 3084 1082
1646 3174 1360
1580 3270 1715
1526 3362 2130
1500 3431 2549
1491 3480 2920
1494 3511 3234
1505 3525 3480
1757 3226 967
1690 3297 1133
1613 3384 1389
1536 3475 1724
1470 3564 2125
1437 3628 2541
1424 3671 2916
1425 3695 3236
1436 3704 3491
2505 902 768
2500 871 934
2511 868 1188
2532 897 1519
2560 962 1915
2581 1070 2345
2590 1194 2747
2588 1327 3104
2574 1466 3394
2376 1039 627
2373 1027 851
2378 1047 1157
2393 1104 1529
2420 1204 1948
2452 1351 2376
2478 1508 2767
2494 1661 3106
2496 1801 3380
2277 1285 539
2272 1294 801
2273 1334 1143
2283 1408 1544
2305 1523 1983
2340 1685 2412
2373 1851 2795
2399 2008 3122
2410 2140 3380
2207 1609 508
2197 1642 788
2193 1697 1148
2197 1780 1566
2211 1896 2017
2240 2052 2449
2272 2211 2829
2299 2356 3147
2314 2472 3394
2162 1984 540
2146 2038 814
2134 2105 1173
2129 2192 1595
2131 2301 2052
2149 2437 2486
2172 2571 2866
2194 2691 3181
2208 2785 3421
2138 2354 640
2115 2423 885
2093 2502 1225
2075 2592 1632
2061 2693 2083
2062 2802 2518
2070 2904 2899
2081 2992 3216
2090 3060 3458
2112 2682 749
2083 2761 967
2050 2849 1282
2018 2944 1671
1989 3042 2110
1973 3129 2543
1968 3204 2926
1970 3265 3247
1975 3309 3494
2079 2962 852
2043 3042 1047
1999 3135 1338
1954 3236 1705
1911 3333 2130
1883 3409 2560
1868 3466 2944
1865 3506 3270
1870 3531 3524
2033 3185 934
1988 3256 1113
1934 3349 1383
1876 3452 1731
1823 3555 2142
1790 3632 2569
1774 3683 2954
1772 3713 3283
1782 3726 3542
2792 939 804
2792 901 959
2807 889 1202
2832 905 1523
2864 952 1912
2888 1037 2343
2898 1138 2755
2896 1254 3128
2885 1380 3442
2697 1058 654
2699 1035 868
2712 1043 1166
2734 1086 1531
2765 1169 1948
2795 1298 2381
2816 1441 2784
2826 1587 3140
2823 1726 3434
2622 1287 555
2630 1286 808
2643 1312 1145
2664 1372 1543
2690 1470 1982
2720 1618 2419
2744 1778 2817
2758 1937 3161
2759 2082 3439
2565 1597 513
2578 1622 785
2594 1665 1141
2612 1733 1559
2633 1833 2014
2657 1978 2456
2677 2135 2853
2689 2291 3190
2689 2434 3456
2523 1961 532
2542 2011 798
2559 2070 1157
2574 2143 1581
2587 2236 2043
2599 2361 2491
2610 2498 2889
2615 2637 3224
2611 2769 3483
2493 2325 616
2512 2397 857
2526 2473 1198
2535 2554 1611
2538 2642 2070
2536 2742 2520
2534 2847 2921
2529 2954 3259
2519 3060 3520
2461 2653 711
2475 2738 929
2483 2829 1249
2483 2922 1647
2476 3013 2097
2462 3095 2547
2447 3172 2950
2434 3247 3292
2422 3320 3559
2423 2934 805
2424 3021 1004
2421 3123 1305
2412 3229 1686
2395 3330 2125
2371 3405 2573
2349 3463 2977
2333 3510 3322
2325 3552 3593
2373 3160 887
2354 3234 1076
2335 3338 1360
2314 3457 1726
2288 3574 2155
2261 3656 2600
2240 3710 3003
2228 3741 3348
2231 3757 3618
2986 963 829
2995 932 979
3017 919 1212
3049 925 1523
3085 953 1902
3111 1014 2331
3126 1091 2748
3130 1184 3131
3125 1291 3460
2935 1074 701
2955 1055 897
2982 1060 1179
3014 1092 1532
3048 1156 1941
3074 1260 2375
3089 1380 2785
3094 1509 3153
3087 1639 3463
2892 1289 614
2929 1291 842
2966 1313 1159
3002 1361 1544
3034 1440 1977
3055 1564 2419
3066 1706 2827
3065 1858 3186
3051 2008 3480
2856 1584 572
2913 1612 815
2962 1652 1152
3003 1709 1559
3033 1790 2009
3047 1913 2459
3049 2058 2869
3039 2217 3224
3014 2381 3508
2825 1934 578
2900 1991 818
2961 2049 1159
3006 2112 1575
3034 2187 2037
3040 2294 2495
3032 2425 2910
3010 2575 3266
2973 2743 3546
2799 2296 634
2880 2378 855
2946 2456 1186
2992 2532 1597
3017 2606 2059
3013 2691 2522
2995 2793 2944
2964 2914 3306
2920 3058 3590
2772 2627 698
2846 2726 904
2908 2824 1222
2952 2917 1625
2973 3000 2083
2962 3071 2550
2935 3145 2975
2898 3231 3343
2854 3336 3633
2740 2915 766
2791 3016 963
2841 3130 1268
2878 3245 1660
2896 3346 2113
2878 3414 2581
2847 3468 3009
2810 3519 3379
2776 3580 3671
2699 3149 832
2710 3231 1026
2735 3352 1322
2760 3489 1704
2773 3618 2153
2755 3699 2621
2725 3747 3048
2698 3773 3415
2685 3789 3700
3099 976 844
3118 960 992
3148 950 1218
3185 949 1519
3225 961 1891
3255 997 2317
3274 1051 2733
3283 1120 3119
3285 1204 3452
3086 1088 766
3128 1085 939
3174 1093 1199
3219 1117 1535
3260 1160 1932
3283 1235 2365
3293 1328 2778
3291 1433 3152
3280 1546 3468
3073 1291 710
3149 1308 900
3219 1334 1187
3279 1373 1550
3324 1431 1971
3339 1525 2414
3335 1642 2829
3314 1777 3199
3279 1925 3503
3061 1568 677
3176 1611 876
3274 1654 1180
3349 1704 1566
3398 1766 2006
3404 1862 2461
3385 1987 2882
3344 2140 3253
3280 2320 3552
3049 1903 671
3200 1976 867
3323 2038 1180
3413 2096 1579
3465 2155 2034
3464 2240 2500
3433 2357 2932
3373 2512 3308
3283 2710 3610
3039 2263 689
3205 2364 877
3339 2449 1188
3436 2522 1590
3489 2584 2052
3484 2652 2527
3446 2745 2969
3376 2876 3356
3275 3055 3667
3028 2600 711
3184 2719 896
3316 2829 1205
3414 2925 1607
3469 3001 2071
3462 3059 2554
3419 3126 3003
3346 3220 3398
3248 3355 3716
3012 2900 739
3129 3020 926
3242 3150 1232
3336 3274 1631
3395 3376 2097
3386 3434 2586
3341 3481 3041
3274 3534 3438
3197 3611 3756
2986 3146 776
3032 3242 970
3109 3384 1274
3192 3541 1668
3253 3681 2136
3246 3755 2631
3205 3791 3088
3154 3807 3480
3118 3822 3785
3148 980 851
3173 980 999
3209 976 1221
3248 971 1516
3288 969 1882
3319 985 2306
3340 1018 2719
3352 1065 3098
3356 1124 3421
3148 1100 845
3208 1121 992
3274 1139 1227
3338 1157 1540
3392 1178 1925
3416 1222 2356
3422 1286 2768
3412 1366 3141
3391 1457 3451
3151 1292 835
3268 1335 981
3381 1371 1229
3477 1405 1563
3546 1441 1967
3560 1502 2410
3543 1590 2829
3498 1704 3203
3432 1842 3509
3159 1548 820
3344 1616 964
3507 1670 1226
3635 1716 1581
3716 1760 2006
3721 1827 2463
3680 1929 2894
3598 2070 3276
3479 2256 3587
3172 1864 801
3422 1961 944
3628 2035 1217
3781 2092 1591
3870 2138 2035
3867 2201 2508
3809 2302 2954
3697 2456 3351
3530 2675 3675
3195 2223 776
3471 2348 922
3694 2447 1206
3854 2522 1594
3946 2576 2051
3941 2628 2536
3879 2711 2997
3755 2845 3410
3567 3050 3749
3216 2570 748
3476 2713 906
3693 2838 1199
3856 2940 1597
3952 3011 2064
3948 3058 2561
3884 3119 3034
3761 3217 3457
3579 3375 3805
3225 2885 728
3422 3028 901
3612 3176 1202
3770 3312 1605
3875 3414 2081
3875 3463 2590
3813 3502 3072
3703 3554 3500
3559 3645 3845
3212 3148 723
3296 3262 913
3435 3429 1219
3585 3606 1622
3703 3756 2107
3709 3819 2632
3652 3839 3121
3570 3842 3544
3501 3854 3870
