Assets/1__3DArt/KimSe/artstation_asset/LUTs_pasterls/3DL/Cotton Candy 01 S.3dl
# Enhanced with VOXCOLOR algorithms
0 64 128 192 256 320 384 448 512 576 640 704 768 832 896 960 1023
466 418 450
514 502 637
562 586 825
612 682 1031
666 804 1277
720 925 1522
772 1067 1772
824 1219 2025
876 1371 2278
922 1538 2500
969 1706 2722
1013 1875 2927
1054 2043 3097
1094 2212 3267
1132 2372 3400
1168 2527 3515
1204 2682 3629
505 614 510
553 703 699
600 793 888
649 894 1096
703 1019 1341
756 1143 1586
810 1286 1835
862 1436 2087
915 1587 2340
964 1749 2559
1012 1911 2779
1059 2071 2981
1102 2228 3147
1145 2386 3313
1186 2532 3442
1225 2673 3552
1265 2813 3663
545 810 570
592 905 761
638 1000 951
687 1106 1160
740 1234 1404
793 1361 1649
847 1504 1898
901 1654 2150
955 1804 2401
1005 1959 2619
1056 2115 2836
1104 2267 3035
1150 2413 3197
1195 2559 3359
1239 2692 3484
1282 2819 3590
1325 2945 3696
598 1034 635
644 1133 828
689 1231 1020
738 1340 1230
791 1468 1475
844 1595 1720
898 1736 1968
953 1882 2218
1008 2028 2468
1059 2175 2682
1111 2322 2896
1162 2465 3092
1209 2598 3249
1257 2731 3406
1303 2850 3525
1348 2962 3627
1394 3074 3728
677 1315 708
722 1412 905
767 1509 1101
815 1615 1314
869 1738 1560
922 1861 1805
976 1994 2052
1031 2130 2298
1087 2267 2545
1139 2401 2754
1191 2535 2962
1243 2663 3152
1291 2781 3302
1339 2899 3453
1386 3003 3566
1433 3100 3662
1480 3196 3758
755 1596 782
800 1692 982
846 1787 1182
893 1891 1397
947 2009 1644
1000 2127 1891
1055 2252 2135
1110 2379 2379
1166 2506 2623
1219 2627 2826
1272 2747 3029
1323 2862 3212
1373 2965 3356
1422 3067 3500
1470 3156 3608
1518 3238 3698
1566 3319 3788
861 1890 856
904 1979 1059
948 2068 1263
995 2164 1480
1047 2272 1726
1100 2381 1972
1154 2494 2214
1208 2608 2453
1263 2722 2693
1316 2828 2889
1368 2934 3085
1420 3034 3262
1469 3122 3400
1518 3210 3537
1567 3285 3640
1615 3353 3726
1664 3421 3811
979 2190 930
1021 2270 1137
1063 2350 1343
1108 2435 1562
1159 2532 1807
1210 2629 2052
1263 2728 2290
1316 2827 2524
1370 2927 2758
1422 3017 2948
1473 3108 3137
1524 3193 3308
1573 3266 3439
1622 3340 3571
1670 3402 3668
1719 3457 3750
1768 3513 3831
1098 2490 1004
1138 2561 1214
1178 2631 1424
1221 2707 1645
1271 2792 1888
1320 2876 2132
1372 2961 2366
1424 3047 2595
1477 3132 2824
1528 3207 3007
1579 3282 3190
1629 3351 3353
1677 3410 3478
1725 3469 3604
1774 3518 3697
1822 3562 3774
1871 3605 3851
1240 2741 1064
1276 2800 1275
1313 2860 1486
1354 2923 1707
1401 2994 1948
1448 3065 2189
1497 3136 2418
1548 3207 2642
1598 3278 2865
1647 3340 3042
1696 3402 3219
1745 3459 3378
1791 3507 3499
1838 3555 3620
1885 3595 3710
1933 3630 3785
1981 3665 3860
1381 2992 1123
1415 3040 1336
1449 3088 1548
1486 3139 1769
1531 3197 2007
1575 3254 2245
1623 3311 2470
1671 3368 2688
1719 3424 2907
1766 3473 3078
1814 3522 3249
1861 3566 3402
1906 3603 3519
1951 3641 3636
1997 3671 3724
2044 3698 3797
2091 3725 3870
1523 3215 1175
1553 3252 1388
1584 3289 1601
1619 3329 1822
1661 3374 2057
1703 3419 2292
1748 3464 2513
1794 3507 2726
1840 3551 2939
1885 3588 3106
1931 3625 3272
1975 3659 3421
2019 3687 3535
2062 3714 3648
2107 3737 3734
2152 3757 3805
2198 3777 3877
1664 3378 1211
1692 3407 1423
1720 3436 1635
1752 3467 1854
1791 3502 2086
1830 3536 2318
1873 3571 2535
1916 3604 2745
1959 3638 2955
2002 3667 3118
2045 3695 3281
2087 3721 3427
2128 3743 3539
2169 3764 3651
2211 3781 3736
2254 3796 3807
2296 3812 3879
1806 3542 1247
1831 3562 1457
1856 3582 1668
1884 3604 1885
1921 3629 2115
1958 3654 2344
1997 3678 2558
2038 3702 2764
2079 3726 2970
2119 3746 3130
2160 3765 3290
2200 3784 3434
2238 3799 3544
2276 3813 3654
2316 3825 3738
2355 3836 3809
2395 3847 3880
1936 3649 1273
1958 3663 1480
1980 3678 1687
2006 3694 1901
2040 3712 2128
2074 3730 2355
2111 3748 2566
2148 3765 2770
2186 3783 2974
2223 3797 3133
2260 3812 3292
2296 3825 3434
2331 3836 3544
2365 3847 3653
2400 3855 3737
2433 3862 3807
2467 3869 3878
2060 3727 1295
2079 3738 1497
2099 3749 1699
2122 3760 1908
2153 3774 2133
2185 3787 2357
2218 3800 2567
2252 3813 2770
2287 3825 2973
2320 3836 3131
2353 3847 3290
2386 3856 3431
2415 3864 3541
2445 3872 3650
2473 3877 3733
2500 3881 3804
2526 3886 3874
2184 3806 1317
2201 3813 1514
2217 3819 1710
2238 3827 1915
2266 3835 2137
2295 3844 2360
2325 3852 2568
2356 3860 2770
2388 3868 2972
2417 3874 3129
2447 3881 3287
2475 3887 3429
2500 3892 3538
2525 3897 3647
2547 3899 3730
2566 3901 3800
2585 3902 3870
727 452 416
771 529 601
815 606 787
860 697 993
910 814 1238
960 931 1483
1008 1072 1736
1057 1224 1992
1105 1377 2249
1148 1550 2477
1191 1724 2705
1231 1897 2915
1267 2073 3090
1303 2248 3265
1336 2412 3402
1367 2570 3518
1398 2729 3635
745 635 470
792 718 656
838 800 843
885 895 1049
933 1016 1295
982 1136 1541
1030 1277 1794
1078 1429 2051
1125 1580 2307
1169 1748 2533
1213 1915 2759
1256 2082 2967
1294 2245 3138
1333 2409 3309
1369 2560 3440
1403 2703 3553
1437 2847 3665
763 818 523
812 907 711
861 995 899
910 1094 1106
957 1217 1352
1004 1340 1599
1051 1482 1852
1098 1633 2109
1145 1784 2366
1190 1946 2590
1236 2107 2814
1280 2266 3019
1321 2418 3185
1363 2571 3352
1402 2707 3479
1439 2836 3587
1477 2965 3695
795 1031 583
845 1122 772
895 1213 962
944 1315 1170
990 1439 1418
1037 1562 1665
1083 1701 1918
1130 1849 2174
1177 1996 2430
1224 2150 2651
1271 2303 2871
1317 2452 3073
1361 2592 3234
1405 2732 3396
1446 2854 3518
1486 2969 3621
1527 3083 3724
853 1303 652
901 1392 846
948 1481 1039
996 1580 1251
1043 1699 1499
1090 1818 1747
1138 1950 1998
1186 2088 2251
1234 2227 2504
1283 2367 2720
1331 2508 2935
1379 2643 3130
1425 2768 3286
1470 2893 3441
1513 3000 3558
1555 3099 3655
1597 3198 3753
911 1574 722
957 1662 919
1002 1749 1117
1048 1846 1331
1095 1960 1580
1143 2074 1829
1192 2198 2079
1241 2328 2329
1291 2457 2579
1341 2585 2789
1392 2712 2999
1441 2834 3188
1488 2944 3337
1536 3053 3486
1580 3146 3597
1624 3230 3689
1667 3314 3781
997 1861 795
1040 1942 996
1082 2024 1197
1126 2113 1414
1173 2218 1662
1220 2323 1910
1269 2436 2157
1319 2553 2402
1370 2670 2648
1420 2783 2851
1471 2896 3055
1521 3003 3238
1569 3098 3381
1617 3193 3523
1663 3271 3629
1707 3342 3716
1751 3413 3804
1098 2156 869
1136 2229 1073
1175 2302 1278
1216 2382 1497
1262 2476 1744
1308 2569 1991
1357 2669 2234
1408 2772 2474
1459 2875 2714
1510 2972 2910
1561 3069 3107
1611 3161 3284
1659 3241 3420
1707 3321 3556
1752 3386 3657
1797 3444 3740
1841 3503 3824
1198 2451 943
1233 2515 1151
1268 2580 1359
1306 2651 1580
1352 2733 1826
1397 2816 2072
1446 2902 2310
1497 2991 2545
1547 3079 2780
1599 3161 2970
1650 3243 3159
1700 3319 3329
1748 3384 3459
1796 3449 3590
1842 3501 3686
1887 3547 3765
1932 3593 3843
1325 2703 1006
1357 2758 1216
1389 2812 1426
1424 2872 1647
1468 2941 1890
1511 3011 2133
1558 3084 2367
1608 3158 2596
1657 3232 2825
1706 3300 3009
1756 3367 3192
1805 3430 3356
1851 3483 3482
1898 3537 3607
1943 3579 3700
1987 3616 3777
2031 3653 3854
1452 2956 1069
1480 3000 1281
1509 3044 1493
1542 3093 1714
1584 3150 1954
1625 3206 2195
1671 3265 2424
1718 3325 2647
1766 3385 2871
1814 3438 3048
1862 3492 3225
1909 3541 3383
1954 3583 3504
2000 3624 3625
2043 3657 3715
2087 3686 3789
2130 3714 3864
1580 3181 1125
1606 3216 1338
1632 3251 1551
1663 3289 1772
1702 3334 2009
1742 3379 2247
1785 3425 2471
1831 3471 2690
1876 3518 2908
1922 3559 3079
1969 3600 3251
2014 3638 3404
2057 3669 3521
2100 3700 3638
2143 3725 3726
2185 3746 3799
2227 3767 3871
1712 3350 1167
1736 3378 1379
1760 3405 1591
1788 3435 1811
1826 3470 2045
1863 3505 2280
1904 3541 2501
1947 3577 2714
1990 3613 2928
2033 3644 3096
2076 3676 3264
2118 3705 3414
2159 3729 3528
2200 3753 3643
2240 3772 3729
2279 3788 3802
2319 3804 3874
1844 3520 1209
1866 3540 1420
1888 3559 1632
1914 3581 1850
1949 3606 2081
1984 3631 2313
2022 3657 2530
2062 3682 2739
2103 3708 2949
2143 3730 3113
2183 3752 3276
2223 3772 3423
2261 3789 3535
2299 3805 3648
2336 3818 3733
2373 3830 3804
2411 3841 3876
1967 3633 1240
1987 3648 1448
2007 3662 1656
2032 3678 1871
2064 3697 2100
2097 3716 2329
2132 3734 2543
2169 3753 2750
2206 3771 2957
2243 3787 3118
2280 3803 3280
2316 3818 3425
2350 3829 3536
2384 3841 3647
2417 3850 3732
2449 3858 3803
2481 3866 3874
2086 3718 1266
2105 3728 1469
2123 3739 1673
2145 3751 1884
2175 3765 2110
2205 3779 2336
2238 3792 2548
2272 3806 2753
2306 3819 2958
2338 3830 3119
2371 3842 3279
2403 3852 3423
2433 3860 3534
2462 3868 3645
2489 3875 3729
2516 3880 3800
2542 3885 3870
2205 3802 1292
2222 3809 1491
2238 3817 1690
2259 3824 1896
2286 3833 2120
2314 3842 2343
2344 3850 2553
2374 3859 2756
2405 3867 2959
2434 3873 3119
2463 3880 3278
2490 3886 3422
2515 3891 3532
2540 3896 3642
2562 3899 3726
2582 3901 3796
2602 3903 3866
988 486 382
1028 556 566
1067 627 750
1108 711 954
1154 824 1199
1199 937 1444
1245 1077 1699
1290 1230 1959
1335 1383 2220
1374 1562 2454
1413 1741 2688
1450 1920 2904
1480 2102 3084
1511 2284 3264
1539 2452 3403
1565 2614 3522
1591 2775 3641
985 656 429
1030 732 614
1076 808 798
1121 897 1003
1164 1012 1250
1207 1128 1496
1250 1268 1753
1293 1421 2014
1335 1574 2275
1375 1747 2507
1415 1920 2740
1453 2092 2953
1487 2263 3129
1521 2433 3304
1552 2587 3439
1581 2734 3553
1610 2880 3667
981 827 477
1033 908 661
1085 989 846
1133 1082 1052
1174 1201 1300
1215 1319 1549
1255 1460 1806
1295 1612 2068
1335 1764 2331
1376 1932 2561
1416 2099 2792
1455 2264 3002
1493 2423 3174
1530 2582 3345
1564 2722 3475
1597 2854 3584
1629 2985 3694
991 1028 530
1046 1112 717
1100 1196 903
1150 1291 1110
1190 1410 1360
1229 1528 1610
1269 1667 1868
1308 1816 2130
1347 1965 2391
1389 2125 2619
1431 2284 2847
1472 2440 3054
1512 2586 3220
1553 2732 3386
1590 2859 3511
1625 2975 3616
1660 3092 3720
1029 1290 596
1079 1372 787
1129 1453 977
1176 1546 1188
1217 1660 1438
1257 1774 1689
1299 1906 1945
1340 2046 2204
1382 2187 2463
1427 2334 2685
1471 2481 2908
1515 2623 3109
1558 2754 3269
1601 2886 3429
1640 2997 3549
1677 3099 3648
1714 3200 3747
1067 1552 662
1113 1631 857
1158 1711 1052
1203 1800 1265
1244 1910 1517
1285 2020 1768
1329 2145 2022
1373 2276 2278
1417 2408 2535
1464 2543 2752
1512 2678 2968
1559 2806 3164
1604 2923 3318
1650 3039 3472
1691 3136 3586
1730 3222 3680
1769 3309 3774
1134 1832 733
1175 1906 932
1216 1980 1131
1256 2063 1347
1298 2164 1598
1339 2265 1848
1384 2379 2100
1430 2499 2351
1476 2618 2603
1525 2738 2813
1574 2858 3024
1623 2972 3214
1669 3074 3361
1716 3175 3509
1758 3258 3618
1798 3331 3707
1838 3404 3796
1216 2122 807
1251 2188 1010
1287 2254 1213
1324 2328 1431
1365 2419 1680
1407 2510 1930
1452 2611 2177
1500 2717 2423
1547 2823 2670
1597 2927 2873
1648 3031 3077
1697 3129 3259
1745 3216 3401
1792 3302 3542
1835 3371 3646
1875 3431 3731
1915 3492 3816
1298 2411 882
1328 2470 1088
1358 2529 1295
1391 2594 1515
1433 2675 1763
1474 2755 2011
1520 2843 2255
1569 2935 2495
1618 3027 2736
1670 3115 2933
1721 3204 3129
1772 3286 3305
1820 3357 3440
1868 3429 3576
1911 3484 3675
1951 3532 3755
1992 3580 3836
1410 2665 949
1437 2715 1157
1464 2764 1366
1495 2820 1587
1535 2889 1832
1575 2957 2078
1620 3031 2316
1668 3109 2551
1715 3186 2785
1766 3259 2975
1816 3333 3165
1865 3401 3335
1911 3460 3465
1958 3518 3595
2000 3564 3690
2040 3603 3769
2080 3642 3847
1522 2919 1016
1546 2960 1226
1570 3000 1437
1598 3046 1659
1637 3102 1901
1675 3159 2144
1719 3219 2377
1766 3282 2606
1813 3345 2835
1861 3403 3018
1910 3462 3201
1958 3516 3364
2003 3562 3489
2048 3608 3614
2090 3643 3706
2129 3673 3782
2168 3703 3858
1638 3147 1076
1659 3179 1288
1680 3212 1500
1707 3248 1722
1744 3293 1962
1781 3338 2202
1823 3386 2430
1868 3435 2653
1913 3485 2876
1960 3530 3053
2007 3575 3230
2052 3617 3388
2096 3652 3508
2139 3686 3629
2179 3713 3718
2217 3735 3792
2256 3757 3866
1760 3322 1124
1780 3348 1336
1800 3374 1548
1825 3403 1768
1860 3438 2005
1895 3474 2242
1935 3511 2466
1977 3549 2684
2020 3588 2902
2063 3622 3074
2107 3657 3246
2149 3689 3400
2190 3715 3518
2230 3742 3635
2268 3762 3723
2304 3779 3796
2341 3796 3869
1882 3498 1171
1901 3517 1383
1920 3536 1595
1944 3557 1814
1977 3583 2048
2010 3609 2281
2047 3636 2501
2087 3663 2715
2126 3690 2928
2166 3714 3095
2207 3739 3262
2246 3761 3412
2284 3779 3527
2321 3797 3641
2357 3811 3728
2391 3823 3800
2426 3835 3872
1999 3617 1207
2017 3632 1416
2035 3646 1625
2057 3662 1841
2088 3682 2072
2119 3701 2303
2154 3720 2519
2190 3740 2729
2227 3760 2939
2263 3777 3104
2300 3794 3268
2335 3810 3416
2369 3823 3529
2403 3835 3642
2434 3845 3727
2465 3854 3799
2495 3862 3870
2113 3708 1237
2130 3719 1442
2147 3730 1647
2168 3742 1859
2197 3756 2087
2226 3771 2314
2258 3785 2528
2291 3799 2736
2324 3813 2943
2357 3825 3106
2389 3837 3269
2421 3847 3415
2450 3856 3527
2479 3865 3640
2506 3872 3724
2531 3878 3795
2557 3884 3866
2227 3799 1267
2243 3806 1468
2259 3814 1669
2279 3822 1878
2306 3831 2102
2333 3841 2326
2362 3849 2537
2392 3857 2742
2422 3866 2947
2450 3872 3108
2479 3879 3270
2506 3885 3414
2531 3890 3526
2556 3895 3637
2577 3899 3721
2598 3902 3792
2618 3905 3863
1288 527 352
1320 590 534
1353 654 716
1388 732 919
1428 840 1163
1468 948 1408
1509 1086 1665
1550 1239 1928
1591 1392 2191
1626 1575 2430
1661 1757 2670
1692 1942 2891
1717 2129 3076
1743 2316 3261
1764 2488 3403
1784 2652 3525
1804 2817 3646
1261 685 392
1301 752 574
1342 820 756
1381 902 960
1419 1013 1207
1456 1123 1454
1494 1262 1713
1531 1415 1978
1569 1568 2243
1605 1746 2481
1641 1923 2719
1674 2101 2938
1704 2277 3118
1733 2454 3299
1759 2612 3437
1782 2761 3553
