Assets/1__3DArt/KimSe/artstation_asset/LUTs_pasterls/3DL/Cotton Candy 02.3dl
# Enhanced with VOXCOLOR algorithms
0 128 256 384 512 640 768 896 1023
674 626 514
736 714 742
810 821 1041
893 942 1393
980 1071 1780
1062 1198 2162
1136 1311 2506
1200 1406 2800
1253 1477 3035
745 917 578
775 1028 798
819 1151 1094
876 1282 1447
945 1416 1837
1022 1541 2216
1095 1650 2553
1162 1740 2843
1221 1808 3078
838 1289 653
835 1415 864
846 1549 1160
874 1684 1518
921 1818 1917
985 1934 2299
1051 2031 2634
1117 2109 2918
1179 2166 3147
947 1715 735
911 1845 936
890 1980 1232
887 2115 1597
908 2242 2006
955 2344 2395
1010 2425 2731
1070 2486 3010
1132 2527 3229
1063 2167 820
997 2288 1009
946 2415 1301
915 2540 1670
910 2654 2088
937 2740 2485
977 2803 2823
1026 2846 3101
1081 2870 3314
1170 2571 893
1083 2674 1070
1010 2784 1353
958 2894 1718
932 2994 2136
941 3065 2538
966 3113 2882
1001 3143 3164
1044 3156 3380
1264 2904 951
1162 2990 1116
1073 3085 1388
1003 3181 1743
960 3268 2158
956 3326 2562
968 3365 2912
991 3386 3202
1020 3393 3426
1345 3162 996
1234 3234 1147
1131 3315 1405
1046 3397 1749
990 3472 2156
976 3521 2563
978 3552 2919
992 3567 3217
1010 3570 3451
1413 3340 1028
1296 3403 1165
1182 3472 1407
1084 3542 1737
1017 3604 2137
996 3645 2547
993 3669 2909
1001 3680 3214
1012 3677 3453
1108 696 580
1149 755 795
1200 835 1084
1260 935 1432
1325 1055 1824
1388 1189 2220
1442 1319 2578
1488 1437 2886
1522 1535 3133
1104 948 611
1162 1043 828
1203 1149 1121
1237 1267 1474
1273 1395 1869
1319 1527 2259
1368 1648 2607
1415 1753 2905
1457 1838 3143
1127 1284 661
1167 1400 876
1187 1524 1173
1198 1653 1532
1213 1784 1934
1247 1906 2325
1291 2012 2667
1339 2100 2955
1385 2167 3183
1171 1677 725
1174 1802 934
1165 1933 1233
1155 2065 1599
1153 2193 2010
1177 2301 2403
1215 2389 2743
1261 2457 3025
1310 2505 3244
1230 2104 799
1192 2224 999
1152 2352 1295
1120 2478 1665
1102 2597 2082
1116 2688 2481
1146 2756 2822
1186 2803 3101
1232 2830 3314
1294 2498 870
1227 2605 1057
1162 2719 1345
1109 2833 1709
1077 2938 2126
1078 3013 2529
1097 3066 2875
1127 3098 3158
1164 3112 3374
1352 2835 931
1266 2926 1104
1183 3026 1378
1113 3127 1733
1066 3219 2146
1057 3282 2552
1065 3324 2903
1086 3347 3194
1112 3354 3419
1404 3107 979
1307 3184 1137
1210 3271 1396
1126 3358 1738
1067 3438 2144
1048 3492 2551
1048 3526 2909
1059 3543 3209
1077 3546 3445
1450 3309 1013
1346 3376 1156
1240 3451 1399
1144 3526 1725
1075 3593 2122
1049 3638 2531
1042 3666 2895
1048 3680 3205
1058 3681 3451
1592 771 648
1619 808 849
1653 862 1127
1694 937 1469
1737 1037 1864
1777 1165 2274
1810 1298 2647
1835 1429 2969
1850 1550 3227
1536 991 653
1597 1068 863
1632 1155 1151
1651 1256 1501
1665 1372 1901
1689 1503 2304
1716 1630 2666
1744 1748 2974
1767 1850 3219
1504 1292 678
1558 1395 892
1580 1506 1187
1583 1624 1547
1581 1750 1954
1594 1875 2356
1618 1990 2709
1648 2089 3007
1678 2170 3239
1492 1654 719
1516 1769 933
1516 1892 1233
1504 2019 1601
1490 2147 2016
1497 2261 2419
1519 2358 2768
1549 2436 3057
1583 2494 3280
1499 2054 776
1482 2169 984
1455 2293 1285
1425 2419 1657
1402 2541 2078
1403 2640 2483
1421 2718 2831
1449 2773 3116
1482 2807 3333
1518 2437 842
1470 2541 1038
1418 2655 1331
1369 2772 1699
1333 2882 2119
1326 2965 2527
1337 3026 2878
1359 3065 3166
1387 3083 3385
1536 2772 902
1468 2863 1085
1396 2966 1366
1331 3070 1724
1282 3169 2140
1266 3240 2549
1269 3289 2904
1284 3317 3199
1305 3326 3426
1552 3051 954
1471 3131 1122
1385 3221 1388
1306 3314 1732
1246 3401 2139
1222 3462 2550
1217 3503 2911
1226 3525 3215
1241 3531 3453
1564 3269 994
1477 3339 1146
1382 3419 1394
1293 3500 1722
1223 3577 2119
1192 3630 2530
1182 3665 2897
1186 3684 3212
1197 3690 3462
2075 842 712
2094 864 899
2117 897 1164
2144 947 1499
2171 1020 1895
2192 1131 2317
2206 1257 2705
2212 1390 3044
2209 1525 3315
1991 1035 699
2040 1096 899
2067 1166 1178
2079 1248 1525
2085 1348 1928
2094 1470 2344
2105 1597 2721
2116 1723 3044
2123 1840 3300
1923 1307 701
1973 1396 910
1994 1492 1201
1996 1598 1559
1989 1715 1971
1990 1840 2386
2000 1960 2754
2014 2069 3064
2029 2164 3307
1871 1640 719
1901 1743 932
1908 1856 1232
1900 1977 1601
1885 2102 2022
1881 2221 2436
1890 2327 2798
1907 2417 3100
1926 2486 3331
1837 2015 755
1835 2122 967
1821 2240 1271
1800 2364 1646
1777 2488 2074
1769 2595 2490
1777 2683 2849
1794 2750 3145
1814 2794 3369
1818 2386 810
1788 2485 1014
1751 2596 1313
1713 2713 1686
1678 2828 2114
1665 2921 2530
1668 2992 2890
1681 3041 3187
1700 3067 3413
1800 2717 867
1751 2805 1060
1695 2907 1349
1640 3015 1715
1593 3120 2137
1573 3201 2554
1569 3259 2917
1578 3296 3218
1595 3312 3450
1781 2999 922
1719 3077 1102
1649 3170 1377
1580 3268 1729
1523 3363 2143
1495 3435 2559
1486 3485 2927
1491 3514 3236
1505 3525 3478
1757 3226 967
1690 3296 1133
1611 3379 1391
1533 3468 1727
1466 3556 2129
1433 3621 2545
1421 3667 2918
1424 3694 3238
1436 3704 3491
2505 902 768
2522 915 941
2542 932 1194
2563 960 1519
2583 1008 1912
2593 1094 2342
2595 1203 2746
2589 1329 3103
2574 1466 3394
2417 1074 743
2451 1123 931
2473 1177 1200
2487 1242 1541
2494 1323 1944
2498 1431 2371
2500 1550 2764
2500 1676 3105
2495 1802 3379
2337 1322 729
2374 1397 927
2394 1481 1211
2402 1574 1567
2401 1679 1982
2400 1798 2409
2402 1918 2793
2406 2034 3121
2410 2141 3379
2268 1631 726
2295 1723 933
2308 1825 1229
2310 1937 1598
2302 2057 2024
2297 2177 2452
2299 2289 2830
2306 2389 3148
2314 2474 3393
2212 1986 740
2219 2083 950
2219 2194 1254
2211 2313 1633
2196 2436 2068
2187 2550 2498
2188 2648 2873
2196 2728 3183
2208 2787 3419
2169 2346 778
2156 2437 985
2137 2544 1290
2113 2659 1671
2088 2776 2108
2074 2878 2538
2071 2960 2912
2077 3022 3220
2090 3061 3456
2128 2672 827
2098 2755 1028
2062 2854 1327
2024 2963 1704
1987 3073 2138
1965 3165 2567
1957 3234 2941
1961 3282 3252
1975 3309 3492
2083 2955 881
2042 3029 1073
1993 3120 1361
1942 3222 1728
1894 3326 2154
1866 3409 2582
1854 3471 2958
1856 3511 3275
1870 3531 3523
2033 3185 934
1985 3251 1114
1927 3336 1387
1866 3432 1738
1810 3532 2153
1779 3612 2579
1766 3671 2960
1769 3708 3286
1782 3726 3542
2792 939 804
2812 948 967
2836 956 1208
2861 971 1524
2886 1000 1909
2899 1062 2340
2902 1148 2754
2897 1255 3128
2885 1380 3442
2726 1096 779
2752 1137 954
2776 1182 1212
2797 1234 1544
2815 1298 1942
2826 1387 2374
2830 1490 2779
2829 1605 3138
2823 1727 3434
2662 1327 759
2689 1393 944
2712 1467 1218
2731 1550 1567
2744 1642 1980
2751 1748 2415
2756 1859 2813
2759 1972 3160
2759 2083 3438
2603 1619 745
2626 1702 939
2645 1797 1227
2660 1900 1592
2669 2011 2020
2673 2126 2459
2678 2237 2854
2684 2342 3190
2689 2436 3454
2551 1961 742
2564 2051 942
2576 2154 1241
2585 2268 1620
2589 2387 2061
2589 2502 2506
2594 2606 2898
2601 2697 3227
2611 2772 3480
2510 2315 759
2510 2401 961
2510 2502 1266
2508 2613 1653
2502 2730 2102
2497 2837 2550
2498 2929 2942
2505 3005 3267
2519 3062 3518
2468 2641 790
2457 2718 992
2445 2814 1298
2431 2921 1688
2416 3033 2140
2404 3133 2588
2399 3214 2979
2404 3277 3305
2422 3322 3556
2424 2926 834
2404 2994 1032
2380 3083 1334
2355 3185 1720
2330 3294 2168
2311 3388 2615
2302 3462 3007
2306 3517 3335
2324 3553 3591
2373 3160 887
2345 3220 1079
2313 3302 1371
2278 3401 1745
2245 3509 2183
2223 3603 2627
2214 3675 3023
2217 3727 3357
2231 3757 3618
2986 963 829
3008 969 984
3036 971 1217
3068 977 1523
3099 991 1900
3119 1033 2329
3129 1098 2747
3130 1185 3131
3125 1291 3460
2945 1106 808
2969 1142 973
2997 1180 1220
3028 1222 1544
3057 1272 1935
3076 1343 2369
3088 1430 2780
3091 1529 3152
3087 1639 3463
2904 1323 788
2928 1383 961
2957 1449 1224
2986 1523 1566
3014 1603 1974
3033 1697 2414
3045 1797 2823
3051 1902 3184
3051 2009 3479
2864 1602 770
2887 1678 951
2915 1766 1229
2943 1862 1588
2969 1965 2015
2987 2073 2464
3000 2181 2872
3009 2285 3225
3013 2384 3506
2827 1933 755
2847 2017 944
2872 2115 1235
2898 2224 1612
2921 2339 2057
2937 2454 2515
2950 2561 2925
2961 2660 3272
2971 2747 3542
2798 2286 754
2811 2366 947
2829 2463 1250
2848 2572 1641
2866 2688 2101
2877 2799 2566
2887 2899 2977
2900 2987 3321
2917 3063 3586
2768 2614 765
2774 2687 963
2784 2779 1273
2796 2885 1674
2806 2999 2143
2811 3106 2613
2817 3198 3024
2829 3276 3366
2852 3340 3629
2736 2906 791
2734 2969 990
2735 3055 1303
2738 3156 1707
2741 3268 2179
2740 3371 2650
2742 3457 3062
2751 3527 3404
2775 3582 3669
2699 3149 832
2688 3201 1031
2680 3280 1340
2675 3378 1738
2670 3489 2204
2665 3593 2673
2664 3679 3087
2670 3745 3433
2685 3789 3700
3099 976 844
3124 979 994
3157 977 1221
3194 976 1520
3231 980 1889
3258 1007 2316
3275 1054 2733
3284 1120 3119
3285 1204 3452
3083 1107 831
3107 1139 986
3141 1171 1226
3180 1206 1541
3220 1245 1927
3250 1301 2359
3269 1372 2774
3279 1455 3150
3279 1547 3468
3065 1311 815
3091 1365 977
3127 1426 1230
3167 1492 1564
3209 1564 1969
3242 1646 2412
3264 1736 2827
3275 1830 3197
3277 1927 3502
3048 1578 797
3076 1649 966
3113 1731 1235
3155 1822 1589
3198 1919 2014
3233 2022 2470
3257 2125 2889
3272 2226 3255
3277 2324 3549
3034 1901 779
3063 1980 955
3100 2074 1238
3143 2180 1613
3186 2294 2061
3221 2409 2531
3248 2519 2956
3266 2622 3320
3277 2719 3605
3025 2254 763
3052 2331 946
3087 2425 1244
3127 2533 1638
3167 2650 2108
3201 2767 2591
3227 2874 3021
3248 2974 3382
3266 3065 3660
3016 2589 754
3038 2658 944
3069 2749 1256
3104 2854 1666
3141 2971 2152
3171 3085 2645
3194 3188 3078
3215 3281 3437
3241 3364 3710
3005 2891 757
3018 2950 953
3042 3032 1273
3072 3134 1693
3104 3248 2189
3129 3359 2688
3147 3458 3123
3167 3543 3482
3193 3616 3752
2986 3146 776
2987 3192 976
3002 3266 1297
3026 3361 1717
3053 3473 2214
3073 3585 2715
3087 3681 3152
3100 3761 3513
3118 3822 3785
3148 980 851
3173 980 999
3209 976 1221
3248 971 1516
3288 969 1882
3319 985 2306
3340 1018 2719
3352 1065 3098
3356 1124 3421
3147 1100 846
3173 1127 995
3212 1154 1228
3258 1184 1539
3305 1216 1921
3343 1263 2353
3370 1321 2766
3386 1387 3140
3390 1458 3450
3148 1292 838
3178 1340 991
3222 1396 1237
3273 1457 1566
3328 1523 1968
3373 1599 2413
3405 1680 2831
3424 1764 3203
3429 1845 3508
3153 1548 825
3189 1613 984
3237 1691 1244
3293 1779 1594
3353 1874 2020
3404 1974 2481
3442 2074 2909
3465 2172 3283
3471 2264 3583
3165 1862 808
3205 1938 974
3257 2030 1251
3315 2136 1623
3378 2251 2075
3434 2369 2555
3477 2482 2994
3505 2590 3371
3515 2691 3666
3184 2218 785
3226 2292 958
3276 2387 1253
3334 2497 1649
3397 2618 2127
3456 2741 2627
3502 2858 3076
3533 2968 3453
3549 3069 3738
3202 2561 759
3239 2628 942
3286 2719 1253
3343 2828 1670
3405 2949 2172
3464 3073 2689
3510 3188 3144
3543 3294 3520
3563 3391 3796
3213 2877 737
3239 2932 927
3280 3014 1249
3334 3116 1682
3396 3235 2202
3452 3355 2732
3496 3466 3194
3527 3566 3568
3550 3654 3839
3212 3148 723
3218 3188 917
3250 3258 1242
3301 3352 1680
3363 3464 2210
3416 3579 2750
3452 3684 3216
3478 3776 3594
3501 3854 3870
