Assets/1__3DArt/KimSe/artstation_asset/LUTs_pasterls/3DL/Cotton Candy 01.3dl
# Enhanced with VOXCOLOR algorithms
0 128 256 384 512 640 768 896 1023
466 418 450
562 586 825
666 804 1277
772 1067 1772
876 1371 2278
969 1706 2722
1054 2043 3097
1132 2372 3400
1204 2682 3629
545 810 570
638 1000 951
740 1234 1404
847 1504 1898
955 1804 2401
1056 2115 2836
1150 2413 3197
1239 2692 3484
1325 2945 3696
677 1315 709
768 1509 1101
869 1738 1560
977 1994 2052
1087 2267 2545
1192 2535 2963
1292 2782 3302
1387 3003 3567
1480 3196 3758
862 1890 857
949 2068 1263
1048 2272 1727
1155 2494 2214
1265 2723 2693
1370 2935 3086
1471 3123 3400
1568 3285 3641
1664 3421 3811
1102 2490 1007
1180 2631 1425
1273 2792 1890
1374 2962 2367
1480 3133 2825
1583 3283 3191
1680 3412 3480
1776 3519 3697
1871 3605 3851
1392 2992 1130
1456 3088 1553
1536 3197 2011
1628 3312 2473
1726 3426 2910
1822 3524 3252
1913 3606 3522
2002 3672 3725
2091 3725 3870
1682 3378 1222
1732 3436 1642
1800 3502 2091
1881 3572 2540
1970 3640 2959
2057 3698 3286
2138 3745 3543
2218 3783 3738
2296 3812 3879
1953 3649 1284
1991 3678 1695
2048 3713 2133
2119 3749 2570
2196 3784 2978
2270 3814 3296
2340 3838 3547
2405 3856 3738
2467 3869 3878
2184 3806 1317
2217 3819 1710
2266 3835 2137
2325 3852 2568
2388 3868 2972
2447 3881 3287
2500 3892 3538
2547 3899 3730
2585 3902 3870
988 486 382
1072 631 749
1162 830 1198
1252 1083 1698
1341 1388 2219
1416 1743 2687
1482 2103 3084
1539 2452 3403
1591 2775 3641
997 832 485
1121 1008 853
1218 1229 1308
1298 1492 1815
1368 1794 2339
1436 2119 2798
1502 2434 3177
1567 2726 3476
1629 2985 3694
1055 1298 611
1183 1483 995
1282 1705 1459
1363 1958 1967
1433 2235 2483
1502 2514 2922
1573 2772 3277
1644 3003 3551
1714 3200 3747
1164 1841 754
1274 2015 1159
1370 2218 1631
1455 2441 2134
1534 2676 2634
1610 2898 3045
1687 3095 3372
1764 3265 3621
1838 3404 3796
1327 2421 905
1410 2564 1329
1497 2728 1804
1585 2904 2297
1671 3083 2773
1756 3242 3154
1838 3378 3453
1917 3491 3679
1992 3580 3836
1548 2926 1037
1610 3027 1469
1685 3142 1938
1767 3264 2415
1854 3385 2867
1939 3490 3223
2020 3578 3501
2097 3649 3710
2169 3704 3858
1782 3327 1143
1829 3390 1572
1892 3461 2032
1967 3537 2493
2048 3612 2926
2129 3674 3263
2205 3725 3527
2276 3766 3727
2342 3797 3869
2014 3618 1220
2050 3652 1639
2104 3690 2086
2170 3730 2533
2242 3769 2952
2313 3801 3278
2379 3827 3535
2441 3848 3730
2497 3863 3870
2227 3799 1267
2259 3814 1669
2306 3831 2102
2362 3849 2538
2422 3866 2947
2479 3879 3270
2531 3890 3526
2577 3899 3721
2618 3905 3863
1664 585 331
1726 709 689
1791 889 1132
1858 1127 1633
1921 1423 2163
1969 1783 2650
2006 2153 3065
2034 2514 3400
2056 2847 3650
1605 884 410
1721 1043 771
1800 1249 1226
1854 1502 1740
1893 1799 2279
1929 2131 2757
1966 2455 3154
2002 2757 3467
2036 3025 3694
1590 1306 517
1716 1479 896
1801 1691 1364
1856 1938 1883
1894 2215 2417
1931 2502 2877
1974 2770 3250
2018 3010 3537
2062 3214 3741
1621 1814 645
1729 1980 1049
1812 2178 1528
1875 2400 2045
1924 2638 2564
1972 2869 2997
2023 3076 3343
2075 3254 3604
2125 3399 3787
1702 2369 788
1779 2510 1214
1853 2674 1700
1923 2853 2208
1987 3037 2706
2048 3206 3108
2109 3352 3425
2167 3472 3662
2220 3566 3826
1843 2874 925
1897 2976 1361
1959 3093 1843
2027 3219 2337
2095 3347 2810
2163 3459 3185
2229 3554 3478
2289 3631 3697
2343 3690 3850
2007 3286 1042
2044 3351 1478
2096 3426 1951
2158 3505 2429
2226 3584 2881
2294 3652 3235
2359 3708 3512
2419 3753 3719
2471 3787 3865
2180 3596 1136
2208 3631 1563
2252 3671 2022
2307 3714 2485
2369 3756 2919
2432 3790 3259
2491 3819 3526
2546 3841 3727
2595 3859 3870
2347 3796 1201
2373 3812 1612
2413 3830 2055
2461 3848 2503
2515 3865 2925
2567 3879 3259
2617 3891 3523
2663 3900 3724
2704 3908 3866
2388 703 315
2425 810 660
2465 971 1093
2506 1190 1587
2541 1470 2118
2561 1823 2616
2567 2193 3044
2565 2559 3395
2558 2900 3659
2279 957 366
2365 1098 720
2419 1288 1170
2450 1526 1683
2466 1814 2227
2476 2146 2719
2486 2474 3131
2495 2784 3459
2502 3060 3697
2206 1335 448
2305 1493 822
2367 1692 1288
2401 1930 1811
2416 2202 2356
2428 2494 2833
2444 2770 3223
2463 3019 3525
2481 3231 3740
2172 1805 554
2259 1961 953
2323 2150 1434
2365 2367 1960
2390 2606 2495
2411 2844 2949
2438 3061 3314
2465 3249 3590
2491 3402 3782
2180 2334 680
2242 2469 1103
2299 2630 1594
2348 2808 2116
2388 2996 2634
2424 3173 3060
2462 3329 3396
2498 3458 3648
2529 3559 3821
2245 2835 815
2284 2935 1250
2330 3051 1740
2378 3179 2251
2425 3310 2747
2472 3430 3145
2518 3533 3456
2561 3617 3689
2595 3682 3849
2335 3256 938
2359 3320 1376
2395 3395 1860
2439 3476 2357
2488 3559 2831
2540 3632 3206
2590 3693 3498
2635 3743 3716
2675 3781 3868
2439 3582 1045
2455 3616 1477
2484 3657 1949
2524 3700 2430
2571 3744 2885
2622 3781 3243
2672 3812 3523
2718 3838 3732
2760 3858 3878
2545 3801 1127
2561 3815 1547
2589 3832 2003
2625 3850 2466
2668 3867 2906
2715 3881 3255
2761 3894 3530
2805 3905 3737
2845 3913 3880
3055 827 350
3073 920 678
3094 1064 1093
3114 1264 1572
3127 1524 2093
3124 1862 2591
3108 2224 3027
3084 2590 3390
3055 2940 3670
2928 1042 373
2978 1166 716
3008 1339 1153
3023 1561 1654
3025 1835 2192
3018 2159 2689
3009 2487 3111
2996 2803 3452
2981 3089 3704
2828 1380 425
2888 1521 789
2926 1705 1247
2944 1931 1764
2945 2195 2309
2940 2486 2796
2937 2767 3200
2934 3025 3517
2931 3248 3744
2757 1813 504
2812 1956 892
2852 2134 1367
2876 2344 1894
2884 2578 2437
2885 2821 2907
2890 3046 3289
2896 3244 3581
2902 3408 3785
2716 2316 607
2755 2442 1018
2791 2595 1506
2819 2769 2036
2837 2958 2569
2850 3142 3016
2865 3306 3372
2881 3447 3640
2894 3558 3824
2720 2811 728
2740 2905 1154
2766 3018 1647
2793 3143 2170
2818 3276 2686
2842 3402 3106
2867 3513 3438
2892 3606 3686
2912 3680 3856
2743 3237 849
2751 3298 1281
2769 3371 1772
2793 3451 2285
2821 3535 2782
2852 3612 3178
2885 3679 3489
2916 3735 3721
2945 3780 3880
2779 3576 960
2781 3609 1392
2794 3647 1875
2816 3690 2374
2844 3734 2852
2880 3773 3230
2917 3807 3525
2955 3836 3746
2991 3860 3897
2820 3812 1057
2823 3824 1480
2836 3839 1950
2858 3854 2432
2887 3871 2892
2925 3886 3258
2965 3899 3546
3006 3911 3760
3045 3921 3907
3482 927 441
3497 1014 750
3512 1147 1143
3524 1330 1600
3530 1571 2098
3522 1890 2584
3503 2238 3016
3478 2599 3385
3449 2955 3677
3384 1116 449
3411 1229 775
3430 1388 1191
3440 1596 1671
3442 1853 2189
3433 2165 2676
3419 2487 3099
3402 2804 3447
3381 3100 3712
3303 1424 483
3335 1552 829
3357 1723 1266
3368 1936 1765
3368 2189 2295
3359 2474 2779
3350 2756 3187
3340 3020 3514
3328 3256 3753
3239 1829 542
3268 1958 908
3291 2125 1364
3304 2325 1876
3306 2554 2412
3300 2796 2886
3296 3026 3277
3292 3234 3581
3289 3412 3797
3195 2307 624
3214 2423 1010
3233 2569 1481
3246 2737 2002
3252 2923 2535
3252 3111 2992
3255 3284 3363
3259 3436 3645
3264 3562 3841
3177 2796 727
3183 2883 1128
3193 2990 1607
3204 3112 2128
3213 3245 2650
3221 3376 3087
3231 3494 3435
3244 3598 3698
3259 3685 3879
3168 3225 833
3165 3282 1244
3168 3351 1727
3176 3430 2243
3187 3514 2752
3201 3595 3167
3219 3668 3495
3240 3732 3740
3265 3788 3910
3165 3576 937
3157 3605 1352
3156 3641 1833
3162 3682 2340
3174 3725 2833
3194 3767 3230
3219 3805 3541
3248 3839 3773
3280 3870 3932
3162 3830 1033
3154 3838 1446
3154 3849 1919
3161 3862 2413
3176 3877 2890
3203 3893 3272
3234 3907 3572
3269 3921 3796
3304 3932 3946
3749 1000 532
3764 1085 828
3778 1210 1203
3789 1382 1638
3794 1606 2114
3788 1906 2583
3776 2239 3007
3759 2592 3375
3741 2950 3676
3689 1170 540
3706 1276 850
3720 1426 1246
3730 1623 1704
3735 1867 2201
3730 2166 2675
3720 2480 3092
3706 2795 3442
3690 3097 3716
3639 1454 572
3656 1572 897
3671 1734 1312
3680 1938 1790
3683 2182 2301
3678 2461 2776
3670 2741 3183
3660 3009 3515
3648 3255 3763
3599 1834 626
3614 1954 966
3627 2113 1398
3635 2307 1891
3637 2530 2412
3632 2773 2883
3627 3007 3277
3621 3224 3589
3615 3415 3815
3570 2292 699
3578 2400 1054
3587 2540 1501
3594 2705 2005
3595 2890 2529
3592 3083 2990
3589 3264 3368
3588 3427 3662
3590 3569 3867
3553 2774 791
3552 2856 1159
3554 2960 1617
3557 3082 2125
3558 3216 2644
3557 3352 3089
3559 3479 3448
3566 3595 3722
3577 3696 3913
3537 3208 885
3529 3262 1265
3525 3329 1729
3524 3407 2237
3524 3493 2748
3528 3580 3175
3536 3660 3515
3549 3734 3772
3571 3801 3950
3519 3572 979
3507 3598 1366
3499 3633 1832
3495 3673 2335
3496 3718 2836
3505 3763 3245
3519 3806 3569
3540 3846 3811
3568 3884 3976
3496 3844 1070
3482 3848 1457
3473 3856 1919
3470 3868 2413
3475 3883 2899
3491 3900 3295
3513 3916 3607
3540 3932 3837
3568 3946 3990
3889 1050 610
3907 1134 896
3922 1254 1258
3934 1417 1677
3941 1628 2134
3941 1911 2586
3938 2229 2999
3933 2572 3362
3930 2928 3665
3865 1202 628
3881 1305 925
3895 1450 1304
3908 1640 1744
3916 1874 2221
3917 2162 2682
3915 2467 3090
3910 2777 3437
3903 3081 3713
3848 1466 670
3862 1579 976
3875 1736 1371
3887 1935 1828
3894 2173 2322
3896 2448 2786
3894 2726 3189
3889 2996 3520
3883 3248 3772
3837 1826 733
3848 1940 1047
3860 2095 1456
3869 2285 1928
3875 2508 2433
3876 2752 2897
3874 2991 3291
3872 3216 3606
3868 3418 3836
3833 2266 813
3840 2370 1137
3847 2507 1558
3854 2672 2040
3857 2860 2551
3856 3059 3010
3856 3250 3391
3856 3425 3691
3857 3581 3902
3832 2742 905
3833 2823 1240
3835 2926 1671
3836 3050 2159
3837 3189 2669
3836 3334 3115
3837 3471 3480
3841 3599 3761
3850 3714 3957
3827 3181 996
3822 3234 1341
3819 3302 1779
3816 3384 2270
3814 3475 2776
3815 3569 3208
3818 3659 3555
3826 3743 3819
3842 3821 3999
3816 3559 1084
3806 3584 1435
3797 3618 1875
3791 3661 2365
3789 3710 2863
3792 3762 3281
3800 3811 3614
3812 3858 3861
3832 3903 4027
3795 3853 1168
3781 3852 1518
3769 3858 1954
3762 3870 2436
3761 3888 2924
3770 3907 3330
3783 3926 3652
3799 3944 3888
3817 3963 4039
3934 1076 658
3954 1160 943
3971 1278 1298
3984 1434 1707
3993 1634 2150
3997 1905 2589
4001 2211 2992
4006 2543 3347
4015 2891 3645
3934 1211 694
3953 1314 982
3971 1458 1351
3986 1644 1780
3998 1873 2244
4004 2154 2693
4009 2451 3093
4012 2755 3433
4015 3053 3704
3941 1458 758
3960 1570 1048
3978 1726 1428
3994 1924 1871
4006 2161 2351
4014 2435 2807
4020 2712 3203
4023 2982 3531
4024 3235 3779
3956 1801 844
3973 1913 1137
3990 2067 1525
4004 2260 1979
4017 2486 2470
4025 2735 2928
4032 2981 3318
4035 3213 3633
4036 3422 3862
3977 2225 947
3992 2328 1245
4005 2467 1641
4017 2637 2103
4028 2833 2599
4036 3043 3052
4042 3245 3433
4047 3433 3734
4050 3602 3946
4000 2696 1057
4010 2778 1362
4019 2886 1765
4027 3016 2231
4035 3165 2726
4042 3323 3169
4048 3473 3534
4053 3614 3817
4057 3740 4010
4019 3140 1159
4024 3195 1469
4028 3268 1877
4032 3357 2346
4036 3458 2838
4042 3565 3268
4048 3666 3618
4053 3761 3882
4057 3848 4056
4030 3533 1251
4029 3559 1562
4028 3596 1968
4028 3645 2434
4030 3702 2922
4035 3763 3343
4041 3821 3679
4046 3875 3927
4048 3927 4084
4031 3854 1333
4023 3847 1632
4016 3851 2027
4013 3866 2484
4014 3888 2967
4019 3913 3384
4025 3936 3713
4029 3959 3951
4031 3983 4095
