Assets/1__3DArt/KimSe/artstation_asset/LUTs_pasterls/3DL/Emerald Oasis 03.3dl
# Enhanced with VOXCOLOR algorithms
0 128 256 384 512 640 768 896 1023
434 498 594
465 571 772
500 655 983
538 753 1226
581 864 1498
626 992 1784
671 1122 2058
715 1249 2312
755 1365 2537
434 755 764
470 857 982
511 975 1230
557 1107 1502
605 1252 1790
655 1401 2071
703 1543 2328
748 1676 2557
791 1797 2755
458 1186 1069
490 1299 1318
530 1430 1585
576 1573 1862
628 1725 2142
679 1869 2396
729 1999 2619
776 2115 2812
822 2217 2975
534 1734 1475
547 1841 1735
576 1964 1999
618 2096 2259
668 2230 2509
723 2349 2721
775 2450 2902
826 2535 3053
876 2604 3177
691 2342 1947
667 2427 2189
673 2521 2423
702 2619 2644
749 2715 2846
807 2793 3008
866 2854 3143
925 2900 3252
982 2934 3341
1044 2837 2365
958 2902 2558
918 2967 2743
916 3030 2916
946 3086 3072
1002 3125 3194
1064 3151 3295
1128 3167 3378
1191 3176 3445
1521 3185 2681
1370 3239 2820
1271 3289 2961
1221 3332 3096
1213 3363 3218
1250 3377 3315
1303 3380 3397
1362 3376 3463
1422 3367 3517
2064 3400 2902
1859 3450 2988
1696 3494 3088
1579 3530 3195
1512 3552 3297
1511 3553 3382
1538 3544 3455
1582 3528 3514
1630 3508 3561
2618 3501 3035
2381 3543 3070
2153 3589 3138
1954 3629 3225
1802 3654 3320
1740 3656 3405
1725 3645 3478
1740 3625 3537
1766 3597 3581
774 550 628
716 622 818
686 708 1041
679 813 1297
694 938 1582
730 1090 1885
772 1251 2175
816 1411 2442
861 1564 2676
733 788 752
714 892 991
701 1012 1256
700 1148 1542
712 1300 1843
744 1463 2135
783 1622 2401
825 1772 2637
869 1910 2838
719 1186 1018
712 1307 1289
708 1442 1575
712 1587 1869
726 1741 2161
757 1892 2423
794 2030 2653
836 2154 2850
877 2261 3012
757 1695 1394
739 1817 1673
732 1947 1957
736 2082 2235
754 2217 2498
788 2338 2719
828 2442 2904
870 2529 3058
913 2598 3182
874 2269 1847
820 2374 2107
795 2480 2361
795 2584 2601
815 2682 2818
857 2761 2988
905 2824 3128
953 2870 3240
999 2902 3330
1173 2758 2272
1063 2841 2481
999 2919 2685
975 2989 2875
986 3049 3044
1032 3090 3173
1085 3118 3279
1140 3135 3364
1190 3141 3432
1591 3116 2606
1428 3185 2760
1315 3245 2915
1251 3294 3063
1233 3330 3196
1265 3347 3299
1312 3352 3383
1365 3348 3452
1414 3338 3506
2081 3352 2848
1879 3410 2947
1715 3462 3059
1595 3503 3174
1525 3529 3283
1522 3533 3372
1545 3526 3446
1583 3511 3506
1625 3490 3554
2597 3471 2998
2382 3522 3048
2170 3573 3124
1980 3617 3215
1831 3647 3312
1765 3651 3399
1743 3642 3472
1752 3622 3531
1775 3594 3578
1345 627 648
1190 713 880
1075 814 1138
1000 935 1420
964 1077 1723
972 1246 2032
997 1422 2324
1035 1600 2590
1080 1772 2818
1261 856 733
1168 969 1009
1081 1098 1308
1010 1244 1621
964 1405 1940
962 1577 2238
980 1745 2506
1012 1903 2741
1053 2047 2936
1205 1225 955
1141 1354 1257
1073 1496 1576
1010 1647 1898
965 1806 2211
957 1960 2481
971 2103 2715
999 2230 2911
1035 2337 3070
1198 1694 1292
1134 1826 1598
1072 1964 1911
1018 2104 2219
979 2241 2505
974 2364 2737
988 2470 2929
1016 2558 3085
1049 2626 3207
1261 2224 1718
1170 2343 2001
1099 2460 2284
1048 2571 2552
1020 2672 2794
1026 2754 2979
1049 2818 3127
1081 2866 3244
1115 2898 3334
1484 2693 2149
1347 2790 2378
1247 2879 2607
1184 2958 2822
1157 3024 3013
1173 3069 3157
1207 3101 3271
1248 3119 3361
1287 3127 3430
1810 3051 2505
1635 3130 2677
1502 3200 2851
1411 3258 3019
1368 3301 3169
1380 3323 3283
1412 3332 3374
1454 3332 3447
1496 3323 3503
2204 3299 2777
2009 3364 2891
1842 3423 3017
1712 3471 3145
1630 3505 3265
1615 3515 3361
1629 3513 3440
1660 3500 3504
1697 3481 3553
2627 3438 2953
2440 3493 3018
2247 3549 3104
2068 3598 3202
1922 3635 3304
1851 3645 3394
1823 3641 3470
1824 3624 3532
1844 3598 3581
2045 725 666
1814 839 957
1622 968 1266
1474 1114 1586
1374 1274 1908
1340 1451 2216
1339 1632 2499
1362 1812 2751
1402 1988 2965
1928 951 716
1768 1080 1039
1608 1227 1383
1464 1389 1733
1351 1561 2074
1304 1738 2374
1293 1907 2637
1309 2065 2862
1344 2208 3047
1837 1296 892
1717 1434 1231
1582 1587 1590
1450 1749 1950
1337 1914 2288
1281 2070 2567
1263 2213 2801
1273 2339 2993
1302 2444 3146
1786 1727 1182
1678 1865 1517
1559 2011 1868
1442 2157 2213
1337 2299 2530
1282 2423 2776
1263 2530 2974
1270 2618 3131
1294 2686 3251
1794 2212 1574
1669 2337 1881
1551 2461 2197
1445 2579 2503
1357 2686 2777
1315 2770 2981
1305 2838 3141
1316 2889 3263
1339 2923 3355
1927 2651 2006
1771 2754 2257
1637 2851 2515
1529 2939 2762
1453 3013 2982
1429 3064 3144
1434 3101 3271
1456 3124 3368
1486 3135 3441
2142 2999 2386
1965 3082 2576
1813 3159 2773
1694 3226 2965
1615 3279 3138
1597 3308 3267
1607 3324 3370
1635 3328 3450
1671 3324 3510
2412 3252 2691
2233 3319 2822
2067 3383 2964
1928 3439 3108
1829 3482 3242
1795 3500 3350
1794 3505 3437
1816 3498 3507
1850 3484 3560
2712 3407 2900
2557 3463 2982
2387 3521 3079
2221 3576 3185
2080 3620 3294
2004 3638 3390
1968 3641 3472
1964 3630 3539
1983 3609 3590
2772 843 694
2517 994 1051
2279 1164 1420
2071 1343 1784
1908 1525 2128
1825 1702 2427
1788 1876 2692
1790 2046 2923
1822 2214 3117
2644 1068 713
2450 1219 1086
2240 1392 1482
2037 1577 1874
1863 1764 2239
1766 1940 2536
1720 2104 2789
1716 2254 2999
1742 2389 3169
2534 1393 841
2380 1542 1218
2198 1710 1622
2009 1887 2023
1834 2061 2391
1728 2218 2676
1674 2357 2908
1662 2478 3093
1683 2579 3236
2453 1790 1078
2318 1932 1442
2157 2086 1833
1986 2241 2221
1821 2390 2572
1714 2515 2833
1657 2622 3038
1641 2710 3195
1657 2778 3313
2410 2233 1425
2271 2358 1755
2120 2486 2109
1967 2611 2456
1821 2724 2768
1727 2813 2995
1678 2884 3169
1666 2939 3299
1681 2978 3393
2452 2640 1854
2296 2740 2124
2142 2841 2413
1997 2936 2696
1872 3018 2951
1802 3076 3138
1771 3120 3281
1772 3150 3388
1795 3169 3465
2550 2971 2255
2388 3050 2461
2231 3130 2683
2089 3203 2902
1975 3265 3102
1919 3303 3254
1900 3327 3372
1911 3340 3462
1944 3345 3527
2689 3221 2595
2537 3284 2742
2382 3348 2901
2239 3409 3063
2122 3461 3216
2065 3489 3339
2045 3503 3439
2056 3506 3517
2091 3500 3576
2854 3385 2841
2735 3436 2940
2592 3494 3050
2443 3551 3166
2308 3602 3284
2227 3631 3390
2184 3643 3479
2177 3641 3552
2199 3628 3608
3302 956 738
3093 1145 1146
2870 1358 1565
2652 1577 1971
2457 1783 2335
2337 1955 2622
2270 2111 2866
2251 2260 3073
2273 2410 3249
3200 1175 740
3031 1352 1151
2829 1559 1590
2616 1775 2021
2415 1981 2407
2284 2153 2698
2211 2303 2935
2186 2438 3128
2203 2559 3283
3106 1484 827
2967 1649 1232
2787 1839 1675
2588 2037 2114
2389 2226 2507
2251 2381 2795
2170 2514 3020
2140 2627 3195
2152 2722 3331
3027 1859 1012
2904 2006 1397
2744 2172 1823
2563 2341 2248
2375 2500 2631
2237 2628 2905
2153 2734 3115
2119 2822 3271
2128 2892 3387
2966 2272 1307
2846 2395 1652
2699 2529 2036
2537 2662 2423
2369 2783 2773
2241 2878 3024
2163 2956 3213
2131 3018 3351
2142 3065 3448
2950 2657 1716
2823 2752 1998
2681 2853 2313
2532 2952 2632
2387 3042 2924
2282 3109 3140
2221 3162 3303
2202 3202 3424
2222 3233 3509
2967 2977 2128
2840 3047 2344
2702 3123 2586
2563 3198 2833
2435 3266 3065
2350 3314 3243
2304 3349 3382
2297 3374 3487
2328 3391 3562
3009 3225 2499
2893 3276 2655
2763 3335 2829
2632 3395 3010
2513 3450 3185
2436 3488 3329
2397 3513 3446
2395 3527 3538
2432 3534 3606
3071 3393 2787
2982 3433 2896
2867 3482 3017
2741 3536 3144
2619 3589 3274
2535 3626 3391
2487 3649 3492
2478 3659 3574
2507 3657 3636
3644 1043 782
3491 1259 1220
3300 1508 1676
3093 1761 2113
2892 1989 2493
2752 2155 2771
2668 2296 2998
2636 2423 3186
2650 2549 3347
3578 1250 775
3450 1451 1211
3276 1689 1682
3078 1935 2142
2877 2160 2546
2730 2328 2831
2640 2465 3054
2602 2583 3231
2612 2689 3374
3514 1543 831
3405 1725 1256
3251 1940 1728
3067 2162 2196
2872 2367 2611
2721 2522 2899
2626 2647 3118
2583 2751 3284
2588 2839 3412
3453 1898 970
3358 2057 1370
3221 2238 1823
3056 2425 2280
2873 2597 2690
2724 2729 2975
2627 2837 3188
2581 2924 3344
2585 2996 3457
3397 2291 1210
3307 2420 1566
3185 2562 1978
3039 2707 2399
2875 2840 2784
2737 2943 3058
2644 3028 3261
2599 3097 3407
2605 3155 3508
3356 2666 1590
3266 2760 1880
3152 2865 2220
3021 2972 2573
2880 3070 2903
2762 3147 3148
2684 3210 3333
2650 3262 3468
2664 3307 3560
3329 2985 2004
3241 3051 2226
3134 3125 2488
3015 3203 2764
2894 3276 3030
2795 3333 3238
2732 3379 3400
2710 3417 3522
2734 3450 3607
3315 3239 2405
3234 3282 2565
3134 3335 2753
3026 3393 2954
2917 3450 3154
2833 3496 3322
2780 3531 3460
2766 3557 3567
2798 3579 3645
3314 3417 2744
3247 3447 2858
3158 3488 2986
3057 3536 3123
2953 3586 3264
2871 3628 3394
2820 3660 3508
2807 3680 3601
2837 3690 3671
3829 1101 817
3723 1331 1270
3566 1605 1747
3379 1882 2203
3184 2125 2595
3040 2287 2868
2950 2414 3083
2912 2522 3257
2921 2626 3405
3796 1289 806
3709 1507 1256
3570 1771 1748
3397 2043 2229
3210 2285 2645
3062 2450 2925
2967 2576 3138
2921 2677 3302
2925 2768 3435
3762 1564 840
3690 1763 1278
3570 2001 1771
3416 2246 2261
3241 2469 2691
3094 2624 2981
2994 2744 3195
2945 2839 3353
2945 2920 3474
3726 1903 941
3666 2075 1351
3564 2275 1826
3431 2481 2309
3272 2670 2741
3130 2808 3037
3032 2917 3253
2980 3004 3408
2979 3077 3519
3688 2281 1126
3636 2419 1492
3551 2576 1928
3438 2736 2381
3300 2885 2799
3169 2998 3095
3076 3091 3312
3025 3168 3465
3025 3236 3570
3650 2653 1463
3601 2754 1763
3526 2868 2129
3429 2986 2518
3313 3097 2887
3201 3185 3163
3119 3259 3370
3076 3324 3519
3081 3382 3619
3614 2979 1869
3566 3048 2101
3499 3127 2387
3414 3211 2696
3316 3292 2999
3222 3359 3240
3153 3416 3427
3119 3467 3566
3131 3514 3660
3583 3248 2300
3535 3291 2469
3471 3343 2674
3394 3401 2898
3309 3461 3126
3230 3512 3321
3172 3556 3481
3146 3595 3605
3165 3629 3692
3557 3446 2714
3510 3471 2831
3447 3506 2963
3373 3549 3107
3293 3596 3258
3220 3639 3403
3169 3676 3531
3151 3704 3635
3174 3724 3712
3886 1124 835
3801 1357 1289
3662 1639 1772
3491 1927 2236
3307 2177 2633
3168 2336 2905
3083 2454 3116
3045 2548 3282
3051 2634 3421
3873 1287 822
3809 1515 1276
3695 1796 1778
3546 2086 2270
3378 2341 2693
3240 2503 2972
3148 2621 3180
3103 2710 3336
3103 2787 3460
3859 1542 842
3814 1754 1286
3724 2012 1791
3601 2278 2296
3454 2517 2739
3322 2675 3031
3229 2791 3242
3179 2879 3395
3176 2952 3510
3845 1865 911
3815 2051 1330
3750 2271 1822
3653 2498 2324
3530 2706 2776
3409 2852 3083
3320 2964 3303
3269 3051 3458
3263 3124 3567
3830 2232 1046
3813 2385 1423
3769 2560 1881
3698 2740 2364
3601 2908 2813
3495 3035 3130
3414 3138 3361
3365 3223 3521
3357 3298 3628
3814 2605 1328
3805 2720 1642
3775 2851 2037
3723 2987 2464
3647 3116 2876
3560 3218 3184
3490 3304 3414
3444 3380 3576
3434 3451 3681
3799 2946 1712
3793 3026 1961
3769 3119 2278
3728 3216 2627
3669 3310 2974
3598 3388 3251
3537 3457 3465
3496 3520 3621
3483 3579 3720
3786 3238 2176
3775 3290 2360
3750 3351 2589
3712 3416 2842
3662 3481 3103
3602 3539 3330
3549 3590 3515
3514 3638 3654
3506 3682 3746
3774 3469 2698
3750 3498 2819
3716 3535 2953
3671 3576 3101
3620 3620 3262
3565 3662 3421
3519 3698 3562
3494 3731 3677
3501 3758 3758
