Assets/1__3DArt/KimSe/artstation_asset/LUTs_pasterls/3DL/Emerald Oasis 02.3dl
# Enhanced with VOXCOLOR algorithms
0 64 128 192 256 320 384 448 512 576 640 704 768 832 896 960 1023
450 546 610
469 580 684
488 614 758
507 651 842
526 697 945
545 743 1049
565 795 1170
586 851 1300
606 906 1429
628 968 1571
650 1029 1713
671 1090 1854
693 1150 1990
715 1210 2127
734 1264 2247
753 1314 2360
771 1365 2473
448 663 682
466 705 766
485 747 849
503 792 943
523 845 1055
543 898 1167
565 957 1293
587 1020 1428
609 1082 1562
632 1148 1704
655 1214 1846
678 1279 1985
701 1341 2118
724 1404 2251
745 1460 2368
765 1513 2478
785 1566 2588
446 780 754
464 830 848
481 880 941
499 933 1044
520 993 1164
541 1054 1284
564 1120 1416
588 1189 1555
611 1258 1694
636 1328 1836
661 1399 1979
685 1468 2116
709 1533 2246
733 1598 2375
755 1656 2489
777 1712 2596
799 1768 2703
449 935 853
464 991 956
480 1048 1059
497 1107 1170
518 1173 1297
540 1239 1424
563 1309 1560
588 1382 1702
612 1455 1843
638 1528 1983
663 1600 2123
689 1670 2257
713 1735 2381
738 1800 2504
761 1858 2613
785 1913 2715
809 1968 2816
459 1166 1006
471 1225 1118
484 1285 1230
498 1347 1349
518 1414 1479
538 1482 1610
561 1552 1746
585 1624 1885
610 1696 2025
635 1765 2157
661 1834 2290
686 1900 2416
711 1959 2530
735 2018 2644
760 2070 2744
784 2118 2836
808 2167 2928
470 1396 1158
478 1459 1280
487 1522 1401
499 1587 1527
518 1656 1661
537 1725 1796
559 1795 1932
583 1866 2069
607 1938 2206
633 2003 2332
658 2069 2457
683 2130 2576
708 2183 2680
733 2237 2784
758 2282 2874
782 2324 2957
807 2365 3039
507 1661 1347
509 1723 1471
511 1785 1595
517 1848 1722
532 1914 1855
548 1980 1987
568 2045 2118
590 2110 2249
613 2176 2379
638 2234 2495
663 2292 2611
689 2345 2719
714 2390 2812
740 2435 2906
766 2473 2986
792 2506 3059
818 2539 3132
558 1943 1553
551 2002 1677
545 2061 1801
543 2120 1926
554 2180 2054
564 2240 2182
581 2298 2305
602 2355 2426
622 2412 2548
648 2461 2652
673 2509 2757
698 2553 2854
725 2589 2936
751 2624 3019
779 2652 3089
806 2676 3152
834 2700 3216
610 2225 1760
594 2281 1883
578 2337 2007
570 2392 2130
575 2446 2253
581 2500 2376
595 2551 2492
614 2600 2604
632 2649 2716
657 2688 2810
682 2727 2903
708 2761 2989
735 2787 3060
763 2813 3131
791 2832 3191
821 2847 3245
850 2862 3300
734 2471 1960
704 2522 2074
673 2573 2188
651 2623 2302
647 2670 2415
642 2716 2528
649 2758 2634
662 2797 2735
675 2837 2836
698 2866 2919
722 2895 3002
747 2920 3078
775 2937 3141
803 2954 3204
834 2965 3256
865 2973 3304
896 2981 3352
859 2718 2160
814 2764 2265
769 2810 2370
733 2854 2474
718 2893 2578
703 2932 2681
703 2965 2775
711 2995 2866
718 3025 2956
740 3044 3029
761 3063 3101
786 3079 3167
815 3087 3222
844 3095 3276
876 3099 3322
909 3100 3363
943 3101 3405
1013 2932 2339
951 2974 2434
890 3016 2529
840 3055 2623
812 3088 2717
785 3121 2810
775 3146 2895
775 3168 2976
774 3190 3057
793 3201 3120
811 3212 3184
833 3219 3242
862 3220 3289
891 3221 3336
924 3218 3376
958 3213 3413
993 3208 3449
1223 3082 2479
1143 3121 2561
1064 3161 2644
996 3197 2727
951 3226 2811
905 3256 2895
882 3277 2972
869 3294 3045
856 3311 3118
868 3316 3176
880 3321 3234
897 3324 3287
924 3320 3330
951 3316 3373
982 3308 3410
1016 3299 3443
1050 3290 3476
1433 3232 2619
1335 3268 2689
1238 3305 2758
1152 3338 2830
1089 3365 2904
1026 3391 2979
989 3408 3048
964 3420 3113
939 3432 3179
944 3432 3231
950 3431 3284
961 3428 3332
986 3419 3371
1011 3410 3410
1041 3398 3443
1075 3385 3473
1108 3372 3502
1673 3320 2714
1560 3355 2772
1447 3390 2830
1343 3422 2891
1259 3447 2958
1175 3473 3025
1118 3489 3088
1075 3499 3149
1031 3510 3210
1026 3507 3260
1020 3505 3310
1022 3499 3356
1040 3487 3394
1059 3476 3432
1084 3461 3463
1113 3445 3490
1142 3429 3517
1928 3378 2786
1801 3412 2833
1673 3445 2879
1552 3476 2931
1444 3502 2991
1337 3529 3051
1258 3545 3110
1194 3556 3168
1130 3567 3226
1110 3563 3276
1090 3560 3325
1080 3553 3370
1091 3540 3408
1101 3527 3445
1120 3510 3475
1143 3491 3500
1165 3473 3525
2184 3437 2858
2042 3468 2894
1899 3500 2929
1761 3530 2971
1630 3557 3024
1499 3585 3078
1398 3601 3132
1313 3613 3188
1228 3624 3243
1194 3620 3291
1160 3615 3339
1139 3607 3384
1141 3593 3421
1144 3578 3459
1156 3559 3487
1172 3538 3510
1188 3517 3533
625 572 627
624 604 704
622 637 781
624 674 867
630 719 974
636 764 1081
647 818 1206
660 876 1339
674 934 1472
693 1002 1620
712 1069 1767
732 1137 1912
754 1206 2054
775 1275 2197
795 1338 2323
814 1399 2442
833 1460 2561
614 686 690
616 727 778
618 768 865
621 813 962
628 865 1077
635 917 1192
647 978 1323
661 1042 1460
675 1106 1598
694 1177 1744
714 1247 1890
734 1318 2034
757 1387 2171
779 1456 2308
800 1520 2430
820 1580 2544
841 1641 2658
603 800 753
608 849 851
613 899 949
619 951 1056
627 1011 1180
635 1071 1304
647 1138 1439
662 1207 1581
676 1277 1723
696 1351 1869
716 1425 2014
737 1498 2155
760 1568 2287
782 1637 2420
805 1701 2537
827 1762 2646
849 1822 2755
596 950 844
602 1006 952
608 1062 1060
615 1121 1175
624 1187 1306
633 1252 1437
646 1323 1576
660 1396 1721
675 1470 1865
695 1544 2007
716 1619 2149
737 1691 2286
760 1759 2412
783 1827 2537
807 1888 2648
830 1946 2750
853 2004 2853
596 1171 989
600 1231 1105
604 1291 1222
610 1354 1345
619 1421 1479
627 1488 1614
640 1559 1753
655 1631 1895
670 1703 2037
691 1774 2172
711 1844 2307
732 1911 2435
755 1973 2551
779 2034 2667
802 2088 2767
826 2138 2860
849 2188 2952
597 1392 1134
599 1456 1259
601 1520 1384
605 1586 1514
613 1655 1653
622 1724 1791
635 1795 1930
650 1866 2070
665 1937 2210
686 2003 2338
706 2069 2465
727 2131 2585
751 2186 2691
774 2241 2796
798 2287 2886
821 2330 2969
845 2372 3052
625 1647 1316
620 1711 1444
616 1775 1572
615 1840 1703
621 1906 1839
627 1972 1976
639 2038 2110
653 2104 2244
668 2169 2377
688 2227 2494
709 2286 2612
731 2340 2722
755 2386 2816
779 2432 2911
803 2469 2991
828 2503 3064
852 2537 3137
666 1920 1517
653 1981 1645
640 2043 1772
632 2105 1901
635 2166 2033
637 2227 2165
647 2285 2292
661 2343 2416
674 2400 2540
695 2449 2647
716 2498 2753
739 2542 2852
764 2578 2935
789 2614 3018
814 2643 3088
839 2667 3152
865 2692 3216
708 2192 1719
686 2252 1846
665 2311 1973
650 2369 2100
649 2425 2227
647 2481 2354
655 2533 2473
668 2582 2589
680 2632 2704
702 2671 2799
723 2710 2894
746 2745 2981
772 2771 3053
798 2797 3126
825 2816 3186
851 2831 3240
878 2847 3294
821 2435 1918
786 2490 2036
750 2544 2153
723 2597 2271
712 2646 2389
702 2694 2506
703 2737 2615
711 2778 2719
719 2818 2823
740 2848 2908
760 2877 2993
783 2903 3070
810 2920 3134
837 2938 3197
865 2949 3250
893 2957 3298
922 2966 3346
934 2677 2117
885 2727 2226
835 2778 2334
796 2825 2443
776 2866 2550
756 2908 2658
751 2942 2756
755 2973 2849
758 3005 2943
778 3024 3017
797 3044 3091
820 3060 3159
848 3069 3214
876 3078 3269
905 3082 3315
935 3083 3356
966 3084 3398
1075 2890 2297
1011 2936 2396
947 2982 2495
894 3025 2593
862 3060 2690
830 3096 2788
818 3123 2876
814 3146 2960
811 3170 3043
827 3181 3109
844 3193 3174
865 3201 3233
893 3203 3281
921 3204 3329
951 3201 3369
983 3197 3406
1014 3192 3442
1272 3044 2441
1191 3087 2527
1111 3129 2613
1041 3169 2700
993 3200 2787
945 3232 2875
920 3255 2955
905 3274 3031
890 3293 3107
901 3299 3166
911 3305 3225
927 3308 3279
953 3304 3323
979 3301 3367
1009 3294 3404
1040 3286 3437
1072 3277 3470
1469 3197 2585
1372 3237 2658
1275 3277 2732
1189 3312 2807
1125 3341 2885
1061 3369 2962
1022 3388 3034
995 3402 3102
969 3415 3170
974 3416 3223
978 3417 3277
990 3415 3326
1013 3406 3366
1037 3398 3406
1067 3387 3439
1098 3375 3469
1130 3362 3499
1698 3291 2684
1587 3328 2746
1476 3365 2807
1374 3400 2872
1290 3427 2942
1206 3455 3012
1149 3472 3077
1105 3485 3140
1061 3497 3203
1055 3496 3254
1048 3494 3304
1049 3489 3351
1067 3478 3389
1085 3467 3428
1110 3454 3459
1138 3438 3487
1166 3423 3515
1943 3354 2761
1820 3390 2811
1696 3425 2862
1579 3458 2916
1473 3487 2979
1367 3515 3042
1289 3533 3102
1225 3546 3162
1160 3558 3221
1140 3556 3271
1119 3554 3320
1108 3548 3366
1118 3535 3404
1128 3523 3442
1146 3507 3473
1169 3489 3499
1191 3471 3526
2188 3418 2837
2053 3451 2877
1917 3485 2916
1783 3517 2961
1656 3546 3016
1528 3575 3072
1429 3593 3127
1344 3606 3183
1259 3619 3239
1224 3616 3288
1189 3613 3336
1167 3607 3381
1168 3593 3419
1170 3578 3456
1182 3560 3486
1199 3540 3511
1216 3519 3536
800 597 644
779 629 724
757 660 804
740 696 893
733 741 1003
726 785 1113
728 841 1241
735 901 1379
741 962 1516
758 1036 1668
775 1110 1820
793 1184 1971
814 1262 2119
835 1340 2267
856 1413 2399
875 1484 2523
895 1555 2648
780 709 698
765 749 789
751 789 881
739 833 981
733 885 1100
727 937 1218
729 998 1352
735 1064 1493
741 1130 1634
757 1205 1784
773 1280 1935
791 1356 2082
812 1432 2224
834 1508 2366
855 1579 2492
876 1647 2610
897 1716 2728
759 820 752
752 869 855
744 918 958
738 970 1068
733 1029 1196
728 1088 1323
730 1155 1462
735 1226 1608
740 1297 1753
756 1374 1901
771 1451 2049
789 1528 2194
811 1602 2329
832 1677 2465
854 1746 2584
877 1811 2696
899 1876 2807
742 965 834
739 1021 947
736 1077 1060
733 1136 1180
730 1201 1315
726 1265 1449
728 1336 1592
733 1410 1739
738 1484 1886
753 1561 2031
768 1637 2175
785 1712 2314
807 1783 2442
829 1855 2570
852 1919 2682
875 1979 2786
898 2040 2889
733 1176 972
729 1237 1093
725 1298 1214
722 1361 1341
719 1428 1479
717 1494 1618
719 1565 1761
725 1638 1905
731 1710 2050
746 1782 2187
761 1853 2324
778 1922 2454
800 1986 2572
822 2050 2689
844 2105 2790
868 2157 2884
891 2209 2977
724 1388 1109
719 1453 1239
714 1519 1368
710 1585 1502
709 1654 1644
707 1724 1786
711 1794 1929
717 1865 2071
723 1936 2214
739 2003 2343
754 2069 2473
771 2133 2594
793 2189 2701
815 2245 2808
837 2292 2899
860 2335 2982
883 2379 3065
743 1634 1286
732 1700 1417
721 1765 1549
712 1832 1684
709 1899 1824
706 1965 1965
710 2031 2102
716 2097 2238
723 2162 2375
739 2221 2494
755 2279 2613
773 2334 2724
795 2381 2820
818 2428 2915
841 2466 2996
864 2500 3069
887 2534 3143
774 1896 1481
755 1961 1612
736 2025 1744
721 2089 1876
716 2151 2012
710 2214 2148
713 2273 2279
719 2331 2406
726 2388 2533
743 2437 2641
760 2486 2749
779 2531 2849
802 2568 2933
826 2605 3018
849 2633 3088
873 2658 3152
896 2683 3216
806 2159 1677
779 2222 1808
751 2285 1938
730 2347 2069
722 2404 2200
714 2462 2332
715 2514 2455
722 2564 2573
729 2614 2692
747 2654 2789
765 2693 2885
785 2728 2974
809 2755 3047
834 2781 3120
858 2800 3180
882 2816 3235
906 2831 3289
908 2398 1875
867 2457 1997
827 2515 2119
794 2571 2240
778 2622 2362
761 2673 2483
757 2717 2596
760 2758 2703
763 2799 2811
781 2829 2897
799 2859 2983
819 2885 3062
845 2903 3126
870 2921 3191
896 2933 3244
922 2941 3292
947 2950 3340
1009 2637 2074
956 2691 2186
902 2745 2299
858 2796 2411
833 2840 2523
808 2884 2635
799 2920 2736
799 2952 2833
798 2985 2929
816 3005 3005
833 3025 3081
853 3042 3150
880 3051 3206
907 3061 3262
934 3065 3308
961 3066 3349
989 3068 3391
1138 2849 2255
1071 2899 2358
1004 2949 2460
947 2995 2562
912 3033 2664
876 3071 2765
860 3100 2857
853 3125 2944
847 3149 3030
862 3162 3097
877 3174 3164
897 3183 3225
924 3185 3273
951 3187 3322
979 3185 3362
1007 3181 3399
1036 3176 3435
1321 3006 2403
1240 3052 2493
1158 3098 2583
1086 3141 2673
1036 3175 2764
985 3209 2856
957 3234 2939
940 3254 3017
923 3274 3095
933 3281 3156
942 3288 3217
957 3292 3272
982 3289 3317
1007 3287 3361
1035 3280 3398
1065 3272 3431
1094 3264 3465
1505 3163 2551
1408 3205 2628
1312 3248 2705
1226 3286 2784
1160 3317 2865
1095 3348 2946
1055 3368 3020
1027 3383 3090
999 3399 3161
1003 3401 3215
1007 3402 3270
1018 3401 3320
1041 3394 3360
1064 3386 3401
1092 3376 3434
1122 3364 3464
1152 3352 3495
1722 3261 2654
1614 3301 2720
1506 3341 2785
1406 3377 2853
1322 3407 2926
1238 3437 2998
1180 3456 3066
1136 3470 3131
1091 3484 3196
1084 3484 3247
1076 3483 3299
1077 3480 3346
1094 3469 3385
1111 3459 3424
1135 3446 3456
1163 3431 3485
1190 3417 3513
1958 3330 2735
1839 3368 2790
1720 3406 2844
1606 3441 2902
1502 3471 2967
1398 3501 3032
1320 3521 3094
1256 3535 3155
1191 3550 3216
1169 3548 3266
1148 3547 3316
1136 3543 3362
1145 3531 3401
1154 3519 3439
1172 3504 3470
1194 3486 3498
1217 3469 3527
2193 3399 2816
2063 3435 2860
1934 3470 2903
1806 3504 2951
1682 3535 3008
1558 3566 3066
1460 3586 3122
1376 3600 3179
1291 3615 3236
1255 3613 3284
1219 3612 3333
1195 3606 3378
1196 3592 3416
1196 3579 3454
1208 3561 3485
1226 3542 3512
1244 3522 3540
1030 630 659
987 661 745
945 693 831
909 729 926
886 774 1041
864 819 1156
854 876 1289
851 939 1430
848 1002 1572
860 1081 1728
871 1159 1884
885 1240 2038
905 1324 2190
924 1409 2341
944 1489 2477
964 1568 2605
983 1648 2733
999 739 704
967 779 802
935 819 899
907 863 1005
886 915 1129
865 967 1253
854 1030 1391
849 1097 1537
845 1165 1682
855 1244 1836
865 1323 1989
878 1403 2140
897 1485 2284
917 1566 2428
937 1643 2557
958 1717 2677
