Assets/1__3DArt/KimSe/artstation_asset/LUTs_pasterls/3DL/Emerald Oasis 01.3dl
# Enhanced with VOXCOLOR algorithms
0 64 128 192 256 320 384 448 512 576 640 704 768 832 896 960 1023
80 80 241
100 128 396
120 176 550
141 233 725
163 310 939
186 387 1153
209 486 1383
233 596 1622
256 706 1861
279 842 2084
302 978 2308
324 1117 2516
345 1262 2691
366 1407 2866
384 1541 2997
401 1670 3104
418 1799 3212
85 271 317
106 334 490
128 398 662
151 471 853
178 563 1078
204 655 1303
234 765 1538
264 884 1778
295 1003 2018
328 1140 2234
360 1276 2450
393 1413 2648
427 1551 2810
460 1688 2973
494 1813 3093
528 1933 3191
562 2052 3289
90 461 393
113 540 584
136 619 775
161 708 981
192 815 1217
223 922 1453
258 1043 1693
296 1172 1934
334 1301 2175
376 1438 2383
419 1575 2591
463 1710 2780
509 1839 2930
555 1969 3080
604 2085 3189
655 2196 3278
706 2306 3366
106 696 494
132 787 702
159 878 911
189 978 1131
227 1095 1375
264 1211 1618
308 1339 1859
356 1472 2097
403 1605 2336
457 1738 2533
511 1872 2730
567 2000 2907
626 2120 3043
685 2239 3180
749 2345 3277
815 2445 3356
881 2544 3435
144 1022 646
178 1117 869
213 1211 1093
252 1313 1324
302 1429 1569
352 1545 1815
410 1668 2048
472 1795 2276
533 1921 2504
602 2043 2684
671 2164 2865
741 2280 3025
813 2384 3146
885 2489 3266
961 2580 3351
1039 2665 3419
1117 2750 3487
182 1349 797
225 1447 1036
267 1544 1276
316 1648 1518
378 1764 1764
440 1879 2011
511 1998 2238
588 2118 2455
664 2237 2672
747 2347 2836
831 2456 3000
915 2559 3144
1000 2649 3248
1085 2738 3352
1173 2815 3425
1263 2886 3482
1352 2956 3539
282 1678 965
332 1771 1212
382 1865 1459
440 1963 1704
514 2071 1945
588 2178 2186
672 2286 2402
760 2394 2606
849 2502 2809
943 2597 2957
1036 2692 3104
1129 2781 3232
1221 2856 3323
1313 2931 3413
1406 2994 3476
1499 3052 3524
1593 3110 3573
412 2009 1141
469 2094 1391
527 2179 1641
594 2268 1885
680 2363 2119
766 2459 2352
861 2554 2555
961 2647 2743
1062 2741 2931
1163 2820 3062
1264 2900 3193
1364 2974 3306
1459 3035 3384
1554 3096 3462
1649 3146 3515
1743 3191 3556
1836 3237 3597
541 2340 1318
607 2416 1571
672 2493 1824
748 2572 2067
846 2656 2292
944 2741 2517
1051 2821 2707
1162 2900 2880
1274 2979 3053
1383 3044 3167
1492 3108 3282
1598 3167 3380
1697 3213 3445
1796 3260 3510
1892 3298 3554
1986 3331 3588
2080 3364 3622
784 2587 1476
848 2651 1717
913 2714 1958
989 2781 2189
1090 2851 2402
1191 2922 2615
1299 2989 2793
1411 3054 2953
1523 3120 3113
1630 3172 3218
1736 3225 3322
1838 3272 3411
1931 3310 3469
2024 3347 3528
2112 3376 3567
2198 3402 3598
2283 3428 3628
1027 2834 1635
1090 2885 1863
1154 2936 2092
1230 2989 2312
1334 3046 2512
1437 3103 2713
1547 3157 2879
1660 3208 3026
1773 3260 3174
1877 3301 3268
1980 3342 3362
2078 3378 3442
2165 3406 3494
2252 3434 3545
2332 3455 3581
2410 3474 3608
2487 3492 3635
1295 3044 1780
1354 3083 1994
1412 3123 2207
1485 3164 2412
1586 3209 2601
1687 3253 2790
1794 3295 2944
1904 3335 3082
2014 3375 3219
2113 3406 3305
2211 3437 3391
2303 3464 3464
2382 3484 3511
2461 3504 3558
2533 3519 3590
2601 3531 3615
2669 3544 3639
1615 3182 1899
1660 3211 2091
1705 3241 2283
1765 3272 2470
1855 3307 2647
1946 3342 2824
2042 3375 2970
2141 3407 3102
2240 3440 3233
2327 3464 3316
2414 3489 3399
2495 3511 3469
2564 3526 3515
2633 3542 3560
2694 3553 3591
2751 3562 3615
2809 3571 3638
1935 3320 2019
1966 3339 2189
1998 3358 2359
2045 3380 2527
2124 3405 2692
2204 3431 2858
2289 3456 2997
2378 3480 3122
2466 3504 3247
2542 3522 3327
2618 3541 3406
2688 3557 3474
2746 3569 3518
2804 3580 3563
2855 3588 3592
2901 3593 3615
2948 3599 3637
2238 3408 2118
2252 3419 2266
2265 3431 2414
2295 3445 2565
2357 3464 2719
2419 3483 2873
2488 3502 3006
2561 3521 3127
2634 3540 3248
2698 3555 3327
2762 3570 3406
2822 3583 3474
2871 3593 3519
2920 3602 3563
2961 3607 3592
2999 3610 3614
3037 3613 3635
2532 3470 2207
2526 3476 2334
2521 3481 2460
2531 3490 2592
2572 3504 2736
2613 3518 2880
2664 3532 3006
2719 3548 3124
2774 3563 3242
2826 3576 3322
2877 3588 3403
2925 3599 3471
2966 3607 3517
3007 3615 3563
3040 3618 3591
3070 3620 3612
3100 3621 3632
2826 3533 2296
2801 3532 2401
2776 3532 2506
2766 3534 2620
2786 3543 2753
2807 3552 2886
2839 3562 3007
2876 3574 3122
2914 3586 3237
2953 3596 3318
2992 3606 3399
3029 3615 3468
3062 3621 3515
3094 3628 3562
3120 3629 3591
3142 3629 3610
3164 3629 3629
322 119 242
319 166 406
316 214 570
316 272 752
323 351 971
330 429 1190
341 532 1423
355 648 1664
369 763 1905
387 907 2129
404 1052 2354
422 1201 2562
441 1357 2737
459 1513 2912
478 1659 3043
497 1799 3151
516 1939 3259
314 303 309
319 367 490
323 431 671
329 504 868
339 598 1099
350 691 1329
365 804 1567
383 927 1810
402 1050 2052
427 1193 2269
453 1337 2486
480 1481 2685
510 1628 2847
541 1774 3010
574 1908 3129
609 2036 3227
644 2164 3326
306 488 375
318 568 574
330 648 772
343 737 985
356 844 1226
370 952 1468
389 1075 1711
412 1206 1955
434 1337 2200
468 1479 2409
501 1622 2618
538 1762 2807
580 1898 2958
623 2034 3108
671 2157 3216
721 2273 3304
772 2388 3392
308 716 468
328 808 682
348 900 897
368 1001 1123
388 1117 1373
408 1234 1622
435 1362 1867
465 1496 2109
495 1631 2351
539 1768 2550
582 1905 2748
630 2038 2926
684 2162 3063
739 2286 3199
800 2396 3297
865 2498 3374
929 2601 3452
331 1034 612
358 1129 840
386 1224 1069
416 1326 1305
449 1442 1556
482 1558 1807
524 1682 2045
569 1809 2277
614 1936 2509
672 2061 2692
730 2185 2875
790 2304 3038
857 2412 3158
924 2520 3279
997 2614 3364
1072 2701 3431
1147 2788 3498
353 1351 756
389 1450 998
425 1548 1241
464 1652 1487
510 1767 1739
557 1883 1991
613 2001 2224
673 2122 2446
733 2242 2668
805 2354 2835
877 2465 3002
951 2570 3149
1030 2663 3254
1110 2755 3359
1193 2833 3431
1279 2905 3488
1364 2976 3544
435 1674 920
478 1768 1168
520 1862 1416
568 1960 1664
628 2067 1912
688 2175 2159
757 2283 2381
831 2392 2590
904 2500 2800
987 2597 2951
1070 2694 3102
1154 2784 3233
1240 2861 3324
1326 2938 3416
1414 3003 3479
1503 3061 3526
1592 3118 3574
547 1999 1093
595 2085 1343
644 2170 1594
701 2259 1841
774 2355 2080
847 2451 2320
929 2546 2529
1016 2640 2723
1102 2734 2917
1194 2815 3052
1286 2897 3187
1377 2972 3304
1467 3034 3383
1557 3096 3462
1647 3147 3515
1735 3193 3556
1824 3238 3597
658 2325 1266
713 2402 1518
769 2478 1771
834 2558 2017
920 2643 2248
1006 2727 2480
1101 2809 2676
1201 2889 2856
1300 2968 3035
1401 3034 3154
1502 3099 3273
1601 3159 3374
1695 3207 3441
1789 3254 3508
1879 3292 3552
1968 3325 3586
2057 3358 3619
882 2571 1425
936 2635 1666
990 2700 1907
1056 2766 2140
1146 2837 2360
1236 2909 2579
1334 2976 2763
1436 3043 2930
1539 3109 3096
1639 3162 3205
1739 3216 3313
1835 3264 3405
1924 3302 3465
2013 3340 3525
2097 3370 3565
2178 3396 3596
2259 3422 3626
1106 2818 1584
1159 2869 1814
1212 2921 2043
1278 2974 2264
1372 3032 2471
1465 3090 2678
1567 3144 2850
1672 3197 3004
1778 3249 3158
1876 3291 3255
1975 3332 3353
2069 3369 3436
2153 3398 3489
2237 3426 3543
2314 3448 3578
2387 3467 3605
2461 3485 3632
1357 3029 1732
1405 3069 1946
1453 3108 2161
1516 3150 2368
1609 3195 2563
1702 3241 2757
1803 3283 2917
1907 3324 3060
2011 3365 3204
2106 3397 3293
2200 3428 3383
2289 3456 3458
2367 3476 3507
2444 3497 3555
2513 3512 3588
2578 3524 3612
2643 3537 3637
1661 3170 1857
1697 3199 2049
1734 3229 2242
1786 3260 2431
1869 3296 2613
1953 3332 2795
2044 3366 2947
2139 3398 3083
2233 3431 3219
2318 3456 3305
2403 3482 3391
2483 3504 3464
2550 3520 3511
2618 3536 3558
2677 3548 3589
2732 3557 3613
2787 3566 3636
1965 3310 1981
1990 3330 2152
2014 3349 2324
2055 3371 2494
2129 3397 2664
2203 3423 2834
2285 3448 2977
2370 3473 3106
2456 3497 3235
2531 3516 3317
2606 3535 3400
2676 3552 3470
2734 3564 3515
2791 3576 3560
2841 3584 3591
2886 3589 3613
2932 3595 3636
2258 3401 2086
2267 3413 2236
2276 3424 2386
2302 3439 2538
2360 3458 2696
2418 3478 2854
2485 3497 2989
2556 3516 3113
2627 3536 3238
2691 3551 3319
2754 3566 3400
2813 3580 3470
2862 3589 3515
2911 3598 3561
2952 3604 3591
2989 3608 3613
3026 3611 3635
2545 3466 2182
2537 3471 2310
2529 3477 2438
2537 3486 2572
2576 3500 2718
2615 3514 2864
2664 3529 2993
2718 3545 3113
2773 3560 3234
2824 3573 3316
2875 3586 3397
2923 3597 3467
2963 3605 3513
3004 3612 3560
3037 3617 3590
3067 3619 3611
3097 3621 3633
2832 3531 2278
2807 3530 2384
2782 3530 2491
2772 3533 2606
2792 3542 2740
2812 3551 2875
2843 3562 2997
2881 3573 3114
2918 3585 3230
2957 3595 3312
2996 3605 3394
3033 3614 3464
3065 3620 3512
3097 3627 3559
3122 3629 3589
3145 3630 3610
3167 3631 3631
564 158 243
538 205 416
511 252 589
491 311 779
482 391 1003
474 472 1226
474 579 1463
478 699 1706
482 820 1949
494 973 2174
506 1127 2399
520 1285 2608
536 1452 2783
553 1619 2958
573 1776 3089
594 1927 3197
615 2079 3306
543 336 300
531 400 490
518 464 679
508 538 884
501 633 1119
495 727 1355
497 843 1596
503 970 1841
508 1097 2086
526 1247 2304
545 1398 2522
566 1550 2721
594 1704 2884
622 1859 3047
655 2002 3166
690 2138 3264
726 2275 3362
522 514 357
524 595 563
525 676 769
525 766 989
520 874 1236
516 981 1483
520 1106 1730
527 1240 1977
535 1373 2224
559 1521 2435
583 1668 2645
612 1814 2835
651 1957 2985
690 2100 3135
737 2228 3244
787 2349 3331
837 2471 3418
511 736 441
524 829 662
537 923 883
547 1024 1115
549 1140 1371
551 1256 1626
561 1385 1874
574 1521 2120
588 1656 2366
621 1797 2566
654 1938 2767
692 2075 2946
743 2204 3082
793 2333 3219
852 2446 3316
915 2552 3392
977 2658 3469
517 1045 578
538 1141 811
560 1237 1044
579 1340 1285
596 1455 1542
613 1571 1799
637 1695 2042
666 1824 2279
695 1952 2515
741 2079 2700
788 2206 2886
840 2328 3050
902 2440 3171
964 2552 3292
1033 2649 3377
1105 2738 3443
1176 2827 3509
524 1354 715
553 1453 961
582 1551 1206
612 1656 1455
643 1771 1713
674 1886 1971
714 2005 2209
758 2126 2437
802 2247 2665
862 2361 2835
923 2474 3005
987 2582 3154
1061 2677 3260
1135 2771 3366
1213 2851 3438
1295 2924 3494
1376 2996 3549
588 1670 874
623 1764 1124
659 1858 1374
697 1957 1625
743 2064 1879
788 2172 2132
842 2280 2360
901 2389 2575
960 2498 2790
1032 2597 2945
1104 2696 3099
1178 2788 3233
1259 2867 3326
1339 2946 3419
1422 3011 3482
1506 3069 3529
1590 3127 3576
682 1990 1044
722 2075 1295
762 2161 1546
808 2250 1796
868 2347 2041
928 2443 2287
997 2538 2503
1070 2633 2703
1143 2728 2904
1226 2810 3043
1308 2893 3182
1391 2969 3301
1475 3033 3382
1560 3097 3462
1644 3149 3516
1728 3194 3556
1812 3240 3597
775 2310 1213
820 2387 1466
865 2464 1718
919 2544 1966
993 2629 2204
1067 2714 2442
1151 2796 2646
1239 2877 2832
1327 2957 3018
1419 3024 3141
1512 3091 3264
1603 3151 3369
1692 3200 3437
1782 3249 3506
1867 3287 3551
1951 3320 3584
2034 3352 3617
980 2556 1374
1024 2620 1615
1067 2685 1856
1123 2752 2092
1202 2823 2317
1281 2895 2543
1369 2964 2733
1462 3031 2906
1555 3098 3079
1648 3152 3192
1741 3207 3304
1831 3256 3399
1917 3295 3461
2002 3334 3523
2081 3364 3563
2158 3390 3593
2234 3415 3623
1186 2802 1534
1228 2854 1764
1270 2906 1993
1326 2960 2217
1410 3018 2430
1494 3076 2643
1587 3131 2821
1685 3185 2981
1782 3238 3141
1876 3281 3242
1970 3323 3344
2059 3361 3430
2141 3390 3485
2222 3419 3540
2295 3441 3576
2365 3460 3603
2434 3478 3630
1418 3014 1685
1456 3054 1899
1494 3094 2114
1548 3136 2324
1633 3182 2524
1717 3228 2724
1811 3271 2890
1909 3313 3039
2007 3355 3188
2099 3387 3281
2190 3419 3374
2276 3448 3453
2352 3469 3502
2427 3490 3552
2494 3505 3585
2556 3517 3610
2617 3530 3634
1707 3157 1814
1735 3187 2008
1763 3217 2201
1807 3249 2393
1883 3285 2580
1960 3322 2767
2046 3356 2923
2136 3389 3064
2226 3423 3205
2309 3449 3294
2392 3474 3383
2470 3497 3459
2536 3514 3507
2603 3531 3555
2660 3542 3587
2713 3551 3611
2766 3561 3635
1996 3301 1944
2013 3320 2116
2031 3340 2289
2066 3362 2462
2134 3388 2636
2203 3415 2810
2281 3440 2956
2363 3466 3090
2446 3491 3223
2520 3510 3308
2594 3530 3393
2663 3547 3465
2721 3559 3511
2778 3571 3558
2827 3579 3589
2871 3585 3612
2915 3591 3635
2278 3393 2055
2283 3406 2206
2288 3418 2357
2309 3433 2512
2363 3452 2673
2417 3472 2834
2481 3492 2972
2550 3511 3100
2620 3531 3228
2683 3547 3311
2746 3562 3394
2805 3576 3465
2854 3585 3512
2903 3595 3558
2943 3601 3589
2980 3605 3611
3016 3609 3634
2558 3461 2157
2548 3467 2286
2538 3473 2416
2544 3482 2552
2580 3497 2700
2617 3511 2849
2665 3526 2980
2718 3542 3103
2771 3558 3225
2822 3570 3309
2873 3583 3392
2920 3594 3463
2961 3602 3510
3001 3610 3557
3034 3615 3588
3064 3618 3611
3093 3621 3633
2838 3528 2259
2813 3529 2367
2789 3529 2475
2779 3532 2592
2798 3541 2728
2817 3550 2863
2848 3561 2987
2885 3572 3105
2922 3584 3223
2961 3594 3306
3000 3604 3389
3036 3613 3460
3068 3619 3508
3099 3626 3556
3125 3629 3587
3148 3630 3610
3170 3632 3632
868 202 237
820 251 423
772 300 608
731 361 808
706 446 1038
681 530 1269
668 642 1509
661 768 1754
654 895 1999
659 1055 2223
664 1216 2448
671 1381 2655
684 1556 2828
697 1730 3002
715 1894 3131
736 2052 3239
757 2211 3346
836 374 285
806 440 485
776 506 686
748 582 900
724 679 1142
701 776 1384
688 896 1630
680 1028 1877
672 1159 2125
681 1315 2343
690 1471 2561
704 1629 2760
727 1790 2921
750 1951 3082
781 2099 3200
815 2240 3297
