Assets/1__3DArt/KimSe/artstation_asset/LUTs_pasterls/3DL/Emerald Oasis 03 S.3dl
# Enhanced with VOXCOLOR algorithms
0 128 256 384 512 640 768 896 1023
434 498 594
465 571 772
500 655 983
538 753 1226
581 864 1498
626 992 1784
671 1122 2058
715 1249 2312
755 1365 2537
434 755 764
470 857 982
511 975 1230
557 1107 1502
605 1252 1790
655 1401 2071
703 1543 2328
748 1676 2557
791 1797 2755
458 1186 1069
489 1299 1318
530 1430 1585
576 1573 1862
627 1725 2142
679 1869 2396
729 1999 2619
776 2115 2812
822 2217 2975
533 1734 1473
547 1841 1734
576 1964 1998
617 2095 2259
668 2230 2509
722 2348 2721
774 2449 2901
826 2534 3052
876 2604 3177
688 2342 1942
665 2427 2186
671 2521 2421
701 2619 2642
747 2715 2845
805 2792 3007
864 2853 3142
924 2900 3252
982 2934 3341
1035 2837 2351
952 2902 2549
913 2967 2738
912 3029 2913
941 3085 3069
997 3124 3191
1059 3150 3293
1125 3167 3377
1191 3176 3445
1506 3185 2657
1360 3239 2806
1264 3289 2952
1214 3331 3090
1206 3363 3213
1242 3376 3311
1295 3380 3394
1358 3376 3462
1422 3367 3517
2050 3400 2879
1849 3450 2973
1689 3494 3080
1572 3530 3189
1505 3551 3292
1503 3552 3379
1532 3544 3452
1578 3528 3513
1630 3508 3561
2618 3501 3035
2381 3543 3070
2153 3589 3138
1954 3629 3225
1802 3654 3320
1740 3656 3405
1725 3645 3478
1740 3625 3537
1766 3597 3581
774 550 628
715 617 816
684 701 1039
679 806 1295
694 933 1581
730 1088 1884
772 1250 2175
817 1411 2442
861 1564 2676
727 785 735
711 878 967
704 990 1232
708 1123 1521
722 1277 1828
752 1448 2126
787 1614 2397
827 1770 2636
869 1910 2838
711 1182 984
713 1286 1239
717 1408 1523
727 1549 1822
743 1706 2128
770 1868 2404
802 2018 2645
838 2150 2848
877 2261 3013
750 1691 1345
743 1792 1601
746 1909 1879
757 2037 2166
775 2176 2448
803 2311 2690
836 2428 2891
873 2525 3055
913 2598 3182
867 2264 1793
827 2350 2022
812 2443 2268
817 2541 2518
837 2643 2757
872 2735 2953
912 2810 3112
956 2866 3236
999 2902 3330
1163 2755 2221
1066 2824 2406
1010 2892 2603
991 2958 2802
1001 3021 2991
1041 3072 3142
1089 3108 3265
1141 3131 3360
1190 3141 3432
1577 3115 2562
1424 3175 2703
1318 3230 2857
1257 3277 3012
1239 3315 3158
1267 3336 3276
1311 3346 3372
1363 3346 3449
1414 3338 3507
2069 3352 2820
1873 3407 2916
1713 3457 3029
1594 3497 3149
1525 3524 3264
1520 3530 3360
1542 3524 3440
1581 3510 3505
1624 3490 3555
2597 3471 2998
2382 3522 3048
2170 3573 3124
1980 3617 3215
1831 3647 3312
1765 3652 3398
1743 3642 3471
1752 3622 3531
1775 3594 3578
1345 627 648
1183 694 872
1068 787 1127
995 907 1410
961 1056 1716
971 1234 2028
997 1417 2323
1035 1599 2589
1080 1772 2818
1232 841 686
1143 920 948
1071 1027 1244
1016 1165 1564
982 1334 1897
978 1529 2213
990 1720 2495
1016 1895 2738
1053 2047 2936
1162 1203 864
1113 1287 1137
1067 1398 1449
1028 1536 1784
997 1703 2125
986 1889 2431
989 2064 2691
1006 2217 2905
1036 2337 3070
1155 1671 1169
1111 1753 1427
1075 1856 1729
1045 1980 2053
1020 2126 2380
1009 2283 2662
1011 2425 2894
1024 2542 3075
1049 2626 3208
1226 2204 1585
1159 2276 1803
1113 2359 2067
1082 2456 2354
1064 2566 2645
1062 2679 2889
1072 2776 3084
1090 2851 3232
1115 2897 3335
1457 2679 2039
1341 2742 2207
1261 2807 2415
1213 2876 2646
1192 2949 2879
1202 3016 3074
1225 3070 3231
1255 3108 3350
1286 3127 3431
1790 3045 2428
1630 3103 2556
1509 3160 2715
1429 3212 2892
1389 3260 3070
1396 3293 3221
1422 3315 3343
1458 3325 3438
1495 3323 3504
2191 3298 2738
2003 3356 2832
1843 3410 2950
1718 3456 3081
1638 3491 3213
1621 3505 3327
1632 3507 3422
1660 3498 3498
1696 3481 3555
2627 3438 2953
2440 3493 3017
2247 3549 3102
2068 3600 3199
1923 3637 3300
1852 3647 3390
1823 3642 3468
1824 3624 3532
1844 3598 3581
2045 725 666
1798 801 941
1604 911 1243
1460 1055 1563
1367 1230 1892
1337 1427 2207
1338 1622 2496
1362 1810 2751
1402 1988 2965
1864 917 634
1705 982 934
1568 1088 1270
1455 1235 1629
1369 1424 1994
1325 1645 2326
1308 1857 2615
1316 2049 2857
1344 2207 3047
1740 1245 738
1636 1305 1035
1539 1402 1381
1451 1540 1756
1373 1720 2138
1321 1934 2475
1292 2136 2756
1285 2312 2981
1302 2444 3146
1686 1674 979
1602 1728 1245
1526 1813 1574
1454 1932 1939
1386 2086 2316
1334 2269 2643
1300 2441 2909
1287 2585 3112
1295 2685 3252
1710 2166 1356
1615 2214 1566
1537 2283 1849
1472 2374 2176
1414 2491 2521
1372 2627 2820
1346 2752 3061
1335 2855 3240
1340 2922 3356
1871 2621 1833
1739 2668 1982
1636 2725 2199
1558 2794 2461
1504 2874 2742
1478 2960 2991
1470 3037 3193
1474 3097 3344
1486 3135 3442
2109 2984 2273
1948 3035 2381
1816 3090 2542
1716 3146 2738
1651 3201 2951
1631 3249 3145
1632 3286 3306
1647 3312 3429
1670 3324 3511
2398 3249 2640
2225 3305 2726
2069 3361 2844
1939 3414 2983
1847 3457 3134
1813 3481 3275
1808 3492 3396
1823 3492 3493
1850 3484 3562
2712 3407 2900
2557 3464 2978
2387 3525 3070
2223 3581 3171
2082 3627 3277
2006 3644 3376
1970 3645 3464
1965 3632 3536
1983 3609 3590
2772 843 694
2490 934 1024
2246 1072 1381
2044 1248 1745
1893 1454 2100
1818 1664 2412
1786 1860 2686
1790 2043 2922
1822 2214 3117
2538 1009 599
2337 1063 937
2156 1174 1317
1999 1337 1718
1868 1549 2115
1785 1794 2461
1738 2025 2753
1724 2228 2989
1742 2388 3169
2374 1305 632
2228 1340 954
2094 1426 1335
1970 1567 1749
1856 1762 2170
1769 2003 2536
1709 2234 2838
1680 2432 3072
1683 2578 3237
2283 1699 808
2165 1723 1087
2058 1790 1442
1957 1902 1845
1858 2063 2265
1772 2272 2635
1707 2475 2936
1668 2650 3164
1658 2776 3314
2267 2155 1142
2150 2175 1349
2050 2224 1648
1959 2307 2009
1873 2426 2400
1797 2584 2754
1738 2739 3043
1699 2876 3258
1682 2976 3394
2359 2589 1632
2221 2614 1762
2105 2658 1982
2008 2721 2268
1927 2805 2591
1869 2908 2897
1828 3009 3152
1804 3099 3345
1796 3167 3467
2500 2946 2113
2349 2983 2197
2217 3030 2351
2106 3085 2559
2021 3145 2804
1974 3206 3048
1947 3261 3258
1938 3308 3422
1944 3344 3530
2671 3215 2534
2524 3264 2603
2381 3319 2712
2253 3375 2854
2152 3425 3024
2099 3459 3201
2074 3481 3359
2073 3493 3488
2091 3499 3578
2854 3385 2841
2736 3440 2929
2594 3503 3024
2448 3567 3126
2316 3621 3236
2234 3647 3351
2190 3654 3455
2180 3646 3543
2199 3628 3608
3302 956 738
3063 1078 1115
2832 1257 1521
2619 1472 1926
2438 1704 2303
2328 1912 2605
2267 2094 2859
2250 2257 3072
2273 2410 3249
3082 1103 617
2896 1165 981
2718 1294 1395
2553 1481 1828
2404 1715 2249
2297 1968 2599
2227 2201 2886
2196 2401 3114
2204 2559 3284
2926 1377 610
2780 1402 944
2644 1490 1346
2515 1639 1785
2392 1846 2229
2288 2099 2612
2211 2343 2925
2164 2556 3166
2153 2720 3332
2833 1746 740
2712 1751 1019
2603 1807 1384
2500 1914 1804
2397 2076 2248
2299 2296 2646
2218 2520 2974
2159 2725 3225
2130 2889 3389
2802 2178 1027
2687 2175 1223
2589 2206 1521
2500 2276 1893
2412 2388 2309
2326 2553 2702
2249 2732 3034
2186 2906 3288
2144 3061 3450
2843 2597 1501
2721 2601 1601
2617 2628 1808
2527 2679 2097
2447 2754 2445
2376 2863 2800
2313 2984 3109
2262 3108 3352
2224 3230 3511
2910 2948 1992
2787 2968 2033
2677 3003 2162
2580 3050 2364
2499 3106 2630
2437 3170 2928
2388 3239 3197
2351 3312 3417
2329 3389 3565
2990 3218 2440
2878 3256 2470
2765 3306 2550
2658 3360 2680
2566 3412 2863
2502 3449 3088
2457 3478 3301
2433 3505 3482
2432 3533 3608
3071 3393 2787
2985 3443 2865
2877 3510 2942
2760 3580 3030
2645 3642 3140
2560 3672 3284
2507 3679 3425
2487 3672 3548
2507 3657 3636
3644 1043 782
3467 1205 1195
3269 1427 1639
3066 1677 2075
2875 1925 2466
2744 2121 2757
2666 2282 2993
2635 2420 3185
2650 2549 3347
3482 1184 669
3334 1271 1051
3179 1430 1489
3021 1642 1944
2866 1888 2377
2744 2132 2721
2660 2350 2997
2615 2537 3213
2612 2688 3374
3364 1444 649
3244 1481 986
3125 1583 1399
3005 1742 1850
2882 1951 2303
2770 2198 2688
2680 2437 3003
2618 2655 3245
2590 2837 3413
3291 1795 746
3191 1800 1017
3099 1854 1381
3008 1958 1805
2913 2113 2256
2812 2327 2667
2720 2555 3013
2643 2782 3281
2587 2992 3460
3258 2205 986
3169 2194 1162
3093 2214 1450
3022 2271 1822
2948 2369 2247
2862 2528 2667
2774 2718 3031
2688 2928 3320
2609 3148 3512
3266 2612 1418
3180 2606 1485
3106 2621 1672
3041 2658 1958
2977 2720 2321
2906 2825 2716
2829 2957 3073
2749 3116 3365
2669 3300 3565
3283 2960 1893
3201 2971 1888
3129 2997 1986
3063 3034 2180
3001 3081 2463
2938 3144 2811
2871 3221 3139
2803 3320 3417
2738 3444 3612
3301 3234 2354
3229 3266 2335
3156 3314 2378
3085 3366 2492
3016 3416 2687
2949 3452 2963
2887 3484 3238
2835 3522 3477
2800 3576 3648
3314 3417 2744
3256 3468 2793
3185 3541 2834
3105 3620 2894
3017 3690 3001
2934 3717 3183
2867 3719 3377
2830 3706 3550
2837 3690 3671
3829 1101 817
3711 1303 1256
3549 1561 1726
3364 1836 2182
3174 2091 2580
3035 2269 2860
2949 2407 3080
2912 2521 3257
2921 2626 3405
3743 1247 741
3645 1379 1140
3520 1575 1595
3376 1810 2062
3222 2054 2493
3092 2271 2821
2997 2461 3081
2941 2625 3283
2926 2767 3435
3679 1502 730
3604 1575 1072
3515 1703 1490
3413 1873 1942
3296 2073 2389
3180 2290 2762
3079 2507 3068
2999 2718 3306
2947 2917 3475
3635 1837 807
3583 1866 1070
3527 1931 1428
3461 2033 1846
3380 2170 2290
3281 2359 2699
3178 2577 3050
3077 2816 3329
2983 3070 3522
3610 2227 996
3577 2227 1154
3545 2247 1430
3507 2292 1794
3457 2369 2218
3378 2510 2650
3279 2699 3037
3164 2937 3354
3034 3224 3575
3599 2620 1361
3577 2620 1401
3557 2630 1573
3532 2657 1857
3498 2703 2230
3434 2795 2654
3346 2930 3050
3232 3119 3385
3091 3368 3626
3589 2966 1797
3572 2980 1753
3557 3004 1830
3537 3035 2022
3509 3072 2323
3452 3127 2713
3371 3208 3094
3266 3329 3425
3139 3503 3667
3576 3247 2262
3558 3284 2198
3540 3334 2208
3518 3389 2309
3485 3437 2518
3424 3468 2845
3345 3499 3180
3257 3545 3478
3170 3623 3696
3557 3446 2714
3531 3505 2723
3504 3590 2716
3470 3681 2738
3421 3756 2838
3342 3778 3066
3259 3769 3320
3195 3746 3551
3174 3724 3712
3886 1124 835
3801 1357 1289
3662 1639 1772
3491 1927 2236
3307 2177 2633
3168 2336 2905
3083 2454 3116
3045 2548 3282
3051 2634 3421
3873 1287 821
3822 1482 1241
3724 1722 1709
3592 1973 2177
3439 2200 2593
3303 2370 2893
3200 2518 3131
3133 2654 3316
3103 2786 3461
3860 1542 839
3847 1681 1194
3796 1850 1616
3714 2030 2061
3605 2204 2485
3482 2368 2829
3367 2544 3115
3264 2735 3343
3179 2947 3512
3846 1865 905
3871 1946 1169
3868 2038 1521
3837 2138 1927
3774 2247 2349
3673 2391 2739
3553 2579 3083
3418 2818 3365
3271 3113 3571
3831 2232 1035
3890 2268 1186
3928 2300 1455
3939 2337 1811
3918 2390 2225
3844 2499 2655
3730 2674 3052
3574 2929 3388
3373 3277 3637
3815 2607 1308
3893 2631 1338
3952 2651 1510
3986 2673 1800
3989 2703 2183
3935 2776 2624
3833 2907 3046
3675 3116 3414
3453 3425 3692
3802 2949 1683
3880 2983 1623
3945 3016 1700
3989 3047 1905
4003 3077 2228
3958 3122 2651
3863 3202 3071
3712 3340 3445
3500 3557 3730
3788 3241 2150
3847 3296 2059
3903 3360 2053
3944 3421 2154
3957 3470 2382
3907 3494 2753
3812 3521 3139
3679 3573 3490
3515 3669 3751
3774 3469 2698
3790 3545 2662
3820 3649 2599
3844 3755 2580
3845 3837 2672
3775 3850 2948
3671 3827 3264
3568 3790 3556
3501 3758 3758
