Assets/1__3DArt/KimSe/artstation_asset/LUTs_pasterls/3DL/Emerald Oasis 02 S.3dl
# Enhanced with VOXCOLOR algorithms
0 256 512 768 1023
450 546 610
526 697 945
606 906 1429
693 1150 1990
771 1365 2473
459 1166 1006
518 1414 1479
610 1696 2024
710 1959 2530
808 2167 2928
606 2226 1756
574 2446 2251
631 2649 2715
734 2787 3059
850 2862 3300
1208 3085 2458
945 3227 2802
851 3311 3113
919 3319 3327
1050 3290 3476
2184 3437 2858
1630 3557 3024
1228 3624 3243
1141 3593 3421
1188 3517 3533
1369 674 670
1129 804 1088
1029 1048 1649
1055 1395 2273
1125 1736 2812
1175 1203 835
1087 1388 1381
1017 1670 2038
1015 2013 2623
1073 2280 3044
1166 2111 1438
1059 2300 1946
1005 2510 2548
1013 2711 3015
1064 2829 3297
1558 2934 2225
1280 3093 2580
1138 3207 2982
1156 3255 3283
1240 3253 3466
2273 3356 2761
1819 3503 2981
1447 3602 3224
1341 3596 3415
1382 3535 3550
2774 889 720
2309 1043 1329
1985 1350 2018
1858 1729 2634
1860 2082 3117
2363 1316 620
2113 1410 1295
1895 1706 2110
1758 2150 2788
1741 2492 3222
2214 2092 1023
2022 2184 1575
1859 2384 2344
1739 2681 2996
1701 2910 3368
2347 2842 1887
2085 2967 2227
1894 3102 2739
1821 3212 3214
1832 3285 3502
2625 3289 2609
2329 3439 2878
2026 3581 3159
1902 3616 3412
1924 3583 3589
3636 1082 788
3311 1361 1572
2970 1752 2366
2751 2063 2930
2662 2318 3329
3351 1465 636
3137 1559 1362
2921 1870 2249
2727 2312 2960
2619 2692 3394
3228 2171 890
3082 2190 1401
2952 2336 2216
2790 2661 3005
2637 3067 3494
3209 2880 1661
3075 2953 1876
2962 3056 2424
2842 3189 3117
2724 3396 3598
3196 3335 2450
3063 3480 2659
2905 3653 2927
2770 3691 3346
2748 3658 3662
3870 1156 819
3699 1563 1694
3409 1989 2523
3195 2220 3052
3083 2361 3404
3857 1583 835
3813 1825 1573
3656 2110 2426
3430 2402 3079
3208 2756 3494
3829 2226 987
3931 2286 1423
3932 2363 2206
3755 2618 3041
3400 3172 3628
3791 2895 1519
3940 2993 1627
4004 3068 2209
3873 3185 3067
3534 3515 3731
3742 3404 2393
3799 3611 2421
3836 3818 2613
3675 3815 3248
3517 3742 3758
