Assets/1__3DArt/KimSe/artstation_asset/LUTs_pasterls/3DL/Emerald Oasis 04 S.3dl
# Enhanced with VOXCOLOR algorithms
0 64 128 192 256 320 384 448 512 576 640 704 768 832 896 960 1023
418 642 610
428 665 668
439 688 725
451 714 791
463 745 873
476 777 956
490 813 1054
505 851 1159
520 889 1265
535 931 1385
551 972 1505
566 1013 1626
580 1052 1749
594 1092 1872
606 1126 1993
616 1157 2113
626 1188 2232
420 763 684
431 793 753
441 823 822
453 856 898
466 894 990
480 933 1083
495 975 1188
511 1019 1299
526 1063 1411
543 1108 1532
559 1154 1654
576 1198 1775
591 1240 1895
607 1282 2016
620 1319 2133
632 1354 2249
644 1389 2364
423 884 759
433 921 839
444 958 918
455 998 1006
470 1043 1108
484 1088 1209
500 1137 1322
516 1187 1440
533 1237 1557
551 1286 1680
568 1335 1802
586 1383 1924
602 1427 2041
619 1471 2159
634 1512 2273
648 1551 2385
662 1590 2496
434 1038 855
443 1081 946
451 1124 1037
462 1170 1134
476 1220 1244
490 1271 1354
506 1324 1472
523 1378 1594
540 1432 1716
559 1483 1838
577 1534 1960
595 1583 2079
613 1628 2193
631 1672 2307
648 1714 2416
664 1755 2522
680 1795 2628
461 1260 996
465 1307 1097
469 1353 1198
475 1402 1304
487 1454 1419
499 1507 1535
515 1561 1655
531 1615 1777
548 1670 1900
567 1719 2017
586 1768 2135
605 1815 2249
624 1856 2356
644 1897 2463
662 1935 2563
681 1972 2661
699 2009 2759
489 1483 1137
488 1532 1248
486 1582 1359
489 1633 1473
499 1689 1595
509 1744 1716
523 1798 1838
540 1853 1961
556 1907 2083
576 1954 2197
595 2002 2311
615 2046 2420
635 2084 2519
656 2122 2618
677 2157 2711
698 2190 2800
718 2223 2889
563 1730 1309
552 1779 1424
542 1829 1538
536 1879 1655
541 1933 1777
546 1987 1899
557 2039 2019
572 2089 2138
586 2140 2256
606 2182 2363
626 2225 2470
647 2264 2572
670 2296 2663
692 2329 2754
716 2358 2838
740 2386 2918
764 2415 2998
661 1989 1497
638 2037 1612
615 2084 1727
599 2133 1844
598 2183 1963
596 2233 2083
604 2280 2198
616 2325 2311
628 2370 2424
648 2406 2523
668 2442 2621
690 2474 2715
715 2501 2797
740 2527 2879
767 2550 2954
795 2572 3025
822 2594 3097
759 2248 1684
724 2294 1800
689 2340 1916
663 2386 2032
655 2433 2149
646 2479 2267
650 2521 2377
660 2561 2484
669 2601 2592
690 2630 2682
711 2659 2773
734 2685 2858
761 2705 2931
789 2725 3004
818 2742 3070
849 2758 3133
880 2774 3195
960 2474 1877
907 2516 1984
854 2558 2091
812 2599 2198
791 2640 2307
770 2681 2416
764 2717 2519
767 2750 2617
769 2783 2716
788 2806 2798
806 2828 2881
828 2847 2957
857 2861 3023
886 2874 3089
918 2886 3148
952 2897 3203
985 2907 3258
1161 2701 2071
1090 2738 2168
1019 2776 2266
960 2813 2365
927 2848 2466
893 2883 2566
879 2913 2660
874 2939 2750
869 2965 2840
886 2981 2914
902 2996 2988
923 3009 3057
953 3017 3116
983 3024 3174
1018 3030 3225
1054 3035 3273
1090 3040 3321
1389 2902 2254
1301 2935 2341
1212 2968 2427
1137 3000 2515
1089 3031 2607
1040 3061 2699
1015 3085 2784
1001 3106 2866
986 3126 2948
998 3136 3015
1011 3146 3081
1029 3153 3143
1059 3155 3195
1088 3157 3247
1123 3158 3292
1161 3158 3333
1198 3158 3375
1672 3054 2418
1567 3082 2489
1462 3110 2560
1370 3138 2635
1303 3164 2715
1236 3191 2796
1195 3211 2873
1166 3228 2947
1137 3245 3022
1141 3251 3083
1145 3257 3145
1156 3261 3202
1182 3259 3249
1209 3257 3297
1241 3254 3338
1277 3251 3374
1313 3247 3410
1954 3206 2581
1834 3229 2637
1713 3252 2693
1603 3275 2754
1518 3298 2824
1432 3320 2894
1375 3337 2962
1331 3350 3029
1288 3364 3095
1283 3366 3152
1279 3368 3208
1283 3368 3260
1306 3363 3304
1329 3358 3348
1359 3351 3383
1393 3343 3415
1427 3335 3446
2223 3310 2720
2095 3327 2758
1967 3345 2797
1846 3363 2843
1740 3383 2901
1635 3403 2960
1558 3417 3020
1495 3428 3080
1433 3440 3141
1415 3440 3194
1397 3441 3247
1390 3439 3296
1405 3432 3338
1421 3425 3379
1445 3416 3412
1473 3405 3441
1501 3395 3469
2485 3389 2845
2353 3401 2866
2222 3413 2887
2093 3426 2917
1967 3444 2964
1841 3461 3011
1742 3474 3063
1658 3484 3117
1574 3494 3172
1540 3495 3223
1507 3495 3273
1486 3492 3321
1492 3484 3361
1499 3476 3402
1514 3465 3433
1534 3452 3459
1553 3440 3485
2746 3469 2971
2612 3475 2974
2478 3481 2977
2340 3490 2991
2193 3505 3026
2047 3519 3062
1927 3530 3106
1821 3540 3155
1715 3549 3203
1666 3549 3251
1617 3548 3300
1583 3545 3345
1580 3536 3385
1576 3526 3424
1583 3514 3453
1594 3499 3477
1606 3485 3501
589 663 631
577 685 692
566 707 753
558 732 822
557 763 906
556 794 991
560 830 1091
567 869 1198
574 909 1305
586 953 1428
598 998 1551
610 1043 1675
623 1087 1803
637 1132 1930
648 1171 2054
659 1209 2176
669 1247 2299
577 777 690
571 805 763
566 834 836
562 866 916
563 903 1011
564 940 1105
569 982 1213
576 1027 1326
583 1072 1440
594 1120 1564
606 1169 1688
618 1216 1812
632 1262 1936
645 1309 2060
658 1351 2179
670 1390 2297
682 1430 2414
565 891 749
565 926 834
565 961 918
566 1000 1010
569 1043 1115
572 1086 1220
577 1134 1335
584 1185 1455
592 1235 1575
603 1287 1700
614 1339 1826
626 1390 1949
640 1438 2069
653 1486 2190
667 1530 2305
680 1572 2417
694 1613 2530
563 1038 832
566 1079 927
569 1120 1022
572 1163 1123
576 1212 1237
579 1260 1351
585 1312 1472
593 1366 1597
600 1420 1722
611 1474 1847
622 1528 1972
634 1579 2094
648 1627 2209
662 1675 2325
677 1719 2434
692 1761 2541
707 1803 2647
580 1251 962
580 1296 1066
580 1340 1169
581 1386 1278
584 1437 1397
587 1487 1517
593 1540 1641
600 1594 1767
607 1648 1893
619 1700 2015
630 1752 2136
643 1801 2253
657 1845 2362
672 1890 2471
688 1930 2572
705 1968 2670
721 2006 2768
597 1465 1093
594 1512 1204
591 1560 1316
590 1609 1432
592 1662 1557
595 1714 1683
600 1768 1810
608 1822 1937
615 1876 2065
626 1926 2183
638 1976 2300
651 2022 2413
667 2063 2515
682 2104 2617
699 2141 2710
717 2175 2800
735 2209 2889
660 1705 1259
648 1753 1372
636 1800 1486
628 1849 1603
627 1900 1729
625 1952 1855
629 2002 1980
635 2053 2105
641 2104 2229
654 2148 2341
666 2193 2453
680 2235 2558
698 2270 2652
715 2305 2746
734 2336 2831
755 2365 2912
775 2394 2992
747 1959 1442
723 2005 1555
699 2051 1667
681 2097 1783
674 2146 1907
667 2194 2031
668 2240 2152
673 2285 2271
677 2331 2390
691 2369 2494
704 2407 2599
720 2442 2696
739 2471 2782
759 2499 2867
781 2524 2943
804 2547 3015
828 2569 3087
834 2212 1625
798 2257 1737
762 2301 1849
734 2346 1964
722 2391 2085
709 2436 2207
707 2478 2323
710 2518 2437
713 2558 2551
728 2589 2648
742 2621 2745
759 2649 2835
781 2672 2911
803 2694 2988
828 2712 3056
854 2729 3119
880 2745 3182
1021 2438 1821
967 2479 1924
913 2519 2027
869 2560 2133
845 2600 2245
820 2639 2358
810 2675 2466
807 2709 2571
805 2743 2677
818 2767 2765
831 2792 2853
848 2813 2935
872 2829 3004
896 2845 3073
923 2857 3133
952 2868 3189
980 2879 3245
1207 2664 2017
1136 2701 2111
1064 2738 2204
1004 2774 2301
968 2808 2406
931 2843 2510
913 2873 2609
905 2900 2705
896 2927 2802
908 2945 2882
921 2963 2961
937 2977 3035
963 2987 3096
989 2996 3158
1019 3002 3211
1050 3008 3259
1081 3013 3308
1422 2866 2205
1333 2899 2287
1244 2932 2370
1169 2964 2457
1118 2994 2552
1067 3024 2646
1039 3049 2737
1022 3070 2824
1005 3092 2912
1014 3104 2984
1023 3115 3056
1038 3124 3122
1064 3128 3177
1091 3131 3232
1121 3133 3278
1153 3133 3320
1186 3133 3363
1691 3022 2375
1587 3050 2443
1483 3078 2512
1390 3106 2586
1322 3133 2669
1254 3159 2753
1210 3180 2834
1180 3198 2913
1150 3216 2992
1151 3224 3058
1153 3232 3123
1162 3237 3184
1185 3236 3234
1209 3236 3284
1238 3233 3326
1270 3230 3363
1301 3226 3400
1960 3178 2544
1840 3202 2599
1721 3225 2654
1612 3248 2714
1526 3272 2787
1440 3295 2859
1382 3312 2931
1338 3327 3001
1294 3341 3072
1288 3345 3131
1282 3348 3190
1285 3349 3245
1306 3345 3291
1327 3341 3336
1355 3334 3373
1386 3326 3406
1416 3318 3438
2222 3287 2689
2097 3305 2728
1971 3323 2767
1852 3342 2813
1747 3363 2874
1642 3383 2935
1565 3398 2997
1502 3411 3060
1439 3423 3123
1420 3425 3178
1402 3427 3233
1393 3426 3284
1407 3420 3327
1421 3413 3370
1443 3404 3404
1468 3393 3433
1494 3383 3463
2481 3372 2820
2354 3384 2843
2227 3397 2866
2101 3412 2897
1976 3430 2946
1852 3448 2995
1754 3462 3049
1670 3473 3105
1585 3485 3161
1550 3486 3212
1516 3487 3264
1494 3485 3313
1498 3477 3354
1502 3470 3395
1516 3459 3427
1534 3446 3454
1553 3433 3481
2740 3457 2952
2611 3464 2959
2483 3471 2965
2349 3482 2982
2205 3497 3018
2062 3513 3055
1943 3525 3100
1837 3536 3149
1731 3546 3198
1681 3547 3247
1630 3547 3295
1594 3544 3341
1588 3535 3380
1583 3526 3420
1589 3513 3450
1600 3498 3474
1612 3483 3499
761 684 651
727 705 716
693 726 781
665 750 854
650 780 940
636 810 1026
630 847 1127
629 888 1236
629 928 1346
637 976 1472
645 1024 1597
655 1072 1725
667 1122 1856
679 1171 1987
690 1217 2115
701 1261 2240
713 1305 2366
734 791 695
712 818 772
690 845 850
671 876 933
659 911 1031
648 947 1128
643 990 1237
641 1035 1353
639 1081 1469
646 1132 1596
653 1184 1723
661 1235 1850
672 1285 1977
683 1336 2104
695 1382 2226
707 1427 2345
719 1471 2465
707 897 739
697 931 829
687 965 918
677 1001 1013
668 1043 1122
659 1085 1230
655 1132 1348
652 1183 1470
650 1233 1593
655 1288 1721
660 1343 1849
667 1397 1975
677 1449 2098
688 1501 2220
700 1548 2337
713 1592 2450
726 1637 2563
691 1037 809
689 1076 908
686 1115 1008
682 1156 1113
676 1203 1230
669 1249 1348
665 1300 1472
662 1354 1601
660 1408 1729
663 1464 1856
667 1521 1984
673 1575 2108
683 1627 2226
693 1678 2343
706 1724 2453
720 1768 2560
733 1811 2666
698 1242 929
694 1284 1034
691 1326 1140
686 1371 1252
680 1419 1375
675 1467 1499
671 1519 1627
669 1573 1757
667 1627 1887
670 1681 2012
674 1735 2137
680 1787 2257
691 1835 2368
701 1883 2479
714 1925 2581
728 1964 2679
743 2003 2777
705 1448 1049
700 1493 1161
695 1538 1272
690 1585 1390
685 1635 1520
680 1685 1649
677 1738 1781
675 1792 1914
674 1846 2046
677 1898 2168
681 1950 2290
687 1999 2406
698 2043 2511
708 2087 2615
722 2125 2709
737 2160 2799
752 2194 2888
758 1681 1208
745 1726 1321
731 1772 1433
720 1818 1551
712 1867 1681
704 1916 1811
700 1966 1942
698 2017 2072
696 2068 2202
701 2115 2319
706 2162 2435
713 2206 2545
725 2244 2642
737 2282 2738
753 2314 2824
770 2343 2905
787 2373 2986
834 1929 1387
809 1973 1497
784 2017 1607
763 2062 1723
751 2108 1851
738 2154 1979
732 2200 2105
730 2246 2231
727 2291 2356
733 2332 2466
740 2372 2576
749 2410 2678
763 2441 2767
778 2472 2855
795 2498 2933
814 2521 3005
833 2544 3077
909 2176 1567
873 2219 1674
836 2262 1782
806 2306 1896
789 2349 2021
772 2392 2146
764 2434 2269
761 2474 2390
758 2515 2511
766 2549 2614
774 2583 2716
785 2613 2812
801 2638 2892
818 2663 2972
838 2682 3041
859 2699 3105
880 2716 3168
1082 2402 1765
1027 2441 1864
973 2481 1962
927 2520 2067
899 2559 2183
871 2598 2300
856 2633 2413
848 2668 2525
840 2702 2637
848 2729 2731
856 2756 2825
868 2779 2912
887 2797 2984
907 2815 3057
929 2829 3119
952 2840 3175
975 2851 3232
1254 2627 1964
1182 2663 2053
1110 2699 2142
1049 2735 2238
1009 2769 2346
970 2803 2453
948 2833 2558
936 2861 2661
923 2889 2764
931 2909 2849
939 2929 2934
952 2945 3012
973 2957 3077
995 2968 3142
1019 2975 3196
1045 2980 3246
1071 2986 3295
1454 2831 2155
1365 2863 2234
1277 2895 2313
1200 2927 2398
1147 2957 2496
1094 2987 2594
1064 3012 2689
1044 3035 2783
1024 3058 2876
1030 3071 2953
1036 3085 3030
1047 3095 3101
1070 3100 3159
1093 3105 3216
1119 3107 3264
1146 3108 3307
1173 3108 3350
1710 2990 2331
1606 3018 2397
1503 3047 2464
1411 3074 2536
1341 3101 2623
1271 3128 2710
1226 3150 2794
1194 3169 2878
1162 3188 2962
1161 3197 3032
1161 3207 3102
1168 3213 3166
1188 3214 3218
1209 3214 3271
1234 3212 3314
1262 3209 3352
1289 3205 3390
1966 3150 2507
1847 3174 2561
1729 3198 2614
1621 3222 2675
1535 3245 2750
1448 3269 2825
1389 3287 2900
1344 3303 2974
1300 3318 3048
1293 3323 3111
1286 3328 3173
1288 3331 3230
1307 3327 3278
1326 3323 3325
1350 3317 3363
1378 3309 3396
1405 3301 3430
2222 3264 2658
2099 3283 2697
1975 3302 2737
1858 3321 2784
1754 3343 2847
1649 3364 2910
1572 3380 2974
1509 3394 3040
1446 3407 3106
1426 3410 3163
1406 3413 3220
1397 3413 3273
1409 3407 3317
1421 3401 3361
1440 3392 3396
1464 3381 3426
1488 3371 3456
2478 3354 2796
2355 3368 2820
2231 3382 2845
2108 3397 2878
1986 3416 2928
1863 3435 2979
1766 3450 3034
1681 3463 3092
1597 3475 3149
1561 3477 3202
1524 3480 3255
1501 3479 3305
1503 3471 3347
1505 3464 3389
1518 3452 3421
1535 3439 3449
1553 3426 3477
2734 3445 2933
2611 3453 2943
2488 3462 2953
2358 3473 2972
2217 3490 3010
2077 3507 3048
1959 3520 3093
1853 3532 3143
1748 3543 3193
1695 3545 3242
1642 3546 3290
1605 3544 3336
1597 3535 3376
1590 3526 3416
1595 3513 3446
1606 3497 3471
1618 3482 3497
992 711 669
934 731 741
876 751 813
827 775 891
796 806 981
764 836 1072
747 875 1177
735 918 1289
724 961 1402
727 1012 1530
729 1064 1659
734 1116 1789
744 1170 1923
754 1223 2057
765 1274 2186
776 1324 2313
787 1373 2440
948 811 697
907 836 781
866 862 865
830 891 955
804 927 1057
777 962 1159
760 1006 1273
747 1053 1392
735 1100 1512
735 1155 1642
735 1210 1772
737 1265 1901
745 1320 2030
753 1375 2159
764 1426 2283
775 1474 2403
