Assets/1__3DArt/KimSe/artstation_asset/LUTs_pasterls/3DL/Emerald Oasis 01.3dl
# Enhanced with VOXCOLOR algorithms
0 256 512 768 1023
80 80 241
163 310 939
256 706 1861
345 1262 2691
418 1799 3212
144 1022 646
302 1429 1569
533 1921 2504
813 2384 3146
1117 2750 3487
541 2340 1318
846 2656 2292
1274 2979 3053
1697 3213 3445
2080 3364 3622
1615 3182 1899
1855 3307 2647
2240 3440 3233
2564 3526 3515
2809 3571 3638
2826 3533 2296
2786 3543 2753
2914 3586 3237
3062 3621 3515
3164 3629 3629
1296 258 218
1059 528 1081
945 1006 2061
936 1677 2874
983 2326 3373
1155 1088 482
1116 1509 1499
1057 2023 2527
1161 2526 3195
1382 2912 3526
1271 2298 1064
1360 2616 2078
1544 2950 2963
1810 3200 3425
2095 3354 3614
1985 3147 1692
2062 3272 2486
2312 3410 3163
2576 3505 3496
2781 3555 3634
2908 3527 2185
2860 3542 2689
2964 3584 3205
3101 3619 3503
3200 3636 3637
2851 484 177
2540 906 1269
2300 1535 2336
2168 2202 3055
2120 2762 3462
2677 1200 289
2484 1669 1412
2212 2255 2559
2110 2759 3240
2179 3103 3549
2625 2300 711
2498 2619 1768
2379 2971 2818
2392 3235 3388
2524 3391 3613
2859 3151 1377
2755 3264 2236
2760 3397 3039
2863 3499 3465
2990 3558 3639
3212 3534 1965
3140 3552 2578
3162 3590 3160
3252 3626 3500
3335 3647 3656
3483 628 226
3423 1199 1421
3331 1994 2556
3234 2625 3194
3175 3050 3520
3475 1248 242
3415 1788 1400
3272 2475 2614
3151 2972 3284
3121 3262 3572
3512 2248 467
3436 2600 1515
3300 2999 2691
3200 3285 3361
3204 3453 3623
3570 3117 1084
3480 3245 1949
3390 3391 2883
3353 3506 3432
3389 3583 3657
3608 3542 1809
3546 3568 2462
3498 3609 3104
3506 3642 3500
3550 3662 3682
3581 674 257
3641 1275 1457
3657 2141 2625
3626 2775 3243
3597 3148 3533
3657 1174 249
3713 1771 1404
3724 2549 2652
3677 3063 3317
3645 3329 3589
3773 2088 311
3810 2499 1339
3797 2978 2612
3739 3310 3363
3702 3500 3649
3861 3011 773
3864 3175 1639
3832 3365 2721
3777 3514 3411
3742 3612 3684
3870 3533 1799
3849 3568 2412
3815 3620 3054
3770 3656 3493
3742 3677 3694
