Assets/1__3DArt/KimSe/artstation_asset/LUTs_pasterls/3DL/Emerald Oasis 04.3dl
# Enhanced with VOXCOLOR algorithms
0 256 512 768 1023
418 642 610
463 745 873
520 889 1265
580 1052 1749
626 1188 2232
462 1260 996
487 1455 1419
548 1670 1900
625 1856 2356
699 2009 2759
763 2247 1688
656 2433 2151
671 2601 2593
763 2706 2931
880 2774 3195
1690 3051 2439
1311 3164 2723
1144 3245 3026
1189 3259 3252
1313 3247 3410
2746 3469 2971
2193 3505 3026
1715 3549 3203
1580 3536 3385
1606 3485 3501
1344 751 682
1053 876 1049
904 1039 1494
890 1248 2017
923 1461 2531
1174 1271 923
1038 1479 1426
890 1686 1951
855 1880 2428
892 2045 2833
1277 2146 1538
1068 2347 2034
936 2510 2522
928 2616 2889
979 2689 3162
1915 2946 2296
1509 3067 2612
1281 3157 2954
1278 3183 3205
1354 3178 3377
2761 3423 2883
2295 3474 2988
1841 3535 3180
1675 3536 3370
1686 3488 3498
2800 938 734
2288 1168 1329
1884 1418 1914
1723 1654 2447
1703 1892 2924
2503 1411 837
2180 1650 1487
1784 1893 2139
1577 2101 2647
1552 2281 3039
2399 2180 1325
2096 2376 1906
1755 2541 2503
1560 2655 2928
1533 2750 3219
2608 2927 2083
2231 3030 2467
1898 3117 2881
1765 3161 3185
1787 3188 3391
2963 3405 2728
2635 3453 2916
2245 3517 3151
2050 3544 3367
2033 3528 3522
3666 1088 794
3305 1447 1544
2893 1823 2255
2677 2086 2804
2633 2309 3258
3511 1529 811
3246 1847 1575
2860 2188 2358
2600 2431 2906
2545 2623 3296
3389 2228 1114
3178 2458 1787
2854 2678 2529
2587 2841 3051
2521 2983 3381
3346 2937 1804
3140 3050 2262
2866 3159 2803
2650 3242 3220
2621 3328 3492
3369 3412 2513
3196 3460 2781
2936 3526 3101
2735 3577 3384
2682 3609 3584
3886 1140 819
3646 1551 1619
3297 1984 2371
3107 2250 2925
3083 2425 3388
3861 1509 811
3717 1893 1613
3455 2323 2463
3251 2603 3047
3208 2787 3448
3826 2148 964
3765 2435 1683
3605 2747 2547
3424 2993 3176
3363 3187 3554
3789 2866 1526
3765 3018 2034
3674 3197 2723
3529 3363 3298
3448 3509 3644
3758 3372 2377
3721 3442 2661
3637 3555 3047
3497 3640 3428
3372 3694 3677
