Assets/1__3DArt/KimSe/artstation_asset/LUTs_pasterls/3DL/Emerald Oasis 04 S.3dl
# Enhanced with VOXCOLOR algorithms
0 128 256 384 512 640 768 896 1023
418 642 610
439 688 725
463 745 873
490 813 1054
520 889 1265
551 972 1505
580 1052 1749
606 1126 1993
626 1188 2232
423 884 759
444 958 918
470 1043 1108
500 1137 1322
533 1237 1557
568 1335 1802
602 1427 2041
634 1512 2273
662 1590 2496
461 1260 996
469 1353 1198
487 1454 1419
515 1561 1655
548 1670 1900
586 1768 2135
624 1856 2356
662 1935 2563
699 2009 2759
563 1730 1309
542 1829 1538
541 1933 1777
557 2039 2019
586 2140 2256
626 2225 2470
670 2296 2663
716 2358 2838
764 2415 2998
759 2248 1684
689 2340 1916
655 2433 2149
650 2521 2377
669 2601 2592
711 2659 2773
761 2705 2931
818 2742 3070
880 2774 3195
1161 2701 2071
1019 2776 2266
927 2848 2466
879 2913 2660
869 2965 2840
902 2996 2988
953 3017 3116
1018 3030 3225
1090 3040 3321
1672 3054 2418
1462 3110 2560
1303 3164 2715
1195 3211 2873
1137 3245 3022
1145 3257 3145
1182 3259 3249
1241 3254 3338
1313 3247 3410
2223 3310 2720
1967 3345 2797
1740 3383 2901
1558 3417 3020
1433 3440 3141
1397 3441 3247
1405 3432 3338
1445 3416 3412
1501 3395 3469
2746 3469 2971
2478 3481 2977
2193 3505 3026
1927 3530 3106
1715 3549 3203
1617 3548 3300
1580 3536 3385
1583 3514 3453
1606 3485 3501
761 684 651
693 726 781
650 780 940
630 847 1127
629 928 1346
645 1024 1597
667 1122 1856
690 1217 2115
713 1305 2366
707 897 739
687 965 918
668 1043 1122
655 1132 1348
650 1233 1593
660 1343 1849
677 1449 2098
700 1548 2337
726 1637 2563
698 1242 929
691 1326 1140
680 1419 1375
671 1519 1627
667 1627 1887
674 1735 2137
691 1835 2368
714 1925 2581
743 2003 2777
758 1681 1208
731 1772 1433
712 1867 1681
700 1966 1942
696 2068 2202
706 2162 2435
725 2244 2642
753 2314 2824
787 2373 2986
909 2176 1567
836 2262 1782
789 2349 2021
764 2434 2269
758 2515 2511
774 2583 2716
801 2638 2892
838 2682 3041
880 2716 3168
1254 2627 1964
1110 2699 2142
1009 2769 2346
948 2833 2558
923 2889 2764
939 2929 2934
973 2957 3077
1019 2975 3196
1071 2986 3295
1710 2990 2331
1503 3047 2464
1341 3101 2623
1226 3150 2794
1162 3188 2962
1161 3207 3102
1188 3214 3218
1234 3212 3314
1289 3205 3390
2222 3264 2658
1975 3302 2737
1754 3343 2847
1572 3380 2974
1446 3407 3106
1406 3413 3220
1409 3407 3317
1440 3392 3396
1488 3371 3456
2734 3445 2933
2488 3462 2953
2217 3490 3010
1959 3520 3093
1748 3543 3193
1642 3546 3290
1597 3535 3376
1595 3513 3446
1618 3482 3497
1344 751 682
1173 791 850
1045 848 1040
955 924 1253
901 1019 1489
887 1130 1751
890 1243 2016
903 1355 2278
923 1461 2531
1209 936 701
1124 990 914
1043 1062 1150
972 1152 1405
916 1263 1675
888 1391 1944
878 1516 2202
884 1632 2444
903 1733 2669
1138 1250 831
1091 1315 1064
1037 1395 1328
980 1491 1612
927 1605 1903
893 1731 2174
876 1851 2418
876 1957 2638
892 2045 2834
1147 1660 1068
1096 1730 1298
1046 1811 1568
995 1902 1861
947 2006 2157
914 2117 2419
897 2218 2646
896 2304 2840
911 2372 3004
1248 2132 1407
1159 2199 1611
1089 2272 1863
1033 2350 2140
988 2433 2422
963 2514 2663
955 2586 2864
961 2645 3030
979 2688 3163
1522 2576 1823
1370 2634 1983
1252 2695 2192
1167 2755 2427
1112 2814 2668
1096 2864 2872
1101 2904 3041
1121 2934 3177
1149 2953 3283
1894 2944 2222
1689 2992 2340
1520 3042 2502
1391 3089 2688
1307 3130 2881
1285 3157 3047
1291 3173 3184
1317 3179 3294
1354 3178 3378
2322 3228 2582
2090 3264 2659
1874 3304 2773
1690 3343 2909
1556 3374 3054
1504 3386 3183
1493 3385 3293
1512 3375 3383
1549 3357 3450
2761 3423 2883
2544 3444 2920
2295 3475 2986
2050 3508 3074
1842 3536 3177
1730 3544 3279
1676 3536 3368
1666 3517 3442
1686 3488 3498
2060 838 707
1804 879 927
1596 948 1163
1435 1042 1414
1320 1159 1677
1267 1289 1949
1243 1416 2216
1241 1539 2474
1254 1656 2719
1845 994 658
1693 1033 912
1551 1102 1192
1423 1201 1488
1315 1330 1791
1246 1483 2078
1205 1630 2344
1190 1764 2587
1199 1878 2807
1713 1280 725
1618 1321 986
1516 1388 1288
1414 1484 1613
1314 1609 1943
1237 1760 2240
1184 1906 2502
1158 2035 2729
1159 2138 2923
1670 1664 913
1587 1707 1156
1502 1770 1455
1414 1855 1786
1323 1964 2126
1245 2096 2423
1189 2221 2675
1157 2332 2884
1151 2417 3052
1720 2113 1228
1612 2155 1426
1516 2209 1696
1429 2278 2007
1346 2363 2333
1277 2461 2617
1229 2554 2851
1201 2635 3038
1193 2697 3179
1916 2548 1662
1758 2586 1805
1625 2633 2020
1515 2686 2280
1428 2746 2558
1375 2808 2805
1345 2865 3009
1333 2912 3169
1335 2948 3287
2190 2916 2093
1993 2951 2195
1820 2992 2357
1677 3036 2559
1571 3079 2779
1521 3113 2979
1500 3140 3147
1500 3159 3281
1517 3170 3379
2507 3206 2489
2298 3237 2562
2092 3274 2677
1909 3312 2820
1767 3346 2980
1698 3363 3133
1668 3369 3265
1670 3366 3373
1694 3357 3452
2835 3409 2816
2653 3432 2872
2433 3465 2949
2207 3501 3044
2007 3533 3151
1889 3546 3260
1825 3543 3359
1806 3528 3443
1821 3503 3506
2800 938 734
2509 987 1007
2252 1077 1297
2037 1201 1596
1869 1349 1894
1775 1499 2176
1721 1638 2443
1700 1768 2693
1703 1892 2924
2531 1067 623
2334 1094 918
2149 1166 1246
1980 1282 1589
1831 1437 1931
1727 1619 2239
1658 1791 2514
1622 1944 2757
1619 2070 2969
2354 1328 629
2216 1345 921
2080 1404 1263
1945 1504 1632
1813 1647 2004
1701 1827 2331
1618 2002 2612
1567 2158 2848
1553 2280 3040
2267 1689 766
2154 1704 1029
2042 1751 1359
1929 1831 1729
1809 1949 2111
1697 2104 2447
1607 2259 2728
1546 2400 2954
1520 2510 3127
2270 2118 1049
2147 2133 1252
2035 2169 1541
1927 2228 1884
1817 2313 2252
1714 2429 2581
1630 2547 2854
1568 2657 3068
1535 2748 3221
2389 2544 1492
2235 2560 1625
2097 2591 1846
1974 2636 2128
1864 2695 2443
1778 2768 2736
1712 2843 2983
1666 2914 3176
1643 2976 3311
2561 2909 1949
2385 2930 2037
2221 2960 2196
2075 2998 2409
1954 3040 2657
1875 3082 2899
1823 3120 3109
1794 3155 3276
1788 3187 3393
2760 3200 2376
2585 3224 2444
2402 3257 2557
2230 3294 2706
2084 3329 2882
1996 3350 3066
1944 3363 3231
1924 3370 3367
1931 3373 3465
2963 3405 2728
2821 3429 2805
2637 3463 2893
2439 3502 2995
2253 3539 3109
2131 3555 3232
2057 3557 3347
2026 3546 3446
2033 3528 3522
3330 1025 766
3082 1102 1082
2841 1228 1418
2619 1389 1758
2432 1568 2088
2315 1734 2381
2244 1878 2647
2211 2007 2890
2207 2128 3111
3085 1140 631
2899 1173 953
2717 1264 1315
2544 1406 1695
2386 1589 2070
2268 1793 2397
2185 1982 2681
2138 2147 2926
2126 2282 3133
2918 1385 602
2775 1395 911
2637 1457 1278
2501 1570 1677
2366 1732 2080
2247 1936 2433
2152 2134 2733
2089 2314 2980
2062 2460 3174
2825 1728 699
2706 1729 970
2594 1769 1316
2483 1851 1710
2366 1976 2121
2248 2150 2490
2147 2331 2800
2069 2505 3048
2023 2654 3230
2802 2140 942
2685 2139 1144
2580 2163 1440
2480 2215 1801
2375 2299 2197
2267 2427 2566
2167 2569 2879
2083 2716 3125
2021 2856 3296
2861 2557 1363
2731 2561 1481
2614 2581 1699
2506 2618 1992
2405 2673 2334
2310 2753 2675
2223 2846 2971
2149 2948 3206
2091 3056 3367
2951 2918 1815
2814 2932 1879
2684 2957 2027
2563 2990 2244
2454 3029 2516
2365 3073 2809
2289 3122 3072
2230 3179 3287
2189 3245 3436
3055 3208 2250
2926 3232 2298
2787 3266 2398
2648 3304 2547
2521 3340 2743
2425 3362 2972
2352 3378 3187
2304 3395 3369
2283 3418 3499
3158 3411 2618
3056 3441 2700
2918 3485 2789
2762 3533 2891
2605 3576 3015
2483 3593 3167
2396 3592 3318
2348 3580 3451
2342 3567 3549
3666 1088 794
3479 1204 1144
3272 1368 1514
3065 1561 1884
2876 1762 2235
2751 1931 2533
2674 2072 2800
2637 2195 3039
2633 2309 3258
3490 1202 671
3338 1260 1009
3178 1379 1392
3016 1546 1794
2860 1748 2188
2738 1958 2525
2651 2149 2815
2600 2316 3062
2585 2456 3270
3364 1436 632
3243 1459 944
3121 1537 1322
2998 1664 1736
2871 1837 2156
2753 2047 2525
2656 2255 2839
2585 2450 3097
2546 2621 3297
3287 1764 700
3188 1768 966
3094 1812 1315
3000 1897 1718
2898 2024 2145
2787 2204 2537
2683 2400 2872
2593 2602 3141
2524 2796 3336
3256 2157 900
3167 2156 1089
3089 2176 1381
3012 2223 1749
2929 2302 2162
2829 2433 2564
2725 2593 2913
2622 2776 3192
2525 2977 3385
3272 2562 1276
3184 2567 1372
3106 2584 1580
3031 2616 1878
2955 2665 2242
2867 2747 2626
2771 2854 2970
2670 2989 3249
2569 3154 3442
3302 2918 1701
3217 2937 1733
3135 2963 1865
3056 2995 2084
2977 3032 2381
2893 3077 2725
2804 3135 3044
2713 3214 3311
2626 3323 3497
3337 3208 2128
3260 3240 2145
3174 3284 2225
3084 3329 2371
2993 3368 2589
2901 3390 2870
2811 3407 3143
2732 3432 3378
2671 3477 3547
3369 3412 2513
3307 3455 2582
3220 3518 2653
3115 3584 2745
2998 3639 2879
2883 3653 3074
2783 3643 3275
2712 3624 3454
2682 3609 3584
3841 1126 813
3712 1283 1189
3542 1481 1582
3355 1698 1970
3173 1908 2330
3049 2071 2629
2974 2203 2894
2940 2314 3133
2939 2414 3353
3751 1250 731
3645 1350 1081
3515 1503 1476
3370 1692 1887
3221 1898 2284
3100 2095 2620
3012 2273 2909
2959 2431 3157
2940 2569 3367
3682 1479 704
3604 1536 1016
3512 1640 1394
3409 1781 1809
3294 1952 2229
3182 2148 2601
3083 2348 2921
3004 2546 3186
2949 2737 3394
3634 1791 756
3581 1820 1011
3524 1878 1352
3458 1966 1752
3377 2086 2180
3277 2255 2582
3172 2452 2934
3066 2672 3221
2967 2911 3431
3606 2162 908
3574 2177 1080
3543 2203 1363
3505 2248 1728
3452 2317 2148
3368 2440 2572
3262 2608 2950
3137 2823 3260
2995 3088 3478
3597 2553 1219
3576 2572 1292
3556 2594 1492
3530 2625 1794
3491 2668 2175
3420 2746 2595
3320 2862 2980
3191 3028 3302
3034 3254 3528
3590 2905 1598
3576 2936 1600
3560 2971 1719
3537 3008 1945
3502 3044 2266
3433 3088 2657
3335 3152 3029
3211 3254 3346
3062 3408 3573
3584 3194 2011
3570 3242 1994
3551 3301 2054
3522 3360 2200
3479 3407 2441
3401 3428 2775
3300 3445 3107
3185 3478 3398
3067 3542 3607
3575 3401 2427
3555 3463 2467
3526 3551 2506
3482 3643 2579
3419 3716 2721
3317 3728 2966
3204 3708 3227
3101 3675 3460
3032 3652 3627
3886 1140 819
3792 1329 1213
3646 1551 1619
3473 1778 2013
3297 1984 2371
3178 2133 2664
3107 2250 2925
3078 2344 3163
3083 2425 3388
3875 1283 802
3817 1440 1165
3714 1631 1564
3582 1834 1971
3435 2026 2355
3313 2187 2675
3223 2333 2954
3166 2468 3198
3140 2598 3411
3861 1509 808
3844 1626 1121
3791 1765 1494
3709 1915 1896
3605 2067 2299
3491 2223 2656
3386 2393 2970
3291 2579 3237
3212 2783 3450
3845 1803 854
3869 1881 1098
3866 1965 1426
3835 2056 1811
3776 2156 2225
3681 2292 2622
3567 2471 2979
3436 2697 3278
3292 2974 3503
3827 2148 953
3888 2199 1110
3927 2242 1382
3939 2286 1740
3921 2340 2156
3849 2443 2589
3737 2606 2986
3581 2843 3321
3379 3166 3566
3809 2522 1179
3890 2569 1238
3950 2606 1435
3986 2640 1745
3990 2676 2140
3936 2745 2584
3833 2864 3001
3670 3055 3358
3441 3338 3621
3792 2869 1498
3875 2923 1481
3943 2974 1600
3989 3021 1840
4004 3059 2187
3957 3101 2616
3855 3171 3031
3693 3292 3392
3464 3487 3658
3775 3161 1900
3841 3229 1856
3901 3309 1903
3945 3387 2054
3959 3446 2320
3904 3470 2703
3795 3489 3088
3639 3527 3429
3443 3607 3677
3758 3372 2377
3784 3455 2377
3820 3574 2371
3848 3698 2414
3850 3795 2562
3771 3810 2861
3643 3780 3183
3500 3732 3474
3372 3694 3677
