Assets/1__3DArt/KimSe/artstation_asset/LUTs_pasterls/3DL/Emerald Oasis 01 S.3dl
# Enhanced with VOXCOLOR algorithms
0 256 512 768 1023
80 80 241
163 310 939
256 706 1861
345 1262 2691
418 1799 3212
144 1022 645
302 1429 1569
533 1921 2504
812 2384 3145
1117 2750 3487
538 2340 1315
844 2656 2290
1270 2978 3051
1693 3212 3444
2080 3364 3622
1597 3182 1884
1845 3307 2639
2227 3439 3228
2551 3525 3512
2809 3571 3638
2826 3533 2296
2786 3543 2753
2914 3586 3237
3062 3621 3515
3164 3629 3629
1296 258 218
1040 507 1073
934 988 2054
933 1673 2872
983 2326 3373
1082 1073 451
1045 1395 1409
1036 1890 2430
1160 2473 3161
1382 2912 3526
1200 2264 1005
1300 2472 1918
1517 2797 2811
1803 3139 3372
2094 3354 3615
1948 3130 1650
2026 3209 2382
2283 3347 3068
2560 3479 3462
2779 3555 3635
2908 3527 2185
2860 3542 2687
2963 3585 3201
3100 3620 3501
3200 3636 3637
2851 484 177
2482 834 1241
2262 1473 2310
2161 2188 3049
2120 2762 3462
2457 1156 233
2224 1389 1243
2081 1906 2340
2082 2604 3152
2179 3102 3550
2403 2220 611
2233 2292 1481
2221 2581 2480
2345 3041 3245
2523 3388 3614
2772 3109 1313
2618 3114 2004
2647 3224 2768
2813 3405 3346
2987 3557 3641
3212 3534 1965
3135 3561 2555
3150 3608 3114
3246 3636 3477
3335 3647 3656
3483 628 226
3378 1136 1395
3300 1939 2532
3228 2612 3189
3175 3050 3520
3310 1206 196
3189 1470 1227
3135 2029 2348
3119 2726 3159
3122 3259 3573
3338 2187 402
3183 2221 1240
3133 2440 2250
3158 2906 3124
3206 3445 3627
3504 3088 1040
3339 3065 1632
3272 3125 2406
3314 3299 3174
3389 3578 3662
3608 3542 1809
3539 3617 2331
3488 3705 2863
3504 3700 3374
3550 3662 3682
3581 674 257
3641 1275 1457
3657 2141 2625
3626 2775 3243
3597 3148 3533
3660 1174 249
3767 1614 1309
3812 2212 2446
3747 2781 3190
3647 3325 3591
3778 2088 308
3924 2222 1150
3988 2400 2175
3910 2778 3073
3711 3479 3659
3865 3014 758
3984 3038 1339
4039 3084 2162
3965 3216 3058
3751 3590 3694
3870 3533 1799
3911 3682 2115
3942 3835 2533
3855 3787 3217
3742 3677 3694
