Assets/1__3DArt/KimSe/artstation_asset/LUTs_pasterls/3DL/Emerald Oasis 03 S.3dl
# Enhanced with VOXCOLOR algorithms
0 256 512 768 1023
434 498 594
500 655 983
581 864 1498
671 1122 2058
755 1365 2537
458 1186 1069
530 1430 1585
627 1725 2142
729 1999 2619
822 2217 2975
688 2342 1942
671 2521 2421
747 2715 2845
864 2853 3142
982 2934 3341
1506 3185 2657
1264 3289 2952
1206 3363 3213
1295 3380 3394
1422 3367 3517
2618 3501 3035
2153 3589 3138
1802 3654 3320
1725 3645 3478
1766 3597 3581
1345 627 648
1068 787 1127
961 1056 1716
997 1417 2323
1080 1772 2818
1162 1203 864
1067 1398 1449
997 1703 2125
989 2064 2691
1036 2337 3070
1226 2204 1585
1113 2359 2067
1064 2566 2645
1072 2776 3084
1115 2897 3335
1790 3045 2428
1509 3160 2715
1389 3260 3070
1422 3315 3343
1495 3323 3504
2627 3438 2953
2247 3549 3102
1923 3637 3300
1823 3642 3468
1844 3598 3581
2772 843 694
2246 1072 1381
1893 1454 2100
1786 1860 2686
1822 2214 3117
2374 1305 632
2094 1426 1335
1856 1762 2170
1709 2234 2838
1683 2578 3237
2267 2155 1142
2050 2224 1648
1873 2426 2400
1738 2739 3043
1682 2976 3394
2500 2946 2113
2217 3030 2351
2021 3145 2804
1947 3261 3258
1944 3344 3530
2854 3385 2841
2594 3503 3024
2316 3621 3236
2190 3654 3455
2199 3628 3608
3644 1043 782
3269 1427 1639
2875 1925 2466
2666 2282 2993
2650 2549 3347
3364 1444 649
3125 1583 1399
2882 1951 2303
2680 2437 3003
2590 2837 3413
3258 2205 986
3093 2214 1450
2948 2369 2247
2774 2718 3031
2609 3148 3512
3283 2960 1893
3129 2997 1986
3001 3081 2463
2871 3221 3139
2738 3444 3612
3314 3417 2744
3185 3541 2834
3017 3690 3001
2867 3719 3377
2837 3690 3671
3886 1124 835
3662 1639 1772
3307 2177 2633
3083 2454 3116
3051 2634 3421
3860 1542 839
3796 1850 1616
3605 2204 2485
3367 2544 3115
3179 2947 3512
3831 2232 1035
3928 2300 1455
3918 2390 2225
3730 2674 3052
3373 3277 3637
3802 2949 1683
3945 3016 1700
4003 3077 2228
3863 3202 3071
3500 3557 3730
3774 3469 2698
3820 3649 2599
3845 3837 2672
3671 3827 3264
3501 3758 3758
