Assets/1__3DArt/KimSe/artstation_asset/LUTs_pasterls/3DL/Emerald Oasis 02.3dl
# Enhanced with VOXCOLOR algorithms
0 128 256 384 512 640 768 896 1023
450 546 610
488 614 758
526 697 945
565 795 1170
606 906 1429
650 1029 1713
693 1150 1990
734 1264 2247
771 1365 2473
446 780 754
481 880 941
520 993 1164
564 1120 1416
611 1258 1694
661 1399 1979
709 1533 2246
755 1656 2489
799 1768 2703
459 1166 1006
484 1285 1230
518 1414 1479
561 1552 1746
610 1696 2025
661 1834 2290
711 1959 2530
760 2070 2744
808 2167 2928
507 1661 1347
511 1785 1595
532 1914 1855
568 2045 2118
613 2176 2379
663 2292 2611
714 2390 2812
766 2473 2986
818 2539 3132
610 2225 1760
578 2337 2007
575 2446 2253
595 2551 2492
632 2649 2716
682 2727 2903
735 2787 3060
791 2832 3191
850 2862 3300
859 2718 2160
769 2810 2370
718 2893 2578
703 2965 2775
718 3025 2956
761 3063 3101
815 3087 3222
876 3099 3322
943 3101 3405
1223 3082 2479
1064 3161 2644
951 3226 2811
882 3277 2972
856 3311 3118
880 3321 3234
924 3320 3330
982 3308 3410
1050 3290 3476
1673 3320 2714
1447 3390 2830
1259 3447 2958
1118 3489 3088
1031 3510 3210
1020 3505 3310
1040 3487 3394
1084 3461 3463
1142 3429 3517
2184 3437 2858
1899 3500 2929
1630 3557 3024
1398 3601 3132
1228 3624 3243
1160 3615 3339
1141 3593 3421
1156 3559 3487
1188 3517 3533
800 597 644
757 660 804
733 741 1003
728 841 1241
741 962 1516
775 1110 1820
814 1262 2119
856 1413 2399
895 1555 2648
759 820 752
744 918 958
733 1029 1196
730 1155 1462
740 1297 1753
771 1451 2049
811 1602 2329
854 1746 2584
899 1876 2807
733 1176 972
725 1298 1214
719 1428 1479
719 1565 1761
731 1710 2050
761 1853 2324
800 1986 2572
844 2105 2790
891 2209 2977
743 1634 1286
721 1765 1549
709 1899 1824
710 2031 2102
723 2162 2375
755 2279 2613
795 2381 2820
841 2466 2996
887 2534 3143
806 2159 1677
751 2285 1938
722 2404 2200
715 2514 2455
729 2614 2692
765 2693 2885
809 2755 3047
858 2800 3180
906 2831 3289
1009 2637 2074
902 2745 2299
833 2840 2523
799 2920 2736
798 2985 2929
833 3025 3081
880 3051 3206
934 3065 3308
989 3068 3391
1321 3006 2403
1158 3098 2583
1036 3175 2764
957 3234 2939
923 3274 3095
942 3288 3217
982 3289 3317
1035 3280 3398
1094 3264 3465
1722 3261 2654
1506 3341 2785
1322 3407 2926
1180 3456 3066
1091 3484 3196
1076 3483 3299
1094 3469 3385
1135 3446 3456
1190 3417 3513
2193 3399 2816
1934 3470 2903
1682 3535 3008
1460 3586 3122
1291 3615 3236
1219 3612 3333
1196 3592 3416
1208 3561 3485
1244 3522 3540
1369 674 670
1239 744 866
1139 830 1097
1070 936 1360
1033 1067 1654
1036 1228 1969
1056 1399 2274
1087 1570 2559
1125 1736 2812
1284 893 742
1205 992 981
1127 1105 1250
1060 1234 1543
1014 1380 1852
1009 1543 2158
1027 1705 2442
1059 1859 2698
1101 2000 2919
1215 1224 923
1159 1345 1193
1096 1476 1488
1036 1615 1795
991 1762 2105
984 1910 2389
1000 2048 2641
1031 2173 2860
1073 2281 3044
1181 1642 1200
1121 1776 1486
1063 1912 1788
1011 2047 2093
972 2180 2387
967 2299 2638
985 2404 2851
1016 2492 3029
1055 2562 3174
1197 2123 1562
1112 2255 1843
1043 2380 2131
993 2496 2412
962 2601 2673
967 2683 2880
991 2748 3051
1026 2797 3188
1064 2829 3297
1337 2573 1953
1209 2690 2199
1111 2794 2447
1044 2883 2686
1010 2956 2901
1021 3002 3067
1053 3033 3200
1095 3051 3307
1140 3057 3392
1574 2934 2294
1404 3035 2495
1267 3122 2698
1168 3191 2893
1113 3241 3069
1116 3263 3202
1144 3270 3310
1189 3266 3396
1240 3253 3465
1890 3198 2570
1686 3284 2720
1505 3359 2878
1359 3418 3034
1261 3457 3177
1236 3464 3289
1246 3457 3381
1282 3439 3456
1331 3414 3517
2273 3356 2761
2048 3432 2865
1819 3503 2983
1611 3561 3106
1446 3601 3227
1369 3606 3329
1340 3595 3417
1348 3569 3490
1382 3535 3550
2060 773 693
1863 860 943
1694 961 1219
1558 1079 1518
1461 1218 1833
1420 1384 2150
1408 1559 2450
1420 1737 2725
1450 1910 2967
1937 991 732
1802 1096 1014
1659 1217 1325
1526 1354 1653
1417 1505 1985
1367 1671 2296
1353 1836 2578
1367 1993 2827
1401 2137 3038
1832 1301 870
1730 1423 1175
1610 1557 1507
1488 1700 1850
1380 1851 2186
1326 2000 2479
1309 2141 2734
1322 2268 2949
1355 2377 3127
1758 1684 1103
1663 1816 1416
1556 1953 1753
1447 2092 2093
1349 2227 2417
1298 2349 2682
1283 2457 2903
1296 2548 3082
1327 2620 3225
1728 2119 1426
1615 2250 1731
1507 2379 2052
1408 2500 2368
1325 2610 2661
1287 2696 2888
1282 2766 3070
1298 2820 3213
1328 2857 3323
1797 2535 1808
1653 2652 2077
1527 2762 2356
1423 2859 2626
1348 2941 2872
1325 2995 3058
1331 3034 3205
1358 3058 3319
1395 3069 3407
1942 2880 2162
1773 2981 2384
1624 3074 2614
1503 3154 2837
1419 3215 3038
1398 3247 3189
1408 3263 3310
1441 3266 3404
1486 3260 3476
2153 3144 2464
1969 3230 2636
1794 3311 2815
1645 3379 2992
1535 3430 3154
1496 3449 3280
1494 3452 3382
1521 3442 3465
1567 3423 3530
2419 3316 2692
2234 3391 2814
2035 3465 2948
1846 3531 3084
1689 3582 3216
1608 3600 3328
1574 3599 3423
1576 3583 3502
1606 3555 3566
2774 889 720
2556 1002 1031
2347 1129 1363
2159 1267 1703
2004 1415 2041
1913 1576 2353
1861 1743 2639
1845 1912 2895
1860 2082 3117
2635 1106 729
2471 1225 1060
2286 1361 1419
2102 1511 1788
1937 1670 2145
1838 1833 2457
1786 1992 2730
1774 2144 2965
1795 2284 3161
2513 1401 823
2382 1526 1165
2221 1667 1540
2049 1819 1923
1885 1974 2289
1782 2122 2591
1729 2261 2844
1718 2386 3053
1740 2493 3221
2413 1755 1007
2295 1883 1348
2152 2023 1724
1997 2166 2105
1844 2305 2462
1745 2428 2744
1694 2538 2972
1683 2631 3152
1705 2705 3291
2342 2152 1286
2218 2275 1613
2081 2403 1968
1942 2528 2326
1809 2642 2656
1723 2734 2907
1683 2810 3104
1678 2870 3254
1700 2913 3366
2340 2533 1652
2197 2641 1942
2054 2750 2252
1920 2853 2561
1804 2942 2843
1740 3006 3055
1716 3053 3220
1724 3086 3345
1756 3106 3438
2390 2856 2014
2237 2948 2257
2086 3040 2515
1949 3126 2770
1838 3198 3002
1785 3241 3178
1771 3269 3316
1789 3282 3421
1831 3285 3500
2487 3111 2343
2334 3189 2535
2176 3268 2738
2029 3343 2939
1909 3405 3126
1852 3438 3271
1836 3453 3388
1853 3455 3481
1897 3446 3551
2625 3289 2609
2486 3356 2751
2325 3429 2902
2161 3499 3056
2016 3559 3204
1933 3592 3328
1894 3605 3434
1894 3601 3520
1924 3583 3589
3296 998 755
3119 1141 1118
2925 1301 1499
2731 1469 1879
2554 1631 2237
2430 1781 2540
2346 1926 2806
2302 2072 3038
2294 2221 3239
3184 1212 749
3040 1352 1120
2864 1513 1523
2673 1685 1929
2488 1855 2308
2358 2009 2615
2275 2152 2874
2237 2286 3091
2239 2412 3270
3080 1496 808
2960 1632 1180
2802 1790 1594
2622 1956 2014
2439 2119 2405
2306 2262 2710
2224 2391 2958
2189 2506 3157
2196 2607 3314
2988 1834 947
2880 1963 1310
2737 2109 1719
2574 2260 2136
2401 2405 2525
2271 2528 2820
2192 2636 3053
2160 2727 3232
2171 2803 3367
2908 2207 1178
2800 2324 1518
2668 2451 1903
2520 2579 2298
2366 2699 2665
2249 2795 2941
2180 2876 3153
2154 2942 3312
2170 2994 3426
2863 2567 1519
2746 2663 1818
2615 2767 2155
2479 2871 2499
2345 2966 2819
2250 3038 3061
2199 3095 3248
2187 3139 3387
2214 3172 3487
2848 2875 1879
2728 2952 2132
2597 3037 2412
2466 3122 2698
2345 3199 2965
2268 3254 3171
2231 3293 3331
2232 3320 3453
2272 3338 3542
2861 3123 2225
2745 3184 2429
2615 3255 2651
2486 3327 2878
2370 3393 3092
2299 3438 3263
2268 3466 3400
2274 3482 3508
2318 3488 3588
2900 3301 2522
2799 3352 2680
2675 3413 2849
2544 3479 3021
2419 3543 3188
2339 3587 3330
2299 3613 3450
2297 3623 3547
2331 3619 3622
3636 1082 788
3508 1247 1186
3345 1438 1604
3166 1633 2014
2989 1811 2388
2853 1951 2684
2754 2076 2935
2691 2196 3147
2662 2318 3329
3563 1288 777
3454 1448 1177
3304 1636 1613
3130 1832 2048
2949 2016 2445
2807 2160 2747
2708 2286 2992
2651 2398 3192
2634 2504 3355
3492 1563 813
3398 1713 1207
3263 1890 1650
3099 2075 2099
2922 2249 2511
2778 2387 2818
2679 2504 3059
2626 2605 3246
2618 2695 3393
3423 1889 915
3339 2025 1293
3217 2182 1728
3068 2345 2175
2902 2499 2590
2761 2622 2896
2666 2725 3131
2617 2812 3308
2617 2886 3438
3356 2247 1100
3274 2363 1449
3164 2495 1858
3031 2630 2284
2882 2757 2684
2753 2858 2982
2667 2942 3208
2626 3013 3373
2633 3073 3491
3297 2594 1410
3214 2686 1714
3109 2790 2072
2989 2897 2447
2860 2998 2804
2752 3078 3076
2683 3143 3284
2656 3198 3437
2675 3245 3544
3250 2899 1761
3166 2968 2018
3065 3048 2317
2954 3132 2631
2842 3213 2933
2754 3276 3170
2701 3326 3355
2688 3367 3494
2721 3401 3593
3216 3149 2120
3134 3199 2330
3037 3261 2568
2933 3328 2817
2831 3395 3059
2756 3448 3258
2714 3488 3418
2711 3518 3543
2751 3540 3634
3196 3335 2450
3122 3371 2617
3030 3421 2799
2930 3479 2987
2829 3539 3172
2757 3589 3332
2717 3626 3469
2713 3649 3580
2748 3658 3662
3819 1136 812
3733 1316 1229
3604 1528 1671
3448 1744 2101
3283 1936 2487
3149 2070 2778
3049 2178 3019
2978 2273 3218
2936 2367 3385
3786 1330 804
3712 1507 1221
3595 1718 1679
3447 1937 2136
3284 2134 2545
3146 2272 2843
3043 2380 3078
2976 2470 3264
2943 2552 3414
3750 1594 827
3687 1760 1235
3583 1957 1699
3449 2161 2170
3294 2348 2598
3155 2482 2905
3053 2588 3140
2989 2673 3318
2966 2748 3453
3711 1910 900
3656 2057 1288
3567 2229 1744
3448 2409 2215
3306 2574 2651
3173 2698 2966
3074 2796 3203
3016 2877 3376
3003 2947 3502
3667 2257 1043
3619 2380 1398
3542 2522 1827
3440 2669 2281
3316 2808 2710
3194 2915 3028
3105 3003 3266
3054 3077 3438
3051 3143 3556
3620 2601 1316
3573 2696 1623
3505 2807 2001
3416 2922 2407
3311 3032 2799
3209 3120 3100
3134 3194 3329
3096 3259 3496
3104 3317 3609
3572 2910 1654
3526 2980 1913
3462 3062 2230
3384 3150 2573
3295 3236 2910
3211 3308 3179
3152 3368 3390
3127 3421 3547
3147 3470 3654
3527 3173 2026
3479 3220 2239
3417 3279 2491
3345 3344 2763
3267 3412 3034
3199 3470 3261
3152 3520 3446
3138 3562 3588
3166 3598 3688
3485 3375 2403
3436 3405 2573
3374 3447 2761
3303 3497 2960
3229 3552 3161
3168 3603 3341
3129 3646 3494
3121 3678 3618
3151 3699 3708
3870 1156 819
3808 1341 1243
3699 1563 1694
3560 1789 2133
3409 1989 2523
3287 2121 2814
3195 2220 3052
3129 2296 3246
3083 2361 3404
3865 1332 819
3815 1519 1242
3722 1748 1712
3599 1984 2181
3458 2192 2598
3334 2328 2895
3240 2424 3125
3173 2494 3303
3134 2552 3442
3857 1583 838
3819 1761 1252
3744 1977 1729
3640 2201 2215
3515 2402 2655
3396 2536 2964
3302 2632 3196
3237 2702 3367
3204 2760 3493
3844 1887 892
3818 2048 1286
3762 2239 1756
3679 2437 2246
3574 2619 2700
3464 2746 3024
3375 2841 3264
3315 2915 3435
3290 2977 3553
3828 2226 998
3812 2363 1358
3774 2521 1806
3713 2686 2285
3628 2841 2741
3533 2957 3078
3454 3050 3328
3402 3126 3503
3385 3193 3619
3809 2571 1228
3800 2680 1541
3773 2805 1940
3727 2936 2377
3661 3061 2806
3583 3160 3135
3518 3243 3385
3476 3315 3563
3466 3381 3678
3788 2892 1548
3781 2974 1813
3760 3068 2150
3723 3168 2525
3671 3265 2899
3608 3346 3202
3556 3416 3438
3522 3479 3611
3518 3537 3722
3766 3174 1941
3756 3233 2157
3733 3300 2424
3697 3371 2718
3652 3442 3019
3601 3506 3277
3558 3563 3487
3533 3613 3645
3537 3658 3749
3742 3404 2393
3722 3443 2559
3689 3487 2747
3648 3534 2949
3600 3584 3162
3554 3632 3360
3518 3676 3529
3502 3713 3664
3517 3742 3758
