Assets/1__3DArt/KimSe/artstation_asset/LUTs_pasterls/3DL/Emerald Oasis 03 S.3dl
# Enhanced with VOXCOLOR algorithms
0 64 128 192 256 320 384 448 512 576 640 704 768 832 896 960 1023
434 498 594
449 534 683
465 571 772
482 610 869
500 655 983
518 700 1098
538 753 1226
559 808 1362
581 864 1498
603 928 1641
626 992 1784
649 1056 1924
671 1122 2058
694 1188 2192
715 1249 2312
735 1307 2425
755 1365 2537
434 627 679
451 670 778
468 714 877
486 761 984
506 815 1107
526 869 1230
548 930 1364
570 994 1504
593 1058 1644
617 1127 1786
640 1196 1928
664 1265 2065
687 1333 2193
710 1400 2321
731 1462 2434
752 1522 2540
773 1581 2646
434 755 764
452 806 873
470 857 982
490 912 1099
511 975 1230
533 1038 1362
557 1107 1502
581 1180 1646
605 1252 1790
630 1326 1931
655 1401 2071
679 1474 2205
703 1543 2328
726 1613 2450
748 1676 2557
770 1736 2656
791 1797 2755
440 928 883
458 983 1001
476 1039 1118
496 1099 1243
519 1168 1381
542 1238 1518
566 1312 1661
592 1390 1806
617 1467 1952
643 1544 2088
668 1620 2224
693 1694 2353
717 1762 2468
741 1831 2583
763 1893 2682
786 1951 2773
808 2010 2865
458 1186 1069
474 1243 1193
489 1299 1318
507 1360 1447
530 1430 1585
552 1499 1723
576 1573 1862
602 1649 2002
627 1725 2142
653 1797 2269
679 1869 2396
704 1937 2515
729 1999 2619
753 2061 2723
776 2115 2812
799 2166 2894
822 2217 2975
476 1445 1255
489 1502 1386
503 1559 1517
519 1621 1651
540 1691 1789
562 1761 1928
586 1834 2064
612 1908 2198
638 1982 2333
664 2050 2450
690 2117 2568
716 2181 2677
740 2236 2771
765 2291 2864
789 2338 2942
812 2382 3014
836 2425 3085
533 1734 1473
540 1788 1603
547 1841 1734
557 1899 1865
576 1964 1998
594 2029 2131
617 2095 2259
642 2163 2384
668 2230 2509
695 2289 2615
722 2348 2721
748 2403 2819
774 2449 2901
800 2496 2983
826 2534 3052
851 2569 3115
876 2604 3177
611 2038 1708
608 2086 1834
606 2134 1960
609 2185 2085
624 2242 2209
638 2300 2334
659 2357 2451
683 2415 2564
707 2472 2677
735 2521 2770
763 2570 2864
791 2615 2950
819 2651 3021
847 2688 3093
875 2717 3152
902 2743 3206
929 2769 3259
688 2342 1942
677 2384 2064
665 2427 2186
661 2472 2305
671 2521 2421
682 2571 2536
701 2619 2642
724 2667 2743
747 2715 2845
776 2754 2926
805 2792 3007
834 2827 3081
864 2853 3142
894 2880 3202
924 2900 3252
953 2917 3297
982 2934 3341
862 2589 2147
835 2627 2257
809 2664 2367
791 2703 2475
792 2744 2579
793 2785 2683
806 2824 2777
825 2862 2867
844 2900 2957
872 2929 3028
901 2958 3099
930 2984 3164
962 3002 3217
993 3020 3270
1024 3034 3314
1056 3044 3354
1087 3055 3393
1035 2837 2351
994 2869 2450
952 2902 2549
921 2934 2646
913 2967 2738
905 3000 2830
912 3029 2913
926 3057 2991
941 3085 3069
969 3105 3130
997 3124 3191
1026 3140 3247
1059 3150 3293
1092 3161 3339
1125 3167 3377
1158 3171 3411
1191 3176 3445
1240 3048 2530
1183 3076 2617
1126 3105 2704
1081 3133 2789
1061 3159 2871
1042 3185 2952
1040 3207 3025
1048 3227 3093
1056 3247 3161
1081 3259 3214
1106 3270 3267
1134 3279 3316
1167 3282 3356
1200 3285 3396
1234 3286 3429
1267 3285 3459
1301 3284 3488
1506 3185 2657
1433 3212 2731
1360 3239 2806
1299 3265 2879
1264 3289 2952
1228 3313 3024
1214 3331 3090
1210 3347 3152
1206 3363 3213
1224 3369 3262
1242 3376 3311
1265 3380 3356
1295 3380 3394
1326 3379 3431
1358 3376 3462
1390 3371 3489
1422 3367 3517
1772 3321 2785
1683 3347 2846
1594 3374 2907
1518 3398 2970
1466 3419 3033
1415 3440 3097
1387 3455 3155
1371 3467 3210
1356 3478 3266
1367 3480 3311
1379 3482 3355
1396 3482 3397
1424 3477 3431
1452 3472 3466
1482 3466 3495
1513 3458 3520
1544 3450 3545
2050 3400 2879
1950 3425 2926
1849 3450 2973
1759 3473 3024
1689 3494 3080
1618 3515 3136
1572 3530 3189
1539 3540 3241
1505 3551 3292
1504 3552 3336
1503 3552 3379
1510 3550 3419
1532 3544 3452
1553 3537 3486
1578 3528 3513
1604 3518 3537
1630 3508 3561
2334 3451 2957
2224 3474 2989
2115 3497 3022
2012 3519 3060
1921 3542 3109
1830 3564 3158
1763 3579 3207
1708 3591 3257
1654 3603 3306
1638 3603 3349
1622 3604 3392
1615 3602 3432
1628 3595 3465
1642 3587 3498
1659 3577 3525
1678 3565 3548
1698 3553 3571
2618 3501 3035
2499 3522 3053
2381 3543 3070
2265 3565 3096
2153 3589 3138
2042 3612 3180
1954 3629 3225
1878 3642 3273
1802 3654 3320
1771 3655 3362
1740 3656 3405
1721 3654 3445
1725 3645 3478
1730 3637 3511
1740 3625 3537
1753 3611 3559
1766 3597 3581
604 524 611
597 559 702
590 594 794
587 632 894
592 678 1011
597 724 1128
608 779 1260
623 839 1400
637 898 1539
658 969 1687
678 1040 1834
699 1112 1978
721 1186 2116
744 1260 2255
766 1330 2377
787 1397 2492
808 1465 2606
592 647 680
591 689 782
590 731 884
592 776 994
600 830 1121
608 884 1248
620 947 1386
635 1014 1530
650 1081 1674
671 1157 1820
691 1232 1966
711 1307 2108
733 1382 2240
755 1457 2371
777 1526 2487
798 1593 2594
819 1659 2702
580 770 750
586 819 862
591 867 975
598 920 1095
608 982 1231
618 1045 1367
632 1115 1511
648 1190 1660
664 1264 1809
683 1344 1954
703 1424 2099
724 1503 2237
745 1579 2363
766 1654 2488
787 1723 2597
809 1788 2697
830 1853 2797
576 935 853
585 989 975
594 1042 1096
604 1100 1224
616 1168 1367
628 1235 1509
643 1311 1657
659 1390 1808
676 1469 1958
695 1550 2099
715 1631 2240
735 1710 2374
756 1784 2491
777 1858 2609
798 1924 2710
819 1985 2802
840 2047 2893
584 1184 1026
593 1238 1152
601 1292 1279
611 1351 1410
624 1419 1554
636 1487 1697
652 1561 1842
668 1638 1989
685 1715 2135
705 1792 2268
724 1869 2400
744 1942 2524
765 2009 2632
786 2075 2739
807 2133 2830
828 2186 2912
850 2239 2994
593 1433 1199
601 1488 1330
608 1543 1461
618 1602 1597
631 1671 1741
644 1739 1885
660 1812 2028
678 1887 2170
695 1962 2312
714 2034 2436
734 2106 2560
754 2173 2675
774 2233 2772
795 2292 2870
816 2342 2950
838 2387 3022
859 2431 3094
642 1712 1409
643 1765 1538
645 1817 1668
649 1873 1800
661 1936 1939
672 2000 2077
687 2066 2212
704 2135 2345
721 2203 2478
742 2266 2592
762 2329 2705
783 2388 2810
805 2439 2896
827 2489 2983
849 2529 3054
872 2565 3117
894 2601 3179
710 2008 1638
702 2055 1762
695 2103 1886
693 2153 2011
701 2209 2142
709 2265 2272
723 2323 2396
740 2382 2518
757 2441 2640
779 2494 2741
801 2547 2843
823 2595 2936
847 2635 3011
871 2675 3087
895 2706 3149
918 2733 3203
942 2760 3258
778 2303 1867
762 2346 1986
746 2388 2104
737 2433 2223
742 2482 2344
746 2531 2466
759 2580 2580
775 2630 2691
792 2679 2801
815 2721 2891
839 2764 2980
863 2802 3062
888 2832 3127
914 2861 3192
940 2883 3244
965 2901 3290
991 2918 3336
938 2549 2077
908 2587 2184
877 2625 2291
856 2664 2398
852 2706 2508
848 2747 2617
855 2787 2719
868 2827 2817
882 2866 2915
905 2899 2994
929 2931 3074
954 2959 3145
981 2980 3203
1009 3002 3260
1036 3016 3306
1063 3027 3347
1091 3038 3387
1099 2796 2286
1054 2829 2382
1009 2863 2477
974 2896 2573
962 2929 2671
949 2963 2768
951 2994 2858
961 3024 2944
971 3053 3030
995 3076 3098
1019 3098 3167
1044 3117 3229
1074 3129 3279
1104 3142 3329
1133 3149 3369
1162 3154 3403
1190 3158 3438
1290 3008 2472
1230 3038 2556
1170 3067 2640
1123 3096 2725
1099 3124 2810
1076 3151 2896
1070 3175 2975
1075 3197 3051
1079 3218 3126
1101 3232 3186
1123 3246 3245
1148 3257 3300
1178 3262 3343
1208 3268 3387
1238 3269 3421
1268 3268 3452
1297 3267 3482
1541 3150 2610
1467 3179 2682
1392 3207 2754
1329 3235 2828
1291 3259 2904
1253 3284 2981
1235 3304 3051
1229 3321 3118
1222 3339 3186
1239 3348 3240
1255 3356 3294
1275 3362 3343
1303 3363 3383
1332 3364 3423
1360 3361 3455
1389 3357 3484
1418 3352 3512
1793 3292 2748
1703 3320 2808
1614 3347 2869
1536 3373 2931
1483 3395 2998
1430 3417 3065
1401 3433 3127
1383 3446 3186
1366 3459 3246
1377 3463 3294
1387 3466 3342
1403 3468 3386
1429 3464 3423
1455 3460 3460
1483 3453 3489
1511 3446 3515
1539 3438 3541
2059 3376 2849
1960 3402 2897
1861 3428 2945
1771 3453 2996
1701 3475 3055
1630 3498 3113
1583 3513 3169
1549 3525 3224
1515 3537 3278
1513 3539 3324
1511 3541 3369
1517 3540 3411
1537 3534 3446
1557 3528 3481
1579 3519 3509
1603 3509 3534
1627 3499 3558
2333 3431 2933
2227 3456 2967
2121 3480 3002
2021 3505 3042
1931 3528 3093
1842 3552 3143
1775 3568 3195
1720 3581 3246
1666 3594 3297
1649 3596 3341
1632 3597 3385
1624 3596 3426
1636 3589 3460
1647 3582 3494
1663 3571 3521
1681 3559 3545
1699 3547 3569
2607 3486 3016
2494 3509 3038
2382 3532 3059
2270 3556 3087
2162 3581 3131
2053 3605 3174
1967 3623 3220
1892 3637 3268
1817 3651 3316
1785 3652 3359
1752 3654 3402
1732 3652 3441
1734 3644 3475
1737 3636 3508
1746 3624 3534
1758 3610 3557
1771 3596 3580
774 550 628
744 584 722
715 617 816
692 655 919
684 701 1039
676 748 1159
679 806 1295
686 869 1438
694 933 1581
712 1010 1732
730 1088 1884
749 1167 2033
772 1250 2175
794 1332 2317
817 1411 2442
839 1488 2559
861 1564 2676
750 668 681
732 708 787
713 747 892
699 792 1005
694 846 1135
690 899 1266
693 964 1408
701 1035 1556
708 1105 1704
724 1186 1855
741 1268 2005
759 1349 2151
779 1432 2286
800 1514 2422
822 1590 2539
843 1664 2648
865 1737 2757
727 785 735
719 832 851
711 878 967
706 929 1091
704 990 1232
703 1051 1372
708 1123 1521
715 1200 1675
722 1277 1828
737 1362 1977
752 1448 2126
768 1532 2269
787 1614 2397
807 1696 2526
827 1770 2636
848 1840 2737
869 1910 2838
711 943 824
711 994 949
711 1045 1073
711 1101 1205
713 1167 1353
714 1233 1500
720 1309 1653
727 1390 1809
734 1470 1965
748 1557 2111
762 1643 2256
777 1727 2394
795 1806 2515
813 1885 2636
832 1955 2738
852 2019 2830
873 2084 2922
711 1182 984
712 1234 1111
713 1286 1239
714 1342 1374
717 1408 1523
721 1475 1671
727 1549 1822
735 1628 1975
743 1706 2128
756 1787 2266
770 1868 2404
784 1946 2534
802 2018 2645
819 2090 2756
838 2150 2848
858 2206 2930
877 2261 3013
711 1420 1143
713 1473 1274
714 1526 1405
717 1584 1543
722 1650 1693
727 1716 1842
734 1789 1992
743 1866 2141
752 1942 2291
765 2018 2422
778 2094 2552
792 2166 2673
809 2230 2774
825 2294 2875
844 2346 2958
863 2392 3030
882 2438 3103
750 1691 1345
746 1742 1473
743 1792 1601
742 1847 1735
746 1909 1879
749 1970 2023
757 2037 2166
766 2107 2307
775 2176 2448
789 2243 2569
803 2311 2690
818 2373 2800
836 2428 2891
854 2482 2982
873 2525 3055
893 2561 3118
913 2598 3182
808 1978 1569
797 2024 1690
785 2071 1812
777 2121 1938
779 2176 2074
780 2231 2209
787 2289 2342
797 2350 2472
806 2410 2603
822 2466 2712
838 2523 2821
855 2575 2921
874 2619 3002
894 2662 3082
914 2695 3145
935 2723 3201
956 2750 3256
867 2264 1793
847 2307 1907
827 2350 2022
813 2394 2141
812 2443 2268
810 2491 2395
817 2541 2518
827 2592 2638
837 2643 2757
855 2689 2855
872 2735 2953
891 2777 3042
912 2810 3112
934 2843 3182
956 2866 3236
977 2884 3283
999 2902 3330
1015 2510 2007
981 2548 2110
946 2587 2214
920 2626 2321
911 2667 2436
902 2708 2550
904 2750 2660
911 2791 2767
919 2832 2874
938 2868 2961
956 2903 3048
977 2935 3126
1001 2959 3188
1025 2983 3250
1048 2999 3298
1071 3010 3340
1094 3022 3381
1163 2755 2221
1114 2789 2313
1066 2824 2406
1028 2858 2501
1010 2892 2603
993 2926 2706
991 2958 2802
996 2990 2897
1001 3021 2991
1021 3047 3067
1041 3072 3142
1063 3093 3211
1089 3108 3265
1115 3123 3318
1141 3131 3360
1165 3136 3396
1190 3141 3432
1340 2968 2414
1278 2999 2495
1215 3030 2576
1164 3060 2660
1137 3088 2750
1110 3117 2841
1101 3142 2926
1101 3166 3009
1102 3189 3091
1121 3206 3157
1140 3222 3223
1161 3235 3283
1189 3242 3330
1216 3250 3377
1242 3252 3413
1268 3251 3445
1294 3250 3476
1577 3115 2562
1501 3145 2633
1424 3175 2703
1359 3204 2777
1318 3230 2857
1277 3256 2937
1257 3277 3012
1248 3296 3085
1239 3315 3158
1253 3326 3217
1267 3336 3276
1285 3344 3330
1311 3346 3372
1337 3349 3415
1363 3346 3449
1388 3342 3478
1414 3338 3507
1814 3263 2711
1723 3292 2771
1633 3320 2830
1555 3347 2893
1500 3371 2963
1445 3394 3032
1414 3412 3098
1395 3426 3162
1376 3441 3226
1386 3446 3277
1395 3451 3329
1410 3453 3376
1434 3450 3415
1459 3447 3453
1484 3441 3484
1509 3433 3511
1534 3426 3537
2069 3352 2820
1971 3379 2868
1873 3407 2916
1784 3433 2969
1713 3457 3029
1641 3480 3090
1594 3497 3149
1559 3510 3206
1525 3524 3264
1522 3527 3312
1520 3530 3360
1524 3530 3403
1542 3524 3440
1560 3519 3476
1581 3510 3505
1602 3500 3530
1624 3490 3555
2333 3412 2909
2230 3438 2945
2128 3464 2982
2030 3490 3024
1941 3515 3077
1853 3539 3129
1787 3557 3182
1732 3571 3235
1678 3585 3288
1660 3588 3334
1642 3591 3379
1633 3590 3421
1643 3583 3456
1652 3577 3490
1666 3566 3518
1683 3554 3542
1700 3542 3566
2597 3471 2998
2490 3496 3023
2382 3522 3048
2276 3547 3079
2170 3573 3124
2065 3598 3168
1980 3617 3215
1905 3632 3264
1831 3647 3312
1798 3649 3355
1765 3652 3398
1743 3650 3438
1743 3642 3471
1744 3634 3505
1752 3622 3531
1764 3608 3555
1775 3594 3578
1002 582 641
948 615 741
894 648 841
850 686 949
826 734 1075
802 782 1201
793 844 1341
791 913 1488
789 981 1635
803 1065 1790
816 1148 1945
832 1234 2097
853 1323 2241
874 1413 2385
897 1498 2512
919 1582 2629
942 1666 2746
964 695 678
926 733 789
887 771 900
855 814 1019
835 869 1155
816 923 1291
808 991 1439
805 1065 1592
803 1139 1745
813 1227 1899
824 1314 2053
838 1402 2202
856 1491 2340
875 1579 2478
895 1662 2597
917 1740 2706
