Assets/1__3DArt/KimSe/artstation_asset/LUTs_pasterls/3DL/Emerald Oasis 02 S.3dl
# Enhanced with VOXCOLOR algorithms
0 64 128 192 256 320 384 448 512 576 640 704 768 832 896 960 1023
450 546 610
469 580 684
488 614 758
507 651 842
526 697 945
545 743 1049
565 795 1170
586 851 1300
606 906 1429
628 968 1571
650 1029 1713
671 1090 1854
693 1150 1990
715 1210 2127
734 1264 2247
753 1314 2360
771 1365 2473
448 663 682
466 705 766
485 747 849
503 792 943
523 845 1055
543 898 1167
565 957 1293
587 1020 1428
609 1082 1562
632 1148 1704
655 1214 1846
678 1279 1985
701 1341 2118
724 1404 2251
745 1460 2368
765 1513 2478
785 1566 2588
446 780 754
464 830 848
481 880 941
499 933 1044
520 993 1164
541 1054 1284
564 1120 1416
588 1189 1555
611 1258 1694
636 1328 1836
661 1399 1978
685 1468 2116
709 1533 2246
732 1598 2375
755 1656 2489
777 1712 2596
799 1768 2703
449 935 853
464 991 956
480 1048 1059
497 1107 1170
518 1173 1297
540 1239 1424
563 1309 1560
588 1382 1702
612 1455 1843
638 1528 1983
663 1600 2123
688 1670 2257
713 1735 2381
738 1800 2504
761 1858 2613
785 1913 2715
809 1968 2816
459 1166 1006
471 1225 1118
483 1285 1230
498 1347 1348
518 1414 1479
538 1482 1610
561 1552 1746
585 1624 1885
610 1696 2024
635 1765 2157
660 1834 2290
686 1900 2416
710 1959 2530
735 2018 2644
760 2070 2744
784 2118 2836
808 2167 2928
469 1396 1158
478 1459 1279
487 1522 1401
499 1587 1527
518 1656 1661
537 1725 1795
559 1795 1932
583 1866 2069
607 1937 2206
632 2003 2331
658 2068 2457
683 2130 2575
708 2183 2680
733 2236 2784
758 2282 2874
782 2323 2957
807 2365 3039
506 1661 1345
508 1723 1470
510 1785 1594
517 1848 1721
532 1914 1854
547 1980 1987
567 2045 2118
590 2110 2248
612 2175 2378
637 2233 2494
663 2291 2610
688 2345 2718
714 2390 2812
739 2435 2906
765 2472 2986
791 2506 3059
818 2539 3132
556 1943 1551
550 2002 1675
543 2061 1799
542 2120 1925
553 2180 2053
563 2240 2181
581 2298 2304
601 2355 2425
621 2412 2547
646 2460 2651
671 2509 2756
697 2553 2853
724 2588 2935
750 2624 3018
778 2652 3088
806 2676 3152
834 2700 3216
606 2226 1756
591 2281 1880
576 2337 2004
568 2392 2128
574 2446 2251
580 2500 2375
594 2551 2491
612 2600 2603
631 2649 2715
655 2687 2808
680 2726 2901
706 2761 2987
734 2787 3059
761 2813 3130
790 2832 3191
820 2847 3245
850 2862 3300
728 2473 1951
699 2523 2067
670 2574 2183
649 2623 2298
644 2670 2412
640 2716 2526
647 2758 2631
660 2797 2733
673 2836 2834
696 2865 2917
719 2894 3000
744 2919 3076
773 2937 3139
801 2954 3202
832 2965 3256
864 2973 3304
896 2981 3352
850 2719 2147
807 2765 2255
763 2811 2362
729 2854 2468
715 2893 2573
700 2932 2677
700 2965 2772
708 2994 2862
715 3024 2953
736 3043 3026
758 3062 3098
782 3078 3165
812 3086 3220
841 3095 3274
874 3098 3321
908 3100 3363
943 3101 3405
1001 2934 2323
942 2976 2421
883 3017 2519
834 3055 2616
807 3088 2710
780 3121 2805
771 3146 2891
770 3168 2972
770 3190 3053
788 3200 3116
806 3211 3180
828 3219 3239
858 3220 3287
887 3221 3335
921 3218 3375
957 3213 3412
993 3208 3449
1208 3085 2458
1131 3123 2545
1055 3162 2631
989 3197 2717
945 3227 2802
900 3256 2888
877 3277 2966
864 3294 3039
851 3311 3113
863 3316 3171
875 3321 3230
892 3323 3283
919 3319 3327
947 3315 3372
979 3308 3409
1015 3299 3442
1050 3290 3476
1415 3235 2594
1321 3271 2668
1227 3307 2743
1143 3339 2818
1082 3365 2895
1020 3391 2971
983 3408 3041
958 3420 3107
932 3432 3174
938 3431 3226
943 3431 3279
955 3428 3328
980 3419 3368
1006 3410 3408
1038 3398 3442
1073 3385 3472
1108 3372 3502
1659 3323 2694
1548 3357 2756
1438 3391 2817
1336 3422 2881
1253 3448 2950
1170 3473 3019
1113 3489 3083
1070 3499 3144
1027 3510 3206
1021 3507 3256
1014 3505 3306
1017 3499 3353
1036 3487 3391
1055 3476 3430
1082 3461 3462
1112 3445 3489
1142 3429 3517
1921 3380 2776
1795 3413 2825
1669 3446 2873
1549 3476 2926
1441 3503 2987
1334 3529 3048
1256 3545 3108
1191 3556 3166
1127 3567 3224
1107 3563 3273
1087 3560 3323
1078 3553 3368
1089 3540 3406
1100 3527 3445
1119 3510 3474
1142 3491 3499
1165 3473 3525
2184 3437 2858
2042 3468 2894
1899 3500 2929
1761 3530 2971
1630 3557 3024
1499 3585 3078
1398 3601 3132
1313 3613 3188
1228 3624 3243
1194 3620 3291
1160 3615 3339
1139 3607 3384
1141 3593 3421
1144 3578 3459
1156 3559 3487
1172 3538 3510
1188 3517 3533
625 572 627
623 603 704
622 635 780
622 671 866
629 716 973
635 761 1080
646 815 1205
660 873 1338
673 932 1472
693 1000 1619
712 1068 1766
732 1136 1912
754 1206 2054
775 1275 2197
795 1338 2323
814 1399 2442
833 1460 2561
612 685 686
614 724 773
616 763 859
620 806 956
628 858 1071
636 910 1187
648 970 1318
662 1035 1456
677 1100 1595
696 1171 1742
716 1243 1889
736 1315 2033
758 1385 2170
779 1455 2308
800 1519 2430
821 1580 2544
841 1641 2658
600 798 745
605 845 842
611 892 939
618 942 1045
627 1001 1170
637 1059 1294
650 1126 1431
665 1196 1575
680 1267 1718
700 1343 1865
719 1418 2011
740 1493 2153
761 1564 2286
783 1635 2419
805 1700 2536
827 1761 2646
849 1822 2755
592 948 831
599 1001 937
607 1053 1044
615 1110 1159
626 1173 1291
636 1237 1422
650 1308 1564
666 1382 1710
681 1456 1856
701 1533 2000
720 1610 2144
741 1684 2283
763 1754 2410
785 1824 2536
807 1887 2647
830 1945 2750
853 2004 2853
592 1169 972
598 1225 1086
604 1282 1200
611 1341 1321
622 1406 1457
633 1471 1593
647 1542 1735
662 1615 1880
678 1688 2025
697 1760 2162
716 1833 2300
737 1903 2431
759 1967 2548
780 2031 2665
803 2086 2766
826 2137 2859
849 2188 2952
593 1390 1113
597 1450 1235
601 1510 1356
608 1572 1484
618 1639 1624
629 1706 1764
643 1776 1906
659 1847 2049
674 1919 2193
693 1988 2324
713 2057 2455
733 2122 2579
754 2179 2686
776 2237 2794
799 2285 2885
822 2328 2969
845 2372 3052
621 1646 1293
619 1706 1416
617 1765 1540
619 1826 1668
627 1890 1806
635 1954 1944
648 2019 2082
663 2085 2219
677 2151 2356
697 2212 2478
716 2273 2600
736 2330 2714
759 2379 2811
781 2428 2908
804 2467 2990
828 2502 3064
852 2537 3137
662 1919 1492
652 1976 1614
643 2034 1737
637 2092 1863
642 2150 1996
646 2209 2130
657 2267 2260
670 2325 2389
684 2383 2517
703 2434 2628
723 2486 2740
744 2533 2842
767 2572 2929
790 2611 3015
815 2641 3087
840 2666 3151
865 2692 3216
703 2192 1691
686 2247 1813
668 2302 1934
656 2357 2058
657 2410 2187
657 2464 2315
666 2515 2438
678 2565 2558
690 2615 2679
710 2657 2779
730 2698 2879
751 2736 2971
775 2765 3046
800 2794 3122
825 2814 3184
852 2830 3239
878 2847 3294
815 2435 1889
783 2486 2003
751 2537 2116
727 2587 2231
719 2633 2350
710 2680 2468
712 2722 2581
720 2763 2690
727 2804 2799
746 2836 2888
765 2867 2978
786 2895 3060
812 2915 3126
838 2934 3193
865 2947 3248
893 2956 3297
922 2965 3346
926 2679 2087
880 2725 2192
835 2772 2298
799 2817 2404
781 2856 2513
762 2896 2622
758 2930 2723
761 2961 2821
765 2993 2919
783 3014 2998
801 3036 3076
821 3054 3148
848 3065 3207
875 3075 3265
905 3080 3313
935 3082 3355
966 3084 3398
1065 2892 2267
1005 2935 2363
945 2978 2459
895 3018 2557
865 3052 2656
835 3086 2755
822 3113 2846
819 3137 2934
815 3161 3021
830 3174 3090
846 3186 3160
865 3196 3223
892 3199 3274
920 3202 3325
950 3200 3367
982 3196 3405
1014 3192 3442
1259 3046 2411
1182 3087 2496
1106 3127 2582
1039 3165 2669
993 3195 2758
947 3226 2848
922 3249 2930
906 3267 3009
891 3286 3088
901 3293 3150
911 3300 3213
926 3304 3270
951 3302 3317
977 3300 3364
1007 3293 3402
1040 3285 3436
1072 3277 3470
1453 3201 2555
1360 3238 2629
1267 3276 2704
1184 3311 2781
1122 3338 2860
1059 3366 2940
1021 3384 3014
994 3398 3084
968 3412 3154
972 3413 3210
976 3414 3266
987 3413 3318
1010 3405 3360
1034 3397 3402
1064 3387 3437
1097 3374 3468
1130 3362 3499
1685 3293 2661
1578 3330 2725
1470 3366 2788
1370 3399 2854
1287 3426 2925
1204 3453 2996
1148 3470 3063
1104 3483 3128
1060 3495 3192
1053 3494 3245
1046 3493 3297
1047 3488 3345
1065 3478 3385
1083 3467 3425
1108 3453 3458
1137 3438 3487
1166 3423 3515
1937 3356 2749
1815 3390 2801
1693 3425 2852
1577 3458 2907
1472 3486 2971
1366 3514 3034
1288 3532 3095
1224 3545 3155
1160 3557 3216
1139 3555 3266
1118 3553 3317
1107 3547 3363
1117 3535 3402
1126 3523 3441
1145 3507 3472
1168 3489 3499
1191 3471 3526
2188 3418 2837
2053 3451 2877
1917 3485 2916
1783 3517 2961
1656 3546 3016
1528 3575 3072
1429 3593 3127
1344 3606 3183
1259 3619 3239
1224 3616 3288
1189 3613 3336
1167 3607 3381
1168 3593 3419
1170 3578 3456
1182 3560 3486
1199 3540 3511
1216 3519 3536
800 597 644
778 627 723
755 656 802
738 690 891
731 734 1001
724 778 1111
727 834 1239
734 896 1377
741 958 1515
758 1032 1667
774 1107 1819
793 1183 1970
814 1261 2118
835 1339 2266
856 1413 2399
875 1484 2523
895 1555 2648
777 707 689
762 743 779
748 780 869
737 821 969
733 871 1088
728 922 1208
731 983 1343
738 1050 1485
745 1117 1628
760 1195 1780
776 1272 1932
793 1350 2080
814 1428 2223
835 1506 2365
856 1578 2491
876 1647 2609
897 1716 2728
753 817 735
747 860 836
741 904 936
736 951 1046
734 1008 1175
732 1065 1304
736 1132 1446
742 1204 1594
749 1276 1742
763 1357 1893
778 1438 2044
794 1517 2190
814 1595 2327
834 1673 2464
856 1743 2584
877 1810 2695
899 1876 2807
734 961 808
734 1010 918
733 1059 1028
733 1113 1147
733 1174 1284
733 1235 1421
737 1306 1567
743 1381 1718
750 1457 1869
763 1538 2018
777 1619 2166
793 1698 2308
812 1774 2438
832 1849 2568
853 1916 2681
876 1978 2785
898 2040 2889
726 1173 938
725 1226 1054
725 1279 1170
725 1335 1295
726 1398 1435
727 1461 1576
732 1531 1724
739 1605 1874
746 1679 2025
759 1756 2167
772 1832 2310
788 1906 2445
807 1975 2566
826 2043 2686
847 2102 2789
869 2156 2883
891 2209 2977
717 1385 1068
717 1442 1190
716 1498 1312
716 1558 1442
719 1622 1587
721 1686 1732
727 1756 1880
734 1828 2030
742 1901 2180
755 1973 2317
768 2046 2454
782 2114 2582
801 2176 2693
819 2238 2804
840 2288 2897
861 2333 2981
883 2379 3065
736 1631 1240
730 1688 1363
725 1746 1486
721 1804 1615
722 1866 1758
723 1928 1902
728 1993 2046
735 2060 2190
743 2126 2334
756 2191 2462
769 2255 2590
784 2315 2709
803 2368 2810
822 2420 2910
843 2462 2994
865 2498 3068
887 2534 3143
768 1895 1433
755 1951 1554
742 2007 1675
732 2063 1802
731 2120 1940
729 2177 2079
733 2236 2216
740 2295 2352
746 2354 2488
760 2408 2606
774 2463 2723
790 2513 2832
810 2555 2922
830 2597 3012
852 2629 3085
874 2656 3151
896 2683 3216
800 2158 1627
780 2213 1745
759 2268 1864
744 2322 1988
739 2374 2122
735 2427 2255
737 2479 2386
744 2530 2514
750 2581 2642
765 2626 2749
779 2670 2857
796 2711 2955
817 2743 3034
838 2774 3113
860 2796 3177
883 2814 3233
906 2831 3289
901 2398 1827
867 2449 1938
833 2501 2049
806 2550 2164
793 2597 2287
780 2643 2411
777 2687 2530
779 2729 2647
782 2771 2763
797 2806 2859
811 2840 2956
829 2870 3043
851 2893 3114
874 2915 3184
898 2929 3241
922 2939 3291
947 2950 3340
1001 2638 2027
954 2686 2130
907 2734 2233
868 2779 2339
846 2819 2453
825 2860 2567
817 2895 2674
815 2928 2779
814 2961 2884
829 2986 2969
843 3010 3055
861 3030 3132
885 3043 3193
909 3056 3255
935 3062 3305
962 3065 3348
989 3068 3391
1128 2850 2212
1067 2895 2306
1006 2940 2400
955 2982 2498
922 3017 2601
889 3052 2704
874 3080 2801
867 3106 2896
860 3132 2990
872 3147 3065
885 3162 3140
902 3174 3208
927 3178 3262
952 3183 3316
979 3183 3359
1007 3179 3397
1035 3176 3435
1310 3008 2364
1233 3051 2448
1157 3093 2533
1090 3132 2620
1042 3164 2714
994 3196 2807
966 3220 2894
949 3241 2978
931 3262 3062
939 3271 3130
947 3280 3197
960 3286 3258
984 3285 3307
1007 3284 3356
1035 3279 3396
1064 3271 3430
1094 3264 3465
1491 3166 2516
1399 3206 2591
1307 3246 2666
1225 3282 2743
1162 3311 2826
1098 3340 2909
1059 3360 2987
1031 3376 3061
1003 3392 3135
1006 3395 3195
1009 3398 3254
1018 3397 3308
1040 3391 3352
1063 3385 3396
1091 3375 3432
1121 3363 3464
1152 3352 3495
1712 3264 2629
1607 3302 2693
1502 3340 2758
1404 3375 2826
1322 3404 2900
1239 3433 2974
1182 3452 3044
1138 3466 3111
1093 3480 3179
1085 3480 3233
1077 3481 3288
1077 3477 3338
1093 3468 3379
1110 3458 3421
1134 3445 3454
1162 3431 3484
1189 3417 3514
1953 3331 2722
1835 3368 2776
1718 3405 2831
1605 3440 2888
1502 3469 2954
1398 3499 3020
1321 3519 3083
1257 3533 3145
1192 3548 3207
1170 3547 3259
1148 3546 3310
1136 3542 3358
1144 3530 3398
1153 3519 3437
1171 3503 3470
1194 3486 3498
1217 3469 3527
2193 3399 2816
2063 3435 2860
1934 3470 2903
1806 3504 2951
1682 3535 3008
1558 3566 3065
1460 3586 3122
1376 3600 3179
1291 3615 3236
1255 3613 3284
1219 3612 3333
1195 3606 3378
1196 3592 3416
1196 3579 3454
1208 3561 3485
1226 3542 3512
1244 3522 3540
1030 630 659
986 657 743
941 684 827
904 717 922
882 761 1037
860 805 1152
851 863 1285
849 928 1427
846 993 1570
858 1074 1726
870 1154 1883
885 1236 2038
904 1322 2189
924 1408 2341
944 1489 2477
964 1568 2605
983 1648 2733
993 735 689
960 769 785
928 802 880
901 841 985
882 890 1110
864 940 1235
855 1003 1376
852 1072 1523
849 1142 1671
859 1225 1827
869 1309 1983
882 1392 2136
900 1477 2281
918 1562 2427
938 1641 2556
959 1716 2677
