Assets/1__3DArt/KimSe/artstation_asset/LUTs_pasterls/3DL/Emerald Oasis 02 S.3dl
# Enhanced with VOXCOLOR algorithms
0 128 256 384 512 640 768 896 1023
450 546 610
488 614 758
526 697 945
565 795 1170
606 906 1429
650 1029 1713
693 1150 1990
734 1264 2247
771 1365 2473
446 780 754
481 880 941
520 993 1164
564 1120 1416
611 1258 1694
661 1399 1978
709 1533 2246
755 1656 2489
799 1768 2703
459 1166 1006
483 1285 1230
518 1414 1479
561 1552 1746
610 1696 2024
660 1834 2290
710 1959 2530
760 2070 2744
808 2167 2928
506 1661 1345
510 1785 1594
532 1914 1854
567 2045 2118
612 2175 2378
663 2291 2610
714 2390 2812
765 2472 2986
818 2539 3132
606 2226 1756
576 2337 2004
574 2446 2251
594 2551 2491
631 2649 2715
680 2726 2901
734 2787 3059
790 2832 3191
850 2862 3300
850 2719 2147
763 2811 2362
715 2893 2573
700 2965 2772
715 3024 2953
758 3062 3098
812 3086 3220
874 3098 3321
943 3101 3405
1208 3085 2458
1055 3162 2631
945 3227 2802
877 3277 2966
851 3311 3113
875 3321 3230
919 3319 3327
979 3308 3409
1050 3290 3476
1659 3323 2694
1438 3391 2817
1253 3448 2950
1113 3489 3083
1027 3510 3206
1014 3505 3306
1036 3487 3391
1082 3461 3462
1142 3429 3517
2184 3437 2858
1899 3500 2929
1630 3557 3024
1398 3601 3132
1228 3624 3243
1160 3615 3339
1141 3593 3421
1156 3559 3487
1188 3517 3533
800 597 644
755 656 802
731 734 1001
727 834 1239
741 958 1515
774 1107 1819
814 1261 2118
856 1413 2399
895 1555 2648
753 817 735
741 904 936
734 1008 1175
736 1132 1446
749 1276 1742
778 1438 2044
814 1595 2327
856 1743 2584
899 1876 2807
726 1173 938
725 1279 1170
726 1398 1435
732 1531 1724
746 1679 2025
772 1832 2310
807 1975 2566
847 2102 2789
891 2209 2977
736 1631 1240
725 1746 1486
722 1866 1758
728 1993 2046
743 2126 2334
769 2255 2590
803 2368 2810
843 2462 2994
887 2534 3143
800 2158 1627
759 2268 1864
739 2374 2122
737 2479 2386
750 2581 2642
779 2670 2857
817 2743 3034
860 2796 3177
906 2831 3289
1001 2638 2027
907 2734 2233
846 2819 2453
817 2895 2674
814 2961 2884
843 3010 3055
885 3043 3193
935 3062 3305
989 3068 3391
1310 3008 2364
1157 3093 2533
1042 3164 2714
966 3220 2894
931 3262 3062
947 3280 3197
984 3285 3307
1035 3279 3396
1094 3264 3465
1712 3264 2629
1502 3340 2758
1322 3404 2900
1182 3452 3044
1093 3480 3179
1077 3481 3288
1093 3468 3379
1134 3445 3454
1189 3417 3514
2193 3399 2816
1934 3470 2903
1682 3535 3008
1460 3586 3122
1291 3615 3236
1219 3612 3333
1196 3592 3416
1208 3561 3485
1244 3522 3540
1369 674 670
1231 727 859
1129 804 1088
1062 910 1352
1029 1048 1649
1034 1218 1966
1055 1395 2273
1087 1570 2559
1125 1736 2812
1255 876 695
1179 944 926
1113 1038 1196
1060 1161 1497
1026 1316 1820
1022 1500 2140
1035 1682 2434
1062 1852 2696
1101 2000 2919
1175 1203 835
1131 1285 1087
1087 1388 1381
1048 1516 1703
1017 1670 2038
1008 1846 2350
1015 2013 2623
1037 2161 2856
1073 2280 3044
1141 1624 1084
1101 1716 1337
1065 1820 1634
1034 1940 1957
1008 2079 2287
999 2228 2578
1005 2364 2823
1024 2478 3022
1055 2562 3175
1166 2111 1438
1105 2204 1670
1059 2300 1946
1027 2401 2246
1005 2510 2548
1002 2618 2806
1013 2711 3015
1035 2783 3178
1064 2829 3297
1315 2568 1852
1209 2656 2049
1130 2739 2283
1077 2818 2535
1048 2893 2786
1051 2957 2996
1071 3007 3166
1102 3041 3298
1140 3057 3392
1558 2934 2225
1404 3018 2389
1280 3093 2580
1190 3156 2783
1138 3207 2982
1135 3238 3148
1156 3255 3283
1194 3260 3388
1240 3253 3466
1881 3200 2534
1685 3280 2668
1510 3351 2819
1368 3407 2977
1272 3446 3131
1245 3457 3258
1252 3453 3365
1284 3437 3452
1331 3414 3518
2273 3356 2761
2048 3432 2864
1819 3503 2981
1611 3563 3103
1447 3602 3224
1370 3608 3326
1341 3596 3415
1348 3570 3489
1382 3535 3550
2060 773 693
1846 823 928
1672 907 1199
1540 1025 1499
1450 1178 1820
1415 1363 2143
1406 1551 2448
1420 1735 2725
1450 1910 2967
1876 954 650
1737 1002 918
1614 1087 1229
1508 1213 1569
1426 1381 1923
1382 1588 2260
1365 1791 2561
1372 1979 2822
1401 2137 3038
1743 1252 720
1651 1305 999
1562 1390 1329
1480 1514 1691
1406 1678 2066
1358 1879 2406
1334 2073 2699
1333 2244 2940
1356 2376 3127
1667 1639 910
1593 1699 1176
1522 1783 1503
1455 1896 1866
1391 2040 2242
1344 2214 2574
1317 2378 2849
1311 2518 3067
1327 2619 3225
1654 2088 1225
1571 2154 1457
1499 2233 1755
1436 2328 2093
1380 2442 2445
1341 2571 2753
1320 2690 3002
1317 2789 3193
1328 2855 3324
1749 2518 1650
1632 2590 1837
1536 2664 2085
1459 2742 2369
1402 2824 2666
1375 2906 2926
1368 2978 3137
1376 3034 3299
1396 3068 3408
1915 2874 2060
1765 2951 2215
1636 3024 2414
1533 3092 2639
1461 3152 2874
1437 3198 3081
1436 3231 3252
1455 3252 3385
1486 3259 3478
2142 3144 2418
1967 3223 2551
1802 3297 2709
1662 3362 2881
1558 3412 3057
1518 3435 3213
1511 3442 3345
1530 3437 3452
1567 3423 3531
2419 3316 2692
2234 3393 2811
2037 3469 2939
1849 3538 3070
1692 3590 3200
1611 3607 3315
1576 3603 3415
1577 3584 3499
1606 3555 3566
2774 889 720
2527 944 1007
2309 1043 1329
2127 1180 1671
1985 1350 2018
1904 1541 2341
1858 1729 2634
1844 1910 2894
1860 2082 3117
2535 1045 615
2358 1076 923
2196 1158 1277
2052 1291 1659
1930 1476 2047
1849 1702 2397
1799 1921 2702
1781 2120 2957
1795 2283 3162
2363 1316 620
2234 1339 928
2113 1410 1295
2000 1531 1697
1895 1706 2110
1813 1931 2478
1758 2150 2788
1733 2344 3037
1741 2492 3222
2257 1674 751
2153 1701 1035
2056 1764 1390
1964 1868 1791
1873 2017 2209
1795 2213 2580
1738 2407 2888
1707 2577 3127
1706 2703 3292
2214 2092 1023
2112 2127 1258
2022 2184 1575
1939 2269 1947
1859 2384 2344
1790 2533 2702
1739 2681 2996
1709 2812 3220
1701 2910 3368
2258 2498 1450
2137 2545 1627
2032 2605 1882
1941 2677 2192
1864 2762 2532
1810 2861 2846
1774 2956 3107
1756 3040 3307
1756 3105 3439
2347 2842 1887
2210 2902 2027
2085 2967 2227
1978 3035 2470
1894 3102 2739
1846 3161 2995
1821 3212 3214
1817 3254 3386
1832 3285 3502
2473 3109 2289
2328 3179 2414
2184 3252 2572
2053 3322 2754
1947 3382 2952
1893 3417 3146
1869 3437 3316
1871 3445 3455
1897 3446 3553
2625 3289 2609
2488 3360 2741
2329 3439 2878
2168 3516 3018
2026 3581 3159
1943 3610 3292
1902 3616 3412
1897 3605 3512
1924 3583 3589
3296 998 755
3086 1077 1091
2882 1206 1460
2694 1372 1841
2531 1559 2210
2419 1742 2525
2342 1911 2801
2301 2069 3038
2294 2221 3239
3073 1137 627
2907 1170 964
2749 1265 1353
2601 1415 1767
2466 1614 2179
2362 1842 2534
2287 2059 2834
2246 2253 3079
2239 2411 3271
2911 1391 598
2780 1401 920
2658 1469 1309
2542 1594 1737
2430 1776 2174
2333 2008 2558
2258 2237 2879
2211 2442 3132
2197 2605 3315
2808 1731 687
2699 1735 974
2601 1784 1342
2508 1880 1761
2415 2027 2202
2324 2231 2601
2250 2442 2934
2197 2638 3192
2173 2800 3369
2758 2128 918
2657 2137 1143
2569 2174 1462
2489 2244 1846
2409 2351 2267
2330 2506 2663
2261 2674 2998
2207 2841 3257
2172 2990 3429
2767 2520 1322
2660 2544 1474
2568 2584 1719
2486 2643 2035
2412 2720 2400
2346 2824 2762
2290 2937 3076
2246 3054 3324
2216 3169 3490
2799 2855 1756
2688 2896 1862
2588 2948 2042
2498 3008 2285
2421 3071 2578
2363 3135 2887
2318 3199 3164
2287 3266 3390
2273 3336 3545
2845 3120 2172
2737 3176 2268
2628 3243 2405
2525 3312 2583
2436 3374 2800
2374 3414 3042
2333 3442 3267
2314 3464 3456
2319 3487 3590
2900 3301 2522
2804 3364 2651
2689 3444 2779
2568 3528 2915
2452 3602 3064
2371 3637 3230
2323 3646 3388
2309 3637 3523
2331 3619 3622
3636 1082 788
3482 1196 1163
3311 1361 1572
3136 1554 1983
2970 1752 2366
2843 1919 2672
2751 2063 2930
2690 2193 3147
2662 2318 3329
3472 1220 673
3340 1274 1030
3204 1393 1443
3066 1561 1878
2930 1767 2303
2814 1982 2654
2724 2181 2945
2662 2357 3177
2634 2503 3356
3351 1465 636
3242 1482 962
3137 1559 1362
3031 1690 1802
2921 1870 2249
2816 2092 2637
2727 2312 2960
2659 2517 3213
2619 2692 3394
3271 1791 700
3181 1790 978
3099 1833 1344
3019 1923 1767
2933 2061 2217
2840 2256 2629
2752 2468 2979
2676 2682 3253
2619 2882 3441
3228 2171 890
3149 2167 1094
3082 2190 1401
3018 2245 1785
2952 2336 2216
2873 2484 2638
2790 2661 3005
2710 2858 3297
2637 3067 3494
3216 2550 1251
3141 2560 1369
3077 2586 1595
3020 2631 1908
2962 2694 2288
2897 2793 2690
2826 2916 3050
2753 3064 3345
2680 3238 3549
3209 2880 1661
3138 2911 1722
3075 2953 1876
3017 3002 2112
2962 3056 2424
2903 3117 2782
2842 3189 3117
2781 3280 3399
2724 3396 3598
3204 3146 2075
3137 3196 2127
3071 3260 2234
3007 3327 2400
2944 3387 2633
2883 3425 2927
2827 3456 3213
2781 3490 3460
2753 3537 3637
3196 3335 2450
3134 3395 2557
3063 3480 2659
2986 3572 2775
2905 3653 2927
2829 3687 3135
2770 3691 3346
2739 3677 3531
2748 3658 3662
3819 1136 812
3720 1289 1217
3586 1487 1653
3431 1702 2083
3272 1904 2474
3144 2053 2771
3047 2172 3016
2978 2272 3218
2936 2367 3385
3735 1286 740
3650 1381 1114
3543 1533 1543
3421 1719 1990
3290 1920 2414
3170 2107 2752
3070 2275 3028
2994 2423 3247
2944 2552 3414
3671 1531 720
3605 1580 1048
3528 1678 1451
3440 1816 1892
3340 1984 2334
3231 2175 2712
3130 2370 3027
3040 2562 3276
2968 2745 3455
3624 1846 772
3579 1863 1037
3531 1913 1393
3474 1998 1810
3404 2117 2254
3312 2286 2666
3211 2483 3021
3108 2703 3306
3007 2940 3505
3594 2207 919
3567 2209 1098
3541 2228 1390
3510 2270 1764
3466 2340 2195
3392 2469 2629
3298 2642 3019
3186 2863 3337
3059 3131 3561
3573 2573 1220
3558 2585 1304
3544 2605 1510
3526 2637 1819
3496 2684 2208
3438 2769 2638
3354 2895 3037
3246 3070 3373
3114 3303 3616
3550 2899 1587
3540 2932 1606
3531 2970 1735
3518 3013 1967
3495 3056 2295
3444 3109 2695
3368 3184 3081
3271 3296 3415
3155 3458 3660
3521 3172 1991
3508 3226 1998
3497 3292 2073
3482 3360 2228
3456 3417 2475
3401 3450 2819
3329 3479 3164
3249 3521 3469
3171 3591 3692
3485 3375 2403
3460 3442 2475
3438 3539 2534
3411 3641 2619
3371 3727 2770
3302 3755 3025
3227 3748 3296
3169 3724 3538
3151 3699 3708
3870 1156 819
3808 1341 1243
3699 1563 1694
3560 1789 2133
3409 1989 2523
3287 2121 2814
3195 2220 3052
3129 2296 3246
3083 2361 3404
3865 1332 818
3828 1487 1211
3750 1677 1651
3643 1877 2097
3515 2061 2508
3393 2204 2824
3288 2329 3081
3202 2443 3285
3134 2551 3442
3857 1583 835
3851 1692 1170
3813 1825 1573
3747 1968 2005
3656 2110 2426
3545 2250 2780
3430 2402 3079
3317 2569 3318
3208 2756 3494
3844 1888 885
3873 1951 1142
3877 2022 1488
3855 2102 1889
3804 2192 2313
3712 2317 2710
3595 2484 3061
3456 2698 3348
3298 2966 3557
3829 2226 987
3890 2258 1147
3931 2286 1423
3947 2318 1786
3932 2363 2206
3864 2460 2641
3755 2618 3041
3601 2851 3379
3400 3172 3628
3810 2573 1209
3890 2607 1269
3951 2633 1466
3988 2659 1774
3995 2689 2169
3945 2755 2616
3848 2875 3040
3697 3068 3410
3485 3355 3689
3791 2895 1519
3872 2946 1509
3940 2993 1627
3987 3034 1865
4004 3068 2209
3963 3111 2642
3873 3185 3067
3732 3312 3444
3534 3515 3731
3768 3177 1915
3832 3251 1885
3892 3330 1937
3936 3403 2086
3953 3458 2349
3908 3485 2736
3819 3510 3132
3695 3557 3488
3546 3645 3755
3742 3404 2393
3764 3495 2416
3799 3611 2421
3829 3728 2467
3836 3818 2613
3773 3836 2916
3675 3815 3248
3578 3777 3548
3517 3742 3758
