Assets/1__3DArt/KimSe/artstation_asset/LUTs_pasterls/3DL/Emerald Oasis 01 S.3dl
# Enhanced with VOXCOLOR algorithms
0 128 256 384 512 640 768 896 1023
80 80 241
120 176 550
163 310 939
209 486 1383
256 706 1861
302 978 2308
345 1262 2691
384 1541 2997
418 1799 3212
90 461 393
136 619 775
192 815 1217
258 1043 1693
333 1301 2175
419 1575 2591
509 1839 2930
604 2085 3189
706 2306 3366
144 1022 645
213 1211 1093
302 1429 1569
410 1668 2048
533 1921 2504
670 2164 2865
812 2384 3145
960 2580 3351
1117 2750 3487
280 1678 964
381 1865 1458
513 2071 1945
671 2286 2402
848 2501 2808
1034 2691 3103
1219 2855 3322
1405 2994 3475
1593 3110 3573
538 2340 1315
670 2493 1821
844 2656 2290
1048 2821 2706
1270 2978 3051
1488 3107 3280
1693 3212 3444
1889 3297 3554
2080 3364 3622
1016 2834 1626
1146 2936 2086
1328 3046 2508
1540 3156 2875
1764 3259 3171
1971 3340 3359
2156 3404 3491
2327 3454 3580
2487 3492 3635
1597 3182 1884
1693 3241 2273
1845 3307 2639
2032 3375 2965
2227 3439 3228
2400 3488 3394
2551 3525 3512
2686 3553 3590
2809 3571 3638
2221 3408 2104
2254 3431 2405
2348 3464 2712
2479 3502 3000
2623 3540 3243
2750 3570 3402
2859 3592 3516
2954 3607 3591
3037 3613 3635
2826 3533 2296
2776 3532 2506
2786 3543 2753
2839 3562 3007
2914 3586 3237
2992 3606 3399
3062 3621 3515
3120 3629 3591
3164 3629 3629
564 158 243
508 249 588
477 386 1001
469 573 1461
479 815 1947
505 1124 2398
536 1451 2782
573 1776 3089
615 2079 3306
510 513 351
510 662 756
509 849 1217
515 1076 1708
535 1344 2204
585 1648 2632
653 1946 2979
738 2225 3242
837 2471 3418
499 1040 564
542 1210 1014
584 1411 1500
633 1643 1996
697 1903 2475
792 2173 2859
905 2422 3158
1033 2643 3373
1176 2827 3509
569 1661 852
644 1821 1327
734 2008 1816
840 2215 2293
962 2438 2733
1106 2654 3063
1260 2845 3308
1422 3004 3476
1590 3127 3576
757 2298 1186
854 2424 1660
988 2570 2129
1149 2731 2568
1327 2898 2953
1511 3051 3223
1691 3179 3417
1866 3280 3545
2034 3352 3617
1166 2791 1506
1258 2875 1940
1402 2975 2364
1580 3084 2754
1775 3197 3086
1962 3295 3309
2134 3375 3468
2291 3436 3571
2433 3478 3630
1687 3151 1788
1748 3199 2161
1872 3261 2533
2035 3329 2877
2214 3400 3167
2379 3459 3359
2525 3505 3494
2652 3539 3583
2764 3561 3635
2262 3391 2037
2275 3412 2335
2352 3444 2649
2471 3483 2950
2608 3523 3209
2734 3557 3382
2843 3582 3505
2936 3600 3587
3014 3609 3635
2838 3528 2259
2789 3529 2475
2798 3541 2728
2848 3561 2987
2922 3584 3223
3000 3604 3389
3068 3620 3508
3125 3629 3587
3170 3632 3632
1296 258 218
1147 355 620
1040 507 1073
971 717 1558
934 988 2054
927 1325 2499
933 1673 2872
952 2013 3166
983 2326 3373
1164 585 285
1095 719 723
1026 901 1210
970 1132 1722
936 1418 2234
946 1751 2671
983 2077 3022
1044 2376 3285
1127 2629 3456
1082 1073 451
1066 1213 909
1045 1395 1409
1032 1620 1925
1036 1890 2430
1084 2191 2841
1160 2473 3161
1261 2719 3389
1382 2912 3526
1083 1655 697
1099 1777 1157
1127 1937 1651
1170 2132 2150
1231 2364 2626
1326 2612 2999
1442 2836 3280
1573 3023 3472
1715 3159 3580
1200 2264 1005
1231 2352 1449
1300 2472 1918
1398 2622 2381
1517 2797 2811
1657 2979 3134
1803 3139 3372
1950 3267 3530
2094 3354 3615
1523 2759 1338
1549 2813 1744
1629 2893 2168
1750 2995 2582
1895 3114 2956
2050 3234 3227
2198 3338 3426
2336 3419 3557
2461 3472 3628
1948 3130 1650
1956 3159 2007
2026 3209 2382
2141 3273 2745
2283 3347 3068
2427 3419 3296
2560 3479 3462
2678 3525 3572
2779 3555 3635
2426 3383 1934
2407 3397 2234
2450 3424 2556
2536 3461 2870
2649 3502 3149
2764 3540 3344
2867 3571 3485
2957 3593 3581
3030 3607 3637
2908 3527 2185
2859 3530 2421
2860 3542 2687
2898 3562 2956
2963 3585 3201
3035 3605 3375
3100 3620 3501
3156 3630 3586
3200 3636 3637
2113 371 189
1904 481 652
1744 661 1153
1627 905 1670
1551 1211 2177
1513 1567 2608
1491 1921 2961
1484 2254 3233
1494 2551 3423
1913 666 217
1781 787 690
1659 968 1207
1557 1211 1742
1484 1519 2270
1461 1879 2711
1467 2225 3063
1500 2534 3321
1557 2783 3485
1774 1113 332
1693 1222 801
1616 1386 1317
1552 1607 1853
1511 1889 2381
1519 2221 2818
1560 2535 3158
1628 2804 3399
1720 3004 3539
1721 1656 529
1668 1738 980
1633 1869 1479
1618 2052 1998
1625 2289 2508
1675 2569 2924
1751 2830 3242
1849 3049 3463
1962 3203 3583
1778 2239 803
1734 2284 1223
1731 2374 1691
1763 2509 2175
1822 2687 2647
1915 2898 3026
2023 3094 3313
2140 3255 3510
2258 3366 3614
2013 2735 1146
1965 2756 1526
1972 2812 1947
2025 2901 2379
2112 3021 2793
2227 3162 3119
2346 3291 3367
2463 3399 3536
2571 3474 3628
2328 3117 1487
2276 3125 1827
2283 3158 2201
2338 3213 2579
2429 3287 2933
2543 3370 3206
2656 3446 3413
2761 3509 3556
2853 3553 3637
2682 3381 1806
2629 3386 2108
2628 3407 2435
2670 3439 2761
2746 3479 3060
2842 3521 3284
2934 3557 3453
3017 3586 3572
3087 3608 3642
3034 3529 2084
2984 3534 2347
2972 3548 2630
2992 3568 2911
3038 3592 3166
3100 3611 3353
3159 3625 3492
3212 3635 3587
3255 3641 3645
2851 484 177
2647 616 692
2482 834 1241
2354 1125 1791
2262 1473 2310
2205 1842 2722
2161 2188 3049
2132 2498 3295
2120 2762 3462
2619 748 168
2461 860 671
2323 1049 1216
2210 1312 1773
2128 1647 2313
2088 2030 2754
2073 2388 3101
2080 2698 3353
2107 2934 3508
2457 1156 233
2331 1239 713
2224 1389 1243
2140 1610 1795
2081 1906 2340
2068 2265 2795
2082 2604 3152
2121 2894 3405
2179 3102 3550
2380 1662 377
2272 1710 826
2192 1816 1330
2140 1986 1862
2115 2226 2395
2133 2531 2846
2177 2825 3200
2242 3077 3449
2322 3256 3587
2403 2220 611
2296 2231 1016
2233 2292 1481
2211 2407 1978
2221 2581 2480
2273 2813 2908
2345 3041 3245
2432 3241 3483
2523 3388 3614
2563 2719 952
2452 2709 1311
2395 2740 1725
2385 2812 2168
2415 2926 2613
2488 3080 2992
2576 3235 3293
2670 3375 3508
2761 3484 3630
2772 3109 1313
2670 3098 1637
2618 3114 2004
2612 3157 2389
2647 3224 2768
2725 3314 3089
2813 3405 3346
2904 3488 3532
2987 3557 3641
2999 3384 1661
2917 3381 1963
2873 3394 2289
2867 3421 2621
2899 3458 2938
2966 3500 3198
3042 3541 3406
3117 3579 3558
3184 3611 3649
3212 3534 1965
3163 3543 2255
3135 3561 2555
3130 3584 2847
3150 3608 3114
3196 3625 3319
3246 3636 3477
3294 3643 3589
3335 3647 3656
3263 569 198
3131 732 742
3023 999 1326
2936 1342 1905
2868 1730 2433
2817 2102 2826
2774 2428 3127
2739 2704 3347
2718 2930 3495
3076 809 170
2955 929 686
2856 1142 1250
2779 1436 1824
2723 1797 2371
2692 2188 2805
2673 2543 3140
2666 2841 3380
2671 3061 3528
2954 1188 197
2840 1266 682
2753 1420 1220
2689 1651 1780
2648 1957 2332
2635 2324 2790
2639 2671 3152
2657 2970 3410
2685 3190 3561
2903 1668 296
2790 1703 742
2711 1799 1246
2661 1962 1782
2635 2196 2321
2642 2506 2789
2667 2815 3164
2706 3093 3435
2754 3311 3592
2929 2207 485
2808 2202 880
2731 2245 1338
2689 2342 1836
2679 2499 2347
2706 2730 2804
2751 2976 3179
2808 3213 3455
2870 3418 3618
3044 2705 805
2919 2682 1143
2837 2695 1543
2796 2748 1983
2793 2843 2440
2833 2995 2859
2890 3163 3209
2957 3336 3474
3027 3500 3636
3179 3103 1167
3064 3082 1465
2986 3086 1810
2945 3115 2188
2942 3169 2582
2985 3254 2947
3045 3352 3259
3114 3458 3499
3184 3567 3650
3311 3385 1534
3224 3381 1812
3159 3391 2119
3122 3414 2442
3117 3447 2771
3154 3485 3073
3206 3525 3333
3266 3569 3533
3326 3619 3661
3419 3539 1867
3375 3557 2157
3338 3586 2449
3313 3618 2735
3307 3649 3008
3331 3661 3242
3366 3662 3436
3404 3658 3582
3442 3655 3670
3483 628 226
3426 824 786
3378 1136 1395
3338 1522 1996
3300 1939 2532
3263 2307 2909
3228 2612 3189
3197 2858 3387
3175 3050 3520
3372 849 191
3306 992 715
3258 1238 1295
3222 1564 1884
3194 1946 2436
3172 2331 2857
3154 2670 3178
3140 2949 3405
3130 3156 3545
3310 1206 196
3238 1297 681
3189 1470 1227
3156 1717 1795
3135 2029 2348
3124 2386 2802
3119 2726 3159
3119 3024 3417
3122 3259 3573
3299 1663 260
3219 1706 700
3165 1807 1204
3133 1968 1742
3117 2193 2282
3115 2490 2753
3121 2798 3139
3133 3095 3426
3147 3357 3601
3338 2187 402
3245 2184 787
3183 2221 1240
3147 2304 1736
3133 2440 2250
3141 2656 2723
3158 2906 3124
3181 3174 3433
3206 3445 3627
3422 2684 688
3321 2660 1006
3250 2665 1394
3208 2702 1830
3191 2778 2296
3205 2915 2744
3230 3088 3135
3262 3290 3444
3296 3517 3646
3504 3088 1040
3410 3067 1307
3339 3065 1632
3292 3085 2002
3272 3125 2406
3286 3200 2811
3314 3299 3174
3350 3424 3467
3389 3578 3662
3570 3380 1425
3499 3379 1669
3438 3393 1947
3394 3417 2255
3372 3446 2592
3383 3477 2937
3407 3513 3251
3440 3560 3505
3477 3626 3674
3608 3542 1809
3575 3572 2071
3539 3617 2331
3508 3666 2593
3488 3705 2863
3490 3712 3132
3504 3700 3374
3525 3679 3565
3550 3662 3682
3571 662 249
3573 885 815
3576 1232 1441
3574 1648 2058
3562 2082 2599
3539 2443 2964
3515 2731 3229
3492 2955 3412
3474 3123 3533
3540 866 223
3534 1045 751
3535 1331 1346
3536 1688 1950
3531 2082 2503
3514 2447 2907
3495 2761 3211
3475 3019 3423
3456 3215 3556
3541 1203 218
3529 1330 703
3528 1536 1259
3530 1804 1836
3528 2116 2387
3515 2447 2826
3497 2764 3173
3476 3053 3425
3454 3305 3583
3570 1641 253
3552 1714 689
3547 1835 1197
3546 2002 1738
3544 2215 2276
3534 2483 2741
3517 2776 3128
3494 3082 3422
3467 3390 3612
3623 2150 348
3597 2170 726
3583 2214 1179
3577 2291 1677
3573 2407 2192
3564 2596 2671
3550 2837 3087
3528 3128 3418
3496 3467 3640
3687 2648 582
3653 2638 891
3629 2645 1276
3614 2675 1715
3605 2733 2189
3599 2850 2657
3588 3017 3078
3570 3241 3423
3541 3530 3662
3736 3060 910
3701 3048 1159
3672 3050 1473
3651 3066 1844
3637 3096 2260
3630 3157 2698
3621 3252 3103
3607 3391 3441
3585 3586 3677
3764 3365 1318
3735 3373 1530
3708 3396 1783
3685 3426 2079
3668 3456 2424
3658 3478 2809
3648 3506 3172
3637 3553 3477
3624 3633 3686
3764 3540 1787
3749 3585 2004
3732 3650 2214
3714 3718 2438
3697 3770 2697
3681 3771 3005
3665 3743 3298
3654 3703 3539
3653 3670 3691
3581 674 257
3614 913 823
3641 1275 1457
3657 1704 2083
3657 2141 2625
3642 2495 2985
3626 2775 3243
3611 2990 3420
3597 3148 3533
3613 859 252
3656 1086 786
3694 1416 1398
3719 1801 2016
3723 2194 2567
3702 2527 2951
3675 2809 3235
3646 3044 3433
3620 3237 3559
3660 1174 249
3717 1360 738
3767 1614 1309
3801 1907 1899
3812 2212 2446
3786 2500 2863
3747 2781 3190
3699 3055 3432
3647 3325 3591
3717 1593 263
3787 1721 699
3848 1880 1218
3890 2062 1768
3905 2259 2302
3879 2487 2752
3830 2750 3130
3762 3055 3425
3678 3407 3625
3778 2088 308
3858 2152 687
3924 2222 1150
3969 2302 1658
3988 2400 2175
3964 2556 2651
3910 2778 3073
3826 3080 3416
3711 3479 3659
3829 2589 470
3907 2610 786
3969 2634 1187
4011 2666 1644
4030 2712 2130
4008 2805 2610
3956 2959 3048
3867 3196 3416
3737 3537 3682
3865 3014 758
3930 3022 1012
3984 3038 1339
4021 3058 1727
4039 3084 2162
4018 3131 2624
3965 3216 3058
3877 3362 3427
3751 3590 3694
3880 3337 1194
3924 3360 1394
3965 3398 1638
3996 3439 1933
4011 3473 2290
3986 3488 2707
3933 3506 3111
3854 3549 3455
3753 3638 3697
3870 3533 1799
3886 3595 1964
3911 3682 2115
3933 3770 2290
3942 3835 2533
3910 3830 2874
3855 3787 3217
3794 3728 3507
3742 3677 3694
