Assets/1__3DArt/KimSe/artstation_asset/LUTs_pasterls/3DL/Emerald Oasis 04 S.3dl
# Enhanced with VOXCOLOR algorithms
0 256 512 768 1023
418 642 610
463 745 873
520 889 1265
580 1052 1749
626 1188 2232
461 1260 996
487 1454 1419
548 1670 1900
624 1856 2356
699 2009 2759
759 2248 1684
655 2433 2149
669 2601 2592
761 2705 2931
880 2774 3195
1672 3054 2418
1303 3164 2715
1137 3245 3022
1182 3259 3249
1313 3247 3410
2746 3469 2971
2193 3505 3026
1715 3549 3203
1580 3536 3385
1606 3485 3501
1344 751 682
1045 848 1040
901 1019 1489
890 1243 2016
923 1461 2531
1138 1250 831
1037 1395 1328
927 1605 1903
876 1851 2418
892 2045 2834
1248 2132 1407
1089 2272 1863
988 2433 2422
955 2586 2864
979 2688 3163
1894 2944 2222
1520 3042 2502
1307 3130 2881
1291 3173 3184
1354 3178 3378
2761 3423 2883
2295 3475 2986
1842 3536 3177
1676 3536 3368
1686 3488 3498
2800 938 734
2252 1077 1297
1869 1349 1894
1721 1638 2443
1703 1892 2924
2354 1328 629
2080 1404 1263
1813 1647 2004
1618 2002 2612
1553 2280 3040
2270 2118 1049
2035 2169 1541
1817 2313 2252
1630 2547 2854
1535 2748 3221
2561 2909 1949
2221 2960 2196
1954 3040 2657
1823 3120 3109
1788 3187 3393
2963 3405 2728
2637 3463 2893
2253 3539 3109
2057 3557 3347
2033 3528 3522
3666 1088 794
3272 1368 1514
2876 1762 2235
2674 2072 2800
2633 2309 3258
3364 1436 632
3121 1537 1322
2871 1837 2156
2656 2255 2839
2546 2621 3297
3256 2157 900
3089 2176 1381
2929 2302 2162
2725 2593 2913
2525 2977 3385
3302 2918 1701
3135 2963 1865
2977 3032 2381
2804 3135 3044
2626 3323 3497
3369 3412 2513
3220 3518 2653
2998 3639 2879
2783 3643 3275
2682 3609 3584
3886 1140 819
3646 1551 1619
3297 1984 2371
3107 2250 2925
3083 2425 3388
3861 1509 808
3791 1765 1494
3605 2067 2299
3386 2393 2970
3212 2783 3450
3827 2148 953
3927 2242 1382
3921 2340 2156
3737 2606 2986
3379 3166 3566
3792 2869 1498
3943 2974 1600
4004 3059 2187
3855 3171 3031
3464 3487 3658
3758 3372 2377
3820 3574 2371
3850 3795 2562
3643 3780 3183
3372 3694 3677
