Assets/1__3DArt/KimSe/artstation_asset/LUTs_pasterls/3DL/Emerald Oasis 01.3dl
# Enhanced with VOXCOLOR algorithms
0 128 256 384 512 640 768 896 1023
80 80 241
120 176 550
163 310 939
209 486 1383
256 706 1861
302 978 2308
345 1262 2691
384 1541 2997
418 1799 3212
90 461 393
136 619 775
192 815 1217
258 1043 1693
334 1301 2175
419 1575 2591
509 1839 2930
604 2085 3189
706 2306 3366
144 1022 646
213 1211 1093
302 1429 1569
410 1668 2048
533 1921 2504
671 2164 2865
813 2384 3146
961 2580 3351
1117 2750 3487
282 1678 965
382 1865 1459
514 2071 1945
672 2286 2402
849 2502 2809
1036 2692 3104
1221 2856 3323
1406 2994 3476
1593 3110 3573
541 2340 1318
672 2493 1824
846 2656 2292
1051 2821 2707
1274 2979 3053
1492 3108 3282
1697 3213 3445
1892 3298 3554
2080 3364 3622
1027 2834 1635
1154 2936 2092
1334 3046 2512
1547 3157 2879
1773 3260 3174
1980 3342 3362
2165 3406 3494
2332 3455 3581
2487 3492 3635
1615 3182 1899
1705 3241 2283
1855 3307 2647
2042 3375 2970
2240 3440 3233
2414 3489 3399
2564 3526 3515
2694 3553 3591
2809 3571 3638
2238 3408 2118
2265 3431 2414
2357 3464 2719
2488 3502 3006
2634 3540 3248
2762 3570 3406
2871 3593 3519
2961 3607 3592
3037 3613 3635
2826 3533 2296
2776 3532 2506
2786 3543 2753
2839 3562 3007
2914 3586 3237
2992 3606 3399
3062 3621 3515
3120 3629 3591
3164 3629 3629
564 158 243
511 252 589
482 391 1003
474 579 1463
482 820 1949
506 1127 2399
536 1452 2783
573 1776 3089
615 2079 3306
522 514 357
525 676 769
520 874 1236
520 1106 1730
535 1373 2224
583 1668 2645
651 1957 2985
737 2228 3244
837 2471 3418
517 1045 578
560 1237 1044
596 1455 1542
637 1695 2042
695 1952 2515
788 2206 2886
902 2440 3171
1033 2649 3377
1176 2827 3509
588 1670 874
659 1858 1374
743 2064 1879
842 2280 2360
960 2498 2790
1104 2696 3099
1259 2867 3326
1422 3011 3482
1590 3127 3576
775 2310 1213
865 2464 1718
993 2629 2204
1151 2796 2646
1327 2957 3018
1512 3091 3264
1692 3200 3437
1867 3287 3551
2034 3352 3617
1186 2802 1534
1270 2906 1993
1410 3018 2430
1587 3131 2821
1782 3238 3141
1970 3323 3344
2141 3390 3485
2295 3441 3576
2434 3478 3630
1707 3157 1814
1763 3217 2201
1883 3285 2580
2046 3356 2923
2226 3423 3205
2392 3474 3383
2536 3514 3507
2660 3542 3587
2766 3561 3635
2278 3393 2055
2288 3418 2357
2363 3452 2673
2481 3492 2972
2620 3531 3228
2746 3562 3394
2854 3585 3512
2943 3601 3589
3016 3609 3634
2838 3528 2259
2789 3529 2475
2798 3541 2728
2848 3561 2987
2922 3584 3223
3000 3604 3389
3068 3619 3508
3125 3629 3587
3170 3632 3632
1296 258 218
1161 369 624
1059 528 1081
988 740 1567
945 1006 2061
933 1335 2503
936 1677 2874
952 2014 3167
983 2326 3373
1212 590 298
1156 761 752
1081 972 1255
1007 1219 1776
953 1502 2286
951 1810 2706
983 2109 3041
1044 2386 3291
1127 2629 3456
1155 1088 482
1149 1284 971
1116 1509 1499
1079 1757 2029
1057 2023 2527
1090 2286 2907
1161 2526 3195
1260 2737 3399
1382 2912 3526
1163 1680 746
1182 1869 1253
1198 2078 1783
1219 2298 2298
1255 2522 2760
1335 2724 3089
1444 2900 3327
1573 3045 3486
1715 3160 3580
1271 2298 1064
1301 2450 1570
1360 2616 2078
1443 2785 2554
1544 2950 2963
1671 3087 3235
1810 3200 3425
1953 3289 3546
2095 3354 3614
1577 2788 1392
1601 2889 1854
1677 3001 2312
1789 3115 2734
1925 3224 3088
2070 3312 3315
2211 3382 3472
2343 3435 3571
2463 3472 3627
1985 3147 1692
1993 3205 2088
2062 3272 2486
2174 3342 2854
2312 3410 3163
2451 3463 3360
2576 3505 3496
2687 3535 3583
2781 3555 3634
2446 3389 1958
2428 3413 2276
2471 3446 2608
2558 3485 2925
2670 3524 3198
2783 3556 3378
2882 3580 3504
2965 3597 3587
3033 3607 3636
2908 3527 2185
2859 3529 2422
2860 3542 2689
2899 3561 2959
2964 3584 3205
3036 3604 3378
3101 3619 3503
3156 3630 3587
3200 3636 3637
2113 371 189
1932 510 662
1782 706 1170
1663 954 1689
1575 1249 2192
1525 1589 2617
1495 1930 2965
1485 2256 3234
1494 2551 3423
2007 678 237
1905 864 735
1776 1098 1279
1645 1371 1833
1533 1674 2359
1482 1989 2773
1474 2286 3096
1501 2555 3331
1557 2783 3485
1921 1142 379
1867 1344 891
1775 1583 1452
1670 1847 2017
1577 2127 2540
1549 2394 2929
1570 2634 3218
1630 2840 3418
1720 3005 3539
1884 1702 600
1852 1891 1116
1802 2106 1673
1748 2335 2225
1703 2567 2724
1713 2774 3075
1766 2951 3325
1852 3095 3489
1962 3204 3583
1923 2297 890
1895 2447 1395
1883 2613 1928
1885 2786 2443
1903 2955 2895
1960 3096 3198
2044 3213 3408
2147 3303 3541
2259 3368 3613
2115 2785 1222
2082 2883 1688
2088 2992 2169
2126 3106 2626
2187 3217 3019
2275 3308 3277
2373 3381 3454
2475 3437 3566
2573 3475 3627
2389 3147 1543
2351 3201 1950
2362 3265 2370
2412 3334 2767
2491 3401 3106
2589 3456 3328
2685 3500 3482
2776 3532 3580
2856 3554 3635
2708 3392 1835
2664 3414 2174
2668 3445 2527
2712 3482 2866
2786 3520 3160
2874 3552 3357
2956 3577 3496
3029 3596 3587
3089 3608 3640
3034 3529 2084
2985 3533 2350
2974 3545 2639
2995 3563 2925
3042 3585 3183
3104 3605 3367
3162 3621 3500
3213 3633 3591
3255 3641 3645
2851 484 177
2689 661 708
2540 906 1269
2409 1203 1823
2300 1535 2336
2224 1877 2736
2168 2202 3055
2134 2500 3296
2120 2762 3462
2757 768 195
2648 974 729
2508 1241 1314
2359 1549 1900
2220 1879 2440
2135 2196 2844
2091 2482 3150
2083 2731 3368
2107 2935 3508
2677 1200 289
2601 1411 820
2484 1669 1412
2347 1957 2010
2212 2255 2559
2136 2525 2953
2110 2759 3240
2127 2953 3434
2179 3103 3549
2628 1727 461
2567 1919 980
2477 2145 1563
2373 2387 2151
2268 2630 2686
2216 2840 3059
2214 3015 3321
2252 3155 3491
2322 3259 3585
2625 2300 711
2563 2450 1213
2498 2619 1768
2435 2797 2322
2379 2971 2818
2366 3116 3156
2392 3235 3388
2447 3326 3535
2524 3391 3613
2717 2786 1041
2649 2881 1507
2600 2990 2010
2569 3105 2503
2557 3217 2939
2581 3310 3231
2628 3386 3433
2691 3445 3560
2763 3486 3628
2859 3151 1377
2792 3203 1794
2755 3264 2236
2744 3331 2664
2760 3397 3039
2805 3453 3290
2863 3499 3465
2926 3534 3577
2990 3558 3639
3031 3399 1694
2972 3420 2054
2942 3449 2431
2941 3483 2794
2968 3519 3114
3020 3551 3332
3077 3577 3487
3134 3598 3589
3187 3612 3648
3212 3534 1965
3165 3540 2264
3140 3552 2578
3139 3569 2884
3162 3590 3160
3206 3610 3357
3252 3626 3500
3297 3638 3598
3335 3647 3656
3263 569 198
3174 782 761
3083 1078 1358
2993 1428 1941
2908 1799 2463
2838 2140 2843
2781 2444 3134
2741 2707 3348
2718 2930 3495
3212 834 198
3147 1061 751
3054 1365 1361
2946 1713 1971
2835 2073 2520
2752 2391 2911
2699 2661 3199
2672 2885 3400
2671 3062 3527
3174 1237 252
3123 1460 788
3037 1743 1400
2928 2059 2021
2811 2379 2586
2726 2652 2980
2680 2878 3262
2667 3057 3450
2685 3192 3560
3154 1736 373
3107 1934 887
3031 2174 1485
2935 2435 2099
2828 2693 2661
2754 2908 3049
2719 3081 3321
2721 3217 3494
2754 3315 3591
3157 2286 573
3104 2440 1062
3038 2618 1630
2961 2806 2213
2881 2990 2748
2829 3140 3117
2813 3262 3371
2828 3355 3531
2871 3422 3616
3202 2771 883
3141 2870 1337
3081 2983 1853
3025 3102 2377
2975 3219 2855
2952 3317 3184
2956 3396 3412
2982 3459 3556
3028 3504 3633
3266 3143 1224
3206 3197 1637
3153 3260 2093
3113 3328 2549
3087 3395 2962
3087 3454 3247
3106 3502 3448
3140 3541 3577
3185 3570 3647
3342 3399 1564
3288 3423 1930
3245 3452 2323
3217 3486 2710
3207 3521 3058
3223 3554 3303
3250 3581 3478
3286 3603 3593
3328 3620 3659
3419 3539 1867
3379 3548 2183
3348 3561 2515
3328 3579 2840
3326 3599 3133
3346 3618 3345
3375 3634 3501
3408 3646 3607
3442 3655 3670
3483 628 226
3458 863 801
3423 1199 1421
3381 1591 2026
3331 1994 2556
3279 2338 2923
3234 2625 3194
3198 2861 3388
3175 3050 3520
3473 872 217
3453 1115 777
3413 1450 1404
3357 1833 2030
3288 2221 2587
3224 2541 2967
3175 2800 3241
3144 3003 3427
3130 3157 3544
3475 1248 242
3458 1482 777
3415 1788 1400
3351 2132 2037
3272 2475 2614
3200 2752 3007
3151 2972 3284
3125 3140 3465
3121 3262 3572
3489 1719 319
3468 1926 825
3423 2183 1431
3359 2463 2063
3277 2740 2646
3205 2961 3046
3159 3136 3324
3140 3268 3501
3147 3362 3599
3512 2248 467
3482 2410 939
3436 2600 1515
3374 2802 2123
3300 2999 2691
3237 3158 3087
3200 3285 3361
3189 3382 3533
3204 3453 3623
3542 2734 745
3503 2839 1181
3455 2961 1706
3400 3090 2258
3341 3216 2775
3296 3321 3141
3273 3406 3396
3272 3473 3557
3294 3525 3642
3570 3117 1084
3527 3177 1483
3480 3245 1949
3433 3318 2432
3390 3391 2883
3363 3454 3204
3353 3506 3432
3361 3549 3579
3389 3583 3657
3593 3390 1450
3553 3416 1810
3511 3448 2212
3473 3484 2620
3443 3522 2997
3432 3556 3270
3433 3585 3467
3448 3610 3598
3477 3629 3671
3608 3542 1809
3578 3553 2125
3546 3568 2462
3518 3588 2797
3498 3609 3104
3497 3627 3331
3506 3642 3500
3524 3654 3615
3550 3662 3682
3571 662 249
3588 907 824
3598 1265 1456
3595 1685 2075
3577 2111 2612
3547 2459 2971
3518 2738 3232
3493 2957 3413
3474 3123 3533
3589 881 239
3606 1133 797
3611 1491 1433
3601 1902 2070
3574 2314 2632
3534 2639 3007
3499 2890 3270
3472 3079 3446
3456 3216 3556
3622 1228 245
3635 1471 776
3635 1800 1405
3617 2168 2052
3581 2534 2637
3533 2819 3031
3493 3036 3303
3466 3196 3479
3453 3309 3582
3665 1673 287
3672 1890 782
3664 2165 1393
3639 2467 2039
3595 2764 2638
3542 2996 3049
3500 3173 3332
3473 3305 3511
3465 3398 3609
3710 2183 384
3709 2356 838
3693 2562 1419
3661 2782 2048
3614 2997 2645
3560 3168 3067
3520 3302 3358
3496 3404 3540
3493 3479 3634
3747 2673 615
3735 2789 1032
3712 2923 1565
3677 3065 2144
3632 3205 2702
3585 3320 3105
3551 3413 3386
3533 3487 3563
3536 3545 3654
3768 3074 939
3750 3141 1324
3722 3217 1799
3687 3299 2311
3646 3381 2802
3609 3452 3163
3584 3510 3419
3573 3558 3584
3581 3598 3670
3775 3369 1337
3752 3400 1686
3723 3436 2095
3691 3477 2524
3658 3520 2932
3631 3558 3236
3614 3590 3457
3610 3617 3603
3622 3640 3682
3764 3540 1787
3744 3553 2093
3718 3571 2426
3691 3593 2762
3666 3616 3076
3649 3636 3316
3640 3650 3497
3641 3661 3621
3653 3670 3691
3581 674 257
3614 913 823
3641 1275 1457
3657 1704 2083
3657 2141 2625
3642 2495 2985
3626 2775 3243
3611 2990 3420
3597 3148 3533
3612 859 252
3644 1113 802
3672 1484 1441
3689 1914 2085
3688 2343 2653
3669 2674 3025
3649 2925 3284
3631 3109 3455
3619 3238 3559
3657 1174 249
3688 1425 772
3713 1771 1404
3728 2162 2059
3724 2549 2652
3701 2843 3046
3677 3063 3317
3657 3221 3490
3645 3329 3589
3713 1593 264
3741 1821 750
3761 2116 1364
3770 2441 2021
3762 2761 2634
3735 3006 3055
3708 3190 3343
3686 3324 3523
3673 3418 3620
3773 2088 311
3797 2275 753
3810 2499 1339
3812 2740 1987
3797 2978 2612
3768 3165 3056
3739 3310 3363
3716 3419 3553
3702 3500 3649
3825 2587 479
3840 2716 883
3845 2866 1427
3839 3025 2037
3821 3184 2636
3791 3314 3076
3763 3418 3383
3740 3499 3575
3726 3563 3670
3861 3011 773
3866 3087 1148
3864 3175 1639
3853 3270 2183
3832 3365 2721
3804 3447 3125
3777 3514 3411
3755 3568 3593
3742 3612 3684
3877 3334 1208
3874 3371 1550
3865 3414 1969
3851 3462 2420
3831 3513 2862
3805 3558 3201
3780 3595 3447
3759 3625 3609
3747 3650 3691
3870 3533 1799
3862 3548 2092
3849 3568 2412
3833 3593 2739
3815 3620 3054
3793 3641 3304
3770 3656 3493
3752 3668 3622
3742 3677 3694
