Assets/1__3DArt/KimSe/artstation_asset/LUTs_pasterls/3DL/Emerald Oasis 03.3dl
# Enhanced with VOXCOLOR algorithms
0 64 128 192 256 320 384 448 512 576 640 704 768 832 896 960 1023
434 498 594
449 534 683
465 571 772
482 610 869
500 655 983
518 700 1098
538 753 1226
559 808 1362
581 864 1498
603 928 1641
626 992 1784
649 1056 1924
671 1122 2058
694 1188 2192
715 1249 2312
735 1307 2425
755 1365 2537
434 627 679
451 670 778
468 714 877
486 761 984
506 815 1107
526 869 1230
548 930 1364
570 994 1504
593 1058 1644
617 1127 1786
641 1196 1928
664 1265 2065
687 1333 2193
710 1400 2321
731 1462 2434
752 1522 2540
773 1581 2646
434 755 764
452 806 873
470 857 982
490 912 1099
511 975 1230
533 1038 1362
557 1107 1502
581 1180 1646
605 1252 1790
630 1326 1931
655 1401 2071
679 1474 2206
703 1543 2328
726 1613 2450
748 1676 2557
770 1736 2656
791 1797 2755
440 928 883
458 983 1001
476 1039 1119
496 1099 1243
519 1168 1381
542 1238 1518
566 1312 1661
592 1390 1806
617 1467 1952
643 1544 2088
668 1620 2224
693 1694 2353
717 1762 2468
741 1831 2583
764 1893 2682
786 1951 2773
808 2010 2865
458 1186 1069
474 1243 1193
490 1299 1318
508 1360 1447
530 1430 1585
552 1499 1723
576 1573 1862
602 1649 2002
628 1725 2142
653 1797 2269
679 1869 2396
705 1938 2516
729 1999 2619
753 2061 2723
776 2115 2812
799 2166 2894
822 2217 2975
476 1445 1255
489 1502 1386
503 1559 1517
519 1621 1651
541 1691 1789
562 1761 1928
587 1834 2064
612 1908 2199
638 1982 2333
664 2050 2451
691 2118 2568
716 2181 2678
741 2236 2771
765 2291 2864
789 2338 2943
812 2382 3014
836 2425 3085
534 1734 1475
541 1788 1605
547 1841 1735
558 1899 1866
576 1964 1999
595 2029 2132
618 2096 2259
643 2163 2384
668 2230 2509
695 2289 2615
723 2349 2721
749 2404 2820
775 2450 2902
801 2496 2984
826 2535 3053
851 2569 3115
876 2604 3177
613 2038 1711
610 2086 1836
607 2134 1962
610 2185 2087
625 2243 2211
639 2300 2335
660 2357 2452
684 2415 2565
709 2473 2678
737 2522 2771
765 2571 2865
793 2616 2951
821 2652 3022
848 2688 3093
876 2718 3153
902 2743 3206
929 2769 3259
691 2342 1947
679 2384 2068
667 2427 2189
663 2472 2308
673 2521 2423
683 2571 2538
702 2619 2644
726 2667 2745
749 2715 2846
778 2754 2927
807 2793 3008
837 2828 3083
866 2854 3143
896 2880 3203
925 2900 3252
954 2917 3297
982 2934 3341
868 2589 2156
840 2627 2265
813 2664 2373
795 2703 2480
795 2744 2583
796 2785 2686
809 2825 2780
828 2863 2870
847 2901 2959
876 2930 3030
905 2959 3101
934 2984 3166
965 3003 3219
996 3021 3272
1027 3034 3315
1057 3044 3354
1087 3055 3393
1044 2837 2365
1001 2869 2462
958 2902 2558
927 2934 2652
918 2967 2743
909 3000 2834
916 3030 2916
931 3058 2994
946 3086 3072
974 3105 3133
1002 3125 3194
1031 3141 3250
1064 3151 3295
1096 3161 3340
1128 3167 3378
1160 3171 3411
1191 3176 3445
1252 3048 2549
1193 3076 2632
1134 3105 2716
1088 3133 2798
1068 3159 2878
1047 3186 2958
1046 3208 3029
1054 3228 3097
1062 3248 3165
1087 3259 3218
1113 3271 3271
1140 3279 3319
1173 3283 3359
1205 3286 3398
1237 3286 3430
1269 3285 3459
1301 3284 3488
1521 3185 2681
1445 3212 2751
1370 3239 2820
1308 3266 2891
1271 3289 2961
1235 3313 3032
1221 3332 3096
1217 3348 3157
1213 3363 3218
1232 3370 3267
1250 3377 3315
1273 3381 3360
1303 3380 3397
1333 3379 3433
1362 3376 3463
1392 3372 3490
1422 3367 3517
1790 3321 2813
1698 3348 2869
1606 3374 2925
1528 3398 2983
1475 3420 3044
1423 3441 3105
1395 3456 3162
1380 3467 3217
1364 3479 3272
1376 3481 3316
1388 3483 3360
1405 3483 3401
1433 3478 3434
1460 3473 3468
1487 3466 3496
1516 3458 3521
1544 3450 3545
2064 3400 2902
1961 3425 2945
1859 3450 2988
1767 3473 3034
1696 3494 3088
1625 3516 3143
1579 3530 3195
1545 3541 3246
1512 3552 3297
1511 3552 3340
1511 3553 3382
1517 3551 3422
1538 3544 3455
1559 3537 3488
1582 3528 3514
1606 3518 3538
1630 3508 3561
2341 3451 2968
2230 3474 2999
2120 3497 3029
2016 3519 3065
1925 3542 3113
1833 3564 3161
1767 3579 3210
1712 3591 3259
1657 3603 3308
1641 3604 3351
1625 3604 3394
1619 3602 3433
1632 3595 3466
1645 3587 3499
1661 3577 3525
1680 3565 3548
1698 3553 3571
2618 3501 3035
2499 3522 3053
2381 3543 3070
2265 3565 3096
2153 3589 3138
2042 3612 3180
1954 3629 3225
1878 3642 3273
1802 3654 3320
1771 3655 3362
1740 3656 3405
1721 3654 3445
1725 3645 3478
1730 3637 3511
1740 3625 3537
1753 3611 3559
1766 3597 3581
604 524 611
597 560 703
591 596 795
588 636 895
593 682 1012
598 728 1130
609 783 1262
623 842 1401
637 901 1540
658 971 1687
678 1041 1834
699 1113 1979
721 1187 2117
744 1260 2255
766 1330 2377
787 1397 2492
808 1465 2606
594 648 685
592 692 788
591 735 891
593 783 1001
600 838 1128
606 892 1254
618 955 1392
633 1022 1535
648 1088 1678
668 1162 1824
689 1237 1969
710 1311 2109
732 1384 2241
754 1458 2372
776 1527 2487
798 1593 2594
819 1659 2702
583 772 758
588 823 872
592 875 986
598 930 1108
606 994 1243
615 1057 1379
628 1128 1522
643 1202 1669
659 1276 1817
679 1354 1960
699 1432 2103
720 1508 2240
743 1582 2364
765 1656 2489
787 1724 2597
808 1789 2697
830 1853 2797
580 937 866
587 994 990
594 1051 1114
603 1113 1243
613 1182 1385
623 1252 1527
637 1327 1673
653 1405 1821
668 1484 1970
689 1563 2108
709 1642 2247
731 1718 2378
753 1790 2494
775 1861 2611
797 1925 2711
819 1986 2802
840 2047 2893
588 1186 1044
595 1245 1173
601 1303 1303
609 1366 1437
619 1436 1580
630 1506 1723
644 1580 1866
660 1657 2009
677 1733 2152
697 1807 2281
718 1881 2410
739 1951 2531
762 2015 2636
784 2079 2742
806 2135 2831
828 2187 2912
850 2239 2994
597 1435 1221
602 1495 1357
607 1555 1493
614 1619 1632
625 1689 1775
636 1760 1918
651 1833 2058
668 1908 2196
685 1982 2334
706 2051 2453
726 2119 2573
748 2184 2684
770 2240 2778
793 2296 2873
815 2344 2951
837 2388 3023
859 2432 3094
646 1715 1434
644 1772 1569
643 1829 1704
645 1890 1840
654 1956 1978
663 2022 2116
677 2089 2247
694 2156 2375
711 2224 2504
733 2284 2612
755 2344 2720
778 2399 2820
801 2446 2903
825 2493 2986
848 2532 3055
871 2567 3117
894 2601 3179
714 2010 1666
704 2062 1796
693 2115 1926
688 2169 2056
694 2228 2185
700 2287 2314
713 2345 2435
730 2403 2551
747 2461 2668
770 2511 2763
794 2560 2859
818 2606 2947
843 2643 3019
869 2679 3091
894 2709 3151
918 2734 3204
942 2760 3257
783 2305 1897
763 2353 2022
744 2400 2148
731 2449 2272
734 2501 2392
736 2552 2512
748 2602 2622
765 2650 2727
782 2699 2832
807 2738 2915
832 2777 2998
858 2812 3074
885 2839 3135
913 2866 3196
939 2885 3246
965 2902 3291
991 2918 3335
946 2551 2108
911 2594 2221
877 2636 2334
852 2679 2445
846 2722 2553
840 2765 2661
847 2806 2759
861 2844 2852
874 2883 2945
899 2913 3018
924 2942 3091
951 2968 3158
980 2987 3211
1009 3005 3265
1037 3018 3309
1064 3028 3348
1091 3038 3387
1109 2797 2319
1060 2835 2419
1011 2872 2519
973 2908 2618
958 2943 2714
944 2978 2810
946 3009 2896
956 3038 2977
966 3068 3058
991 3087 3121
1017 3107 3184
1044 3124 3241
1075 3135 3287
1105 3145 3333
1134 3151 3371
1162 3155 3405
1191 3158 3438
1302 3009 2505
1238 3042 2593
1175 3075 2680
1124 3106 2766
1098 3135 2850
1073 3163 2935
1067 3187 3010
1072 3208 3081
1076 3230 3152
1100 3242 3206
1123 3254 3261
1149 3263 3311
1180 3266 3351
1211 3270 3391
1240 3270 3424
1269 3269 3453
1298 3267 3482
1556 3150 2643
1477 3181 2717
1399 3212 2790
1333 3241 2864
1293 3267 2938
1253 3293 3012
1236 3313 3079
1229 3330 3143
1223 3347 3207
1241 3354 3257
1258 3362 3307
1279 3367 3353
1307 3366 3390
1336 3366 3427
1364 3362 3457
1391 3357 3484
1418 3352 3511
1810 3292 2782
1717 3321 2841
1623 3350 2900
1543 3377 2961
1488 3400 3025
1434 3423 3090
1404 3439 3149
1387 3452 3206
1370 3464 3263
1381 3467 3308
1393 3470 3353
1409 3470 3395
1435 3466 3429
1461 3461 3463
1487 3454 3491
1513 3446 3516
1539 3438 3541
2073 3376 2875
1971 3403 2921
1869 3430 2967
1777 3456 3017
1705 3478 3073
1634 3501 3130
1587 3516 3184
1553 3528 3237
1518 3540 3290
1517 3542 3333
1516 3543 3377
1522 3542 3417
1542 3535 3450
1561 3529 3483
1583 3520 3510
1605 3509 3534
1627 3499 3558
2340 3431 2946
2233 3456 2979
2125 3481 3013
2024 3506 3052
1934 3529 3102
1843 3553 3152
1777 3570 3202
1722 3583 3253
1668 3596 3303
1651 3597 3346
1634 3598 3389
1627 3597 3429
1638 3589 3462
1649 3582 3496
1664 3572 3522
1682 3559 3545
1699 3547 3569
2607 3486 3016
2494 3509 3038
2382 3532 3059
2270 3556 3087
2162 3581 3131
2053 3605 3174
1967 3623 3220
1892 3637 3268
1817 3651 3316
1785 3652 3359
1752 3654 3402
1732 3652 3441
1734 3644 3475
1737 3636 3508
1746 3624 3534
1758 3610 3557
1771 3596 3580
774 550 628
745 586 723
716 622 818
694 661 921
686 708 1041
677 755 1162
679 813 1297
687 875 1440
694 938 1582
712 1014 1733
730 1090 1885
749 1169 2033
772 1251 2175
794 1333 2317
816 1411 2442
839 1488 2559
861 1564 2676
754 669 690
734 713 797
715 757 904
700 805 1019
693 860 1149
687 916 1279
689 980 1420
696 1050 1566
703 1119 1713
720 1198 1861
737 1277 2010
755 1356 2154
777 1436 2288
799 1516 2423
821 1592 2540
843 1664 2648
865 1737 2757
733 788 752
723 840 872
714 892 991
706 948 1117
701 1012 1256
697 1076 1396
700 1148 1542
706 1224 1693
712 1300 1843
728 1381 1989
744 1463 2135
762 1543 2274
783 1622 2401
804 1700 2528
825 1772 2637
847 1841 2738
869 1910 2838
719 947 850
716 1006 979
713 1064 1109
710 1126 1244
707 1196 1390
704 1266 1536
708 1342 1685
714 1421 1837
720 1500 1988
735 1582 2129
751 1663 2269
768 1742 2403
789 1817 2521
809 1891 2639
830 1958 2739
851 2021 2831
873 2084 2922
719 1186 1018
716 1247 1154
712 1307 1289
709 1371 1428
708 1442 1575
707 1512 1722
712 1587 1869
719 1664 2015
726 1741 2161
741 1817 2292
757 1892 2423
774 1964 2546
794 2030 2653
815 2097 2760
836 2154 2850
857 2208 2931
877 2261 3012
719 1425 1187
715 1488 1328
712 1551 1469
709 1616 1612
710 1688 1761
710 1759 1909
716 1833 2052
723 1907 2193
731 1982 2334
747 2051 2456
762 2121 2577
780 2187 2690
800 2244 2786
820 2302 2881
841 2350 2960
862 2394 3032
882 2438 3103
757 1695 1394
748 1756 1534
739 1817 1673
732 1880 1814
732 1947 1957
731 2015 2100
736 2082 2235
745 2150 2367
754 2217 2498
771 2278 2608
788 2338 2719
806 2395 2820
828 2442 2904
849 2490 2988
870 2529 3058
892 2564 3120
913 2598 3182
816 1982 1620
797 2039 1755
779 2096 1890
766 2154 2025
763 2214 2159
760 2274 2293
766 2333 2418
775 2391 2538
784 2450 2658
803 2500 2756
822 2550 2853
843 2596 2943
866 2633 3016
889 2671 3089
912 2700 3149
934 2725 3202
956 2750 3256
874 2269 1847
847 2321 1977
820 2374 2107
800 2427 2236
795 2480 2361
789 2534 2487
795 2584 2601
805 2633 2709
815 2682 2818
836 2722 2903
857 2761 2988
879 2797 3066
905 2824 3128
930 2851 3190
953 2870 3240
976 2886 3285
999 2902 3330
1024 2513 2059
983 2560 2177
942 2608 2294
910 2654 2410
897 2700 2523
884 2745 2636
885 2787 2738
893 2826 2834
901 2866 2931
923 2896 3006
944 2926 3081
968 2952 3149
995 2971 3203
1022 2990 3258
1047 3002 3302
1071 3012 3341
1094 3022 3381
1173 2758 2272
1118 2800 2376
1063 2841 2481
1020 2882 2584
999 2919 2685
978 2957 2785
975 2989 2875
981 3019 2959
986 3049 3044
1009 3070 3108
1032 3090 3173
1056 3107 3232
1085 3118 3279
1114 3129 3326
1140 3135 3364
1165 3138 3398
1190 3141 3432
1353 2970 2461
1284 3007 2553
1215 3044 2644
1159 3079 2735
1129 3110 2823
1099 3141 2911
1089 3167 2990
1090 3189 3064
1091 3211 3138
1112 3224 3195
1134 3236 3251
1158 3246 3302
1187 3250 3343
1217 3254 3384
1243 3254 3417
1269 3252 3446
1294 3250 3476
1591 3116 2606
1510 3151 2683
1428 3185 2760
1359 3217 2837
1315 3245 2915
1271 3273 2993
1251 3294 3063
1242 3312 3129
1233 3330 3196
1249 3339 3247
1265 3347 3299
1285 3352 3346
1312 3352 3383
1340 3352 3421
1365 3348 3452
1390 3343 3479
1414 3338 3506
1830 3263 2750
1735 3295 2812
1641 3326 2875
1558 3355 2939
1501 3380 3006
1444 3404 3074
1413 3422 3136
1394 3436 3195
1376 3450 3254
1386 3453 3300
1397 3457 3347
1412 3458 3389
1437 3454 3424
1462 3449 3458
1487 3442 3486
1511 3434 3511
1534 3426 3536
2081 3352 2848
1980 3381 2897
1879 3410 2947
1788 3438 3000
1715 3462 3059
1642 3486 3118
1595 3503 3174
1560 3516 3228
1525 3529 3283
1523 3531 3327
1522 3533 3372
1527 3532 3412
1545 3526 3446
1563 3520 3479
1583 3511 3506
1604 3500 3530
1625 3490 3554
2339 3412 2923
2235 3439 2960
2131 3466 2997
2032 3492 3039
1943 3517 3091
1853 3542 3143
1787 3560 3195
1733 3574 3246
1678 3588 3298
1661 3590 3341
1643 3592 3385
1635 3591 3425
1644 3584 3459
1654 3577 3492
1668 3567 3519
1684 3554 3543
1700 3542 3566
2597 3471 2998
2490 3496 3023
2382 3522 3048
2276 3547 3079
2170 3573 3124
2065 3598 3168
1980 3617 3215
1905 3632 3264
1831 3647 3312
1798 3649 3356
1765 3651 3399
1743 3650 3438
1743 3642 3472
1744 3634 3505
1752 3622 3531
1764 3608 3555
1775 3594 3578
1002 582 641
950 620 743
897 657 845
854 698 954
829 748 1080
805 797 1206
795 858 1345
792 925 1492
790 991 1638
803 1073 1793
816 1154 1947
832 1237 2098
853 1326 2242
874 1414 2386
897 1499 2512
919 1582 2629
942 1666 2746
971 698 693
932 743 807
893 789 921
859 838 1042
836 896 1178
814 953 1313
804 1020 1459
800 1092 1609
796 1165 1759
807 1247 1910
818 1330 2062
833 1414 2208
853 1499 2344
873 1584 2480
894 1664 2597
916 1742 2706
