Assets/1__3DArt/KimSe/artstation_asset/LUTs_pasterls/3DL/Emerald Oasis 04.3dl
# Enhanced with VOXCOLOR algorithms
0 64 128 192 256 320 384 448 512 576 640 704 768 832 896 960 1023
418 642 610
428 665 668
439 688 725
451 714 791
463 745 873
476 777 956
490 813 1054
505 851 1159
520 889 1265
535 931 1385
551 972 1505
566 1013 1626
580 1052 1749
594 1092 1872
606 1126 1993
616 1157 2113
626 1188 2232
420 763 684
431 793 753
441 823 822
453 856 898
466 894 990
480 933 1083
495 975 1188
511 1019 1299
526 1063 1411
543 1108 1532
559 1154 1654
576 1198 1775
591 1240 1895
607 1282 2016
620 1319 2133
632 1354 2249
644 1389 2364
423 884 759
433 921 839
444 958 918
455 998 1006
470 1043 1108
484 1088 1209
500 1137 1322
517 1187 1440
533 1237 1557
551 1286 1680
568 1335 1802
586 1383 1924
602 1427 2041
619 1471 2159
634 1512 2273
648 1551 2385
662 1590 2496
434 1038 855
443 1081 946
451 1124 1037
462 1170 1134
476 1220 1244
490 1271 1354
506 1324 1472
523 1378 1594
541 1432 1716
559 1483 1838
577 1534 1960
596 1583 2079
613 1628 2193
631 1673 2307
648 1714 2416
664 1755 2522
680 1795 2628
462 1260 996
465 1307 1097
469 1353 1198
475 1402 1304
487 1455 1419
499 1507 1535
515 1561 1655
532 1615 1777
548 1670 1900
567 1719 2018
586 1768 2135
605 1815 2250
625 1856 2356
644 1897 2463
662 1936 2563
681 1972 2661
699 2009 2759
489 1483 1138
488 1532 1248
487 1582 1359
489 1633 1473
499 1689 1595
509 1744 1716
524 1799 1838
540 1853 1961
556 1907 2083
576 1955 2197
596 2002 2311
615 2046 2420
636 2084 2519
656 2122 2618
677 2157 2711
698 2190 2800
718 2223 2889
564 1729 1311
553 1779 1425
542 1828 1539
537 1879 1656
542 1933 1778
546 1987 1899
558 2039 2019
572 2090 2138
587 2140 2257
607 2183 2363
627 2225 2470
648 2264 2572
670 2296 2663
693 2329 2754
716 2358 2838
740 2387 2918
764 2415 2998
664 1988 1499
640 2036 1614
617 2084 1729
601 2133 1845
599 2183 1964
597 2233 2084
605 2280 2199
617 2326 2312
629 2371 2425
649 2407 2523
670 2442 2622
692 2475 2715
717 2501 2797
742 2527 2879
768 2550 2954
795 2572 3025
822 2594 3097
763 2247 1688
727 2294 1803
691 2340 1918
665 2386 2034
656 2433 2151
648 2480 2268
652 2522 2378
661 2561 2485
671 2601 2593
692 2631 2683
713 2660 2774
736 2686 2858
763 2706 2931
790 2725 3005
820 2742 3070
850 2758 3133
880 2774 3195
967 2473 1886
913 2515 1991
859 2557 2096
815 2599 2202
794 2640 2311
773 2681 2419
767 2717 2521
770 2750 2619
772 2784 2718
791 2806 2800
810 2829 2882
832 2848 2959
860 2861 3024
889 2875 3090
920 2886 3148
953 2897 3203
985 2907 3258
1172 2699 2083
1099 2737 2179
1026 2775 2274
966 2812 2371
932 2848 2470
897 2883 2570
883 2913 2663
878 2939 2753
874 2966 2843
890 2981 2917
907 2997 2991
928 3010 3059
958 3017 3117
988 3024 3175
1021 3030 3226
1055 3035 3273
1090 3040 3321
1403 2900 2271
1313 2934 2354
1222 2967 2438
1145 3000 2523
1095 3030 2614
1046 3061 2704
1020 3085 2788
1006 3106 2870
992 3127 2951
1005 3137 3018
1017 3146 3084
1035 3154 3146
1064 3156 3197
1094 3157 3248
1127 3158 3293
1163 3158 3334
1198 3158 3375
1690 3051 2439
1582 3080 2506
1474 3109 2573
1379 3137 2644
1311 3164 2723
1243 3191 2803
1201 3211 2878
1173 3228 2952
1144 3245 3026
1148 3251 3087
1152 3258 3148
1163 3261 3205
1189 3259 3252
1215 3258 3299
1246 3255 3339
1279 3251 3375
1313 3247 3410
1976 3203 2606
1851 3226 2657
1727 3250 2708
1614 3274 2765
1527 3297 2833
1440 3320 2901
1382 3337 2968
1339 3350 3035
1296 3364 3101
1292 3366 3156
1287 3369 3212
1292 3369 3264
1314 3363 3306
1336 3358 3349
1365 3351 3384
1396 3343 3415
1427 3335 3446
2240 3307 2739
2109 3325 2774
1978 3343 2809
1854 3362 2852
1748 3382 2909
1641 3402 2966
1564 3417 3025
1502 3428 3085
1439 3440 3145
1421 3440 3198
1404 3441 3250
1397 3439 3299
1412 3432 3340
1427 3425 3381
1449 3416 3413
1475 3405 3441
1501 3395 3469
2493 3388 2855
2360 3400 2874
2228 3412 2893
2097 3426 2921
1971 3443 2968
1844 3461 3014
1746 3474 3066
1661 3484 3120
1577 3494 3174
1544 3495 3224
1510 3495 3275
1490 3492 3322
1496 3484 3362
1502 3476 3403
1516 3465 3433
1535 3452 3459
1553 3440 3485
2746 3469 2971
2612 3475 2974
2478 3481 2977
2340 3490 2991
2193 3505 3026
2047 3519 3062
1927 3530 3106
1821 3540 3155
1715 3549 3203
1666 3549 3251
1617 3548 3300
1583 3545 3345
1580 3536 3385
1576 3526 3424
1583 3514 3453
1594 3499 3477
1606 3485 3501
589 663 631
578 686 692
567 709 754
559 735 823
558 766 907
556 797 992
561 834 1091
567 872 1199
574 911 1306
586 955 1429
598 999 1551
610 1044 1676
623 1088 1803
637 1132 1930
648 1172 2054
659 1209 2176
669 1247 2299
578 778 694
572 808 768
566 839 841
562 872 922
562 910 1016
562 947 1110
567 989 1216
573 1034 1329
580 1078 1442
592 1125 1566
604 1172 1689
616 1219 1813
630 1264 1936
644 1310 2060
657 1351 2179
669 1391 2297
682 1430 2414
567 892 758
566 930 843
566 968 928
566 1009 1020
567 1053 1124
568 1098 1227
573 1145 1341
579 1195 1460
586 1245 1579
598 1295 1703
610 1345 1827
623 1394 1950
637 1441 2070
652 1488 2190
666 1531 2305
680 1572 2417
694 1613 2530
565 1040 845
567 1084 941
569 1128 1038
570 1175 1139
572 1224 1251
574 1274 1363
579 1326 1482
585 1379 1605
592 1432 1728
604 1484 1851
616 1536 1974
629 1585 2095
645 1632 2210
660 1678 2325
676 1721 2435
691 1762 2541
707 1803 2647
582 1254 980
580 1301 1085
578 1349 1190
577 1398 1299
578 1451 1417
579 1503 1535
584 1556 1656
591 1609 1779
598 1662 1903
610 1711 2022
623 1761 2141
637 1808 2256
653 1850 2364
670 1893 2472
687 1932 2573
704 1969 2670
721 2006 2768
599 1467 1115
594 1518 1229
588 1570 1343
585 1622 1460
585 1677 1583
585 1732 1706
590 1785 1830
597 1839 1954
603 1892 2077
616 1939 2192
630 1986 2307
644 2030 2417
662 2069 2517
679 2107 2618
698 2142 2711
717 2176 2800
735 2209 2889
663 1707 1284
648 1758 1400
633 1810 1517
622 1862 1636
618 1915 1759
615 1969 1883
618 2020 2004
623 2069 2125
629 2119 2245
643 2161 2353
658 2203 2461
673 2242 2563
693 2275 2655
712 2308 2747
733 2338 2832
754 2366 2912
775 2394 2992
751 1960 1469
723 2010 1585
696 2060 1701
675 2110 1819
666 2160 1941
656 2210 2062
656 2256 2179
661 2301 2294
666 2346 2408
681 2381 2508
696 2417 2608
713 2450 2703
735 2476 2786
757 2503 2869
780 2526 2944
804 2548 3016
828 2569 3087
838 2213 1654
799 2261 1770
759 2310 1886
727 2358 2003
713 2405 2122
698 2451 2241
695 2493 2354
698 2533 2463
702 2572 2572
718 2601 2664
734 2631 2756
753 2657 2842
777 2677 2916
802 2697 2990
827 2714 3057
854 2729 3119
880 2745 3182
1028 2438 1851
970 2482 1957
912 2526 2063
865 2570 2171
838 2611 2281
811 2652 2392
801 2688 2496
798 2721 2596
796 2755 2697
811 2777 2781
826 2800 2864
844 2820 2942
870 2833 3009
896 2847 3075
923 2859 3134
952 2869 3189
980 2879 3245
1218 2663 2048
1142 2703 2144
1066 2743 2240
1002 2781 2338
964 2817 2440
925 2854 2542
906 2884 2638
898 2910 2730
890 2937 2822
903 2953 2898
917 2969 2973
936 2982 3043
963 2990 3102
990 2998 3161
1020 3004 3212
1050 3008 3260
1081 3013 3308
1435 2865 2236
1342 2900 2320
1249 2935 2404
1169 2969 2491
1116 3001 2584
1064 3032 2677
1035 3057 2764
1018 3078 2847
1001 3099 2931
1012 3110 2999
1022 3120 3067
1038 3128 3130
1066 3130 3182
1093 3133 3235
1123 3134 3280
1155 3133 3321
1186 3133 3362
1707 3020 2405
1599 3050 2474
1490 3080 2543
1394 3109 2615
1324 3137 2697
1253 3165 2778
1210 3186 2856
1179 3204 2932
1149 3222 3008
1152 3228 3071
1155 3235 3133
1164 3240 3191
1189 3238 3239
1213 3237 3287
1241 3234 3327
1271 3230 3364
1301 3226 3400
1980 3175 2575
1856 3200 2628
1732 3225 2681
1620 3250 2740
1532 3274 2810
1443 3297 2880
1385 3315 2949
1341 3329 3017
1297 3344 3086
1292 3347 3143
1287 3350 3199
1291 3351 3252
1312 3346 3296
1333 3341 3339
1359 3334 3375
1388 3326 3406
1417 3318 3438
2238 3284 2712
2109 3303 2749
1980 3323 2786
1859 3343 2831
1752 3364 2890
1645 3385 2949
1568 3400 3010
1505 3412 3071
1442 3425 3133
1424 3427 3186
1406 3428 3240
1398 3427 3289
1411 3420 3331
1425 3413 3372
1446 3404 3405
1470 3393 3434
1494 3383 3462
2489 3370 2832
2360 3384 2854
2231 3397 2876
2104 3412 2906
1979 3430 2954
1853 3449 3002
1756 3463 3055
1671 3474 3110
1587 3486 3165
1552 3487 3217
1518 3488 3268
1496 3486 3315
1500 3478 3356
1504 3470 3396
1517 3459 3427
1535 3446 3454
1553 3433 3481
2740 3457 2952
2611 3464 2959
2483 3471 2965
2349 3482 2982
2205 3497 3018
2062 3513 3055
1943 3525 3100
1837 3536 3149
1731 3546 3198
1681 3547 3247
1630 3547 3295
1594 3544 3341
1588 3535 3381
1583 3526 3420
1589 3513 3450
1600 3498 3474
1612 3483 3499
761 684 651
727 707 717
694 730 783
667 756 856
652 787 942
637 818 1028
631 854 1129
630 894 1238
629 933 1347
637 980 1472
645 1027 1598
654 1074 1725
667 1123 1856
679 1172 1987
690 1217 2115
701 1261 2240
713 1305 2366
736 792 704
713 824 782
691 855 861
671 888 945
658 925 1041
644 962 1137
638 1004 1245
636 1049 1359
634 1093 1473
641 1142 1599
648 1191 1725
657 1240 1851
669 1289 1977
682 1338 2104
694 1383 2226
707 1427 2345
719 1471 2465
711 901 757
699 940 848
688 979 938
676 1020 1034
664 1063 1140
652 1107 1245
646 1154 1360
642 1203 1480
639 1252 1600
645 1304 1726
651 1355 1851
660 1406 1976
672 1455 2098
685 1504 2220
698 1549 2337
712 1593 2450
726 1637 2563
697 1042 835
691 1087 937
686 1133 1038
679 1179 1144
668 1228 1258
658 1277 1372
651 1328 1492
647 1380 1616
643 1432 1740
649 1485 1864
655 1537 1988
663 1587 2110
676 1635 2227
689 1683 2344
704 1727 2453
718 1769 2560
733 1811 2666
703 1247 964
695 1296 1073
688 1345 1182
680 1395 1295
669 1447 1415
659 1498 1534
654 1550 1657
650 1602 1781
647 1654 1905
653 1704 2026
659 1753 2146
668 1801 2262
682 1844 2371
696 1888 2480
711 1927 2582
727 1965 2680
743 2003 2777
709 1452 1092
699 1505 1209
690 1558 1326
680 1611 1446
670 1665 1571
661 1719 1697
656 1772 1822
653 1824 1946
650 1876 2071
657 1923 2187
664 1970 2303
673 2014 2414
688 2054 2516
702 2093 2617
719 2128 2710
735 2161 2799
752 2194 2888
762 1684 1256
743 1738 1375
724 1792 1494
708 1845 1616
695 1898 1741
683 1950 1867
677 2001 1990
674 2049 2111
672 2098 2233
680 2140 2342
688 2182 2451
699 2221 2555
715 2254 2648
732 2288 2741
749 2318 2825
768 2345 2906
787 2373 2986
838 1931 1438
807 1983 1556
775 2036 1674
749 2087 1794
732 2137 1917
715 2187 2041
708 2233 2159
705 2277 2276
702 2320 2392
712 2356 2493
722 2392 2595
735 2424 2690
754 2451 2774
772 2478 2858
792 2501 2934
813 2523 3006
833 2544 3077
914 2178 1620
870 2229 1737
826 2280 1854
790 2329 1972
769 2376 2093
748 2423 2215
739 2465 2329
736 2504 2440
733 2543 2551
744 2572 2645
756 2601 2738
771 2627 2825
792 2648 2901
813 2668 2976
835 2685 3043
857 2701 3105
880 2716 3168
1089 2403 1816
1027 2449 1923
966 2495 2030
914 2540 2139
882 2582 2252
850 2624 2365
834 2660 2471
827 2692 2573
819 2725 2676
830 2748 2761
842 2771 2847
857 2791 2926
880 2805 2994
903 2820 3061
927 2831 3120
951 2841 3176
975 2851 3231
1264 2627 2013
1185 2669 2110
1106 2710 2206
1039 2751 2306
995 2787 2410
952 2824 2515
930 2854 2612
917 2881 2707
905 2908 2801
916 2925 2878
928 2941 2955
943 2955 3026
968 2963 3086
993 2971 3146
1019 2977 3198
1045 2981 3246
1071 2986 3295
1467 2830 2201
1371 2867 2286
1276 2903 2371
1194 2939 2460
1137 2971 2555
1081 3003 2650
1050 3028 2739
1030 3050 2825
1011 3072 2911
1019 3083 2981
1028 3094 3050
1042 3103 3114
1067 3105 3168
1092 3108 3221
1119 3109 3266
1146 3109 3308
1174 3108 3350
1725 2989 2372
1616 3020 2442
1507 3052 2512
1410 3082 2587
1337 3110 2670
1264 3139 2754
1218 3161 2834
1186 3179 2912
1154 3198 2991
1155 3206 3055
1157 3213 3119
1166 3218 3177
1188 3217 3226
1211 3216 3275
1236 3213 3316
1263 3209 3352
1290 3205 3389
1984 3147 2544
1861 3173 2599
1737 3200 2653
1625 3225 2714
1536 3250 2786
1446 3275 2859
1387 3293 2930
1342 3309 3000
1297 3324 3070
1292 3328 3129
1286 3332 3187
1289 3333 3240
1309 3329 3285
1329 3324 3329
1353 3318 3365
1379 3310 3397
1406 3301 3429
2236 3261 2684
2109 3282 2724
1983 3302 2763
1863 3323 2810
1756 3345 2871
1650 3367 2932
1572 3383 2995
1509 3397 3058
1446 3410 3121
1427 3413 3175
1408 3415 3230
1399 3415 3280
1411 3408 3322
1424 3402 3364
1443 3392 3397
1465 3382 3427
1488 3371 3456
2485 3353 2809
2360 3367 2833
2235 3382 2858
2111 3398 2891
1987 3417 2941
1863 3437 2990
1765 3452 3044
1681 3464 3101
1597 3477 3157
1561 3479 3209
1525 3480 3260
1502 3479 3308
1504 3472 3349
1507 3464 3390
1519 3453 3422
1536 3440 3449
1553 3426 3476
2734 3445 2933
2611 3453 2943
2488 3462 2953
2358 3473 2972
2217 3490 3010
2077 3507 3048
1959 3520 3094
1853 3532 3143
1748 3543 3193
1695 3545 3242
1642 3546 3291
1605 3544 3336
1597 3535 3376
1590 3526 3416
1595 3513 3446
1606 3497 3471
1618 3482 3497
992 711 669
936 736 742
879 761 816
831 788 895
799 819 985
767 851 1076
749 889 1181
737 930 1292
725 971 1404
727 1020 1532
729 1069 1660
734 1119 1790
744 1172 1923
754 1224 2057
765 1275 2186
776 1324 2313
787 1373 2440
953 815 712
912 847 798
871 880 883
834 914 974
804 952 1074
775 990 1174
755 1032 1286
741 1077 1402
727 1122 1519
727 1173 1647
728 1224 1775
731 1275 1903
741 1327 2031
751 1379 2160
762 1428 2283
774 1475 2403
