Assets/1__3DArt/KimSe/artstation_asset/LUTs_pasterls/3DL/Emerald Oasis 02.3dl
# Enhanced with VOXCOLOR algorithms
0 256 512 768 1023
450 546 610
526 697 945
606 906 1429
693 1150 1990
771 1365 2473
459 1166 1006
518 1414 1479
610 1696 2025
711 1959 2530
808 2167 2928
610 2225 1760
575 2446 2253
632 2649 2716
735 2787 3060
850 2862 3300
1223 3082 2479
951 3226 2811
856 3311 3118
924 3320 3330
1050 3290 3476
2184 3437 2858
1630 3557 3024
1228 3624 3243
1141 3593 3421
1188 3517 3533
1369 674 670
1139 830 1097
1033 1067 1654
1056 1399 2274
1125 1736 2812
1215 1224 923
1096 1476 1488
991 1762 2105
1000 2048 2641
1073 2281 3044
1197 2123 1562
1043 2380 2131
962 2601 2673
991 2748 3051
1064 2829 3297
1574 2934 2294
1267 3122 2698
1113 3241 3069
1144 3270 3310
1240 3253 3465
2273 3356 2761
1819 3503 2983
1446 3601 3227
1340 3595 3417
1382 3535 3550
2774 889 720
2347 1129 1363
2004 1415 2041
1861 1743 2639
1860 2082 3117
2513 1401 823
2221 1667 1540
1885 1974 2289
1729 2261 2844
1740 2493 3221
2342 2152 1286
2081 2403 1968
1809 2642 2656
1683 2810 3104
1700 2913 3366
2390 2856 2014
2086 3040 2515
1838 3198 3002
1771 3269 3316
1831 3285 3500
2625 3289 2609
2325 3429 2902
2016 3559 3204
1894 3605 3434
1924 3583 3589
3636 1082 788
3345 1438 1604
2989 1811 2388
2754 2076 2935
2662 2318 3329
3492 1563 813
3263 1890 1650
2922 2249 2511
2679 2504 3059
2618 2695 3393
3356 2247 1100
3164 2495 1858
2882 2757 2684
2667 2942 3208
2633 3073 3491
3250 2899 1761
3065 3048 2317
2842 3213 2933
2701 3326 3355
2721 3401 3593
3196 3335 2450
3030 3421 2799
2829 3539 3172
2717 3626 3469
2748 3658 3662
3870 1156 819
3699 1563 1694
3409 1989 2523
3195 2220 3052
3083 2361 3404
3857 1583 838
3744 1977 1729
3515 2402 2655
3302 2632 3196
3204 2760 3493
3828 2226 998
3774 2521 1806
3628 2841 2741
3454 3050 3328
3385 3193 3619
3788 2892 1548
3760 3068 2150
3671 3265 2899
3556 3416 3438
3518 3537 3722
3742 3404 2393
3689 3487 2747
3600 3584 3162
3518 3676 3529
3517 3742 3758
