Assets/1__3DArt/KimSe/artstation_asset/LUTs_pasterls/3DL/Emerald Oasis 04.3dl
# Enhanced with VOXCOLOR algorithms
0 128 256 384 512 640 768 896 1023
418 642 610
439 688 725
463 745 873
490 813 1054
520 889 1265
551 972 1505
580 1052 1749
606 1126 1993
626 1188 2232
423 884 759
444 958 918
470 1043 1108
500 1137 1322
533 1237 1557
568 1335 1802
602 1427 2041
634 1512 2273
662 1590 2496
462 1260 996
469 1353 1198
487 1455 1419
515 1561 1655
548 1670 1900
586 1768 2135
625 1856 2356
662 1936 2563
699 2009 2759
564 1729 1311
542 1828 1539
542 1933 1778
558 2039 2019
587 2140 2257
627 2225 2470
670 2296 2663
716 2358 2838
764 2415 2998
763 2247 1688
691 2340 1918
656 2433 2151
652 2522 2378
671 2601 2593
713 2660 2774
763 2706 2931
820 2742 3070
880 2774 3195
1172 2699 2083
1026 2775 2274
932 2848 2470
883 2913 2663
874 2966 2843
907 2997 2991
958 3017 3117
1021 3030 3226
1090 3040 3321
1690 3051 2439
1474 3109 2573
1311 3164 2723
1201 3211 2878
1144 3245 3026
1152 3258 3148
1189 3259 3252
1246 3255 3339
1313 3247 3410
2240 3307 2739
1978 3343 2809
1748 3382 2909
1564 3417 3025
1439 3440 3145
1404 3441 3250
1412 3432 3340
1449 3416 3413
1501 3395 3469
2746 3469 2971
2478 3481 2977
2193 3505 3026
1927 3530 3106
1715 3549 3203
1617 3548 3300
1580 3536 3385
1583 3514 3453
1606 3485 3501
761 684 651
694 730 783
652 787 942
631 854 1129
629 933 1347
645 1027 1598
667 1123 1856
690 1217 2115
713 1305 2366
711 901 757
688 979 938
664 1063 1140
646 1154 1360
639 1252 1600
651 1355 1851
672 1455 2098
698 1549 2337
726 1637 2563
703 1247 964
688 1345 1182
669 1447 1415
654 1550 1657
647 1654 1905
659 1753 2146
682 1844 2371
711 1927 2582
743 2003 2777
762 1684 1256
724 1792 1494
695 1898 1741
677 2001 1990
672 2098 2233
688 2182 2451
715 2254 2648
749 2318 2825
787 2373 2986
914 2178 1620
826 2280 1854
769 2376 2093
739 2465 2329
733 2543 2551
756 2601 2738
792 2648 2901
835 2685 3043
880 2716 3168
1264 2627 2013
1106 2710 2206
995 2787 2410
930 2854 2612
905 2908 2801
928 2941 2955
968 2963 3086
1019 2977 3198
1071 2986 3295
1725 2989 2372
1507 3052 2512
1337 3110 2670
1218 3161 2834
1154 3198 2991
1157 3213 3119
1188 3217 3226
1236 3213 3316
1290 3205 3389
2236 3261 2684
1983 3302 2763
1756 3345 2871
1572 3383 2995
1446 3410 3121
1408 3415 3230
1411 3408 3322
1443 3392 3397
1488 3371 3456
2734 3445 2933
2488 3462 2953
2217 3490 3010
1959 3520 3094
1748 3543 3193
1642 3546 3291
1597 3535 3376
1595 3513 3446
1618 3482 3497
1344 751 682
1180 809 856
1053 876 1049
961 952 1260
904 1039 1494
888 1141 1753
890 1248 2017
903 1356 2279
923 1461 2531
1234 952 749
1146 1037 967
1051 1127 1199
963 1222 1442
895 1323 1696
869 1430 1954
866 1536 2205
880 1638 2444
903 1733 2669
1174 1271 923
1114 1375 1169
1038 1479 1426
959 1583 1688
890 1686 1951
860 1786 2199
855 1880 2428
868 1967 2640
892 2045 2833
1182 1679 1190
1112 1790 1445
1037 1897 1710
963 1999 1977
900 2094 2235
872 2177 2462
870 2250 2664
886 2316 2844
911 2373 3004
1277 2146 1538
1164 2250 1780
1068 2347 2034
992 2434 2285
936 2510 2522
920 2568 2719
928 2616 2889
950 2655 3035
979 2689 3162
1546 2584 1930
1371 2668 2130
1233 2745 2345
1132 2812 2561
1070 2866 2763
1062 2900 2927
1080 2925 3066
1112 2942 3183
1149 2953 3282
1915 2946 2296
1694 3008 2444
1509 3067 2612
1369 3118 2787
1281 3157 2954
1263 3175 3091
1278 3183 3205
1312 3183 3300
1354 3178 3377
2336 3227 2619
2096 3268 2711
1872 3311 2829
1682 3351 2960
1545 3381 3094
1495 3391 3209
1488 3388 3306
1510 3376 3386
1549 3357 3449
2761 3423 2883
2544 3444 2920
2295 3474 2988
2049 3507 3077
1841 3535 3180
1729 3542 3281
1675 3536 3370
1666 3517 3443
1686 3488 3498
2060 838 707
1821 917 940
1616 1005 1182
1450 1100 1432
1328 1202 1689
1271 1312 1955
1244 1425 2218
1241 1540 2475
1254 1656 2719
1904 1030 741
1753 1126 1005
1588 1229 1279
1428 1336 1557
1293 1447 1834
1221 1560 2100
1187 1670 2352
1183 1777 2588
1199 1878 2807
1799 1328 879
1691 1437 1158
1554 1548 1450
1408 1658 1744
1271 1766 2031
1190 1868 2288
1151 1965 2522
1143 2055 2733
1159 2138 2922
1757 1709 1115
1654 1821 1392
1528 1931 1685
1394 2034 1979
1265 2130 2261
1185 2213 2500
1145 2288 2709
1137 2357 2892
1151 2418 3051
1791 2147 1440
1656 2250 1697
1522 2346 1971
1394 2433 2247
1278 2508 2506
1211 2566 2718
1181 2616 2898
1178 2660 3049
1192 2698 3179
1967 2569 1829
1783 2649 2042
1618 2724 2273
1478 2790 2508
1368 2844 2730
1317 2880 2909
1302 2908 3058
1311 2930 3182
1335 2948 3286
2222 2925 2201
2008 2983 2363
1813 3039 2546
1649 3089 2735
1528 3129 2918
1478 3150 3067
1468 3163 3191
1484 3168 3293
1517 3170 3377
2523 3207 2537
2305 3245 2646
2089 3286 2777
1895 3325 2921
1744 3357 3065
1675 3371 3189
1651 3374 3295
1660 3369 3381
1694 3357 3451
2835 3409 2816
2653 3430 2875
2432 3461 2957
2205 3494 3056
2004 3525 3166
1886 3539 3272
1823 3538 3367
1805 3526 3445
1821 3503 3506
2800 938 734
2537 1048 1030
2288 1168 1329
2065 1293 1626
1884 1418 1914
1782 1537 2187
1723 1654 2447
1700 1771 2693
1703 1892 2924
2632 1127 738
2445 1241 1050
2232 1365 1374
2017 1494 1696
1823 1622 2004
1704 1742 2279
1637 1856 2531
1612 1965 2761
1619 2070 2969
2503 1411 837
2362 1527 1153
2180 1650 1487
1980 1775 1822
1784 1893 2139
1653 2000 2409
1577 2101 2647
1547 2194 2856
1552 2281 3039
2423 1768 1032
2297 1882 1336
2134 1997 1665
1950 2107 1996
1763 2207 2309
1629 2293 2565
1549 2372 2783
1516 2445 2968
1519 2512 3126
2399 2180 1325
2257 2279 1602
2096 2376 1906
1926 2465 2213
1755 2541 2503
1632 2600 2735
1560 2655 2928
1530 2704 3087
1533 2750 3219
2475 2582 1705
2303 2657 1936
2126 2729 2192
1955 2794 2453
1798 2848 2701
1697 2887 2900
1643 2920 3064
1627 2950 3199
1641 2977 3309
2608 2927 2083
2421 2978 2263
2231 3030 2467
2051 3078 2678
1898 3117 2881
1809 3143 3047
1765 3161 3185
1760 3175 3299
1787 3188 3391
2778 3204 2433
2598 3236 2563
2402 3273 2713
2212 3310 2874
2049 3342 3033
1955 3361 3171
1908 3371 3288
1902 3374 3385
1930 3374 3463
2963 3405 2728
2820 3425 2814
2635 3453 2916
2434 3485 3030
2245 3517 3151
2122 3537 3265
2050 3544 3367
2022 3541 3454
2033 3528 3522
3330 1025 766
3114 1168 1107
2882 1327 1454
2653 1490 1793
2452 1644 2112
2325 1774 2393
2247 1894 2652
2211 2010 2891
2207 2128 3111
3201 1212 754
3034 1349 1102
2827 1505 1467
2607 1666 1830
2396 1820 2170
2253 1950 2455
2166 2068 2707
2127 2178 2932
2126 2283 3132
3092 1486 817
2958 1617 1161
2778 1763 1533
2571 1911 1908
2360 2051 2258
2205 2169 2542
2108 2275 2786
2062 2372 2994
2061 2462 3173
3009 1827 965
2891 1948 1293
2731 2077 1657
2542 2204 2027
2338 2321 2374
2178 2417 2651
2075 2503 2880
2024 2583 3070
2021 2657 3228
2956 2217 1211
2836 2320 1508
2685 2424 1843
2512 2523 2188
2324 2610 2514
2172 2680 2774
2071 2743 2985
2021 2802 3156
2019 2859 3293
2962 2603 1569
2828 2679 1817
2673 2754 2100
2506 2825 2395
2336 2887 2678
2203 2934 2907
2117 2976 3093
2079 3017 3244
2088 3059 3364
3004 2939 1944
2865 2989 2141
2707 3041 2369
2542 3091 2608
2382 3134 2842
2265 3166 3036
2191 3193 3197
2165 3219 3328
2187 3247 3433
3073 3212 2305
2942 3242 2454
2786 3277 2627
2621 3313 2812
2463 3347 2996
2350 3371 3156
2281 3389 3291
2257 3404 3405
2282 3419 3496
3158 3411 2618
3054 3430 2727
2909 3456 2853
2744 3486 2989
2579 3518 3129
2455 3542 3258
2375 3558 3374
2337 3565 3472
2342 3567 3549
3666 1088 794
3504 1256 1164
3305 1447 1544
3093 1642 1913
2893 1823 2255
2759 1964 2544
2677 2086 2804
2638 2198 3040
2633 2309 3258
3586 1267 775
3454 1426 1146
3276 1611 1542
3074 1803 1935
2870 1984 2299
2723 2126 2593
2631 2247 2848
2586 2355 3071
2584 2457 3270
3511 1529 811
3402 1677 1174
3246 1847 1575
3060 2023 1981
2860 2188 2358
2703 2319 2656
2600 2431 2906
2548 2531 3116
2545 2623 3296
3444 1855 918
3351 1988 1263
3215 2136 1653
3046 2285 2056
2857 2423 2434
2696 2534 2732
2586 2632 2975
2527 2719 3172
2522 2801 3333
3389 2228 1114
3300 2340 1425
3178 2458 1787
3027 2573 2166
2854 2678 2529
2698 2764 2818
2587 2841 3051
2527 2913 3236
2521 2983 3381
3358 2604 1438
3267 2687 1698
3149 2772 2007
3010 2854 2336
2854 2929 2658
2714 2991 2921
2613 3048 3134
2560 3103 3305
2564 3161 3437
3346 2937 1804
3255 2992 2012
3140 3050 2262
3008 3107 2533
2866 3159 2803
2740 3203 3031
2650 3242 3220
2606 3283 3373
2621 3328 3492
3351 3211 2175
3266 3244 2335
3155 3282 2529
3027 3322 2740
2892 3361 2954
2776 3393 3143
2692 3421 3304
2653 3448 3437
2668 3479 3543
3369 3412 2513
3299 3432 2636
3196 3460 2781
3071 3492 2939
2936 3526 3101
2820 3555 3251
2735 3577 3384
2687 3595 3496
2682 3609 3584
3841 1126 813
3725 1310 1200
3560 1523 1598
3371 1741 1986
3183 1940 2342
3054 2088 2635
2976 2210 2896
2940 2315 3133
2939 2414 3353
3805 1291 794
3709 1466 1178
3565 1676 1592
3392 1894 2005
3209 2097 2385
3070 2248 2686
2982 2371 2943
2940 2475 3167
2940 2570 3367
3766 1537 811
3688 1701 1185
3566 1894 1605
3412 2096 2032
3240 2284 2430
3096 2429 2740
2999 2548 2997
2949 2649 3211
2947 2740 3392
3725 1848 885
3662 1995 1238
3561 2162 1648
3428 2335 2076
3271 2497 2481
3127 2626 2798
3025 2736 3056
2968 2832 3262
2962 2918 3427
3683 2206 1032
3631 2330 1351
3547 2465 1734
3435 2601 2144
3297 2729 2542
3159 2836 2861
3056 2931 3117
2995 3017 3318
2987 3099 3471
3645 2578 1315
3598 2671 1582
3525 2770 1913
3427 2869 2276
3307 2964 2638
3183 3046 2939
3085 3122 3184
3028 3195 3376
3023 3268 3519
3614 2914 1665
3570 2977 1879
3503 3045 2150
3415 3115 2453
3309 3183 2763
3197 3244 3031
3107 3301 3254
3054 3358 3431
3053 3419 3564
3591 3195 2047
3548 3234 2214
3484 3279 2424
3402 3328 2661
3305 3378 2910
3202 3423 3135
3118 3464 3327
3065 3505 3483
3061 3548 3601
3575 3401 2427
3536 3425 2557
3474 3458 2712
3392 3497 2887
3296 3540 3072
3198 3576 3248
3114 3605 3401
3056 3629 3529
3032 3652 3627
3886 1140 819
3792 1329 1213
3646 1551 1619
3473 1778 2013
3297 1984 2371
3178 2133 2664
3107 2250 2925
3078 2344 3163
3083 2425 3388
3875 1283 803
3803 1466 1189
3684 1691 1611
3535 1926 2032
3374 2143 2420
3250 2299 2724
3172 2420 2983
3136 2517 3208
3140 2598 3410
3861 1509 811
3810 1682 1186
3717 1893 1613
3596 2115 2053
3455 2323 2463
3333 2479 2783
3251 2603 3047
3208 2703 3265
3208 2787 3448
3845 1802 860
3811 1960 1214
3745 2145 1635
3651 2339 2079
3534 2525 2505
3420 2673 2841
3337 2795 3112
3289 2897 3328
3284 2986 3497
3826 2148 964
3808 2283 1284
3765 2435 1683
3697 2593 2118
3605 2747 2547
3504 2878 2896
3424 2993 3176
3373 3095 3394
3363 3187 3554
3807 2520 1199
3798 2623 1468
3770 2738 1818
3722 2858 2213
3651 2978 2617
3565 3087 2958
3491 3186 3237
3439 3278 3453
3422 3364 3606
3789 2866 1526
3785 2937 1744
3765 3018 2034
3729 3106 2370
3674 3197 2723
3600 3283 3037
3529 3363 3298
3475 3438 3503
3448 3509 3644
3772 3158 1926
3767 3202 2095
3749 3258 2319
3717 3323 2581
3670 3392 2866
3603 3458 3133
3534 3516 3362
3473 3570 3543
3434 3620 3669
3758 3372 2377
3746 3399 2505
3721 3442 2661
3685 3496 2842
3637 3555 3047
3570 3604 3250
3497 3640 3428
3427 3669 3573
3372 3694 3677
