Assets/1__3DArt/KimSe/artstation_asset/LUTs_pasterls/3DL/Emerald Oasis 03.3dl
# Enhanced with VOXCOLOR algorithms
0 256 512 768 1023
434 498 594
500 655 983
581 864 1498
671 1122 2058
755 1365 2537
458 1186 1069
530 1430 1585
628 1725 2142
729 1999 2619
822 2217 2975
691 2342 1947
673 2521 2423
749 2715 2846
866 2854 3143
982 2934 3341
1521 3185 2681
1271 3289 2961
1213 3363 3218
1303 3380 3397
1422 3367 3517
2618 3501 3035
2153 3589 3138
1802 3654 3320
1725 3645 3478
1766 3597 3581
1345 627 648
1075 814 1138
964 1077 1723
997 1422 2324
1080 1772 2818
1205 1225 955
1073 1496 1576
965 1806 2211
971 2103 2715
1035 2337 3070
1261 2224 1718
1099 2460 2284
1020 2672 2794
1049 2818 3127
1115 2898 3334
1810 3051 2505
1502 3200 2851
1368 3301 3169
1412 3332 3374
1496 3323 3503
2627 3438 2953
2247 3549 3104
1922 3635 3304
1823 3641 3470
1844 3598 3581
2772 843 694
2279 1164 1420
1908 1525 2128
1788 1876 2692
1822 2214 3117
2534 1393 841
2198 1710 1622
1834 2061 2391
1674 2357 2908
1683 2579 3236
2410 2233 1425
2120 2486 2109
1821 2724 2768
1678 2884 3169
1681 2978 3393
2550 2971 2255
2231 3130 2683
1975 3265 3102
1900 3327 3372
1944 3345 3527
2854 3385 2841
2592 3494 3050
2308 3602 3284
2184 3643 3479
2199 3628 3608
3644 1043 782
3300 1508 1676
2892 1989 2493
2668 2296 2998
2650 2549 3347
3514 1543 831
3251 1940 1728
2872 2367 2611
2626 2647 3118
2588 2839 3412
3397 2291 1210
3185 2562 1978
2875 2840 2784
2644 3028 3261
2605 3155 3508
3329 2985 2004
3134 3125 2488
2894 3276 3030
2732 3379 3400
2734 3450 3607
3314 3417 2744
3158 3488 2986
2953 3586 3264
2820 3660 3508
2837 3690 3671
3886 1124 835
3662 1639 1772
3307 2177 2633
3083 2454 3116
3051 2634 3421
3859 1542 842
3724 2012 1791
3454 2517 2739
3229 2791 3242
3176 2952 3510
3830 2232 1046
3769 2560 1881
3601 2908 2813
3414 3138 3361
3357 3298 3628
3799 2946 1712
3769 3119 2278
3669 3310 2974
3537 3457 3465
3483 3579 3720
3774 3469 2698
3716 3535 2953
3620 3620 3262
3519 3698 3562
3501 3758 3758
