Assets/1__3DArt/KimSe/artstation_asset/LUTs_pasterls/3DL/Emerald Oasis 01 S.3dl
# Enhanced with VOXCOLOR algorithms
0 64 128 192 256 320 384 448 512 576 640 704 768 832 896 960 1023
80 80 241
100 128 396
120 176 550
141 233 725
163 310 939
186 387 1153
209 486 1383
233 596 1622
256 706 1861
279 842 2084
302 978 2308
324 1117 2516
345 1262 2691
366 1407 2866
384 1541 2997
401 1670 3104
418 1799 3212
85 271 317
106 334 490
128 398 662
151 471 853
178 563 1078
204 655 1303
234 765 1538
264 884 1778
295 1003 2018
328 1140 2234
360 1276 2450
393 1413 2648
427 1550 2810
460 1688 2973
494 1813 3093
528 1933 3191
562 2052 3289
90 461 393
113 540 584
136 619 775
161 708 981
192 815 1217
223 922 1453
258 1043 1693
296 1172 1934
333 1301 2175
376 1438 2383
419 1575 2591
462 1710 2780
509 1839 2930
555 1969 3080
604 2085 3189
655 2196 3278
706 2306 3366
105 696 494
132 787 702
159 878 910
189 978 1131
227 1095 1374
264 1211 1618
308 1339 1859
355 1472 2097
403 1605 2336
457 1738 2533
511 1872 2730
566 2000 2907
625 2120 3043
685 2239 3179
749 2345 3277
815 2445 3356
881 2544 3435
144 1022 645
178 1117 869
213 1211 1093
252 1313 1324
302 1429 1569
352 1545 1815
410 1668 2048
471 1795 2276
533 1921 2504
602 2042 2684
670 2164 2865
740 2279 3025
812 2384 3145
884 2488 3266
960 2580 3351
1039 2665 3419
1117 2750 3487
182 1349 796
224 1447 1036
267 1544 1276
315 1648 1518
377 1764 1764
440 1879 2011
511 1998 2237
587 2117 2455
663 2237 2672
746 2346 2835
830 2456 2999
913 2558 3143
999 2648 3248
1084 2738 3352
1172 2815 3425
1262 2885 3482
1352 2956 3539
280 1678 964
331 1771 1211
381 1865 1458
439 1963 1703
513 2071 1945
587 2178 2186
671 2286 2402
759 2394 2605
848 2501 2808
941 2596 2956
1034 2691 3103
1127 2780 3232
1219 2855 3322
1311 2930 3413
1405 2994 3475
1499 3052 3524
1593 3110 3573
409 2009 1139
467 2094 1390
525 2179 1640
593 2267 1884
679 2363 2118
765 2459 2351
860 2553 2554
959 2647 2742
1059 2740 2930
1160 2819 3061
1261 2899 3192
1360 2973 3305
1456 3034 3383
1552 3095 3461
1647 3145 3514
1742 3191 3556
1836 3237 3597
538 2340 1315
604 2416 1568
670 2493 1821
746 2572 2065
844 2656 2290
942 2740 2516
1048 2821 2706
1159 2900 2878
1270 2978 3051
1379 3043 3166
1488 3107 3280
1594 3165 3378
1693 3212 3444
1793 3259 3509
1889 3297 3554
1984 3331 3588
2080 3364 3622
777 2587 1470
842 2651 1712
908 2714 1954
985 2780 2186
1086 2851 2399
1186 2922 2612
1294 2988 2790
1406 3054 2951
1517 3119 3111
1623 3171 3215
1729 3223 3320
1831 3271 3409
1925 3308 3468
2018 3346 3526
2108 3376 3567
2196 3402 3598
2283 3428 3628
1016 2834 1626
1081 2885 1856
1146 2936 2086
1224 2989 2307
1328 3046 2508
1431 3103 2709
1540 3156 2875
1652 3208 3023
1764 3259 3171
1868 3300 3265
1971 3340 3359
2069 3376 3439
2156 3404 3491
2244 3432 3544
2327 3454 3580
2407 3473 3607
2487 3492 3635
1281 3044 1768
1342 3083 1983
1402 3123 2199
1476 3164 2406
1578 3208 2595
1679 3253 2785
1786 3294 2940
1895 3334 3077
2004 3374 3215
2101 3405 3301
2199 3435 3387
2291 3462 3461
2371 3483 3508
2451 3503 3556
2526 3518 3589
2597 3531 3614
2669 3544 3639
1597 3182 1884
1645 3211 2079
1693 3241 2273
1755 3272 2461
1845 3307 2639
1936 3342 2818
2032 3375 2965
2130 3407 3096
2227 3439 3228
2314 3463 3311
2400 3488 3394
2481 3509 3465
2551 3525 3512
2621 3541 3558
2686 3553 3590
2747 3562 3614
2809 3571 3638
1914 3320 2001
1949 3339 2174
1983 3358 2346
2033 3379 2517
2113 3405 2684
2193 3431 2850
2277 3455 2990
2364 3479 3115
2451 3503 3240
2526 3522 3321
2602 3540 3401
2672 3556 3470
2731 3568 3515
2791 3580 3560
2845 3587 3591
2897 3593 3614
2948 3599 3637
2221 3408 2104
2238 3419 2254
2254 3431 2405
2286 3445 2557
2348 3464 2712
2410 3483 2868
2479 3502 3000
2551 3521 3121
2623 3540 3243
2686 3555 3322
2750 3570 3402
2809 3583 3470
2859 3592 3516
2909 3601 3561
2954 3607 3591
2995 3610 3613
3037 3613 3635
2524 3470 2200
2519 3476 2328
2515 3481 2455
2526 3490 2588
2567 3503 2733
2609 3517 2877
2659 3532 3004
2714 3547 3122
2768 3563 3240
2820 3575 3320
2871 3588 3400
2919 3599 3469
2960 3607 3516
3002 3614 3562
3037 3618 3591
3069 3620 3612
3100 3621 3632
2826 3533 2296
2801 3532 2401
2776 3532 2506
2766 3534 2620
2786 3543 2753
2807 3552 2886
2839 3562 3007
2876 3574 3122
2914 3586 3237
2953 3596 3318
2992 3606 3399
3029 3615 3468
3062 3621 3515
3094 3628 3562
3120 3629 3591
3142 3629 3610
3164 3629 3629
322 119 242
318 166 406
314 212 569
313 270 751
320 348 970
327 426 1189
339 530 1422
354 645 1663
368 760 1904
386 906 2128
403 1051 2353
422 1200 2561
440 1356 2737
459 1513 2912
478 1658 3043
497 1799 3151
516 1939 3259
311 303 307
315 365 487
318 426 667
324 498 864
335 590 1093
346 682 1323
363 795 1561
382 918 1804
401 1042 2047
427 1186 2264
453 1331 2482
480 1477 2682
511 1625 2845
541 1772 3009
575 1907 3129
609 2035 3227
644 2164 3326
300 487 372
311 564 569
323 640 765
336 727 977
350 832 1217
365 937 1457
386 1060 1700
410 1191 1945
434 1323 2189
468 1467 2400
502 1612 2611
539 1754 2802
581 1893 2954
623 2031 3106
671 2155 3215
721 2272 3304
772 2388 3392
299 715 463
319 803 675
339 890 886
359 986 1110
381 1100 1358
403 1213 1606
432 1341 1850
464 1476 2093
496 1611 2336
540 1751 2537
584 1891 2739
631 2027 2919
685 2154 3058
740 2282 3197
801 2393 3295
865 2497 3374
929 2601 3452
321 1031 605
349 1121 829
377 1211 1053
408 1308 1286
443 1420 1535
478 1533 1783
521 1656 2022
568 1784 2256
615 1912 2489
673 2040 2676
731 2168 2862
792 2291 3028
858 2403 3152
925 2515 3275
997 2611 3362
1072 2700 3430
1147 2788 3498
343 1348 746
380 1439 983
416 1531 1221
457 1629 1462
505 1741 1711
554 1852 1961
611 1970 2194
672 2092 2418
734 2213 2642
806 2329 2814
878 2445 2986
952 2555 3136
1031 2652 3245
1110 2749 3354
1193 2830 3429
1279 2903 3487
1364 2976 3544
425 1670 908
468 1756 1150
512 1843 1392
562 1935 1635
623 2039 1880
685 2143 2125
755 2250 2348
830 2360 2559
905 2470 2771
987 2571 2927
1070 2673 3083
1154 2768 3219
1240 2850 3315
1325 2932 3411
1413 2999 3476
1502 3059 3525
1592 3118 3574
536 1994 1079
587 2072 1323
637 2151 1567
696 2234 1808
770 2326 2045
844 2419 2282
927 2513 2492
1014 2609 2689
1102 2704 2886
1193 2790 3027
1285 2876 3167
1376 2956 3289
1466 3023 3373
1556 3090 3456
1645 3144 3513
1735 3191 3555
1824 3238 3597
647 2319 1250
705 2389 1496
762 2458 1741
829 2532 1981
916 2613 2210
1003 2695 2439
1099 2776 2637
1198 2857 2819
1298 2938 3002
1399 3009 3127
1500 3079 3252
1598 3143 3359
1692 3195 3430
1786 3248 3502
1877 3289 3549
1967 3323 3584
2057 3358 3619
869 2566 1408
926 2624 1643
982 2682 1877
1050 2744 2106
1140 2812 2323
1231 2880 2540
1329 2948 2726
1432 3016 2895
1534 3083 3065
1634 3141 3179
1733 3198 3293
1829 3251 3390
1919 3293 3455
2008 3335 3520
2093 3367 3562
2176 3394 3594
2258 3422 3626
1091 2812 1566
1147 2859 1790
1202 2906 2013
1271 2955 2231
1365 3010 2436
1459 3066 2641
1560 3120 2815
1665 3174 2971
1770 3228 3128
1868 3273 3231
1967 3318 3334
2060 3358 3422
2145 3390 3480
2230 3422 3537
2309 3445 3575
2384 3465 3604
2460 3485 3633
1340 3024 1712
1391 3060 1922
1442 3096 2132
1507 3134 2336
1601 3178 2530
1694 3222 2724
1794 3264 2886
1897 3306 3031
2000 3348 3177
2095 3382 3271
2189 3416 3365
2278 3447 3445
2357 3470 3498
2435 3493 3550
2507 3510 3585
2575 3523 3611
2642 3537 3637
1642 3166 1836
1681 3193 2026
1721 3220 2217
1775 3249 2404
1859 3284 2586
1943 3318 2768
2033 3352 2921
2127 3386 3059
2221 3419 3198
2305 3446 3287
2390 3473 3376
2469 3497 3453
2538 3515 3503
2607 3533 3553
2669 3546 3587
2728 3556 3612
2786 3566 3637
1944 3308 1960
1972 3326 2131
1999 3344 2301
2042 3364 2472
2117 3389 2642
2191 3415 2812
2272 3440 2956
2357 3465 3087
2441 3490 3218
2516 3510 3303
2590 3530 3388
2660 3548 3460
2719 3561 3508
2779 3574 3556
2831 3583 3588
2881 3589 3612
2930 3595 3636
2242 3399 2070
2253 3410 2220
2265 3421 2370
2292 3435 2522
2350 3454 2681
2409 3473 2839
2475 3492 2975
2545 3512 3101
2615 3532 3226
2679 3547 3309
2742 3563 3392
2801 3577 3463
2851 3587 3510
2901 3597 3558
2945 3603 3589
2985 3607 3612
3026 3611 3635
2537 3465 2174
2530 3470 2302
2523 3476 2430
2532 3484 2564
2571 3498 2711
2610 3512 2857
2659 3527 2986
2713 3543 3107
2767 3558 3228
2818 3571 3310
2869 3584 3393
2917 3596 3464
2958 3604 3511
2999 3612 3558
3034 3616 3589
3065 3619 3611
3096 3621 3633
2832 3531 2278
2807 3530 2384
2782 3530 2491
2772 3533 2606
2792 3542 2740
2812 3551 2875
2843 3562 2997
2881 3573 3114
2918 3585 3230
2957 3595 3312
2996 3605 3394
3033 3614 3464
3065 3620 3512
3097 3627 3559
3122 3629 3589
3145 3630 3610
3167 3631 3631
564 158 243
536 203 416
508 249 588
486 306 778
477 386 1001
469 466 1225
469 573 1461
474 694 1704
479 815 1947
492 970 2173
505 1124 2398
519 1283 2607
536 1451 2782
553 1619 2958
573 1776 3089
594 1927 3197
615 2079 3306
537 335 297
523 395 485
509 455 672
498 526 875
493 617 1109
488 709 1343
492 824 1584
500 952 1830
507 1080 2075
526 1233 2295
545 1386 2515
567 1541 2716
595 1699 2880
622 1856 3045
655 2000 3165
691 2137 3264
726 2275 3362
510 513 351
510 587 554
510 662 756
510 745 972
509 849 1217
508 952 1461
515 1076 1708
525 1210 1956
535 1344 2204
560 1496 2418
585 1648 2632
615 1799 2825
653 1946 2979
692 2094 3132
738 2225 3242
787 2348 3330
837 2471 3418
493 734 431
506 818 647
519 902 862
529 995 1090
536 1105 1341
542 1216 1593
555 1343 1841
573 1480 2089
590 1616 2336
623 1763 2541
657 1910 2747
696 2053 2931
745 2189 3072
795 2325 3214
853 2442 3313
915 2550 3391
977 2658 3469
499 1040 564
520 1125 789
542 1210 1014
564 1303 1248
584 1411 1500
605 1520 1752
633 1643 1996
665 1773 2235
697 1903 2475
744 2038 2667
792 2173 2859
844 2302 3030
905 2422 3158
965 2542 3285
1033 2643 3373
1105 2735 3441
1176 2827 3509
504 1347 697
535 1432 931
566 1518 1165
598 1611 1406
633 1718 1659
668 1825 1912
711 1943 2150
758 2066 2382
805 2189 2613
866 2312 2793
927 2435 2972
991 2551 3129
1064 2655 3243
1136 2759 3357
1214 2845 3433
1295 2920 3491
1376 2996 3549
569 1661 852
606 1741 1089
644 1821 1327
685 1908 1568
734 2008 1816
783 2107 2064
840 2215 2293
901 2327 2513
962 2438 2733
1034 2546 2898
1106 2654 3063
1181 2756 3206
1260 2845 3308
1340 2933 3409
1422 3004 3476
1506 3065 3526
1590 3127 3576
663 1979 1019
706 2051 1256
749 2123 1493
798 2200 1732
861 2289 1972
923 2378 2213
994 2473 2431
1069 2571 2637
1144 2668 2843
1227 2760 2993
1309 2853 3143
1392 2938 3273
1476 3012 3362
1560 3085 3452
1644 3142 3511
1728 3191 3554
1812 3240 3597
757 2298 1186
806 2361 1423
854 2424 1660
912 2492 1896
988 2570 2129
1064 2649 2362
1149 2731 2568
1238 2815 2760
1327 2898 2953
1419 2975 3088
1511 3051 3223
1602 3121 3339
1691 3179 3417
1780 3237 3495
1866 3280 3545
1950 3316 3581
2034 3352 3617
962 2545 1346
1009 2597 1573
1056 2650 1800
1114 2707 2025
1195 2773 2246
1276 2839 2468
1365 2907 2661
1458 2978 2840
1551 3048 3020
1644 3110 3143
1737 3173 3266
1827 3230 3372
1913 3277 3442
1998 3324 3513
2078 3358 3558
2156 3387 3591
2233 3415 3624
1166 2791 1506
1212 2833 1723
1258 2875 1940
1317 2921 2155
1402 2975 2364
1487 3029 2574
1580 3084 2754
1678 3140 2920
1775 3197 3086
1869 3246 3198
1962 3295 3309
2052 3340 3405
2134 3375 3468
2216 3411 3531
2291 3436 3571
2362 3457 3601
2433 3478 3630
1399 3005 1657
1440 3037 1861
1482 3069 2065
1538 3105 2267
1623 3147 2465
1708 3190 2663
1802 3234 2832
1900 3278 2986
1997 3322 3140
2088 3359 3242
2179 3397 3343
2266 3431 3430
2342 3457 3487
2419 3483 3544
2487 3501 3581
2552 3516 3608
2616 3530 3635
1687 3151 1788
1717 3175 1974
1748 3199 2161
1795 3227 2347
1872 3261 2533
1949 3295 2718
2035 3329 2877
2124 3364 3022
2214 3400 3167
2297 3429 3263
2379 3459 3359
2457 3485 3441
2525 3505 3494
2593 3526 3548
2652 3539 3583
2708 3550 3609
2764 3561 3635
1974 3297 1919
1995 3313 2088
2015 3329 2256
2052 3348 2427
2121 3374 2600
2190 3399 2774
2267 3425 2923
2349 3451 3059
2431 3477 3195
2505 3499 3285
2579 3520 3374
2648 3540 3451
2707 3554 3502
2766 3568 3552
2818 3578 3586
2865 3584 3611
2913 3591 3636
2262 3391 2037
2269 3401 2186
2275 3412 2335
2298 3425 2488
2352 3444 2649
2407 3463 2810
2471 3483 2950
2539 3503 3080
2608 3523 3209
2671 3540 3295
2734 3557 3382
2793 3572 3456
2843 3582 3505
2893 3593 3554
2936 3600 3587
2975 3605 3611
3014 3609 3635
2550 3460 2148
2541 3465 2276
2532 3470 2405
2538 3478 2540
2575 3492 2688
2612 3506 2837
2659 3522 2969
2712 3538 3092
2765 3554 3216
2816 3567 3301
2867 3581 3385
2914 3592 3458
2955 3601 3507
2996 3610 3555
3030 3614 3587
3061 3617 3610
3092 3621 3633
2838 3528 2259
2813 3529 2367
2789 3529 2475
2779 3532 2592
2798 3541 2728
2817 3550 2863
2848 3561 2987
2885 3573 3105
2922 3584 3223
2961 3594 3306
3000 3604 3389
3036 3613 3460
3068 3620 3508
3099 3626 3556
3125 3629 3587
3148 3630 3610
3170 3632 3632
868 202 237
816 248 421
765 294 606
722 352 805
697 435 1035
672 518 1264
660 631 1505
654 758 1750
649 886 1995
655 1048 2221
661 1211 2446
670 1378 2654
683 1554 2828
696 1729 3001
715 1894 3131
736 2052 3239
757 2211 3346
823 373 281
790 432 478
757 490 674
728 560 886
707 652 1125
686 745 1364
676 864 1610
672 997 1859
667 1130 2107
678 1291 2328
689 1452 2549
704 1614 2751
727 1780 2915
751 1945 3079
781 2096 3198
815 2238 3296
