Assets/1__3DArt/KimSe/artstation_asset/LUTs_pasterls/3DL/Orange Cream 03.3dl
# Enhanced with VOXCOLOR algorithms
0 256 512 768 1023
273 482 177
324 669 757
332 954 1509
310 1358 2208
273 1766 2698
343 663 236
390 952 896
402 1348 1688
377 1808 2349
380 2268 2801
517 1080 398
585 1447 1147
609 1904 1941
594 2355 2528
626 2754 2899
808 1642 609
888 2015 1396
936 2444 2154
978 2835 2669
1044 3154 2984
1060 2072 755
1137 2403 1529
1205 2775 2262
1311 3114 2735
1397 3372 3019
1353 568 172
1383 781 813
1374 1157 1651
1334 1706 2410
1262 2238 2922
1204 790 235
1334 1107 946
1291 1544 1797
1211 2063 2490
1151 2532 2931
1153 1177 372
1265 1557 1158
1274 2026 1996
1222 2492 2607
1178 2875 2972
1222 1661 553
1307 2039 1369
1349 2471 2159
1362 2867 2697
1373 3178 3017
1310 2078 702
1395 2413 1509
1456 2778 2251
1536 3114 2742
1624 3380 3044
2541 636 110
2495 805 734
2442 1203 1613
2423 1870 2456
2395 2545 3062
2337 917 192
2378 1196 897
2322 1650 1798
2263 2255 2570
2213 2801 3066
2179 1315 326
2240 1667 1103
2229 2146 2004
2175 2665 2697
2112 3082 3100
2081 1768 511
2115 2121 1335
2126 2557 2180
2121 2982 2782
2113 3308 3133
1987 2170 709
2019 2476 1553
2043 2835 2307
2098 3188 2828
2180 3461 3154
3150 664 48
3018 741 588
2911 1079 1433
2957 1797 2337
3069 2601 3082
3082 997 140
3011 1172 766
2929 1561 1651
2945 2232 2509
3004 2905 3122
3019 1411 274
3005 1687 976
2977 2146 1914
2973 2740 2721
2982 3248 3209
2967 1871 462
2963 2188 1239
2956 2643 2159
2958 3124 2875
2980 3490 3283
2898 2298 722
2876 2574 1553
2866 2959 2362
2902 3352 2961
2970 3616 3321
3308 642 32
3141 686 515
3014 1001 1338
3086 1716 2261
3260 2521 3051
3339 996 113
3225 1102 665
3124 1440 1530
3184 2141 2438
3313 2877 3117
3373 1413 238
3342 1630 862
3315 2071 1817
3359 2732 2715
3412 3323 3267
3436 1884 388
3451 2178 1088
3466 2667 2092
3490 3218 2935
3498 3617 3387
3517 2345 578
3510 2601 1302
3527 3054 2263
3539 3497 3033
3549 3742 3437
