Assets/1__3DArt/KimSe/artstation_asset/LUTs_pasterls/3DL/Orange Cream 03 S.3dl
# Enhanced with VOXCOLOR algorithms
0 64 128 192 256 320 384 448 512 576 640 704 768 832 896 960 1023
273 482 177
289 523 306
304 565 435
317 612 580
324 669 757
331 727 933
333 798 1121
333 876 1315
332 954 1509
328 1051 1694
323 1149 1879
317 1250 2054
310 1358 2208
303 1467 2363
294 1569 2485
284 1668 2592
273 1766 2698
285 512 184
299 559 318
314 607 452
325 660 602
333 725 783
340 790 963
342 869 1154
342 954 1350
341 1039 1546
336 1142 1731
331 1244 1915
325 1349 2088
318 1461 2239
312 1573 2391
305 1680 2512
299 1786 2618
292 1892 2724
297 542 192
310 595 331
323 648 470
334 708 624
341 781 808
348 854 993
351 940 1187
350 1032 1385
350 1124 1584
345 1232 1767
339 1339 1951
333 1449 2122
326 1564 2270
320 1678 2418
316 1792 2538
314 1904 2644
311 2017 2750
314 588 207
327 646 351
339 705 495
350 771 654
358 852 843
365 932 1032
368 1025 1229
368 1124 1429
368 1223 1629
362 1334 1810
356 1446 1992
350 1559 2161
343 1676 2306
337 1793 2450
335 1909 2567
337 2026 2672
338 2142 2776
343 663 236
356 728 387
370 793 538
381 865 703
390 953 896
398 1040 1089
401 1139 1287
402 1244 1488
402 1348 1688
396 1463 1867
389 1577 2045
383 1692 2210
377 1808 2349
371 1924 2488
372 2039 2601
376 2153 2701
380 2268 2801
371 739 264
385 810 422
400 880 581
413 959 752
422 1053 949
432 1148 1147
435 1253 1346
436 1363 1547
436 1474 1748
430 1591 1923
423 1708 2098
417 1824 2259
411 1940 2393
405 2056 2527
408 2169 2635
415 2281 2731
423 2394 2826
414 844 305
430 919 470
446 995 635
460 1078 811
471 1177 1012
481 1277 1212
485 1386 1412
486 1499 1611
488 1613 1811
481 1730 1982
475 1848 2153
469 1964 2309
465 2077 2438
460 2190 2566
465 2300 2669
474 2407 2760
484 2515 2850
465 964 351
482 1043 522
500 1123 694
515 1210 876
527 1313 1079
539 1416 1282
544 1527 1481
546 1643 1679
547 1759 1876
542 1876 2042
537 1992 2208
532 2107 2360
528 2216 2483
525 2326 2606
532 2430 2704
543 2533 2789
555 2635 2875
516 1083 397
535 1167 575
553 1250 754
570 1342 941
584 1448 1146
597 1555 1351
603 1669 1550
605 1787 1746
607 1905 1941
603 2021 2103
598 2137 2264
594 2250 2411
592 2355 2528
590 2461 2645
598 2561 2738
612 2658 2819
626 2754 2899
585 1229 450
605 1314 634
625 1398 817
643 1490 1008
658 1597 1213
672 1704 1419
679 1817 1615
683 1933 1808
687 2049 2000
685 2162 2157
683 2275 2313
682 2384 2455
683 2485 2567
685 2586 2680
696 2680 2769
711 2771 2845
726 2862 2922
654 1375 504
675 1461 692
697 1547 881
716 1639 1075
732 1746 1280
747 1853 1486
755 1965 1681
761 2080 1870
766 2194 2059
767 2303 2210
768 2413 2362
770 2518 2499
775 2614 2607
780 2711 2714
793 2800 2799
810 2885 2872
826 2970 2945
725 1518 555
747 1604 748
770 1691 940
790 1783 1137
806 1889 1342
822 1996 1548
833 2106 1740
840 2218 1926
847 2330 2112
851 2436 2259
855 2541 2406
861 2643 2539
870 2735 2642
879 2827 2745
894 2911 2827
912 2990 2897
931 3070 2967
799 1657 603
822 1742 797
845 1826 991
866 1917 1189
883 2021 1393
900 2124 1598
911 2231 1788
921 2339 1971
930 2448 2154
939 2550 2297
947 2652 2440
958 2749 2569
972 2837 2669
986 2926 2770
1004 3005 2848
1024 3080 2916
1044 3154 2984
873 1796 651
897 1879 847
920 1962 1042
942 2052 1241
959 2152 1444
977 2253 1648
990 2357 1836
1002 2461 2016
1013 2566 2196
1026 2664 2335
1039 2762 2475
1054 2855 2600
1074 2940 2697
1094 3025 2794
1114 3099 2870
1135 3169 2936
1156 3239 3002
938 1900 689
961 1981 883
984 2063 1078
1005 2150 1275
1023 2248 1478
1040 2346 1681
1055 2446 1868
1069 2547 2045
1082 2648 2223
1099 2742 2360
1116 2837 2496
1135 2927 2619
1159 3009 2713
1183 3091 2808
1204 3162 2883
1224 3228 2947
1245 3293 3011
999 1986 722
1021 2065 914
1042 2145 1106
1062 2230 1301
1080 2325 1503
1097 2421 1706
1113 2517 1891
1128 2614 2067
1143 2711 2243
1164 2803 2377
1185 2894 2511
1207 2982 2632
1235 3061 2724
1262 3141 2817
1284 3209 2890
1302 3271 2952
1321 3333 3015
1060 2072 755
1080 2150 944
1100 2228 1134
1120 2310 1327
1137 2403 1529
1154 2495 1730
1171 2588 1914
1188 2681 2088
1205 2775 2262
1229 2863 2394
1253 2951 2526
1280 3036 2645
1311 3114 2735
1341 3191 2826
1363 3256 2897
1380 3314 2958
1397 3372 3019
516 504 179
531 547 314
546 589 448
558 638 598
564 699 780
570 761 962
572 839 1156
571 925 1355
570 1010 1554
565 1118 1744
559 1225 1933
553 1336 2111
544 1453 2267
535 1571 2422
524 1681 2545
510 1787 2652
497 1893 2758
511 539 186
529 587 326
548 636 465
562 691 620
567 759 806
573 827 992
573 910 1188
570 1002 1389
567 1093 1590
561 1204 1777
554 1314 1965
546 1428 2140
538 1547 2292
529 1666 2444
519 1779 2565
510 1890 2670
500 2000 2776
506 574 193
528 628 338
549 683 482
565 744 642
570 818 832
575 893 1022
574 982 1220
570 1079 1422
565 1175 1625
557 1290 1811
548 1404 1996
540 1520 2169
531 1641 2318
522 1761 2466
515 1878 2585
509 1992 2689
503 2106 2793
507 623 207
531 684 357
555 744 507
573 812 672
578 892 866
583 973 1060
581 1068 1260
575 1170 1463
570 1271 1667
561 1388 1850
552 1505 2033
542 1623 2203
534 1744 2347
525 1866 2491
520 1983 2607
517 2099 2709
514 2215 2811
521 702 233
544 768 391
568 835 548
586 909 718
593 996 916
599 1082 1113
599 1182 1315
595 1288 1518
590 1394 1722
581 1512 1901
572 1630 2081
563 1748 2247
555 1868 2386
547 1988 2525
544 2103 2636
543 2216 2734
543 2329 2831
534 780 260
558 853 424
581 926 588
599 1006 764
608 1099 966
616 1192 1167
617 1296 1370
614 1407 1573
611 1517 1776
601 1636 1953
592 1755 2129
584 1874 2291
576 1991 2425
568 2109 2558
567 2222 2665
569 2333 2758
571 2444 2851
563 884 298
587 962 468
610 1040 639
628 1124 820
638 1222 1024
648 1319 1228
651 1427 1431
649 1539 1633
647 1652 1835
639 1770 2007
631 1889 2179
623 2006 2336
616 2120 2464
610 2235 2593
610 2344 2694
615 2450 2783
619 2556 2872
600 1000 342
623 1083 518
646 1165 695
665 1254 881
677 1355 1087
688 1456 1293
692 1566 1495
692 1679 1695
692 1793 1895
685 1910 2062
678 2027 2229
672 2141 2382
667 2251 2505
661 2362 2628
664 2465 2724
669 2566 2808
675 2666 2892
637 1117 385
659 1203 568
682 1290 751
702 1383 942
715 1488 1150
728 1593 1358
734 1705 1559
735 1820 1757
737 1935 1954
731 2050 2117
726 2165 2280
721 2277 2428
717 2383 2545
713 2489 2663
717 2587 2754
724 2682 2834
732 2777 2913
693 1254 437
716 1343 623
739 1431 810
759 1525 1004
773 1630 1212
788 1735 1420
795 1846 1619
798 1959 1814
802 2073 2008
799 2184 2166
796 2296 2324
794 2404 2467
794 2505 2580
793 2606 2693
799 2700 2781
809 2789 2857
818 2878 2933
749 1392 488
772 1482 679
795 1571 870
816 1666 1067
832 1772 1275
847 1877 1483
856 1987 1680
861 2099 1871
866 2211 2063
866 2319 2216
866 2427 2369
868 2532 2507
870 2628 2615
873 2724 2724
882 2812 2808
893 2895 2880
904 2978 2953
807 1528 538
831 1618 733
854 1708 927
875 1803 1126
892 1908 1334
909 2013 1541
919 2121 1736
926 2231 1924
933 2341 2112
937 2446 2260
940 2550 2409
944 2650 2543
951 2742 2647
958 2834 2751
969 2916 2832
982 2994 2902
995 3073 2972
870 1660 586
894 1748 781
918 1836 977
939 1929 1177
957 2032 1383
974 2135 1590
986 2240 1782
995 2347 1967
1004 2454 2151
1012 2555 2296
1019 2655 2441
1029 2752 2571
1041 2840 2672
1053 2928 2773
1067 3006 2852
1082 3080 2920
1097 3153 2988
933 1792 633
957 1878 830
981 1964 1028
1003 2055 1228
1021 2156 1433
1039 2257 1639
1053 2359 1828
1064 2463 2009
1076 2567 2191
1087 2664 2332
1099 2761 2472
1113 2854 2599
1130 2938 2697
1147 3022 2795
1164 3096 2872
1182 3165 2938
1199 3234 3004
989 1894 671
1013 1978 868
1037 2062 1064
1059 2151 1263
1077 2249 1468
1095 2347 1672
1110 2446 1859
1123 2546 2038
1136 2646 2217
1152 2740 2355
1167 2834 2493
1185 2924 2617
1206 3006 2712
1228 3087 2808
1247 3158 2883
1265 3223 2948
1284 3288 3012
1042 1981 705
1065 2063 900
1088 2144 1094
1110 2231 1291
1128 2326 1494
1146 2421 1697
1162 2517 1883
1177 2613 2060
1192 2710 2237
1211 2801 2372
1230 2892 2507
1251 2979 2629
1277 3058 2723
1302 3137 2816
1323 3205 2890
1341 3268 2953
1359 3330 3017
1095 2068 739
1118 2147 932
1140 2227 1124
1161 2310 1319
1179 2403 1521
1197 2495 1723
1214 2587 1906
1231 2680 2081
1247 2773 2256
1270 2861 2389
1293 2949 2522
1318 3033 2641
1347 3110 2733
1376 3188 2825
1398 3253 2897
1416 3312 2959
1435 3371 3021
759 527 182
773 570 322
787 613 461
799 664 616
804 730 804
810 795 991
811 880 1190
809 973 1395
808 1067 1600
802 1184 1794
795 1302 1987
788 1422 2168
778 1549 2325
767 1675 2482
753 1793 2606
737 1907 2712
721 2020 2819
737 566 188
759 616 333
782 665 478
798 722 639
802 793 830
806 863 1021
804 952 1222
799 1049 1427
794 1147 1633
785 1266 1824
776 1385 2014
767 1507 2192
757 1633 2345
746 1760 2498
734 1879 2618
721 1993 2723
707 2108 2828
715 605 194
746 661 345
776 717 495
797 780 661
800 856 856
803 932 1050
798 1024 1253
789 1125 1460
780 1227 1666
769 1347 1854
757 1468 2042
746 1591 2216
736 1718 2365
725 1845 2513
715 1964 2631
704 2080 2734
694 2196 2836
701 659 206
736 721 363
771 783 519
795 852 690
798 933 889
800 1014 1087
794 1111 1291
783 1215 1498
773 1320 1705
760 1442 1890
747 1564 2074
735 1687 2245
725 1813 2389
714 1938 2533
705 2057 2647
698 2173 2747
690 2289 2847
699 740 231
733 809 394
767 878 557
791 952 733
796 1039 935
801 1125 1138
796 1225 1342
788 1332 1549
779 1440 1755
767 1561 1936
754 1683 2117
743 1805 2284
733 1928 2423
723 2051 2561
716 2167 2671
710 2279 2766
705 2391 2862
698 822 256
730 897 426
762 972 595
786 1052 777
794 1144 982
801 1236 1188
799 1340 1394
792 1450 1600
785 1560 1805
773 1681 1983
762 1802 2160
751 1923 2323
741 2043 2456
731 2163 2589
726 2276 2695
723 2385 2786
720 2494 2877
713 924 292
743 1004 467
773 1085 643
797 1171 829
806 1266 1037
816 1362 1245
816 1468 1450
811 1580 1654
807 1691 1859
797 1810 2032
787 1929 2205
777 2047 2363
768 2163 2491
760 2279 2619
756 2388 2720
755 2492 2806
754 2596 2893
735 1037 333
764 1122 514
792 1208 695
815 1298 885
826 1397 1095
838 1496 1304
840 1604 1509
838 1716 1711
837 1828 1913
828 1944 2082
820 2061 2250
812 2176 2404
805 2287 2527
798 2398 2649
796 2501 2745
796 2599 2827
796 2698 2909
758 1150 373
784 1240 560
811 1330 747
833 1425 942
846 1528 1153
860 1631 1364
865 1740 1567
866 1852 1767
866 1964 1967
860 2078 2132
854 2192 2296
848 2304 2444
842 2410 2562
836 2516 2680
835 2614 2771
837 2707 2848
838 2799 2926
801 1280 423
827 1371 613
852 1463 804
874 1559 1001
889 1662 1212
904 1766 1422
911 1875 1624
914 1986 1820
916 2096 2017
913 2207 2176
909 2317 2336
906 2425 2480
904 2526 2593
902 2627 2706
903 2719 2794
906 2806 2869
910 2893 2943
844 1409 472
869 1503 666
894 1596 860
916 1693 1060
932 1797 1270
948 1902 1481
956 2009 1680
961 2119 1873
966 2229 2066
966 2335 2221
965 2442 2376
965 2545 2515
966 2641 2624
967 2737 2733
971 2824 2817
976 2905 2889
981 2987 2960
889 1538 521
914 1631 718
939 1725 914
961 1822 1116
978 1926 1325
995 2030 1535
1005 2137 1732
1012 2245 1922
1020 2352 2112
1022 2456 2262
1025 2559 2412
1028 2658 2547
1033 2749 2652
1037 2840 2757
1044 2922 2838
1052 2999 2907
1060 3075 2977
941 1663 568
966 1754 766
990 1846 964
1013 1940 1165
1031 2043 1374
1048 2145 1582
1060 2250 1776
1070 2355 1962
1079 2460 2149
1085 2560 2295
1092 2659 2441
1099 2755 2573
1109 2843 2675
1119 2930 2777
1129 3007 2856
1140 3080 2923
1151 3152 2991
993 1789 615
1018 1878 814
1042 1966 1013
1065 2059 1215
1083 2160 1422
1102 2260 1629
1115 2362 1820
1127 2465 2003
1138 2567 2186
1148 2664 2328
1159 2760 2470
1171 2852 2598
1185 2936 2697
1200 3020 2796
1214 3093 2873
1228 3161 2939
1242 3229 3006
1040 1889 654
1065 1975 852
1089 2061 1051
1112 2152 1252
1131 2250 1457
1150 2348 1662
1165 2447 1851
1178 2546 2031
1191 2645 2211
1205 2739 2350
1219 2832 2489
1235 2921 2614
1254 3002 2711
1273 3083 2808
1290 3153 2883
1307 3219 2948
1323 3284 3014
1086 1976 689
1110 2060 886
1134 2144 1082
1157 2231 1281
1176 2326 1485
1195 2421 1689
1211 2517 1875
1226 2613 2053
1240 2709 2231
1258 2799 2367
1276 2889 2504
1295 2976 2626
1318 3055 2721
1342 3134 2815
1362 3202 2890
1380 3264 2954
1398 3327 3018
1131 2064 724
1155 2145 919
1179 2226 1114
1202 2310 1311
1221 2402 1513
1240 2494 1715
1257 2587 1899
1274 2679 2075
1290 2772 2250
1311 2859 2384
1332 2946 2518
1355 3030 2638
1383 3107 2731
1410 3184 2823
1433 3250 2896
1453 3310 2960
1472 3370 3023
1029 548 181
1041 591 324
1052 633 468
1062 685 628
1066 753 820
1070 822 1012
1070 913 1217
1068 1014 1427
1066 1115 1638
1059 1242 1835
1053 1369 2032
1045 1499 2217
1033 1635 2376
1021 1771 2535
1005 1897 2660
987 2017 2767
968 2138 2875
991 593 186
1014 642 336
1036 691 486
1052 748 651
1054 820 847
1057 893 1043
1053 986 1249
1046 1089 1459
1039 1192 1670
1030 1320 1864
1021 1448 2058
1011 1578 2238
999 1713 2392
987 1848 2546
973 1972 2667
957 2092 2772
