Assets/1__3DArt/KimSe/artstation_asset/LUTs_pasterls/3DL/Orange Cream 04 S.3dl
# Enhanced with VOXCOLOR algorithms
0 256 512 768 1023
273 482 193
313 678 818
330 981 1574
337 1417 2242
337 1879 2714
342 692 230
399 1009 957
427 1426 1764
443 1912 2408
508 2395 2842
546 1171 390
635 1557 1197
689 2023 2012
742 2490 2595
859 2903 2951
850 1751 588
968 2130 1422
1063 2557 2209
1171 2945 2724
1304 3257 3028
1076 2088 691
1208 2441 1506
1326 2818 2277
1470 3153 2766
1590 3404 3051
1440 559 158
1403 771 863
1383 1172 1701
1398 1765 2430
1404 2344 2934
1213 840 191
1290 1139 985
1285 1566 1856
1311 2133 2536
1349 2655 2969
1169 1307 320
1254 1689 1169
1319 2114 2036
1388 2591 2661
1450 3008 3029
1277 1794 524
1375 2181 1375
1472 2586 2193
1576 2970 2752
1667 3281 3078
1368 2129 667
1491 2460 1502
1595 2826 2273
1714 3161 2784
1835 3420 3093
2643 599 77
2512 727 743
2441 1149 1615
2459 1886 2448
2475 2617 3066
2313 981 116
2265 1184 942
2254 1571 1850
2315 2238 2596
2354 2883 3094
2171 1500 241
2156 1827 1102
2192 2175 2019
2273 2671 2728
2315 3167 3147
2163 1932 484
2165 2321 1321
2205 2688 2171
2285 3050 2814
2355 3387 3193
2122 2260 735
2166 2562 1584
2203 2924 2330
2281 3257 2865
2389 3508 3212
3203 614 16
3020 637 535
2903 989 1369
2966 1783 2306
3096 2662 3095
3072 1013 71
3001 1149 827
2956 1457 1716
2996 2147 2536
3056 2961 3146
3023 1525 199
3037 1863 1018
3058 2155 1960
3077 2624 2759
3060 3285 3238
3041 1991 439
3066 2474 1217
3090 2841 2109
3099 3132 2874
3081 3520 3314
3034 2394 754
3027 2757 1547
3032 3213 2311
3043 3491 2942
3079 3643 3345
3324 610 0
3146 613 415
3007 922 1229
3085 1695 2216
3260 2585 3067
3379 950 74
3405 1101 659
3375 1370 1552
3353 2022 2467
3328 2926 3144
3409 1395 200
3703 1815 916
3831 2098 1889
3734 2516 2777
3435 3326 3298
3477 1920 375
3807 2556 1080
3972 2947 2033
3870 3167 2915
3516 3599 3411
3565 2409 594
3674 2920 1250
3800 3538 2128
3704 3732 2944
3549 3742 3437
