Assets/1__3DArt/KimSe/artstation_asset/LUTs_pasterls/3DL/Orange Cream 04 S.3dl
# Enhanced with VOXCOLOR algorithms
0 128 256 384 512 640 768 896 1023
273 482 193
297 567 479
313 678 818
324 815 1190
330 981 1574
334 1190 1929
337 1417 2242
339 1650 2506
337 1879 2714
292 551 194
318 669 509
337 812 872
351 982 1262
358 1178 1658
361 1406 2012
366 1645 2319
377 1889 2576
398 2132 2780
342 692 230
374 837 572
399 1009 957
417 1206 1362
427 1426 1764
432 1668 2113
443 1912 2408
466 2155 2650
508 2395 2842
426 901 296
466 1067 664
498 1260 1067
522 1477 1482
537 1713 1885
548 1959 2223
568 2199 2502
604 2432 2726
663 2656 2898
546 1171 390
595 1351 781
635 1557 1197
666 1783 1615
689 2023 2012
710 2263 2334
742 2490 2595
789 2704 2798
859 2903 2951
700 1477 497
756 1659 902
805 1864 1323
846 2085 1738
880 2315 2124
915 2537 2427
960 2743 2669
1017 2932 2856
1089 3103 2995
850 1751 588
912 1931 1000
968 2130 1422
1018 2341 1833
1063 2557 2209
1113 2760 2497
1171 2945 2724
1236 3111 2898
1304 3257 3028
980 1965 655
1047 2139 1065
1108 2330 1486
1165 2529 1893
1219 2730 2262
1281 2916 2539
1349 3085 2757
1418 3234 2924
1480 3359 3048
1076 2088 691
1144 2258 1089
1208 2441 1506
1268 2630 1911
1326 2818 2277
1395 2994 2551
1470 3153 2766
1538 3292 2929
1590 3404 3051
809 526 183
815 618 496
816 742 861
817 902 1257
819 1101 1661
827 1351 2031
838 1616 2354
847 1883 2625
851 2137 2836
744 611 186
796 732 522
815 882 907
813 1063 1317
804 1280 1731
804 1537 2096
812 1804 2408
826 2068 2666
843 2318 2866
717 761 217
785 910 577
816 1083 980
824 1282 1402
820 1511 1820
823 1770 2178
836 2031 2476
857 2285 2718
887 2523 2902
731 968 274
796 1140 658
837 1332 1076
859 1545 1505
870 1779 1922
883 2032 2268
905 2281 2551
935 2518 2775
976 2736 2942
786 1220 358
846 1410 761
894 1616 1189
931 1836 1620
958 2069 2029
985 2309 2360
1018 2538 2626
1057 2752 2832
1104 2945 2982
886 1498 459
946 1691 873
1000 1898 1304
1047 2115 1729
1088 2339 2125
1128 2559 2438
1172 2765 2687
1220 2953 2878
1270 3119 3016
991 1753 552
1054 1941 970
1114 2142 1399
1169 2350 1817
1219 2562 2201
1271 2764 2498
1326 2949 2732
1382 3115 2912
1436 3258 3043
1087 1961 625
1155 2139 1040
1219 2329 1466
1279 2527 1877
1335 2726 2251
1395 2912 2536
1459 3081 2760
1522 3230 2932
1578 3355 3060
1159 2096 666
1232 2263 1074
1298 2442 1493
1359 2628 1899
1417 2815 2268
1482 2991 2547
1551 3150 2767
1617 3289 2935
1672 3404 3062
1440 559 158
1421 643 482
1403 771 863
1390 946 1276
1383 1172 1701
1389 1460 2090
1398 1765 2430
1404 2065 2714
1404 2344 2934
1304 668 163
1341 778 514
1345 922 916
1333 1107 1344
1318 1340 1774
1321 1630 2154
1332 1930 2478
1345 2222 2743
1354 2488 2946
1213 840 191
1269 977 567
1290 1139 985
1290 1333 1423
1285 1566 1856
1293 1847 2227
1311 2133 2536
1331 2408 2783
1349 2655 2969
1168 1058 243
1222 1223 639
1254 1401 1070
1272 1601 1513
1284 1830 1945
1305 2093 2305
1331 2358 2599
1358 2609 2830
1383 2832 2998
1169 1307 320
1215 1495 731
1254 1689 1169
1288 1893 1611
1319 2114 2036
1352 2354 2382
1388 2591 2661
1422 2813 2876
1450 3008 3029
1218 1561 423
1263 1757 839
1308 1957 1276
1351 2161 1710
1392 2373 2121
1437 2591 2450
1481 2799 2713
1522 2991 2914
1555 3159 3056
1277 1794 524
1326 1985 942
1375 2181 1375
1424 2382 1799
1472 2586 2193
1524 2785 2504
1576 2970 2752
1626 3137 2942
1667 3281 3078
1332 1989 609
1387 2166 1027
1441 2353 1454
1494 2546 1867
1545 2741 2246
1600 2925 2541
1659 3094 2776
1716 3243 2958
1767 3371 3092
1368 2129 667
1433 2288 1082
1491 2460 1502
1544 2641 1906
1595 2826 2273
1652 3001 2557
1714 3161 2784
1777 3302 2960
1835 3420 3093
2080 582 121
2035 646 440
1995 765 823
1965 944 1247
1949 1189 1688
1952 1513 2099
1958 1857 2463
1963 2195 2770
1958 2504 3010
1898 719 129
1898 805 487
1880 933 898
1858 1114 1337
1845 1356 1780
1854 1678 2177
1870 2014 2519
1884 2341 2800
1889 2632 3017
1766 917 156
1785 1032 543
1785 1174 973
1779 1355 1422
1777 1587 1868
1795 1890 2254
1820 2206 2579
1842 2510 2840
1852 2778 3035
1683 1155 205
1704 1302 610
1718 1460 1052
1728 1641 1506
1743 1859 1952
1772 2133 2329
1804 2418 2640
1832 2692 2883
1845 2933 3059
1646 1408 281
1665 1588 694
1686 1764 1138
1710 1948 1592
1740 2151 2032
1779 2392 2399
1819 2638 2697
1850 2875 2926
1864 3085 3086
1658 1644 389
1676 1840 802
1702 2029 1241
1733 2218 1685
1770 2415 2110
1815 2627 2460
1859 2838 2743
1896 3038 2960
1917 3216 3110
1678 1858 501
1702 2051 916
1732 2243 1348
1767 2435 1777
1806 2628 2183
1854 2820 2513
1902 3004 2780
1946 3174 2985
1979 3325 3130
1693 2041 606
1728 2217 1024
1763 2401 1449
1800 2590 1862
1839 2780 2246
1887 2960 2554
1939 3126 2805
1990 3276 3000
2037 3406 3142
1692 2184 690
1740 2334 1113
1781 2499 1532
1820 2676 1931
1857 2859 2294
1904 3034 2581
1959 3194 2816
2017 3335 3002
2075 3454 3144
2643 599 77
2573 630 372
2512 727 743
2466 897 1166
2441 1149 1615
2445 1504 2051
2459 1886 2448
2472 2267 2791
2475 2617 3066
2454 759 89
2411 813 443
2371 916 852
2340 1082 1293
2329 1325 1743
2346 1672 2157
2372 2046 2522
2395 2414 2831
2403 2744 3075
2313 981 116
2287 1069 508
2265 1184 942
2252 1346 1396
2254 1571 1850
2282 1891 2251
2315 2238 2596
2343 2579 2879
2354 2883 3094
2219 1238 165
2202 1365 575
2194 1499 1022
2196 1658 1484
2211 1862 1940
2246 2143 2336
2284 2450 2666
2314 2754 2929
2325 3027 3119
2171 1500 241
2157 1670 654
2156 1827 1102
2168 1990 1565
2192 2175 2019
2233 2413 2408
2273 2671 2728
2305 2929 2976
2315 3167 3147
2165 1729 356
2154 1925 763
2156 2105 1203
2170 2279 1653
2197 2459 2093
2237 2662 2468
2279 2875 2776
2313 3088 3012
2331 3288 3172
2163 1932 484
2159 2130 891
2165 2321 1321
2180 2506 1754
2205 2688 2171
2243 2870 2523
2285 3050 2814
2325 3224 3039
2355 3387 3193
2152 2109 613
2161 2289 1029
2172 2475 1450
2188 2662 1862
2210 2848 2250
2245 3021 2574
2288 3181 2844
2333 3328 3056
2377 3462 3208
2122 2260 735
2147 2401 1168
2166 2562 1584
2183 2738 1974
2203 2924 2330
2236 3099 2621
2281 3257 2865
2333 3394 3062
2389 3508 3212
2992 608 40
2905 607 293
2827 674 634
2766 822 1041
2731 1064 1489
2743 1431 1947
2774 1842 2379
2813 2263 2766
2848 2659 3090
2851 780 57
2788 806 388
2732 882 779
2691 1025 1207
2671 1253 1653
2691 1607 2082
2725 2007 2475
2764 2414 2820
2794 2792 3103
2746 1010 87
2703 1077 467
2668 1170 891
2646 1309 1338
2642 1516 1790
2666 1838 2205
2701 2205 2573
2735 2584 2884
2757 2939 3129
2677 1271 137
2649 1387 539
2631 1505 981
2625 1646 1442
2633 1830 1903
2661 2107 2314
2693 2427 2667
2721 2764 2952
2735 3090 3162
2644 1536 214
2624 1706 617
2617 1857 1062
2621 2006 1527
2636 2172 1992
2665 2398 2402
2695 2661 2747
2719 2946 3016
2726 3236 3198
2644 1768 331
2628 1977 723
2623 2162 1157
2628 2331 1612
2643 2495 2066
2670 2681 2467
2698 2890 2803
2721 3117 3062
2732 3358 3230
2644 1978 465
2633 2198 855
2630 2403 1277
2634 2592 1714
2646 2766 2145
2669 2929 2526
2696 3096 2847
2722 3272 3095
2743 3458 3258
2635 2168 612
2630 2366 1012
2629 2571 1425
2631 2772 1837
2639 2959 2235
2659 3117 2585
2686 3261 2882
2717 3397 3116
2750 3533 3277
2606 2338 768
2609 2480 1193
2610 2657 1601
2612 2852 1987
2617 3052 2344
2636 3223 2650
2665 3365 2913
2703 3482 3126
2748 3578 3284
3203 614 16
3110 592 226
3020 637 535
2947 764 923
2903 989 1369
2919 1357 1845
2966 1783 2306
3030 2230 2729
3096 2662 3095
3129 789 37
3064 799 333
3000 855 697
2948 976 1110
2916 1184 1553
2929 1535 1997
2968 1946 2415
3018 2382 2792
3069 2802 3113
3072 1013 71
3036 1071 423
3001 1149 827
2973 1271 1264
2956 1457 1716
2968 1771 2145
2996 2147 2536
3028 2555 2874
3056 2961 3146
3036 1266 124
3024 1382 502
3015 1494 931
3009 1622 1388
3009 1788 1853
3020 2051 2280
3036 2377 2655
3050 2742 2963
3055 3126 3190
3023 1525 199
3029 1708 581
3037 1863 1018
3047 2006 1485
3058 2155 1960
3069 2362 2390
3077 2624 2759
3076 2934 3047
3060 3285 3238
3031 1765 310
3044 2000 680
3057 2199 1107
3071 2370 1566
3084 2521 2034
3093 2685 2462
3097 2885 2826
3091 3126 3105
3072 3415 3280
3041 1991 439
3053 2245 804
3066 2474 1217
3079 2674 1659
3090 2841 2109
3097 2981 2521
3099 3132 2874
3095 3307 3145
3081 3520 3314
3044 2201 587
3051 2431 958
3058 2667 1360
3066 2890 1778
3074 3082 2197
3079 3221 2580
3082 3342 2910
3084 3462 3168
3085 3597 3337
3034 2394 754
3028 2549 1150
3027 2757 1547
3028 2988 1936
3032 3213 2311
3037 3374 2649
3043 3491 2942
3056 3576 3178
3079 3643 3345
3305 615 3
3213 584 175
3118 616 458
3036 728 831
2984 938 1275
3003 1299 1765
3061 1728 2245
3142 2185 2693
3230 2634 3086
3295 784 29
3239 790 278
3175 835 612
3116 942 1011
3073 1132 1455
3079 1471 1917
3115 1884 2358
3170 2333 2761
3233 2780 3107
3286 993 68
3273 1052 373
3250 1126 750
3224 1236 1178
3200 1405 1634
3197 1704 2083
3209 2081 2497
3229 2507 2858
3248 2954 3150
3281 1227 122
3311 1354 461
3330 1469 870
3339 1592 1323
3337 1743 1795
3330 1989 2243
3319 2312 2640
3302 2700 2968
3272 3138 3207
3285 1476 195
3351 1681 546
3404 1848 970
3439 1992 1439
3456 2128 1924
3448 2316 2376
3422 2573 2767
3374 2903 3073
3302 3315 3270
3304 1726 294
3384 1996 637
3448 2216 1055
3492 2394 1519
3516 2534 2003
3508 2677 2455
3477 2865 2845
3418 3119 3145
3329 3456 3325
3327 1971 408
3401 2268 744
3463 2527 1149
3508 2742 1599
3533 2904 2069
3524 3023 2513
3492 3156 2896
3433 3330 3190
3347 3569 3365
3350 2204 541
3399 2475 877
3445 2749 1268
3483 3000 1696
3505 3200 2141
3496 3320 2563
3465 3417 2928
3418 3518 3212
3357 3650 3389
3367 2420 696
3370 2597 1046
3390 2850 1427
3414 3128 1828
3432 3383 2237
3421 3533 2620
3396 3619 2952
3369 3666 3216
3354 3699 3396
3324 610 0
3240 582 148
3146 613 415
3062 721 782
3007 922 1229
3025 1275 1728
3085 1695 2216
3169 2144 2670
3260 2585 3067
3358 765 30
3315 778 223
3258 825 527
3200 927 918
3155 1107 1373
3155 1433 1858
3185 1837 2319
3232 2283 2737
3287 2737 3091
3379 950 74
3402 1021 314
3405 1101 659
3394 1210 1081
3375 1370 1552
3362 1653 2029
3353 2022 2467
3343 2453 2846
3328 2926 3144
3394 1161 131
3491 1306 411
3561 1433 794
3604 1560 1246
3618 1703 1735
3595 1933 2208
3549 2249 2630
3478 2648 2974
3379 3129 3216
3409 1395 200
3574 1629 509
3703 1815 916
3790 1967 1388
3831 2098 1889
3806 2268 2364
3734 2516 2777
3612 2862 3098
3435 3326 3298
3438 1656 284
3631 1966 596
3782 2212 1005
3887 2400 1475
3940 2535 1975
3916 2659 2451
3838 2837 2864
3696 3099 3181
3482 3479 3366
3477 1920 375
3658 2265 681
3807 2556 1080
3914 2787 1541
3972 2947 2033
3950 3048 2504
3870 3167 2915
3727 3339 3228
3516 3599 3411
3520 2175 477
3651 2492 774
3773 2806 1158
3869 3085 1601
3926 3295 2078
3903 3399 2538
3827 3476 2938
3703 3560 3247
3538 3687 3434
3565 2409 594
3605 2616 885
3674 2920 1250
3748 3251 1672
3800 3538 2128
3774 3677 2567
3704 3732 2944
3619 3742 3241
3549 3742 3437
