Assets/1__3DArt/KimSe/artstation_asset/LUTs_pasterls/3DL/Orange Cream 03 S.3dl
# Enhanced with VOXCOLOR algorithms
0 128 256 384 512 640 768 896 1023
273 482 177
304 565 435
324 669 757
333 798 1121
332 954 1509
323 1149 1879
310 1358 2208
294 1569 2485
273 1766 2698
297 542 192
323 648 470
341 781 808
351 940 1187
350 1124 1584
339 1339 1951
326 1564 2270
316 1792 2538
311 2017 2750
343 663 236
370 793 538
390 953 896
401 1139 1287
402 1348 1688
389 1577 2045
377 1808 2349
372 2039 2601
380 2268 2801
414 844 305
446 995 635
471 1177 1012
485 1386 1412
488 1613 1811
475 1848 2153
465 2077 2438
465 2300 2669
484 2515 2850
516 1083 397
553 1250 754
584 1448 1146
603 1669 1550
607 1905 1941
598 2137 2264
592 2355 2528
598 2561 2738
626 2754 2899
654 1375 504
697 1547 881
732 1746 1280
755 1965 1681
766 2194 2059
768 2413 2362
775 2614 2607
793 2800 2799
826 2970 2945
799 1657 603
845 1826 991
883 2021 1393
911 2231 1788
930 2448 2154
947 2652 2440
972 2837 2669
1004 3005 2848
1044 3154 2984
938 1900 689
984 2063 1078
1023 2248 1478
1055 2446 1868
1082 2648 2223
1116 2837 2496
1159 3009 2713
1204 3162 2883
1245 3293 3011
1060 2072 755
1100 2228 1134
1137 2403 1529
1171 2588 1914
1205 2775 2262
1253 2951 2526
1311 3114 2735
1363 3256 2897
1397 3372 3019
759 527 182
787 613 461
804 730 804
811 880 1190
808 1067 1600
795 1302 1987
778 1549 2325
753 1793 2606
721 2020 2819
715 605 194
776 717 495
800 856 856
798 1024 1253
780 1227 1666
757 1468 2042
736 1718 2365
715 1964 2631
694 2196 2836
699 740 231
767 878 557
796 1039 935
796 1225 1342
779 1440 1755
754 1683 2117
733 1928 2423
716 2167 2671
705 2391 2862
713 924 292
773 1085 643
806 1266 1037
816 1468 1450
807 1691 1859
787 1929 2205
768 2163 2491
756 2388 2720
754 2596 2893
758 1150 373
811 1330 747
846 1528 1153
865 1740 1567
866 1964 1967
854 2192 2296
842 2410 2562
835 2614 2771
838 2799 2926
844 1409 472
894 1596 860
932 1797 1270
956 2009 1680
966 2229 2066
965 2442 2376
966 2641 2624
971 2824 2817
981 2987 2960
941 1663 568
990 1846 964
1031 2043 1374
1060 2250 1776
1079 2460 2149
1092 2659 2441
1109 2843 2675
1129 3007 2856
1151 3152 2991
1040 1889 654
1089 2061 1051
1131 2250 1457
1165 2447 1851
1191 2645 2211
1219 2832 2489
1254 3002 2711
1290 3153 2883
1323 3284 3014
1131 2064 724
1179 2226 1114
1221 2402 1513
1257 2587 1899
1290 2772 2250
1332 2946 2518
1383 3107 2731
1433 3250 2896
1472 3370 3023
1353 568 172
1364 646 463
1370 765 822
1369 930 1227
1364 1145 1657
1352 1419 2061
1332 1704 2412
1303 1983 2702
1262 2238 2922
1247 670 181
1299 772 503
1314 907 883
1305 1080 1299
1285 1299 1728
1264 1573 2115
1244 1854 2446
1219 2126 2715
1188 2373 2920
1175 828 211
1237 958 561
1260 1110 959
1255 1292 1383
1235 1511 1810
1215 1774 2182
1195 2043 2493
1175 2300 2743
1151 2531 2931
1136 1026 264
1192 1185 636
1220 1355 1047
1226 1545 1476
1216 1761 1898
1200 2008 2255
1184 2256 2549
1167 2492 2780
1148 2703 2950
1132 1250 339
1178 1435 727
1208 1623 1146
1224 1820 1574
1226 2030 1989
1217 2257 2330
1207 2479 2605
1194 2688 2818
1178 2875 2973
1167 1483 436
1209 1678 832
1241 1875 1251
1262 2075 1672
1272 2281 2072
1272 2489 2395
1272 2688 2654
1268 2872 2853
1260 3035 2997
1214 1706 534
1255 1898 935
1289 2095 1351
1315 2295 1762
1331 2496 2145
1342 2689 2450
1355 2870 2694
1366 3034 2882
1373 3178 3019
1265 1909 625
1308 2088 1028
1344 2277 1439
1373 2471 1838
1396 2665 2205
1418 2848 2493
1446 3016 2723
1475 3166 2902
1500 3296 3036
1310 2078 702
1356 2239 1104
1395 2414 1508
1428 2597 1896
1457 2781 2249
1492 2955 2522
1536 3115 2741
1582 3258 2913
1624 3380 3044
1974 604 148
1959 663 442
1946 774 809
1935 945 1227
1927 1181 1672
1918 1489 2092
1903 1812 2460
1878 2128 2767
1839 2415 3004
1823 730 154
1842 811 492
1839 932 888
1825 1104 1318
1809 1335 1760
1800 1640 2159
1789 1957 2502
1771 2263 2783
1739 2533 2997
1712 914 180
1742 1025 549
1749 1161 965
1741 1333 1404
1728 1554 1844
1721 1840 2229
1712 2137 2551
1697 2422 2810
1669 2673 3002
1636 1133 228
1667 1279 616
1681 1432 1044
1683 1606 1488
1679 1813 1925
1674 2072 2297
1668 2339 2603
1654 2596 2842
1628 2822 3016
1596 1363 299
1622 1545 697
1640 1719 1128
1651 1898 1571
1655 2092 2002
1655 2318 2361
1652 2550 2652
1639 2773 2876
1613 2972 3033
1591 1575 399
1616 1776 798
1636 1967 1225
1650 2154 1657
1659 2344 2074
1664 2546 2416
1666 2746 2692
1660 2936 2904
1641 3108 3051
1595 1773 503
1620 1974 905
1643 2170 1326
1660 2363 1745
1673 2554 2142
1683 2739 2465
1693 2916 2725
1700 3081 2926
1697 3230 3068
1599 1953 604
1629 2138 1011
1654 2329 1425
1675 2521 1830
1691 2712 2206
1709 2890 2507
1731 3053 2752
1753 3201 2941
1773 3332 3080
1596 2113 696
1632 2272 1108
1661 2444 1517
1687 2627 1906
1709 2813 2261
1738 2988 2542
1775 3146 2770
1816 3288 2950
1858 3409 3087
2541 636 110
2496 664 398
2460 757 764
2433 922 1185
2419 1166 1637
2419 1503 2071
2419 1862 2461
2413 2217 2795
2395 2545 3062
2376 781 118
2353 832 465
2328 932 867
2308 1093 1303
2298 1329 1752
2304 1660 2163
2311 2012 2523
2309 2357 2823
2293 2664 3059
2252 988 142
2242 1074 526
2229 1187 952
2219 1344 1401
2215 1562 1850
2224 1867 2248
2232 2195 2586
2231 2516 2860
2213 2799 3067
2164 1226 187
2162 1355 589
2159 1488 1028
2158 1644 1483
2160 1840 1934
2170 2109 2322
2177 2398 2646
2174 2684 2900
2154 2941 3083
2110 1466 258
2111 1641 661
2114 1801 1102
2119 1962 1557
2126 2141 2005
2135 2366 2386
2141 2610 2698
2136 2854 2938
2112 3080 3102
2084 1668 362
2087 1874 760
2093 2060 1192
2099 2236 1636
2107 2412 2070
2115 2605 2437
2122 2807 2737
2120 3009 2966
2102 3201 3120
2060 1850 477
2067 2061 875
2074 2261 1298
2082 2451 1726
2090 2632 2139
2099 2808 2485
2109 2980 2769
2115 3147 2987
2113 3307 3136
2030 2015 594
2042 2209 1001
2053 2406 1417
2063 2602 1825
2072 2791 2211
2085 2961 2532
2103 3117 2796
2122 3261 3001
2140 3394 3148
1987 2170 709
2007 2324 1133
2023 2498 1544
2036 2684 1933
2050 2876 2289
2072 3052 2579
2102 3208 2819
2139 3344 3011
2180 3461 3154
2913 655 73
2847 657 340
2788 725 689
2742 872 1099
2717 1106 1546
2727 1454 1992
2749 1836 2405
2776 2226 2772
2799 2596 3082
2787 813 87
2741 839 423
2699 914 816
2668 1055 1245
2653 1279 1690
2665 1618 2111
2687 1994 2489
2710 2373 2817
2724 2724 3086
2692 1028 115
2664 1093 493
2640 1186 915
2623 1324 1361
2617 1527 1811
2630 1837 2220
2648 2185 2577
2663 2540 2874
2666 2871 3105
2626 1271 161
2613 1388 559
2603 1507 996
2599 1647 1454
2601 1828 1911
2613 2095 2316
2625 2400 2660
2631 2718 2935
2623 3025 3133
2586 1515 232
2583 1690 629
2583 1844 1068
2587 1994 1530
2593 2157 1991
2603 2374 2395
2610 2625 2731
2608 2896 2991
2591 3173 3164
2566 1721 337
2567 1940 724
2570 2132 1153
2576 2305 1604
2583 2468 2055
2590 2648 2450
2594 2847 2779
2591 3065 3030
2576 3297 3192
2541 1906 457
2546 2141 841
2551 2356 1260
2558 2553 1694
2563 2728 2124
2569 2887 2501
2574 3049 2816
2575 3218 3058
2572 3400 3215
2507 2077 588
2514 2293 983
2520 2512 1393
2526 2723 1805
2532 2915 2205
2539 3072 2553
2549 3213 2847
2561 3347 3076
2575 3481 3232
2457 2239 730
2464 2400 1150
2470 2591 1556
2477 2799 1944
2485 3007 2305
2499 3180 2614
2520 3323 2876
2547 3440 3087
2582 3538 3241
3150 664 48
3072 652 287
2996 703 615
2934 832 1011
2898 1051 1454
2913 1398 1910
2954 1791 2341
3010 2202 2737
3069 2601 3082
3080 830 68
3029 842 380
2977 900 754
2934 1023 1171
2908 1229 1612
2918 1563 2042
2949 1949 2439
2989 2352 2793
3030 2739 3093
3028 1043 102
3004 1099 459
2980 1178 866
2958 1300 1304
2945 1486 1754
2952 1788 2174
2969 2144 2550
2989 2525 2870
3005 2902 3124
2993 1280 152
2994 1395 530
2994 1508 957
2993 1636 1412
2993 1801 1874
2996 2057 2295
3001 2367 2659
3001 2713 2954
2991 3075 3166
2974 1520 222
2995 1706 600
3013 1862 1033
3026 2007 1496
3035 2155 1968
3037 2357 2393
3032 2608 2754
3015 2905 3033
2984 3242 3214
2967 1735 321
2995 1978 687
3020 2183 1110
3038 2358 1567
3049 2510 2033
3049 2670 2456
3040 2863 2814
3019 3096 3087
2983 3377 3256
2955 1935 435
2984 2202 798
3009 2442 1209
3028 2650 1649
3040 2820 2098
3039 2959 2508
3029 3105 2857
3010 3276 3124
2982 3485 3289
2934 2122 568
2954 2370 938
2975 2620 1339
2992 2854 1757
3003 3053 2176
3003 3192 2560
2997 3313 2888
2988 3431 3145
2979 3566 3311
2898 2298 722
2901 2474 1117
2911 2699 1513
2924 2943 1903
2935 3176 2281
2940 3342 2623
2944 3460 2917
2952 3547 3154
2970 3616 3321
3273 660 34
3191 647 245
3106 690 553
3033 806 938
2987 1012 1378
3005 1351 1842
3058 1745 2287
3134 2162 2701
3218 2573 3069
3259 831 61
3213 842 336
3159 892 685
3109 1001 1090
3073 1190 1531
3078 1513 1974
3110 1896 2389
3158 2309 2763
3213 2719 3085
3248 1033 102
3246 1091 420
3233 1166 804
3215 1277 1233
3197 1446 1686
3194 1734 2122
3201 2088 2517
3212 2485 2857
3223 2900 3127
3244 1256 157
3286 1380 498
3314 1494 907
3329 1617 1358
3332 1767 1827
3323 2006 2266
3307 2314 2651
3282 2681 2963
3244 3095 3186
3247 1487 225
3326 1691 573
3387 1858 993
3428 2003 1458
3448 2139 1940
3437 2322 2387
3406 2569 2770
3351 2888 3066
3270 3285 3253
3258 1715 311
3351 1989 652
3425 2213 1067
3476 2393 1528
3503 2535 2008
3492 2675 2458
3456 2858 2843
3391 3105 3137
3293 3435 3311
3268 1934 411
3356 2241 747
3429 2510 1150
3482 2731 1598
3511 2896 2067
3501 3015 2509
3464 3146 2890
3400 3317 3181
3308 3553 3354
3272 2143 530
3334 2430 868
3394 2717 1259
3442 2977 1686
3471 3184 2131
3462 3306 2553
3429 3404 2919
3378 3505 3203
3313 3637 3379
3266 2336 675
3282 2535 1026
3314 2804 1407
3351 3094 1808
3378 3358 2218
3371 3513 2604
3347 3602 2939
3320 3652 3206
3305 3687 3388
3308 642 32
3228 638 220
3141 686 515
3064 801 894
3014 1001 1338
3030 1331 1810
3086 1716 2261
3167 2123 2679
3260 2521 3051
3326 813 65
3291 836 290
3243 889 613
3194 995 1011
3157 1172 1461
3159 1481 1923
3185 1854 2354
3228 2262 2740
3279 2675 3068
3342 999 113
3374 1071 374
3387 1152 729
3386 1261 1152
3375 1419 1617
3363 1689 2075
3352 2034 2491
3337 2434 2845
3317 2873 3121
3359 1202 172
3465 1344 462
3545 1469 846
3596 1594 1294
3616 1735 1776
3595 1956 2237
3548 2255 2643
3472 2633 2970
3368 3090 3197
3380 1422 237
3553 1652 546
3689 1836 950
3783 1985 1416
3829 2114 1911
3805 2280 2378
3733 2519 2783
3608 2852 3094
3427 3302 3284
3411 1663 307
3612 1973 619
3771 2219 1024
3881 2407 1490
3938 2542 1986
3915 2664 2458
3836 2837 2866
3693 3094 3178
3478 3466 3357
3447 1904 382
3638 2255 690
3794 2551 1088
3908 2785 1546
3969 2947 2035
3948 3049 2505
3869 3166 2914
3726 3336 3227
3514 3595 3406
3484 2135 470
3624 2465 771
3755 2789 1154
3859 3075 1596
3921 3290 2073
3901 3397 2535
3826 3475 2936
3702 3559 3246
3537 3686 3432
3517 2345 578
3565 2570 870
3646 2889 1236
3731 3232 1657
3792 3528 2115
3769 3671 2559
3702 3730 2941
3618 3741 3240
3549 3742 3437
