Assets/1__3DArt/KimSe/artstation_asset/LUTs_pasterls/3DL/Orange Cream 01 S.3dl
# Enhanced with VOXCOLOR algorithms
0 256 512 768 1023
32 48 209
151 223 727
359 585 1594
618 1216 2436
899 1895 2971
55 689 438
191 1049 999
516 1639 1953
1009 2285 2797
1552 2805 3264
286 1924 848
563 2273 1380
1112 2774 2305
1784 3181 3067
2368 3412 3437
979 3011 1010
1375 3193 1582
1967 3422 2468
2537 3577 3163
2960 3643 3498
1863 3533 980
2222 3611 1656
2660 3681 2542
3015 3716 3196
3244 3726 3517
1363 556 294
1505 659 732
1764 1023 1565
2024 1702 2479
2243 2430 3101
1155 1031 397
1361 1289 973
1593 1778 1920
1972 2428 2784
2348 2952 3281
1126 2050 659
1317 2282 1253
1728 2697 2210
2264 3130 3015
2695 3398 3422
1478 3024 847
1740 3151 1439
2215 3357 2370
2707 3533 3120
3055 3622 3488
2050 3549 897
2359 3618 1559
2756 3683 2477
3082 3711 3171
3297 3719 3511
2926 1085 305
2923 1132 725
3055 1519 1557
3195 2174 2521
3275 2797 3192
2552 1391 274
2514 1462 939
2668 1879 1884
2978 2573 2769
3205 3115 3310
2428 2248 391
2345 2275 1104
2543 2562 2091
2935 3048 2950
3238 3423 3421
2544 3136 601
2521 3141 1250
2727 3263 2229
3067 3458 3058
3344 3619 3491
2667 3623 769
2818 3669 1425
3058 3714 2392
3297 3725 3156
3462 3723 3526
3539 1445 346
3513 1540 770
3571 1919 1590
3654 2480 2547
3711 2993 3235
3357 1727 286
3278 1684 941
3367 2012 1860
3560 2655 2754
3696 3228 3332
3367 2489 354
3234 2328 1057
3285 2449 2019
3492 2903 2908
3694 3465 3439
3485 3292 559
3349 3163 1176
3347 3166 2117
3503 3336 3002
3704 3632 3519
3498 3735 816
3493 3776 1385
3531 3811 2291
3632 3776 3120
3720 3727 3558
3645 1558 369
3670 1754 774
3707 2102 1587
3759 2568 2542
3806 3019 3228
3710 2024 398
3791 2035 906
3855 2218 1805
3871 2667 2735
3855 3245 3329
3811 2736 488
3938 2487 1052
4009 2432 1979
3990 2756 2900
3902 3476 3471
3912 3397 692
4010 3192 1204
4060 3118 2072
4030 3234 2985
3928 3636 3572
3983 3790 1060
3993 3860 1480
4017 3924 2217
3984 3845 3076
3934 3726 3613
