Assets/1__3DArt/KimSe/artstation_asset/LUTs_pasterls/3DL/Orange Cream 01.3dl
# Enhanced with VOXCOLOR algorithms
0 128 256 384 512 640 768 896 1023
32 48 209
78 116 411
151 223 727
246 376 1130
359 585 1594
486 882 2047
618 1216 2436
755 1562 2748
899 1895 2971
30 271 282
67 384 495
139 556 834
243 785 1266
379 1068 1761
554 1405 2230
747 1747 2620
958 2078 2923
1184 2380 3132
56 689 438
100 835 651
192 1049 999
330 1322 1445
516 1639 1953
754 1973 2420
1010 2285 2797
1278 2566 3079
1552 2805 3264
134 1256 640
199 1414 846
328 1642 1192
517 1921 1638
764 2231 2143
1063 2526 2596
1369 2780 2951
1671 2991 3208
1961 3155 3366
289 1924 850
389 2069 1044
565 2273 1381
810 2516 1816
1116 2775 2306
1458 3001 2736
1788 3182 3068
2094 3319 3301
2368 3412 3437
598 2537 972
734 2646 1172
949 2798 1507
1227 2974 1932
1552 3156 2405
1889 3306 2814
2197 3421 3128
2470 3503 3347
2701 3552 3474
991 3011 1019
1151 3090 1240
1383 3193 1585
1665 3308 2010
1979 3423 2471
2282 3513 2864
2549 3578 3165
2777 3621 3376
2960 3643 3498
1425 3344 1013
1595 3398 1266
1822 3462 1630
2084 3529 2060
2360 3593 2514
2612 3638 2894
2828 3670 3186
3006 3689 3391
3143 3697 3511
1863 3533 980
2023 3572 1269
2222 3611 1656
2441 3649 2095
2660 3681 2542
2852 3702 2911
3015 3716 3196
3147 3723 3398
3244 3726 3517
585 295 272
656 346 449
759 439 739
886 586 1122
1029 796 1580
1176 1106 2048
1317 1457 2459
1455 1827 2796
1594 2189 3043
553 486 330
694 603 515
808 764 832
912 975 1251
1023 1240 1745
1169 1567 2224
1334 1905 2627
1515 2236 2943
1707 2541 3163
536 860 457
688 1013 645
816 1217 977
940 1466 1417
1080 1757 1927
1264 2071 2403
1472 2369 2790
1693 2641 3080
1919 2874 3270
556 1372 623
691 1534 813
840 1751 1150
1010 2009 1594
1210 2293 2105
1451 2567 2568
1703 2808 2933
1954 3010 3198
2193 3167 3360
634 1981 801
757 2126 989
935 2322 1324
1159 2551 1762
1425 2793 2261
1718 3005 2703
2001 3177 3046
2263 3308 3287
2492 3399 3428
849 2552 915
983 2662 1110
1186 2810 1446
1444 2979 1877
1741 3154 2361
2044 3298 2784
2320 3409 3108
2561 3488 3335
2760 3537 3466
1150 3005 967
1297 3084 1182
1514 3186 1527
1780 3300 1958
2076 3414 2431
2360 3502 2837
2608 3566 3148
2817 3608 3365
2982 3631 3491
1511 3336 973
1667 3388 1218
1882 3452 1580
2133 3520 2015
2401 3585 2479
2643 3630 2870
2850 3662 3170
3020 3681 3382
3150 3689 3505
1904 3535 949
2059 3572 1232
2253 3611 1616
2468 3648 2057
2684 3680 2512
2872 3699 2890
3030 3712 3181
3159 3718 3388
3257 3720 3511
1363 556 294
1433 598 449
1531 686 721
1651 831 1094
1783 1043 1555
1911 1355 2043
2028 1706 2477
2138 2072 2837
2243 2430 3101
1308 726 340
1468 836 503
1581 988 805
1668 1187 1217
1750 1440 1714
1856 1755 2209
1978 2081 2630
2112 2399 2962
2252 2690 3193
1258 1064 438
1429 1210 610
1552 1401 931
1650 1632 1366
1744 1901 1882
1872 2195 2375
2021 2477 2778
2183 2734 3082
2348 2952 3280
1228 1530 568
1370 1684 748
1503 1885 1080
1637 2121 1525
1781 2380 2046
1955 2634 2528
2140 2858 2910
2327 3047 3188
2504 3195 3358
1234 2085 712
1343 2222 897
1491 2403 1233
1671 2612 1679
1877 2833 2193
2102 3028 2656
2320 3188 3017
2521 3312 3272
2696 3398 3421
1341 2612 816
1446 2715 1011
1611 2852 1352
1822 3008 1795
2064 3169 2296
2311 3303 2740
2536 3407 3082
2731 3482 3322
2888 3529 3460
1522 3037 875
1635 3109 1090
1813 3204 1440
2037 3310 1884
2288 3416 2374
2531 3499 2800
2743 3559 3127
2921 3600 3355
3058 3622 3487
1764 3353 899
1889 3401 1141
2071 3460 1507
2290 3523 1953
2527 3584 2433
2744 3627 2842
2930 3657 3155
3081 3675 3375
3197 3684 3504
2050 3549 897
2185 3582 1175
2360 3618 1560
2556 3652 2009
2758 3682 2478
2934 3700 2870
3083 3711 3171
3204 3717 3384
3297 3719 3511
2200 822 297
2250 863 436
2324 952 697
2413 1099 1067
2511 1312 1533
2603 1617 2039
2682 1953 2494
2751 2297 2873
2814 2629 3150
2134 978 331
2259 1079 483
2345 1223 774
2407 1414 1181
2460 1658 1682
2527 1959 2193
2604 2266 2632
2688 2561 2981
2774 2827 3222
2068 1288 401
2203 1421 565
2295 1596 879
2362 1811 1312
2418 2062 1833
2494 2337 2343
2587 2599 2764
2688 2835 3085
2792 3034 3294
2009 1715 496
2118 1854 672
2214 2036 1002
2305 2250 1450
2396 2485 1980
2503 2717 2482
2621 2924 2884
2742 3098 3180
2856 3234 3361
1966 2222 605
2039 2345 791
2141 2507 1131
2264 2693 1586
2403 2889 2115
2553 3065 2602
2700 3212 2985
2837 3327 3259
2954 3408 3419
1979 2706 697
2042 2797 896
2154 2917 1244
2303 3055 1700
2476 3197 2222
2654 3318 2690
2817 3413 3053
2958 3483 3310
3070 3529 3458
2043 3100 763
2111 3162 980
2235 3244 1340
2400 3336 1798
2589 3429 2310
2775 3503 2759
2940 3558 3104
3077 3596 3347
3182 3619 3486
2152 3394 807
2237 3434 1049
2371 3484 1423
2541 3538 1882
2730 3591 2383
2908 3629 2812
3061 3655 3141
3187 3672 3371
3283 3681 3505
2302 3577 833
2407 3605 1108
2549 3635 1497
2713 3663 1956
2887 3688 2443
3042 3704 2853
3174 3713 3167
3282 3718 3387
3365 3721 3517
2926 1085 305
2953 1131 437
2995 1225 693
3048 1375 1061
3107 1588 1529
3161 1877 2046
3206 2189 2514
3243 2502 2906
3275 2797 3192
2868 1233 324
2937 1324 473
2987 1462 759
3025 1648 1162
3058 1882 1662
3096 2164 2183
3139 2447 2635
3182 2715 2998
3226 2951 3250
2813 1520 367
2887 1637 531
2940 1798 841
2980 1997 1271
3011 2231 1793
3051 2484 2315
3100 2724 2752
3153 2939 3089
3206 3116 3309
2759 1912 429
2816 2035 607
2870 2197 936
2921 2389 1385
2969 2600 1921
3025 2809 2439
3087 2997 2860
3151 3156 3174
3212 3279 3367
2706 2377 504
2738 2484 695
2791 2624 1039
2858 2786 1500
2934 2957 2042
3016 3112 2551
3098 3244 2955
3175 3350 3247
3240 3426 3419
2668 2821 581
2688 2899 786
2745 3001 1142
2828 3117 1610
2929 3237 2148
3035 3341 2640
3134 3426 3025
3222 3491 3300
3291 3536 3459
2648 3185 650
2672 3235 873
2738 3302 1242
2835 3377 1713
2953 3452 2244
3074 3514 2717
3183 3562 3083
3276 3597 3341
3348 3620 3489
2648 3455 712
2687 3486 957
2766 3524 1338
2875 3566 1811
3003 3606 2332
3129 3636 2783
3241 3657 3130
3334 3672 3372
3407 3682 3511
2667 3623 769
2731 3643 1040
2827 3664 1434
2945 3684 1905
3076 3701 2411
3200 3711 2840
3307 3717 3167
3394 3721 3395
3462 3723 3526
3322 1296 326
3336 1352 463
3359 1455 719
3390 1609 1086
3426 1817 1549
3462 2086 2063
3494 2370 2532
3522 2652 2928
3546 2917 3221
3290 1450 335
3323 1538 490
3351 1673 775
3377 1852 1172
3403 2074 1664
3431 2334 2183
3461 2591 2639
3490 2833 3009
3516 3045 3270
3267 1725 361
3301 1831 532
3331 1979 841
3357 2164 1264
3381 2379 1779
3408 2609 2301
3439 2827 2745
3469 3022 3092
3498 3183 3323
3247 2092 403
3272 2199 587
3300 2343 916
3330 2514 1361
3359 2703 1892
3391 2891 2414
3426 3061 2846
3460 3207 3171
3492 3322 3376
3227 2522 457
3237 2615 655
3262 2735 1000
3296 2874 1460
3335 3021 2002
3378 3158 2519
3420 3277 2937
3461 3376 3243
3496 3450 3426
3203 2935 525
3203 3000 736
3226 3084 1094
3266 3179 1563
3316 3278 2106
3371 3366 2610
3424 3442 3010
3472 3503 3298
3513 3549 3466
3174 3273 598
3175 3314 824
3201 3365 1194
3247 3422 1668
3307 3480 2205
3373 3529 2692
3435 3569 3073
3490 3602 3343
3536 3627 3499
3142 3526 676
3152 3548 920
3186 3574 1299
3241 3601 1774
3311 3628 2301
3385 3648 2767
3453 3663 3127
3513 3675 3379
3562 3685 3523
3106 3682 762
3133 3694 1022
3182 3705 1409
3248 3715 1880
3327 3723 2392
3408 3726 2834
3481 3726 3172
3542 3725 3407
3590 3726 3540
3539 1445 346
3548 1512 487
3563 1623 746
3582 1779 1111
3607 1981 1569
3635 2233 2077
3662 2494 2543
3688 2751 2938
3711 2993 3235
3534 1614 351
3549 1702 511
3566 1835 796
3587 2008 1188
3610 2218 1672
3636 2458 2185
3660 2693 2640
3683 2913 3013
3703 3107 3280
3539 1885 370
3554 1983 545
3573 2121 853
3594 2293 1270
3616 2491 1776
3639 2703 2294
3660 2902 2740
3680 3081 3093
3697 3231 3330
3550 2235 403
3562 2330 592
3579 2458 919
3599 2611 1358
3620 2782 1882
3641 2953 2402
3661 3110 2838
3679 3246 3171
3695 3356 3383
3564 2639 450
3568 2718 652
3581 2821 995
3599 2941 1450
3620 3069 1986
3640 3193 2505
3660 3303 2930
3679 3397 3244
3695 3474 3434
3569 3025 518
3565 3079 732
3573 3148 1088
3589 3227 1552
3610 3309 2091
3633 3387 2599
3656 3455 3007
3678 3515 3304
3699 3565 3478
3560 3344 600
3554 3376 827
3559 3415 1192
3575 3458 1660
3598 3502 2194
3626 3542 2686
3653 3577 3075
3679 3609 3354
3705 3638 3514
3537 3584 699
3532 3599 936
3540 3615 1306
3558 3632 1771
3586 3648 2294
3620 3660 2765
3652 3670 3133
3683 3680 3393
3713 3691 3541
3498 3735 816
3500 3740 1059
3515 3744 1428
3540 3746 1884
3576 3746 2388
3618 3741 2834
3657 3736 3180
3692 3730 3423
3720 3727 3558
3630 1532 362
3639 1608 506
3651 1725 767
3667 1881 1130
3688 2078 1583
3713 2315 2084
3740 2559 2545
3767 2800 2939
3791 3027 3237
3646 1717 367
3656 1806 529
3671 1937 813
3691 2106 1202
3714 2307 1679
3739 2530 2187
3763 2749 2639
3784 2954 3012
3802 3135 3280
3672 1990 386
3683 2082 563
3700 2212 868
3721 2375 1281
3744 2562 1779
3766 2759 2293
3785 2945 2738
3801 3112 3092
3813 3255 3332
3708 2330 420
3718 2414 609
3734 2531 933
3753 2671 1366
3773 2829 1883
3790 2990 2400
3804 3137 2838
3815 3268 3174
3823 3376 3388
3749 2716 468
3756 2783 671
3768 2874 1011
3783 2980 1460
3798 3097 1989
3810 3212 2507
3819 3318 2934
3826 3412 3253
3831 3491 3445
3783 3084 543
3786 3129 758
3792 3187 1110
3801 3254 1567
3810 3327 2099
3818 3398 2606
3824 3465 3018
3830 3525 3319
3836 3581 3493
3805 3389 642
3803 3415 867
3804 3445 1224
3808 3480 1682
3813 3516 2207
3819 3551 2698
3824 3584 3091
3831 3616 3373
3839 3649 3533
3812 3623 766
3806 3633 995
3803 3643 1350
3803 3653 1800
3807 3662 2309
3814 3670 2779
3821 3677 3150
3830 3686 3414
3841 3698 3563
3804 3774 919
3792 3775 1143
3787 3774 1486
3787 3771 1915
3794 3765 2400
3805 3755 2843
3817 3744 3193
3829 3734 3443
3840 3728 3582
3645 1558 369
3656 1635 514
3670 1754 774
3687 1910 1136
3707 2102 1587
3733 2331 2084
3759 2568 2542
3785 2801 2933
3806 3019 3228
3672 1752 378
3684 1841 536
3702 1971 819
3724 2138 1207
3747 2333 1682
3771 2548 2186
3794 2758 2636
3814 2955 3006
3830 3128 3270
3710 2027 401
3724 2115 573
3744 2242 875
3768 2400 1285
3792 2581 1782
3813 2772 2294
3831 2952 2738
3845 3113 3090
3854 3250 3326
3757 2363 441
3772 2441 626
3793 2551 945
3816 2686 1375
3838 2839 1889
3855 2996 2406
3868 3141 2844
3874 3270 3179
3876 3378 3390
3811 2742 496
3827 2801 696
3846 2884 1032
3865 2985 1477
3883 3098 2003
3894 3213 2521
3900 3320 2949
3901 3416 3268
3896 3500 3456
3863 3101 585
3877 3140 799
3891 3192 1146
3905 3255 1598
3916 3326 2124
3921 3398 2630
3922 3467 3042
3919 3532 3342
3910 3592 3511
3909 3402 705
3918 3423 928
3926 3450 1278
3933 3482 1726
3939 3516 2241
3939 3552 2729
3937 3587 3121
3931 3623 3402
3922 3660 3556
3949 3635 862
3949 3643 1084
3949 3651 1423
3950 3659 1853
3951 3667 2345
3949 3674 2809
3944 3681 3179
3937 3690 3444
3930 3704 3590
3983 3790 1060
3969 3790 1266
3960 3788 1577
3955 3784 1971
3953 3776 2427
3950 3763 2862
3945 3748 3213
3939 3735 3468
3934 3726 3613
