Assets/1__3DArt/KimSe/artstation_asset/LUTs_pasterls/3DL/Orange Cream 01.3dl
# Enhanced with VOXCOLOR algorithms
0 256 512 768 1023
32 48 209
151 223 727
359 585 1594
618 1216 2436
899 1895 2971
56 689 438
192 1049 999
516 1639 1953
1010 2285 2797
1552 2805 3264
289 1924 850
565 2273 1381
1116 2775 2306
1788 3182 3068
2368 3412 3437
991 3011 1019
1383 3193 1585
1979 3423 2471
2549 3578 3165
2960 3643 3498
1863 3533 980
2222 3611 1656
2660 3681 2542
3015 3716 3196
3244 3726 3517
1363 556 294
1531 686 721
1783 1043 1555
2028 1706 2477
2243 2430 3101
1258 1064 438
1552 1401 931
1744 1901 1882
2021 2477 2778
2348 2952 3280
1234 2085 712
1491 2403 1233
1877 2833 2193
2320 3188 3017
2696 3398 3421
1522 3037 875
1813 3204 1440
2288 3416 2374
2743 3559 3127
3058 3622 3487
2050 3549 897
2360 3618 1560
2758 3682 2478
3083 3711 3171
3297 3719 3511
2926 1085 305
2995 1225 693
3107 1588 1529
3206 2189 2514
3275 2797 3192
2813 1520 367
2940 1798 841
3011 2231 1793
3100 2724 2752
3206 3116 3309
2706 2377 504
2791 2624 1039
2934 2957 2042
3098 3244 2955
3240 3426 3419
2648 3185 650
2738 3302 1242
2953 3452 2244
3183 3562 3083
3348 3620 3489
2667 3623 769
2827 3664 1434
3076 3701 2411
3307 3717 3167
3462 3723 3526
3539 1445 346
3563 1623 746
3607 1981 1569
3662 2494 2543
3711 2993 3235
3539 1885 370
3573 2121 853
3616 2491 1776
3660 2902 2740
3697 3231 3330
3564 2639 450
3581 2821 995
3620 3069 1986
3660 3303 2930
3695 3474 3434
3560 3344 600
3559 3415 1192
3598 3502 2194
3653 3577 3075
3705 3638 3514
3498 3735 816
3515 3744 1428
3576 3746 2388
3657 3736 3180
3720 3727 3558
3645 1558 369
3670 1754 774
3707 2102 1587
3759 2568 2542
3806 3019 3228
3710 2027 401
3744 2242 875
3792 2581 1782
3831 2952 2738
3854 3250 3326
3811 2742 496
3846 2884 1032
3883 3098 2003
3900 3320 2949
3896 3500 3456
3909 3402 705
3926 3450 1278
3939 3516 2241
3937 3587 3121
3922 3660 3556
3983 3790 1060
3960 3788 1577
3953 3776 2427
3945 3748 3213
3934 3726 3613
