Assets/1__3DArt/KimSe/artstation_asset/LUTs_pasterls/3DL/Orange Cream 03 S.3dl
# Enhanced with VOXCOLOR algorithms
0 256 512 768 1023
273 482 177
324 669 757
332 954 1509
310 1358 2208
273 1766 2698
343 663 236
390 953 896
402 1348 1688
377 1808 2349
380 2268 2801
516 1083 397
584 1448 1146
607 1905 1941
592 2355 2528
626 2754 2899
799 1657 603
883 2021 1393
930 2448 2154
972 2837 2669
1044 3154 2984
1060 2072 755
1137 2403 1529
1205 2775 2262
1311 3114 2735
1397 3372 3019
1353 568 172
1370 765 822
1364 1145 1657
1332 1704 2412
1262 2238 2922
1175 828 211
1260 1110 959
1235 1511 1810
1195 2043 2493
1151 2531 2931
1132 1250 339
1208 1623 1146
1226 2030 1989
1207 2479 2605
1178 2875 2973
1214 1706 534
1289 2095 1351
1331 2496 2145
1355 2870 2694
1373 3178 3019
1310 2078 702
1395 2414 1508
1457 2781 2249
1536 3115 2741
1624 3380 3044
2541 636 110
2460 757 764
2419 1166 1637
2419 1862 2461
2395 2545 3062
2252 988 142
2229 1187 952
2215 1562 1850
2232 2195 2586
2213 2799 3067
2110 1466 258
2114 1801 1102
2126 2141 2005
2141 2610 2698
2112 3080 3102
2060 1850 477
2074 2261 1298
2090 2632 2139
2109 2980 2769
2113 3307 3136
1987 2170 709
2023 2498 1544
2050 2876 2289
2102 3208 2819
2180 3461 3154
3150 664 48
2996 703 615
2898 1051 1454
2954 1791 2341
3069 2601 3082
3028 1043 102
2980 1178 866
2945 1486 1754
2969 2144 2550
3005 2902 3124
2974 1520 222
3013 1862 1033
3035 2155 1968
3032 2608 2754
2984 3242 3214
2955 1935 435
3009 2442 1209
3040 2820 2098
3029 3105 2857
2982 3485 3289
2898 2298 722
2911 2699 1513
2935 3176 2281
2944 3460 2917
2970 3616 3321
3308 642 32
3141 686 515
3014 1001 1338
3086 1716 2261
3260 2521 3051
3342 999 113
3387 1152 729
3375 1419 1617
3352 2034 2491
3317 2873 3121
3380 1422 237
3689 1836 950
3829 2114 1911
3733 2519 2783
3427 3302 3284
3447 1904 382
3794 2551 1088
3969 2947 2035
3869 3166 2914
3514 3595 3406
3517 2345 578
3646 2889 1236
3792 3528 2115
3702 3730 2941
3549 3742 3437
