Assets/1__3DArt/KimSe/artstation_asset/LUTs_pasterls/3DL/Orange Cream 02 S.3dl
# Enhanced with VOXCOLOR algorithms
0 64 128 192 256 320 384 448 512 576 640 704 768 832 896 960 1023
145 321 161
219 388 337
294 456 513
361 522 695
415 586 886
469 649 1078
507 708 1272
537 765 1467
567 822 1663
577 870 1844
587 917 2026
593 961 2197
589 996 2348
585 1032 2499
575 1055 2623
560 1074 2733
546 1092 2842
147 604 202
210 663 383
273 722 563
330 779 748
375 831 939
421 884 1130
453 931 1322
479 975 1514
504 1020 1706
513 1056 1884
522 1092 2062
527 1125 2231
524 1151 2381
520 1178 2531
512 1197 2658
502 1212 2773
492 1228 2887
149 887 243
201 937 429
252 988 614
299 1035 801
336 1077 991
373 1118 1182
399 1153 1371
420 1186 1560
442 1218 1749
449 1242 1923
456 1267 2098
460 1289 2264
458 1306 2414
455 1324 2563
450 1338 2693
444 1351 2812
437 1364 2932
159 1171 286
200 1213 475
242 1256 664
279 1296 854
309 1328 1044
339 1361 1235
361 1387 1424
379 1410 1610
397 1433 1797
403 1447 1969
409 1462 2140
412 1474 2304
410 1484 2452
408 1493 2599
404 1501 2730
399 1509 2853
395 1517 2976
182 1456 332
217 1492 523
252 1529 714
283 1563 906
310 1591 1099
336 1619 1293
355 1642 1482
371 1660 1669
387 1679 1856
392 1688 2026
398 1698 2196
400 1704 2357
398 1706 2501
395 1707 2646
390 1707 2775
383 1706 2895
377 1705 3016
205 1741 379
233 1771 571
261 1801 764
288 1830 958
310 1854 1154
332 1878 1350
349 1896 1540
363 1911 1728
377 1926 1915
382 1930 2083
387 1933 2251
389 1934 2410
385 1928 2551
382 1922 2692
375 1913 2819
367 1903 2937
358 1893 3056
270 2015 439
293 2040 627
316 2064 815
338 2087 1006
358 2108 1201
377 2129 1396
392 2144 1586
405 2156 1774
418 2169 1962
422 2170 2129
427 2170 2296
428 2167 2454
424 2156 2594
419 2145 2733
409 2130 2857
398 2112 2973
386 2095 3088
356 2284 506
375 2303 687
394 2321 867
412 2340 1052
429 2357 1245
446 2375 1437
460 2388 1627
472 2399 1814
485 2409 2002
489 2408 2170
493 2407 2337
493 2402 2495
487 2388 2633
481 2373 2772
468 2352 2893
452 2328 3005
436 2303 3117
441 2552 573
456 2565 746
471 2579 919
486 2593 1098
501 2607 1289
516 2622 1479
528 2632 1667
540 2641 1855
551 2650 2042
555 2647 2210
558 2645 2378
558 2637 2535
551 2619 2673
543 2602 2810
527 2575 2928
506 2543 3037
486 2511 3146
602 2778 680
613 2788 835
624 2797 989
635 2807 1152
648 2818 1330
662 2829 1507
673 2837 1688
683 2844 1870
693 2851 2052
696 2848 2220
698 2845 2387
697 2837 2545
689 2820 2685
680 2803 2824
662 2775 2943
639 2743 3052
617 2711 3160
764 3004 788
770 3010 924
777 3015 1059
785 3021 1205
796 3029 1371
807 3036 1536
817 3042 1709
826 3047 1886
835 3052 2062
836 3048 2230
838 3045 2397
836 3037 2556
827 3020 2697
817 3003 2839
797 2976 2958
772 2943 3067
748 2911 3175
944 3210 912
946 3212 1026
947 3213 1141
951 3216 1267
960 3220 1417
968 3225 1568
976 3228 1730
983 3231 1898
991 3234 2066
991 3230 2232
992 3226 2398
989 3218 2556
978 3202 2700
968 3186 2843
948 3160 2965
922 3129 3075
897 3098 3185
1164 3375 1067
1159 3374 1156
1153 3372 1245
1151 3372 1347
1156 3374 1476
1161 3376 1604
1165 3377 1750
1170 3377 1904
1175 3378 2059
1173 3373 2220
1172 3368 2380
1168 3360 2536
1157 3347 2683
1147 3333 2829
1128 3312 2954
1105 3286 3068
1083 3260 3183
1384 3539 1222
1372 3535 1285
1359 3532 1349
1352 3529 1428
1352 3528 1534
1353 3527 1641
1355 3526 1770
1357 3524 1911
1359 3522 2051
1356 3516 2207
1353 3510 2363
1347 3503 2517
1337 3491 2666
1326 3480 2815
1309 3463 2944
1289 3442 3062
1268 3422 3181
1615 3659 1392
1592 3653 1434
1568 3647 1475
1551 3641 1531
1545 3638 1614
1538 3635 1698
1535 3631 1807
1532 3627 1929
1530 3623 2051
1524 3615 2198
1519 3608 2345
1511 3600 2493
1499 3590 2642
1488 3580 2790
1470 3566 2922
1451 3550 3045
1431 3534 3168
1851 3757 1571
1815 3748 1592
1779 3739 1612
1750 3732 1646
1735 3727 1705
1719 3721 1765
1709 3715 1853
1702 3708 1954
1694 3702 2056
1686 3693 2191
1677 3685 2327
1667 3676 2466
1654 3666 2613
1640 3656 2761
1622 3645 2895
1603 3634 3022
1583 3622 3150
2088 3854 1750
2039 3843 1750
1990 3832 1750
1949 3822 1761
1925 3815 1796
1901 3808 1832
1884 3799 1898
1871 3790 1979
1858 3781 2060
1847 3771 2184
1836 3761 2308
1823 3751 2440
1808 3742 2585
1793 3732 2731
1774 3724 2868
1754 3717 3000
1734 3710 3131
554 370 198
612 430 368
670 490 538
724 551 713
767 611 898
810 672 1082
842 731 1271
867 788 1462
893 846 1652
902 896 1835
912 947 2017
916 994 2191
911 1033 2349
906 1072 2506
893 1100 2639
875 1122 2760
857 1144 2881
538 637 225
592 690 400
645 743 575
693 796 754
728 847 941
764 898 1127
789 947 1315
809 994 1505
829 1041 1694
835 1082 1874
842 1123 2053
845 1160 2224
840 1191 2380
835 1222 2536
824 1245 2670
809 1263 2793
794 1281 2917
523 904 252
572 950 432
620 996 613
662 1041 796
690 1083 984
718 1125 1172
736 1163 1360
750 1200 1548
764 1237 1736
768 1268 1913
772 1298 2089
773 1326 2258
769 1349 2411
764 1372 2565
755 1389 2700
743 1404 2826
731 1418 2952
514 1173 282
557 1213 467
599 1253 652
635 1291 838
657 1325 1028
679 1359 1219
693 1390 1407
702 1418 1595
712 1447 1783
714 1469 1956
716 1491 2130
716 1511 2297
712 1526 2448
708 1541 2599
699 1552 2734
689 1561 2861
679 1570 2988
516 1449 321
552 1483 508
587 1517 694
617 1550 883
636 1580 1077
655 1610 1270
668 1636 1460
677 1661 1649
686 1686 1838
688 1702 2010
690 1719 2182
690 1733 2346
685 1740 2494
680 1748 2642
671 1751 2774
659 1751 2898
647 1751 3022
519 1725 359
547 1753 548
575 1781 737
599 1808 928
615 1834 1125
632 1860 1321
643 1883 1513
651 1904 1703
660 1924 1893
662 1935 2063
664 1947 2234
664 1954 2395
658 1954 2540
653 1955 2684
643 1949 2813
629 1941 2935
616 1933 3056
558 1992 414
580 2015 599
602 2038 785
621 2061 973
636 2084 1169
651 2106 1365
661 2125 1557
670 2143 1747
678 2161 1937
681 2169 2107
683 2176 2277
683 2180 2437
677 2175 2580
671 2170 2722
657 2158 2848
641 2142 2966
624 2126 3085
615 2256 477
632 2274 656
649 2292 835
664 2311 1018
677 2330 1211
691 2349 1405
701 2366 1596
710 2381 1786
719 2396 1976
722 2402 2145
725 2407 2315
724 2408 2476
717 2399 2617
710 2390 2758
694 2371 2881
673 2348 2995
653 2325 3110
673 2520 540
684 2533 712
695 2546 884
707 2560 1063
719 2576 1254
731 2592 1445
741 2606 1635
751 2619 1825
760 2632 2014
764 2635 2184
767 2638 2354
766 2635 2514
758 2622 2653
750 2609 2793
731 2585 2913
706 2555 3024
681 2525 3135
801 2746 645
808 2755 800
816 2765 955
824 2776 1118
835 2788 1297
846 2801 1476
855 2812 1659
864 2823 1843
873 2833 2026
876 2835 2195
879 2836 2364
878 2833 2524
869 2819 2665
860 2806 2806
839 2781 2927
813 2749 3037
787 2718 3148
930 2972 750
933 2978 888
936 2984 1026
941 2991 1174
951 3001 1341
960 3010 1508
969 3019 1683
978 3026 1860
987 3034 2038
989 3034 2207
991 3034 2375
989 3030 2535
980 3016 2677
970 3002 2820
948 2976 2941
920 2944 3051
892 2912 3161
1079 3179 870
1078 3181 989
1076 3184 1108
1078 3189 1238
1085 3195 1391
1093 3201 1543
1100 3207 1707
1108 3212 1876
1115 3218 2046
1117 3216 2211
1119 3215 2377
1116 3209 2536
1106 3196 2680
1096 3182 2824
1074 3157 2946
1045 3126 3058
1017 3095 3169
1270 3347 1023
1263 3347 1119
1256 3348 1215
1253 3350 1322
1257 3354 1454
1261 3357 1585
1266 3360 1732
1271 3363 1887
1276 3365 2042
1276 3362 2203
1276 3359 2363
1273 3353 2519
1262 3341 2665
1252 3329 2811
1232 3308 2936
1207 3282 3051
1181 3256 3166
1461 3515 1176
1449 3513 1248
1436 3512 1321
1428 3511 1406
1428 3512 1517
1429 3513 1627
1431 3513 1758
1434 3513 1899
1437 3513 2039
1435 3508 2194
1434 3504 2349
1429 3498 2502
1419 3487 2650
1409 3476 2797
1390 3459 2926
1368 3438 3045
1345 3417 3164
1674 3640 1350
1652 3637 1401
1630 3633 1452
1614 3630 1516
1607 3629 1603
1601 3627 1691
1598 3625 1801
1596 3622 1924
1595 3618 2046
1590 3612 2190
1586 3606 2335
1579 3599 2480
1568 3589 2627
1557 3579 2773
1539 3565 2904
1518 3548 3027
1497 3532 3150
1897 3745 1534
1865 3739 1565
1832 3733 1596
1805 3728 1638
1790 3724 1702
1775 3720 1766
1765 3715 1854
1758 3709 1955
1751 3703 2056
1743 3695 2188
1735 3687 2320
1726 3679 2456
1713 3669 2600
1700 3659 2743
1683 3648 2876
1663 3636 3003
1643 3624 3129
2121 3849 1718
2077 3841 1729
2033 3833 1740
1996 3825 1761
1973 3819 1801
1949 3813 1840
1933 3805 1907
1920 3797 1987
1907 3789 2067
1896 3779 2186
1885 3769 2305
1872 3759 2432
1858 3749 2573
1844 3740 2713
1826 3732 2848
1808 3724 2978
1789 3716 3109
963 420 235
1005 472 399
1047 525 563
1086 580 732
1119 637 909
1152 695 1086
1177 753 1270
1198 811 1456
1219 869 1642
1228 923 1825
1236 977 2008
1239 1027 2185
1233 1070 2349
1227 1113 2513
1211 1144 2656
1190 1170 2787
1168 1196 2919
930 670 247
974 717 417
1018 765 587
1056 813 761
1081 863 943
1107 913 1124
1125 963 1309
1139 1013 1496
1153 1063 1683
1157 1108 1863
1162 1154 2044
1162 1196 2218
1156 1231 2379
1150 1267 2540
1135 1292 2682
1116 1313 2814
1097 1335 2946
897 920 260
942 963 436
988 1005 611
1025 1047 791
1044 1089 976
1063 1131 1162
1073 1173 1348
1080 1215 1536
1086 1256 1724
1087 1293 1902
1087 1330 2080
1085 1364 2251
1079 1392 2409
1073 1420 2567
1059 1441 2708
1042 1457 2840
1025 1473 2973
869 1176 278
913 1213 459
957 1250 639
991 1286 823
1005 1322 1012
1019 1358 1202
1024 1393 1391
1026 1427 1579
1028 1462 1768
1026 1491 1944
1024 1521 2120
1020 1548 2289
1014 1569 2444
1007 1589 2598
995 1603 2738
979 1614 2869
963 1624 3000
851 1442 309
887 1474 492
923 1505 675
951 1537 861
963 1569 1054
975 1600 1247
981 1631 1438
983 1661 1629
985 1692 1819
984 1716 1994
983 1741 2168
979 1761 2335
973 1775 2486
966 1789 2637
952 1794 2773
935 1796 2901
918 1798 3029
833 1708 340
860 1734 525
888 1761 710
910 1787 899
921 1815 1096
932 1843 1292
937 1869 1486
940 1896 1678
943 1922 1870
942 1941 2043
941 1960 2217
938 1975 2381
931 1981 2529
925 1988 2676
910 1985 2808
891 1979 2933
873 1972 3057
846 1970 389
867 1991 572
887 2013 754
905 2035 941
914 2059 1137
924 2083 1333
930 2107 1527
935 2130 1719
939 2153 1912
939 2168 2084
939 2183 2257
937 2193 2421
930 2194 2566
922 2195 2711
905 2186 2840
884 2171 2960
863 2157 3081
875 2229 449
889 2246 625
903 2263 802
916 2281 984
926 2302 1178
935 2323 1372
942 2343 1565
948 2363 1757
954 2383 1949
956 2395 2121
957 2407 2294
955 2413 2456
947 2410 2600
939 2406 2743
920 2390 2869
895 2369 2986
870 2347 3102
905 2488 508
912 2500 679
919 2513 849
927 2528 1027
937 2545 1219
946 2563 1411
954 2580 1603
962 2597 1794
970 2614 1986
972 2623 2158
975 2631 2330
974 2634 2492
965 2626 2634
956 2617 2776
934 2595 2898
906 2567 3011
877 2538 3124
1000 2713 610
1004 2723 765
1007 2733 921
1013 2745 1085
1021 2759 1265
1030 2773 1446
1038 2787 1629
1046 2801 1815
1054 2815 2000
1057 2821 2171
1060 2827 2342
1058 2828 2503
1049 2819 2646
1040 2809 2788
1017 2786 2911
987 2756 3023
957 2726 3135
1096 2939 711
1095 2946 852
1095 2953 992
1098 2962 1142
1106 2973 1311
1113 2984 1480
1122 2995 1656
1130 3006 1835
1138 3017 2014
1141 3020 2184
1144 3024 2353
1143 3023 2514
1133 3012 2657
1123 3001 2801
1099 2976 2923
1068 2945 3035
1037 2913 3147
1213 3147 829
1209 3151 952
1205 3156 1076
1205 3161 1210
1211 3170 1364
1217 3178 1519
1224 3186 1684
1232 3193 1854
1240 3201 2025
1243 3203 2191
1245 3204 2357
1244 3201 2516
1234 3189 2660
1224 3178 2805
1199 3153 2928
1168 3123 3041
1137 3092 3153
1376 3319 980
1367 3321 1082
1359 3324 1184
1354 3328 1297
1358 3333 1432
1361 3338 1566
1366 3343 1715
1372 3348 1871
1378 3352 2026
1379 3352 2186
1380 3351 2346
1377 3347 2501
1367 3336 2647
1357 3325 2792
1336 3304 2918
1308 3278 3034
1280 3252 3150
1539 3491 1130
1526 3491 1211
1513 3492 1293
1504 3494 1385
1504 3496 1499
1505 3499 1613
1507 3501 1745
1511 3502 1887
1515 3504 2028
1515 3501 2182
1514 3498 2335
1511 3492 2487
1501 3482 2633
1491 3472 2779
1472 3455 2908
1447 3433 3028
1423 3412 3147
1733 3622 1307
1713 3621 1368
1692 3619 1429
1676 3619 1501
1670 3619 1592
1664 3619 1684
1661 3618 1796
1660 3616 1918
1659 3614 2040
1656 3609 2182
1653 3604 2324
1647 3597 2467
1636 3588 2611
1626 3578 2755
1607 3563 2885
1585 3547 3008
1564 3530 3131
1944 3732 1496
1914 3729 1538
1884 3726 1580
1860 3723 1630
1845 3721 1698
1831 3719 1766
1821 3715 1856
1814 3710 1956
1807 3705 2057
1800 3698 2185
1793 3690 2313
1784 3682 2446
1772 3672 2586
1760 3662 2726
1743 3651 2857
1723 3639 2983
1704 3627 3109
2154 3843 1685
2115 3838 1708
2077 3833 1730
2043 3828 1760
2020 3823 1805
1998 3818 1849
1981 3811 1916
1968 3804 1995
1955 3796 2073
1944 3786 2188
1934 3776 2302
1922 3767 2424
1908 3757 2560
1895 3747 2696
1879 3739 2828
1861 3731 2957
1844 3723 3087
1363 474 278
1391 517 435
1419 561 592
1445 607 753
1468 661 923
1492 714 1094
1511 771 1272
1528 830 1454
1545 889 1636
1552 946 1820
1559 1003 2003
1561 1056 2182
1554 1102 2351
1546 1149 2520
1528 1183 2669
1503 1212 2809
1479 1241 2950
1312 706 275
1346 746 439
1379 785 603
1407 827 771
1424 875 948
1441 922 1125
1453 973 1307
1463 1025 1492
1472 1078 1676
1475 1128 1857
1478 1179 2039
1478 1226 2215
1471 1266 2380
1464 1306 2545
1447 1335 2692
1424 1359 2830
