Assets/1__3DArt/KimSe/artstation_asset/LUTs_pasterls/3DL/Orange Cream 01.3dl
# Enhanced with VOXCOLOR algorithms
0 64 128 192 256 320 384 448 512 576 640 704 768 832 896 960 1023
32 48 209
55 82 310
78 116 411
108 160 541
151 223 727
194 286 913
246 376 1130
302 481 1362
359 585 1594
422 733 1820
486 882 2047
551 1039 2257
618 1216 2436
685 1392 2614
755 1562 2748
827 1728 2859
899 1895 2971
31 159 245
52 205 349
73 250 453
101 308 587
145 390 780
188 471 974
244 580 1198
307 704 1438
369 827 1677
445 985 1908
520 1143 2138
599 1307 2351
683 1481 2528
767 1656 2704
857 1820 2835
949 1979 2943
1042 2138 3052
30 271 282
49 327 389
67 384 495
95 456 633
139 556 834
182 657 1034
243 785 1266
311 926 1513
379 1068 1761
467 1237 1995
554 1405 2230
646 1575 2444
747 1747 2620
849 1920 2795
958 2078 2923
1071 2229 3028
1184 2380 3132
35 431 339
54 497 447
73 564 555
101 647 696
149 763 902
196 879 1107
264 1021 1345
341 1176 1598
419 1332 1851
520 1505 2087
621 1678 2323
728 1849 2538
845 2015 2710
963 2180 2882
1088 2329 3006
1218 2468 3106
1347 2608 3205
56 689 438
78 762 545
100 835 651
134 925 791
192 1049 999
249 1174 1206
330 1322 1445
423 1481 1699
516 1639 1953
635 1806 2187
754 1973 2420
878 2135 2631
1010 2285 2797
1142 2436 2962
1278 2566 3079
1415 2686 3172
1552 2805 3264
76 947 538
101 1026 642
127 1105 747
167 1203 887
234 1336 1096
302 1470 1305
397 1622 1545
505 1785 1800
614 1947 2055
751 2108 2286
888 2269 2517
1028 2421 2724
1175 2556 2884
1322 2691 3043
1467 2803 3153
1612 2903 3238
1757 3003 3323
134 1256 640
167 1335 743
199 1414 846
248 1511 983
328 1642 1192
408 1774 1400
517 1921 1638
640 2076 1891
764 2231 2143
914 2378 2370
1063 2526 2596
1215 2663 2798
1369 2780 2951
1523 2898 3105
1671 2991 3208
1816 3073 3287
1961 3155 3366
211 1590 745
253 1666 845
294 1741 945
353 1833 1080
447 1958 1286
540 2082 1492
664 2218 1727
802 2361 1976
940 2503 2225
1100 2633 2445
1261 2763 2666
1420 2883 2862
1578 2981 3010
1736 3080 3157
1883 3155 3255
2024 3219 3328
2165 3283 3402
289 1924 850
339 1996 947
389 2069 1044
458 2156 1177
565 2273 1381
673 2390 1585
810 2516 1816
963 2645 2061
1116 2775 2306
1287 2888 2521
1458 3001 2736
1626 3103 2927
1788 3182 3068
1949 3262 3209
2094 3319 3301
2231 3365 3369
2368 3412 3437
443 2230 911
502 2294 1009
561 2358 1108
640 2434 1242
757 2535 1444
875 2637 1646
1019 2745 1874
1176 2855 2115
1334 2966 2355
1504 3060 2565
1673 3154 2775
1838 3238 2961
1992 3302 3098
2147 3366 3235
2282 3411 3324
2408 3446 3390
2534 3482 3455
598 2537 972
666 2592 1072
734 2646 1172
822 2712 1306
949 2798 1507
1076 2884 1708
1227 2974 1932
1390 3065 2169
1552 3156 2405
1721 3231 2610
1889 3306 2814
2050 3373 2995
2197 3421 3128
2344 3470 3261
2470 3503 3347
2585 3527 3411
2701 3552 3474
774 2808 1014
849 2855 1117
925 2902 1221
1020 2957 1357
1154 3028 1558
1287 3099 1759
1441 3172 1981
1604 3245 2214
1768 3318 2446
1932 3376 2646
2095 3434 2846
2250 3485 3023
2387 3520 3152
2525 3555 3282
2641 3578 3366
2745 3594 3427
2849 3610 3489
991 3011 1019
1071 3051 1129
1151 3090 1240
1249 3135 1382
1383 3193 1585
1516 3250 1788
1665 3308 2010
1822 3366 2241
1979 3423 2471
2131 3468 2668
2282 3513 2864
2425 3551 3038
2549 3578 3165
2674 3604 3293
2777 3621 3376
2869 3632 3437
2960 3643 3498
1207 3214 1023
1292 3246 1141
1377 3278 1259
1479 3314 1406
1612 3358 1612
1746 3402 1818
1890 3444 2039
2040 3486 2268
2190 3528 2496
2330 3560 2689
2469 3591 2882
2600 3618 3052
2711 3636 3178
2823 3653 3303
2913 3664 3385
2993 3670 3446
3072 3677 3506
1425 3344 1013
1510 3371 1140
1595 3398 1266
1695 3428 1420
1822 3462 1630
1949 3497 1839
2084 3529 2060
2222 3561 2287
2360 3593 2514
2486 3616 2704
2612 3638 2894
2729 3658 3062
2828 3670 3186
2927 3682 3310
3006 3689 3391
3074 3693 3451
3143 3697 3511
1644 3439 997
1727 3462 1132
1809 3485 1268
1904 3510 1429
2022 3537 1643
2140 3564 1856
2262 3589 2078
2386 3613 2303
2510 3637 2528
2621 3653 2715
2732 3670 2902
2835 3684 3068
2922 3693 3191
3008 3702 3314
3076 3706 3395
3135 3709 3454
3193 3711 3514
1863 3533 980
1943 3552 1125
2023 3572 1269
2113 3591 1439
2222 3611 1656
2331 3631 1873
2441 3649 2095
2550 3665 2319
2660 3681 2542
2756 3691 2727
2852 3702 2911
2941 3711 3075
3015 3716 3196
3090 3721 3318
3147 3723 3398
3195 3724 3458
3244 3726 3517
308 172 241
338 201 335
367 231 430
404 271 553
455 331 733
506 391 913
566 481 1126
630 586 1356
694 691 1587
762 842 1817
831 994 2047
899 1155 2263
967 1337 2447
1035 1518 2632
1105 1694 2772
1176 1868 2889
1247 2042 3007
300 275 273
337 319 370
374 363 468
415 418 595
464 496 783
513 574 971
572 680 1192
635 801 1431
698 922 1670
772 1081 1904
846 1240 2137
923 1404 2354
1004 1581 2535
1085 1758 2717
1171 1925 2853
1258 2088 2965
1346 2251 3077
291 378 306
336 436 405
381 494 505
426 564 637
473 660 833
520 756 1029
577 880 1259
639 1017 1506
701 1154 1753
781 1320 1990
862 1486 2227
947 1654 2445
1041 1826 2623
1135 1998 2802
1237 2157 2933
1341 2309 3040
1446 2460 3148
288 529 358
338 598 459
388 667 560
437 750 694
485 861 896
534 972 1099
594 1108 1335
661 1257 1588
727 1406 1841
817 1574 2080
906 1743 2318
1002 1910 2535
1109 2074 2710
1217 2237 2884
1332 2384 3010
1450 2522 3111
1568 2660 3213
296 774 448
345 849 548
394 924 648
446 1013 783
504 1133 988
562 1253 1193
635 1394 1431
717 1546 1685
798 1698 1940
904 1860 2176
1009 2022 2412
1120 2179 2625
1241 2327 2793
1362 2475 2961
1486 2603 3080
1611 2722 3174
1736 2840 3267
303 1019 537
352 1100 637
401 1181 737
455 1277 873
522 1405 1080
590 1534 1287
676 1680 1527
772 1835 1783
869 1991 2039
991 2146 2272
1113 2301 2505
1239 2449 2715
1373 2581 2877
1507 2713 3038
1640 2823 3150
1772 2921 3236
1904 3020 3322
345 1314 632
395 1394 731
445 1474 829
505 1570 964
584 1697 1171
663 1824 1378
764 1965 1616
875 2113 1870
987 2262 2124
1122 2404 2353
1257 2546 2582
1395 2679 2787
1536 2794 2942
1677 2909 3098
1813 3001 3203
1945 3081 3283
2077 3161 3363
403 1633 729
456 1709 826
509 1786 923
575 1877 1056
667 1997 1262
759 2118 1467
874 2249 1702
1001 2386 1953
1129 2523 2204
1276 2649 2427
1423 2775 2651
1569 2891 2850
1715 2987 3000
1861 3083 3149
1996 3157 3249
2125 3220 3323
2254 3283 3398
461 1953 825
517 2025 921
573 2097 1017
645 2184 1148
750 2298 1352
855 2412 1556
985 2533 1789
1128 2659 2036
1270 2784 2283
1429 2893 2501
1588 3003 2720
1744 3102 2913
1894 3180 3057
2045 3257 3200
2178 3314 3294
2304 3359 3363
2430 3405 3432
592 2248 884
654 2312 982
716 2376 1079
795 2451 1211
909 2551 1414
1023 2650 1617
1160 2755 1847
1309 2862 2090
1459 2969 2333
1618 3061 2546
1777 3153 2759
1932 3235 2948
2076 3297 3087
2221 3360 3227
2347 3404 3318
2464 3440 3384
2580 3475 3451
723 2544 943
791 2599 1042
859 2654 1141
945 2719 1274
1068 2804 1476
1191 2889 1678
1336 2976 1905
1491 3066 2144
1647 3155 2383
1806 3229 2591
1966 3302 2799
2119 3367 2983
2258 3415 3118
2398 3463 3253
2516 3495 3341
2623 3520 3406
2730 3544 3470
876 2808 985
949 2855 1088
1021 2901 1190
1113 2956 1325
1242 3027 1527
1372 3097 1729
1520 3169 1954
1678 3241 2189
1836 3314 2425
1993 3371 2628
2149 3428 2832
2298 3478 3011
2429 3513 3143
2561 3548 3275
2670 3570 3360
2768 3586 3423
2866 3602 3485
1070 3008 993
1147 3048 1102
1224 3087 1211
1319 3132 1352
1448 3189 1556
1578 3247 1760
1723 3304 1984
1875 3361 2218
2028 3418 2451
2174 3463 2651
2321 3507 2851
2459 3545 3027
2579 3572 3156
2699 3598 3286
2797 3614 3370
2884 3626 3432
2971 3637 3494
1265 3209 1000
1346 3240 1116
1427 3272 1232
1524 3308 1379
1655 3352 1585
1785 3396 1792
1926 3439 2015
2073 3481 2246
2219 3523 2477
2356 3555 2673
2492 3586 2869
2619 3613 3043
2728 3631 3170
2837 3648 3297
2924 3658 3381
3000 3665 3442
3077 3672 3503
1468 3340 993
1550 3367 1118
1631 3393 1242
1727 3423 1395
1852 3457 1605
1976 3492 1815
2109 3525 2038
2245 3557 2267
2380 3589 2496
2504 3612 2689
2628 3634 2882
2742 3654 3052
2839 3666 3178
2936 3678 3304
3013 3685 3386
3080 3689 3447
3147 3693 3508
1676 3437 979
1756 3460 1113
1836 3483 1247
1928 3507 1407
2045 3534 1620
2161 3561 1834
2281 3587 2057
2404 3610 2284
2526 3634 2512
2636 3651 2702
2745 3668 2891
2846 3681 3059
2931 3690 3183
3016 3698 3308
3083 3703 3390
3141 3705 3450
3199 3708 3511
1884 3534 964
1962 3553 1108
2041 3572 1251
2130 3591 1419
2238 3611 1636
2345 3631 1853
2454 3648 2076
2563 3664 2301
2672 3680 2527
2767 3690 2714
2862 3701 2901
2950 3709 3066
3023 3714 3189
3096 3718 3312
3153 3721 3393
3202 3722 3454
3251 3723 3514
585 295 272
620 321 361
656 346 449
700 382 565
759 439 739
819 497 912
886 586 1122
958 691 1351
1029 796 1580
1103 951 1814
1176 1106 2048
1248 1271 2268
1317 1457 2459
1386 1644 2650
1455 1827 2796
1524 2008 2919
1594 2189 3043
569 391 301
622 433 391
675 475 482
729 527 603
784 602 785
838 676 968
899 780 1187
963 899 1425
1026 1018 1662
1099 1177 1899
1172 1336 2136
1247 1502 2356
1326 1681 2543
1404 1860 2730
1485 2031 2870
1568 2198 2986
1651 2365 3103
553 486 330
624 545 422
694 603 515
758 673 640
808 764 832
858 856 1023
912 975 1251
967 1107 1498
1023 1240 1745
1096 1403 1985
1169 1567 2224
1247 1733 2445
1334 1905 2627
1422 2077 2809
1515 2236 2943
1611 2388 3053
1707 2541 3163
541 627 376
621 698 470
702 770 564
772 852 693
822 959 891
872 1065 1090
925 1195 1325
981 1337 1578
1036 1480 1832
1114 1644 2072
1191 1808 2313
1276 1971 2533
1373 2133 2710
1471 2294 2887
1575 2439 3014
1682 2576 3117
1789 2712 3220
536 860 457
612 936 551
688 1013 645
758 1102 776
816 1217 977
875 1331 1179
940 1466 1417
1010 1612 1672
1080 1757 1927
1172 1914 2165
1264 2071 2403
1363 2224 2619
1472 2369 2790
1581 2515 2960
1693 2641 3080
1806 2758 3175
1919 2874 3270
531 1092 537
602 1174 632
674 1256 727
744 1352 859
811 1475 1064
877 1598 1269
956 1738 1508
1040 1886 1765
1123 2034 2022
1231 2184 2258
1338 2334 2493
1450 2477 2705
1571 2606 2869
1692 2735 3034
1812 2843 3146
1931 2940 3234
2050 3036 3321
556 1372 623
623 1453 718
691 1534 813
762 1629 945
840 1751 1150
918 1873 1356
1010 2009 1594
1110 2151 1850
1210 2293 2105
1331 2430 2337
1451 2567 2568
1575 2696 2776
1703 2808 2933
1832 2920 3091
1954 3010 3198
2074 3088 3279
2193 3167 3360
595 1677 712
660 1753 807
724 1830 901
797 1920 1032
887 2037 1237
977 2153 1442
1085 2280 1678
1201 2411 1930
1318 2543 2183
1451 2664 2409
1585 2786 2636
1718 2898 2838
1852 2992 2989
1986 3086 3141
2108 3159 3242
2226 3221 3318
2343 3283 3394
634 1981 801
696 2054 895
757 2126 989
833 2211 1120
935 2322 1324
1037 2433 1527
1159 2551 1762
1292 2672 2011
1425 2793 2261
1572 2899 2482
1718 3005 2703
1862 3101 2900
2001 3177 3046
2140 3253 3191
2263 3308 3287
2377 3353 3357
2492 3399 3428
741 2266 858
806 2330 954
870 2394 1050
950 2469 1181
1060 2566 1385
1171 2663 1588
1302 2765 1819
1442 2869 2065
1583 2973 2311
1732 3062 2527
1881 3151 2743
2025 3231 2935
2160 3293 3077
2295 3354 3219
2412 3398 3311
2519 3433 3379
2626 3468 3447
849 2552 915
916 2607 1013
983 2662 1110
1067 2726 1243
1186 2810 1446
1305 2893 1648
1444 2979 1877
1592 3067 2119
1741 3154 2361
1892 3226 2572
2044 3298 2784
2188 3362 2970
2320 3409 3108
2451 3456 3246
2561 3488 3335
2661 3512 3400
2760 3537 3466
978 2808 956
1048 2854 1058
1118 2901 1159
1206 2956 1294
1331 3026 1497
1456 3096 1700
1599 3167 1926
1751 3238 2165
1903 3309 2404
2054 3366 2610
2204 3422 2817
2346 3471 3000
2471 3506 3134
2597 3541 3268
2700 3563 3355
2791 3579 3418
2883 3595 3482
1150 3005 967
1224 3045 1075
1297 3084 1182
1388 3129 1322
1514 3186 1527
1640 3243 1732
1780 3300 1958
1928 3357 2195
2076 3414 2431
2218 3458 2634
2360 3502 2837
2493 3540 3016
2608 3566 3148
2724 3592 3279
2817 3608 3365
2900 3619 3428
2982 3631 3491
1323 3203 978
1400 3235 1092
1477 3266 1206
1570 3302 1351
1697 3346 1558
1824 3390 1765
1961 3433 1990
2105 3476 2224
2249 3518 2458
2382 3550 2658
2515 3581 2857
2639 3608 3033
2745 3625 3162
2850 3643 3291
2934 3653 3376
3008 3660 3438
3082 3666 3500
1511 3336 973
1589 3362 1096
1667 3388 1218
1760 3417 1370
1882 3452 1580
2004 3487 1790
2133 3520 2015
2267 3552 2247
2401 3585 2479
2522 3607 2674
2643 3630 2870
2756 3650 3043
2850 3662 3170
2945 3674 3298
3020 3681 3382
3085 3685 3443
3150 3689 3505
1708 3435 961
1786 3458 1093
1863 3480 1225
1953 3504 1385
2067 3532 1598
2182 3559 1811
2300 3584 2036
2421 3608 2266
2542 3632 2495
2650 3648 2688
2758 3665 2880
2857 3679 3050
2940 3687 3176
3024 3695 3302
3089 3699 3385
3147 3702 3447
3204 3704 3508
1904 3535 949
1982 3554 1091
2059 3572 1232
2146 3591 1399
2253 3611 1616
2360 3631 1832
2468 3648 2057
2576 3664 2284
2684 3680 2512
2778 3689 2701
2872 3699 2890
2958 3707 3057
3030 3712 3181
3102 3716 3305
3159 3718 3388
3208 3719 3450
3257 3720 3511
917 422 294
956 444 376
995 467 458
1042 500 569
1104 555 737
1167 611 905
1237 700 1113
1311 805 1342
1385 911 1570
1459 1068 1809
1532 1224 2047
1603 1392 2272
1669 1580 2469
1736 1769 2667
1801 1954 2818
1865 2138 2947
1930 2322 3075
895 511 319
957 551 403
1020 591 487
1080 642 603
1136 714 781
1193 786 959
1253 888 1176
1314 1005 1414
1376 1122 1652
1444 1280 1892
1513 1439 2133
1583 1605 2358
1656 1784 2550
1728 1963 2742
1802 2135 2886
1877 2303 3006
