Assets/1__3DArt/KimSe/artstation_asset/LUTs_pasterls/3DL/Orange Cream 01 S.3dl
# Enhanced with VOXCOLOR algorithms
0 64 128 192 256 320 384 448 512 576 640 704 768 832 896 960 1023
32 48 209
55 82 310
78 116 411
108 160 541
151 223 727
194 286 913
246 376 1130
302 481 1362
359 585 1594
422 733 1820
486 882 2047
551 1039 2257
618 1216 2436
685 1392 2614
755 1562 2748
827 1728 2859
899 1895 2971
31 159 245
52 205 349
73 250 453
101 308 587
145 390 780
188 471 974
244 580 1198
307 704 1438
369 827 1677
444 985 1908
520 1143 2138
598 1307 2351
683 1481 2528
767 1656 2704
856 1820 2835
949 1979 2943
1042 2138 3052
30 271 282
49 327 389
67 384 495
95 456 633
139 556 834
182 657 1034
243 785 1266
311 926 1513
379 1068 1761
467 1237 1995
554 1405 2230
646 1575 2444
747 1747 2620
848 1919 2795
958 2078 2923
1071 2229 3027
1184 2380 3132
35 431 339
54 497 447
73 564 555
101 647 696
149 763 902
196 879 1107
264 1021 1345
341 1176 1598
418 1332 1851
520 1505 2087
621 1678 2323
728 1848 2538
845 2014 2710
963 2180 2882
1088 2329 3006
1218 2468 3106
1347 2608 3205
55 689 438
78 762 545
100 835 651
134 925 791
191 1049 999
249 1174 1206
330 1322 1445
423 1480 1699
516 1639 1953
635 1806 2186
754 1973 2420
877 2134 2631
1009 2285 2797
1142 2436 2962
1277 2566 3079
1415 2686 3172
1552 2805 3264
75 947 537
101 1026 642
127 1105 747
167 1203 887
234 1336 1096
301 1470 1305
396 1622 1545
505 1784 1800
613 1947 2055
750 2107 2286
886 2268 2517
1027 2420 2724
1174 2556 2883
1321 2691 3043
1467 2803 3153
1612 2903 3238
1757 3003 3323
133 1256 640
166 1335 742
199 1414 845
247 1510 983
327 1642 1191
407 1774 1400
516 1921 1638
639 2076 1890
762 2230 2143
912 2378 2369
1061 2525 2595
1213 2662 2797
1367 2780 2951
1522 2897 3104
1670 2991 3208
1816 3073 3287
1961 3155 3366
210 1590 744
251 1666 844
293 1741 944
352 1833 1080
445 1957 1286
539 2082 1492
662 2218 1726
800 2360 1975
937 2502 2224
1097 2632 2445
1257 2762 2665
1417 2882 2862
1575 2980 3009
1734 3079 3156
1881 3155 3254
2023 3219 3328
2165 3283 3402
286 1924 848
336 1996 946
387 2069 1043
456 2156 1176
563 2273 1380
671 2390 1584
808 2515 1815
960 2645 2060
1112 2774 2305
1283 2887 2520
1454 3000 2735
1621 3102 2926
1784 3181 3067
1946 3261 3208
2092 3318 3300
2230 3365 3369
2368 3412 3437
439 2230 907
498 2294 1007
558 2357 1106
637 2434 1240
754 2535 1442
871 2637 1645
1015 2744 1873
1171 2854 2113
1328 2964 2354
1497 3058 2564
1666 3152 2774
1831 3236 2959
1986 3301 3097
2141 3365 3234
2278 3410 3323
2406 3446 3389
2534 3482 3455
591 2537 966
660 2592 1068
729 2646 1169
817 2712 1303
944 2798 1505
1071 2884 1706
1221 2973 1930
1383 3064 2167
1544 3155 2403
1712 3230 2608
1879 3305 2812
2040 3371 2993
2188 3420 3126
2336 3469 3260
2464 3502 3346
2583 3527 3410
2701 3552 3474
764 2808 1007
841 2855 1112
918 2902 1217
1014 2956 1354
1147 3028 1555
1280 3099 1756
1433 3171 1978
1596 3244 2211
1758 3317 2444
1921 3375 2644
2083 3433 2844
2238 3483 3020
2377 3519 3150
2516 3554 3280
2634 3577 3365
2741 3594 3427
2849 3610 3489
979 3011 1010
1061 3050 1122
1143 3090 1235
1242 3135 1378
1375 3193 1582
1508 3250 1785
1656 3307 2007
1812 3365 2238
1967 3422 2468
2118 3467 2665
2268 3511 2861
2411 3550 3035
2537 3577 3163
2663 3604 3291
2769 3620 3375
2864 3632 3436
2960 3643 3498
1193 3214 1013
1280 3246 1133
1367 3278 1253
1469 3314 1401
1603 3358 1608
1736 3401 1815
1879 3444 2036
2028 3486 2264
2176 3528 2492
2315 3559 2685
2453 3590 2879
2584 3617 3049
2697 3635 3175
2810 3653 3302
2904 3663 3384
2988 3670 3445
3072 3677 3506
1414 3344 1005
1501 3371 1133
1587 3398 1261
1687 3428 1417
1814 3462 1627
1942 3497 1837
2075 3529 2058
2212 3561 2284
2349 3592 2511
2474 3615 2701
2600 3638 2891
2716 3657 3059
2816 3670 3184
2917 3682 3308
2998 3689 3390
3071 3693 3451
3143 3697 3511
1639 3439 992
1722 3462 1129
1805 3485 1265
1900 3510 1428
2018 3537 1641
2136 3564 1855
2258 3589 2076
2381 3613 2301
2505 3636 2527
2615 3653 2714
2726 3670 2901
2829 3684 3067
2916 3693 3190
3003 3701 3313
3073 3706 3394
3133 3709 3454
3193 3711 3514
1863 3533 980
1943 3552 1125
2023 3572 1269
2113 3591 1439
2222 3611 1656
2331 3631 1873
2441 3649 2095
2550 3665 2319
2660 3681 2542
2756 3691 2727
2852 3702 2911
2941 3711 3075
3015 3716 3196
3090 3721 3318
3147 3723 3398
3195 3724 3458
3244 3726 3517
308 172 241
336 200 336
365 229 431
400 268 555
451 328 735
502 388 915
562 478 1128
627 583 1358
691 688 1588
760 840 1818
829 992 2048
898 1154 2263
967 1336 2448
1035 1518 2632
1105 1694 2772
1176 1868 2889
1247 2042 3007
295 274 271
329 316 370
362 357 469
401 411 598
450 488 787
498 565 975
558 672 1197
622 793 1435
687 914 1674
763 1075 1906
840 1235 2139
918 1401 2355
1001 1579 2536
1084 1757 2717
1170 1925 2853
1258 2088 2965
1346 2251 3077
281 376 302
321 431 405
360 486 508
402 554 642
448 648 839
494 743 1036
553 866 1266
618 1003 1513
682 1141 1759
766 1309 1994
850 1477 2230
938 1647 2446
1035 1821 2624
1132 1995 2802
1235 2155 2933
1340 2308 3040
1446 2460 3148
274 526 351
317 591 457
360 657 563
405 736 701
453 845 905
500 954 1108
563 1089 1344
632 1239 1596
702 1388 1848
796 1559 2085
891 1730 2322
991 1900 2537
1102 2067 2711
1213 2234 2885
1329 2382 3010
1449 2521 3111
1568 2660 3213
279 771 440
322 841 545
365 912 651
412 998 790
469 1115 996
526 1232 1202
601 1372 1440
686 1525 1693
770 1677 1947
881 1842 2181
992 2007 2415
1108 2168 2627
1232 2319 2794
1357 2471 2962
1483 2601 3080
1609 2720 3174
1736 2840 3267
285 1016 528
327 1092 633
370 1168 738
420 1260 878
485 1385 1087
551 1510 1296
639 1655 1535
739 1811 1790
839 1966 2045
966 2125 2276
1093 2284 2508
1224 2435 2716
1363 2571 2877
1501 2708 3038
1636 2820 3149
1770 2920 3236
1904 3020 3322
326 1310 621
371 1385 725
415 1461 829
471 1552 968
548 1676 1177
626 1799 1385
728 1939 1623
842 2088 1876
957 2237 2129
1097 2383 2357
1237 2528 2584
1379 2665 2787
1525 2784 2942
1671 2903 3098
1809 2997 3203
1943 3079 3283
2077 3161 3363
384 1629 717
433 1701 819
482 1773 921
544 1859 1058
635 1976 1265
725 2093 1472
841 2224 1708
971 2361 1957
1100 2498 2207
1252 2628 2429
1403 2757 2652
1554 2877 2850
1704 2977 2999
1854 3077 3148
1991 3154 3248
2122 3218 3323
2254 3283 3398
443 1949 813
496 2017 913
548 2084 1014
617 2167 1149
721 2277 1354
824 2388 1559
955 2509 1792
1099 2634 2038
1243 2760 2285
1406 2873 2502
1569 2985 2719
1728 3088 2912
1883 3170 3055
2037 3251 3199
2174 3310 3293
2302 3358 3363
2430 3405 3432
575 2245 872
634 2305 973
694 2364 1075
771 2436 1210
883 2533 1414
996 2630 1618
1133 2733 1848
1283 2841 2091
1433 2948 2333
1596 3043 2545
1758 3137 2758
1915 3222 2946
2064 3289 3086
2212 3355 3225
2341 3401 3317
2460 3438 3384
2580 3475 3451
707 2541 931
773 2593 1033
839 2644 1136
924 2706 1271
1046 2789 1474
1168 2871 1677
1312 2958 1904
1468 3048 2143
1624 3137 2381
1785 3213 2589
1947 3289 2797
2102 3357 2980
2245 3408 3116
2387 3458 3252
2508 3493 3340
2619 3518 3405
2730 3544 3470
860 2806 972
932 2850 1078
1004 2894 1183
1095 2946 1321
1224 3015 1524
1352 3083 1727
1500 3155 1951
1657 3227 2187
1815 3299 2422
1973 3359 2625
2130 3418 2828
2281 3470 3008
2415 3507 3140
2550 3544 3273
2662 3568 3359
2763 3585 3422
2865 3602 3486
1055 3007 980
1132 3044 1092
1209 3081 1204
1303 3125 1347
1432 3181 1552
1561 3237 1757
1705 3293 1981
1856 3351 2214
2008 3408 2447
2155 3454 2647
2302 3500 2847
2441 3539 3024
2564 3567 3154
2686 3595 3284
2788 3613 3369
2879 3625 3432
2970 3637 3495
1250 3208 988
1332 3238 1106
1413 3269 1225
1511 3303 1373
1640 3347 1580
1770 3390 1788
1910 3432 2011
2055 3475 2242
2201 3517 2473
2337 3549 2669
2474 3581 2865
2602 3609 3039
2712 3628 3167
2823 3646 3295
2914 3657 3380
2995 3664 3442
3075 3672 3504
1457 3340 984
1539 3366 1110
1622 3391 1237
1718 3420 1391
1842 3454 1601
1966 3488 1812
2097 3521 2034
2232 3553 2264
2367 3585 2493
2490 3608 2686
2614 3632 2879
2729 3651 3050
2827 3664 3176
2925 3677 3302
3005 3684 3385
3075 3689 3447
3146 3693 3509
1670 3437 974
1751 3459 1109
1831 3482 1244
1924 3506 1405
2040 3533 1618
2156 3560 1832
2276 3585 2055
2398 3609 2283
2520 3633 2510
2629 3649 2700
2738 3666 2890
2839 3680 3058
2925 3689 3182
3011 3698 3307
3079 3702 3389
3139 3705 3450
3198 3708 3511
1884 3534 964
1962 3553 1108
2041 3572 1251
2130 3591 1419
2238 3611 1636
2345 3631 1853
2454 3648 2076
2563 3664 2301
2672 3680 2527
2767 3690 2714
2862 3701 2901
2950 3709 3066
3023 3714 3189
3096 3718 3312
3153 3721 3393
3202 3722 3454
3251 3723 3514
585 295 272
618 318 361
651 342 451
693 376 568
752 433 742
811 489 916
879 579 1126
951 685 1354
1024 791 1583
1098 947 1816
1173 1103 2050
1246 1269 2269
1316 1456 2460
1385 1643 2650
1455 1826 2796
1524 2008 2920
1594 2189 3043
559 388 297
605 426 391
652 464 486
701 514 610
755 586 793
808 659 977
871 763 1196
938 883 1433
1005 1002 1670
1082 1164 1905
1160 1326 2140
1238 1494 2359
1320 1676 2545
1401 1857 2730
1484 2030 2870
1567 2197 2986
1650 2365 3103
533 482 322
593 534 421
653 587 521
709 652 651
758 740 845
806 829 1039
863 947 1267
924 1080 1512
986 1213 1757
1066 1381 1993
1146 1549 2230
1231 1719 2449
1324 1895 2629
1416 2071 2810
1512 2233 2944
1610 2387 3053
1707 2541 3163
513 621 364
580 685 467
648 749 570
709 826 706
757 927 908
804 1029 1109
862 1158 1344
924 1301 1595
986 1444 1846
1073 1614 2083
1161 1783 2320
1254 1952 2537
1358 2119 2712
1463 2287 2888
1571 2435 3015
1680 2573 3117
1789 2712 3220
503 853 441
567 921 545
630 990 650
691 1072 788
747 1181 993
803 1289 1198
872 1423 1435
948 1569 1687
1025 1715 1940
1128 1878 2175
1230 2041 2410
1338 2201 2623
1455 2353 2792
1572 2506 2961
1688 2636 3080
1804 2755 3175
1919 2874 3270
494 1084 518
553 1157 624
612 1230 729
673 1318 870
737 1434 1078
801 1550 1287
883 1688 1526
973 1837 1780
1064 1986 2034
1182 2143 2267
1300 2300 2499
1422 2450 2708
1552 2587 2871
1682 2724 3034
1806 2837 3146
1928 2936 3233
2050 3036 3321
518 1364 602
575 1436 708
632 1508 813
695 1594 953
770 1709 1162
845 1824 1371
940 1958 1609
1046 2101 1862
1151 2243 2116
1282 2388 2344
1413 2532 2572
1546 2668 2777
1683 2788 2934
1820 2909 3091
1948 3003 3198
2071 3085 3279
2193 3167 3360
559 1669 690
615 1736 794
671 1804 898
737 1886 1037
824 1995 1245
911 2105 1453
1021 2230 1689
1142 2362 1940
1263 2494 2190
1406 2623 2414
1549 2751 2638
1691 2871 2838
1832 2973 2989
1974 3075 3141
2102 3153 3242
2222 3218 3318
2342 3283 3394
600 1973 779
655 2037 881
709 2100 984
779 2177 1121
878 2282 1328
977 2386 1535
1101 2502 1769
1238 2623 2017
1375 2745 2265
1529 2858 2484
1684 2971 2704
1835 3074 2898
1982 3158 3044
2128 3242 3190
2255 3302 3286
2373 3350 3357
2492 3399 3428
711 2259 837
770 2315 940
829 2371 1043
905 2439 1180
1013 2531 1386
1121 2622 1592
1252 2723 1823
1396 2828 2068
1539 2933 2312
1694 3027 2527
1849 3122 2742
2000 3208 2933
2141 3277 3075
2283 3345 3217
2404 3393 3310
2515 3430 3378
2625 3468 3447
822 2546 895
886 2594 999
949 2642 1102
1031 2701 1240
1148 2780 1444
1264 2859 1649
1403 2944 1878
1553 3032 2119
1703 3120 2360
1859 3197 2570
2015 3274 2781
2164 3343 2967
2301 3395 3105
2438 3448 3244
2552 3483 3334
2656 3510 3400
2759 3537 3466
955 2803 938
1023 2844 1044
1091 2885 1150
1177 2935 1288
1300 3002 1493
1424 3068 1697
1566 3138 1924
1719 3210 2162
1871 3282 2400
2025 3343 2607
2178 3403 2813
2323 3456 2996
2453 3495 3131
2583 3534 3265
2690 3559 3353
2786 3577 3418
2881 3595 3482
1131 3002 951
1203 3037 1062
1275 3072 1173
1365 3114 1316
1489 3169 1523
1614 3223 1729
1753 3280 1955
1901 3337 2191
2048 3394 2427
2192 3441 2630
2336 3488 2833
2471 3529 3012
2591 3558 3145
2710 3587 3277
2807 3605 3364
2894 3618 3428
2980 3631 3492
1307 3202 963
1383 3231 1080
1460 3259 1197
1553 3293 1344
1678 3336 1553
1804 3378 1761
1940 3421 1986
2083 3464 2220
2226 3506 2454
2360 3539 2653
2494 3573 2852
2619 3601 3029
2728 3621 3159
2836 3640 3289
2924 3652 3375
3001 3659 3438
3079 3666 3501
1500 3335 963
1578 3360 1087
1656 3384 1212
1748 3412 1365
1869 3446 1576
1990 3480 1787
2119 3513 2011
2252 3545 2243
2385 3578 2475
2506 3602 2671
2628 3625 2867
2741 3646 3040
2838 3659 3168
2934 3672 3296
3012 3680 3381
3080 3684 3443
3148 3689 3506
1702 3435 956
1780 3457 1089
1858 3478 1222
1947 3502 1382
2061 3529 1596
2175 3555 1809
2293 3580 2034
2414 3605 2264
2534 3629 2493
2642 3646 2686
2750 3662 2878
2850 3677 3049
2934 3685 3175
3018 3694 3301
3085 3699 3384
3144 3702 3446
3203 3704 3509
1904 3535 949
1982 3554 1091
2059 3572 1232
2146 3591 1399
2253 3611 1616
2360 3631 1832
2467 3648 2056
2576 3664 2284
2684 3680 2512
2778 3690 2701
2872 3699 2890
2958 3707 3057
3030 3712 3181
3102 3716 3305
3159 3718 3388
3208 3719 3450
3257 3720 3511
917 422 294
951 440 378
985 457 462
1028 487 574
1090 542 743
1152 596 912
1223 686 1120
1299 793 1348
1375 901 1576
1451 1060 1813
1527 1219 2050
1600 1388 2274
1667 1578 2471
1735 1768 2667
1800 1954 2819
1865 2138 2947
1930 2322 3075
877 506 312
929 539 403
980 572 494
1033 617 615
1087 685 795
1142 754 975
1205 856 1192
1272 975 1428
1339 1093 1664
1415 1257 1902
1491 1421 2140
1568 1591 2362
1645 1774 2552
1723 1958 2743
1800 2132 2886
1876 2301 3006
