Assets/1__3DArt/KimSe/artstation_asset/LUTs_pasterls/3DL/Orange Cream 02.3dl
# Enhanced with VOXCOLOR algorithms
0 128 256 384 512 640 768 896 1023
145 321 161
294 456 513
415 586 886
507 708 1272
567 822 1663
587 917 2026
589 996 2348
575 1055 2623
546 1092 2842
149 887 243
252 988 614
336 1077 991
399 1153 1371
442 1218 1749
456 1267 2098
458 1306 2414
450 1338 2693
437 1364 2932
182 1456 333
252 1529 714
310 1591 1099
355 1642 1482
387 1680 1856
398 1698 2196
398 1706 2501
390 1707 2774
377 1705 3016
271 2016 439
317 2064 816
358 2108 1201
393 2144 1586
419 2169 1962
428 2171 2296
424 2157 2594
410 2130 2857
386 2095 3088
444 2553 575
473 2579 921
502 2607 1289
530 2633 1667
553 2651 2042
561 2645 2377
553 2620 2672
528 2575 2928
486 2511 3146
772 3006 795
782 3016 1063
800 3029 1372
821 3043 1709
840 3053 2062
844 3046 2396
831 3021 2696
800 2976 2957
748 2911 3175
1179 3378 1078
1163 3374 1251
1163 3375 1479
1172 3378 1751
1182 3378 2058
1181 3369 2379
1165 3347 2681
1133 3312 2953
1083 3260 3183
1629 3662 1404
1577 3648 1482
1551 3639 1617
1541 3632 1808
1537 3623 2051
1526 3609 2344
1506 3591 2640
1475 3566 2921
1431 3534 3168
2088 3854 1750
1990 3832 1750
1925 3815 1796
1884 3799 1898
1858 3781 2060
1836 3761 2308
1808 3742 2585
1774 3724 2868
1734 3710 3131
963 420 235
1052 528 563
1126 642 909
1184 757 1269
1224 873 1641
1239 979 2008
1234 1071 2349
1211 1144 2656
1168 1196 2919
916 930 266
1028 1026 613
1091 1117 974
1117 1201 1343
1119 1279 1717
1107 1345 2076
1088 1400 2407
1062 1443 2708
1025 1473 2973
883 1457 320
981 1539 679
1031 1612 1052
1045 1676 1431
1034 1729 1811
1012 1765 2162
986 1787 2483
956 1798 2772
918 1798 3028
883 1987 403
950 2052 760
988 2110 1136
1000 2159 1521
992 2196 1904
972 2211 2251
945 2209 2562
910 2190 2838
863 2157 3081
938 2504 522
973 2550 857
999 2593 1221
1013 2629 1600
1016 2655 1981
1004 2658 2326
980 2639 2631
939 2600 2897
877 2538 3124
1122 2951 725
1133 2979 1001
1148 3006 1315
1162 3029 1656
1171 3046 2012
1166 3043 2350
1146 3022 2655
1104 2979 2921
1037 2913 3146
1397 3326 994
1384 3339 1194
1384 3352 1437
1391 3363 1716
1399 3369 2025
1396 3362 2344
1378 3342 2644
1341 3306 2916
1281 3252 3149
1746 3625 1318
1704 3625 1437
1682 3625 1596
1673 3625 1797
1670 3620 2039
1662 3608 2323
1643 3590 2609
1612 3564 2884
1564 3530 3131
2154 3843 1685
2077 3833 1730
2021 3823 1805
1981 3811 1916
1955 3796 2073
1934 3776 2302
1908 3757 2560
1879 3739 2828
1844 3723 3087
1747 539 335
1799 610 627
1839 698 942
1868 800 1278
1888 913 1636
1889 1026 2003
1875 1128 2354
1842 1212 2678
1788 1272 2965
1666 984 314
1760 1062 633
1801 1145 973
1803 1232 1330
1781 1321 1700
1752 1403 2062
1720 1474 2402
1682 1529 2714
1633 1565 2994
1589 1461 322
1681 1538 660
1717 1615 1021
1711 1688 1396
1677 1758 1777
1635 1815 2136
1595 1856 2466
1552 1880 2764
1501 1886 3030
1530 1953 366
1595 2024 711
1623 2091 1082
1619 2153 1468
1592 2207 1856
1553 2242 2213
1512 2258 2533
1465 2254 2818
1406 2229 3069
1505 2446 453
1536 2504 789
1553 2559 1155
1556 2608 1538
1544 2649 1926
1518 2668 2280
1483 2665 2593
1433 2638 2867
1361 2586 3101
1575 2887 627
1582 2929 922
1590 2969 1251
1596 3004 1603
1596 3032 1967
1583 3041 2310
1558 3031 2618
1512 2998 2887
1438 2939 3116
1729 3266 869
1716 3293 1107
1712 3318 1379
1715 3340 1679
1719 3356 1999
1715 3357 2318
1698 3344 2614
1661 3314 2882
1598 3264 3115
1965 3579 1177
1931 3592 1350
1912 3604 1551
1903 3613 1781
1901 3617 2037
1896 3610 2316
1882 3596 2592
1855 3573 2854
1811 3541 3093
2278 3819 1549
2223 3821 1654
2180 3822 1777
2148 3819 1923
2126 3811 2097
2110 3796 2317
2091 3779 2558
2070 3762 2805
2045 3747 3046
2456 675 454
2489 702 702
2509 759 981
2519 842 1293
2521 946 1638
2509 1064 2005
2483 1174 2361
2442 1265 2694
2384 1331 2994
2359 1052 383
2424 1103 670
2445 1171 986
2435 1252 1328
2405 1346 1691
2367 1443 2055
2328 1529 2400
2285 1597 2718
2232 1639 3005
2262 1472 342
2328 1537 659
2348 1609 1006
2332 1687 1373
2291 1770 1753
2242 1847 2117
2196 1908 2453
2148 1950 2757
2094 1966 3028
2174 1921 340
2221 1990 675
2237 2061 1041
2224 2133 1426
2188 2204 1819
2141 2261 2183
2094 2299 2511
2042 2315 2803
1980 2304 3058
2102 2386 383
2123 2449 722
2131 2513 1094
2125 2575 1485
2103 2632 1882
2068 2671 2245
2028 2690 2566
1975 2683 2846
1901 2647 3085
2093 2820 517
2092 2871 834
2092 2921 1184
2089 2969 1554
2081 3011 1932
2063 3036 2283
2035 3043 2595
1990 3026 2867
1918 2982 3099
2146 3203 723
2130 3240 1002
2123 3277 1311
2120 3311 1641
2118 3339 1982
2112 3352 2307
2096 3351 2604
2063 3333 2868
2007 3294 3097
2267 3527 1007
2241 3552 1234
2225 3576 1486
2216 3596 1757
2213 3611 2042
2211 3614 2328
2203 3608 2599
2184 3592 2850
2149 3565 3076
2463 3787 1371
2429 3801 1537
2400 3813 1718
2378 3821 1914
2364 3824 2125
2357 3818 2354
2349 3808 2587
2339 3794 2816
2326 3780 3035
3048 824 585
3078 807 784
3093 829 1023
3096 888 1307
3089 978 1636
3067 1096 2004
3034 1211 2368
2989 1310 2711
2935 1382 3020
2954 1135 473
2993 1156 724
3004 1201 1012
2993 1270 1333
2965 1361 1684
2928 1467 2049
2888 1566 2399
2844 1647 2724
2795 1700 3015
2862 1496 385
2898 1543 677
2906 1604 1006
2890 1680 1362
2854 1768 1737
2807 1861 2104
2761 1941 2445
2714 2002 2755
2664 2034 3028
2774 1898 331
2799 1959 654
2804 2028 1013
2788 2105 1397
2752 2186 1793
2704 2264 2164
2657 2325 2499
2607 2365 2796
2550 2375 3053
2691 2330 325
2699 2394 665
2698 2462 1042
2686 2533 1442
2658 2603 1850
2619 2664 2225
2577 2706 2555
2526 2725 2842
2461 2715 3083
2636 2755 413
2629 2811 747
2621 2868 1118
2611 2926 1510
2595 2982 1910
2572 3025 2275
2542 3052 2596
2501 3058 2873
2440 3039 3104
2615 3140 580
2598 3185 892
2587 3231 1237
2578 3276 1602
2571 3317 1975
2561 3345 2318
2546 3360 2623
2519 3358 2889
2476 3339 3112
2638 3475 833
2618 3509 1104
2603 3543 1406
2595 3575 1726
2592 3603 2054
2592 3619 2362
2588 3624 2642
2578 3619 2890
2557 3604 3104
2712 3750 1179
2694 3773 1392
2679 3797 1631
2668 3818 1888
2665 3835 2154
2668 3841 2414
2672 3841 2656
2674 3834 2879
2674 3822 3076
3423 950 699
3460 901 857
3481 894 1059
3490 928 1313
3486 1000 1623
3463 1113 1993
3430 1234 2366
3388 1344 2724
3343 1426 3048
3353 1219 570
3382 1212 786
3395 1234 1044
3393 1284 1342
3378 1362 1677
3348 1469 2040
3311 1576 2396
3271 1671 2732
3229 1739 3035
3292 1534 452
3311 1561 716
3317 1606 1023
3308 1669 1363
3285 1751 1728
3248 1849 2096
3208 1944 2443
3166 2023 2761
3122 2077 3043
3234 1892 361
3244 1941 663
3244 2001 1009
3231 2073 1387
3203 2155 1781
3163 2243 2158
3121 2323 2502
3076 2387 2808
3028 2426 3071
3178 2289 315
3176 2348 642
3169 2414 1017
3155 2486 1421
3129 2562 1839
3092 2637 2226
3052 2702 2570
3006 2749 2867
2955 2774 3113
3124 2700 371
3112 2755 701
3100 2815 1079
3086 2878 1488
3067 2943 1908
3041 3002 2294
3011 3050 2635
2975 3083 2925
2931 3099 3162
3077 3083 510
3060 3130 826
3046 3182 1189
3034 3234 1582
3022 3286 1986
3009 3330 2360
2993 3364 2690
2972 3386 2971
2945 3396 3202
3045 3426 739
3027 3463 1020
3014 3505 1347
3006 3547 1705
3002 3588 2077
3002 3618 2426
3000 3640 2736
2996 3652 3005
2990 3656 3227
3035 3715 1062
3022 3743 1287
3013 3775 1558
3010 3808 1860
3014 3840 2181
3025 3861 2492
3037 3874 2775
3048 3877 3023
3057 3872 3229
3667 1036 786
3709 965 911
3737 938 1084
3752 953 1314
3753 1008 1609
3734 1116 1978
3703 1240 2359
3666 1360 2730
3628 1455 3069
3625 1281 652
3651 1254 840
3669 1257 1072
3677 1290 1349
3673 1353 1670
3652 1457 2031
3621 1570 2392
3585 1677 2738
3548 1761 3055
3598 1564 519
3611 1574 758
3618 1604 1044
3618 1654 1369
3608 1727 1724
3582 1826 2091
3549 1929 2443
3511 2025 2771
3472 2100 3065
3577 1888 407
3579 1925 686
3578 1975 1018
3570 2040 1387
3553 2118 1778
3523 2212 2160
3488 2306 2512
3448 2391 2827
3407 2458 3100
3557 2255 339
3550 2306 646
3541 2368 1012
3528 2438 1416
3507 2517 1839
3476 2603 2238
3440 2686 2596
3400 2760 2905
3358 2820 3160
3524 2649 381
3510 2701 695
3497 2761 1070
3482 2827 1485
3464 2899 1919
3439 2972 2327
3410 3041 2688
3378 3102 2996
3345 3153 3244
3479 3028 511
3463 3076 813
3448 3130 1178
3435 3189 1585
3422 3251 2013
3407 3310 2417
3390 3364 2774
3373 3412 3079
3357 3453 3326
3428 3377 728
3412 3416 999
3400 3463 1333
3391 3514 1711
3386 3567 2114
3385 3613 2502
3383 3652 2849
3382 3685 3149
3384 3712 3393
3374 3680 1035
3363 3710 1251
3356 3748 1531
3355 3792 1859
3361 3838 2219
3375 3874 2579
3390 3901 2909
3405 3918 3198
3419 3922 3435
3803 1079 843
3847 996 944
3879 958 1096
3899 961 1311
3905 1003 1596
3890 1104 1965
3863 1230 2350
3830 1356 2729
3796 1459 3077
3784 1315 714
3812 1274 879
3835 1263 1093
3851 1284 1354
3857 1336 1664
3844 1434 2023
3819 1548 2388
3786 1662 2742
3751 1758 3069
3787 1580 578
3800 1577 795
3812 1593 1064
3820 1633 1376
3821 1697 1722
3805 1794 2090
3779 1903 2447
3746 2009 2784
3709 2101 3088
3802 1881 459
3803 1906 717
3805 1947 1033
3803 2003 1393
3796 2078 1781
3776 2175 2168
3748 2280 2528
3713 2381 2854
3675 2471 3137
3818 2222 384
3812 2266 670
3805 2322 1023
3795 2390 1422
3782 2471 1849
3758 2566 2260
3727 2665 2631
3691 2762 2953
3654 2852 3219
3817 2601 429
3806 2649 722
3795 2707 1086
3783 2776 1500
3769 2854 1944
3747 2941 2371
3720 3029 2752
3690 3117 3078
3661 3201 3337
3796 2973 567
3784 3020 846
3772 3076 1202
3761 3141 1612
3749 3214 2055
3734 3289 2485
3717 3363 2871
3699 3436 3200
3685 3508 3462
3758 3326 790
3746 3365 1037
3736 3416 1362
3729 3476 1746
3724 3541 2170
3720 3604 2592
3716 3663 2976
3713 3716 3308
3714 3765 3575
3704 3643 1095
3695 3671 1286
3689 3715 1558
3688 3768 1894
3692 3827 2279
3703 3880 2682
3715 3922 3059
3728 3952 3392
3739 3966 3663
3854 1076 867
3895 992 952
3926 951 1096
3947 949 1304
3955 985 1587
3944 1079 1955
3921 1201 2341
3890 1325 2720
3854 1429 3067
3847 1315 749
3876 1268 900
3903 1251 1102
3924 1264 1355
3935 1309 1660
3927 1402 2019
3905 1514 2386
3875 1628 2743
3839 1726 3073
3868 1575 619
3885 1562 822
3903 1571 1079
3917 1603 1382
3925 1662 1724
3916 1757 2094
3894 1867 2457
3863 1979 2800
3826 2078 3109
3906 1863 506
3913 1879 747
3920 1912 1051
3926 1964 1404
3927 2036 1790
3914 2137 2183
3891 2248 2553
3858 2361 2888
3819 2466 3179
3951 2188 438
3951 2224 705
3950 2276 1045
3947 2343 1439
3941 2426 1867
3924 2531 2289
3898 2644 2674
3864 2759 3009
3824 2870 3282
3984 2552 503
3981 2595 772
3977 2653 1122
3972 2726 1532
3963 2811 1980
3946 2913 2423
3922 3021 2823
3891 3131 3163
3855 3239 3429
4002 2916 664
3999 2961 917
3995 3020 1257
3989 3092 1663
3982 3175 2113
3969 3269 2565
3951 3366 2973
3928 3462 3321
3902 3555 3588
4007 3269 912
4004 3308 1129
4001 3362 1436
3997 3430 1816
3993 3509 2250
3987 3593 2698
3978 3672 3112
3966 3746 3469
3953 3811 3745
3999 3597 1237
3996 3623 1395
3994 3670 1647
3992 3732 1978
3993 3805 2374
3996 3876 2809
3997 3934 3224
3998 3976 3592
3999 3999 3886
