Assets/1__3DArt/KimSe/artstation_asset/LUTs_pasterls/3DL/Orange Cream 01 S.3dl
# Enhanced with VOXCOLOR algorithms
0 128 256 384 512 640 768 896 1023
32 48 209
78 116 411
151 223 727
246 376 1130
359 585 1594
486 882 2047
618 1216 2436
755 1562 2748
899 1895 2971
30 271 282
67 384 495
139 556 834
243 785 1266
379 1068 1761
554 1405 2230
747 1747 2620
958 2078 2923
1184 2380 3132
55 689 438
100 835 651
191 1049 999
330 1322 1445
516 1639 1953
754 1973 2420
1009 2285 2797
1277 2566 3079
1552 2805 3264
133 1256 640
199 1414 845
327 1642 1191
516 1921 1638
762 2230 2143
1061 2525 2595
1367 2780 2951
1670 2991 3208
1961 3155 3366
286 1924 848
387 2069 1043
563 2273 1380
808 2515 1815
1112 2774 2305
1454 3000 2735
1784 3181 3067
2092 3318 3300
2368 3412 3437
591 2537 966
729 2646 1169
944 2798 1505
1221 2973 1930
1544 3155 2403
1879 3305 2812
2188 3420 3126
2464 3502 3346
2701 3552 3474
979 3011 1010
1143 3090 1235
1375 3193 1582
1656 3307 2007
1967 3422 2468
2268 3511 2861
2537 3577 3163
2769 3620 3375
2960 3643 3498
1414 3344 1005
1587 3398 1261
1814 3462 1627
2075 3529 2058
2349 3592 2511
2600 3638 2891
2816 3670 3184
2998 3689 3390
3143 3697 3511
1863 3533 980
2023 3572 1269
2222 3611 1656
2441 3649 2095
2660 3681 2542
2852 3702 2911
3015 3716 3196
3147 3723 3398
3244 3726 3517
585 295 272
651 342 451
752 433 742
879 579 1126
1024 791 1583
1173 1103 2050
1316 1456 2460
1455 1826 2796
1594 2189 3043
533 482 322
653 587 521
758 740 845
863 947 1267
986 1213 1757
1146 1549 2230
1324 1895 2629
1512 2233 2944
1707 2541 3163
503 853 441
630 990 650
747 1181 993
872 1423 1435
1025 1715 1940
1230 2041 2410
1455 2353 2792
1688 2636 3080
1919 2874 3270
518 1364 602
632 1508 813
770 1709 1162
940 1958 1609
1151 2243 2116
1413 2532 2572
1683 2788 2934
1948 3003 3198
2193 3167 3360
600 1973 779
709 2100 984
878 2282 1328
1101 2502 1769
1375 2745 2265
1684 2971 2704
1982 3158 3044
2255 3302 3286
2492 3399 3428
822 2546 895
949 2642 1102
1148 2780 1444
1403 2944 1878
1703 3120 2360
2015 3274 2781
2301 3395 3105
2552 3483 3334
2759 3537 3466
1131 3002 951
1275 3072 1173
1489 3169 1523
1753 3280 1955
2048 3394 2427
2336 3488 2833
2591 3558 3145
2807 3605 3364
2980 3631 3492
1500 3335 963
1656 3384 1212
1869 3446 1576
2119 3513 2011
2385 3578 2475
2628 3625 2867
2838 3659 3168
3012 3680 3381
3148 3689 3506
1904 3535 949
2059 3572 1232
2253 3611 1616
2467 3648 2056
2684 3680 2512
2872 3699 2890
3030 3712 3181
3159 3718 3388
3257 3720 3511
1363 556 294
1414 579 455
1505 659 732
1625 803 1107
1764 1023 1565
1901 1344 2048
2024 1702 2479
2137 2071 2837
2243 2430 3101
1245 704 317
1355 781 519
1446 909 841
1538 1099 1258
1647 1359 1746
1792 1700 2226
1947 2051 2637
2103 2389 2963
2252 2690 3193
1155 1031 397
1265 1133 623
1361 1289 973
1464 1503 1416
1593 1778 1920
1776 2108 2393
1972 2428 2784
2168 2717 3083
2348 2952 3281
1109 1493 516
1194 1598 752
1301 1759 1115
1438 1974 1569
1616 2238 2077
1847 2531 2541
2083 2799 2913
2308 3026 3188
2504 3195 3359
1126 2050 659
1192 2139 891
1317 2282 1253
1497 2471 1706
1728 2697 2210
2001 2929 2660
2264 3130 3015
2501 3291 3270
2695 3398 3422
1265 2586 774
1342 2653 1001
1490 2762 1358
1698 2904 1805
1953 3069 2300
2232 3230 2736
2489 3364 3077
2711 3466 3319
2886 3529 3461
1478 3024 847
1574 3073 1079
1740 3151 1439
1959 3249 1883
2215 3357 2370
2475 3455 2793
2707 3533 3120
2903 3590 3352
3055 3622 3488
1746 3349 885
1864 3387 1134
2039 3440 1503
2254 3500 1948
2490 3562 2426
2714 3611 2835
2908 3647 3150
3069 3671 3373
3194 3684 3505
2050 3549 897
2185 3583 1175
2359 3618 1559
2555 3653 2007
2756 3683 2477
2933 3701 2869
3082 3711 3171
3203 3717 3384
3297 3719 3511
2200 822 297
2216 823 450
2274 894 719
2364 1041 1091
2475 1269 1552
2583 1594 2050
2674 1943 2499
2750 2296 2873
2814 2629 3150
2020 930 293
2067 965 507
2120 1067 834
2190 1244 1251
2288 1503 1737
2419 1852 2223
2550 2208 2644
2672 2542 2982
2774 2826 3222
1880 1214 332
1920 1264 587
1971 1380 951
2047 1567 1397
2161 1832 1898
2328 2171 2376
2500 2504 2776
2661 2801 3086
2792 3033 3294
1793 1632 410
1808 1683 683
1862 1797 1065
1959 1975 1527
2106 2220 2036
2310 2521 2506
2517 2808 2890
2706 3053 3179
2855 3232 3362
1767 2145 519
1763 2183 789
1825 2279 1173
1949 2430 1638
2131 2634 2149
2365 2873 2611
2594 3095 2982
2797 3279 3255
2952 3407 3420
1843 2651 632
1847 2676 887
1925 2747 1263
2068 2859 1724
2266 3006 2231
2502 3172 2684
2726 3322 3044
2920 3445 3304
3067 3528 3459
1967 3070 723
1997 3090 970
2095 3142 1343
2249 3218 1801
2448 3313 2302
2667 3413 2744
2870 3501 3091
3045 3571 3340
3178 3618 3488
2126 3384 790
2190 3407 1042
2310 3444 1418
2470 3492 1874
2658 3545 2368
2849 3593 2796
3021 3632 3129
3166 3661 3366
3280 3681 3507
2302 3577 833
2406 3606 1107
2545 3637 1494
2708 3667 1951
2880 3693 2436
3036 3708 2847
3170 3715 3162
3280 3719 3385
3365 3721 3517
2926 1085 305
2904 1067 457
2923 1132 725
2976 1282 1096
3055 1519 1557
3133 1840 2062
3195 2174 2521
3242 2499 2907
3275 2797 3192
2710 1149 271
2684 1141 505
2694 1217 840
2742 1383 1257
2830 1644 1738
2951 2000 2224
3065 2357 2652
3160 2684 3001
3225 2951 3250
2552 1391 274
2511 1386 561
2514 1462 939
2565 1624 1388
2668 1879 1884
2824 2227 2361
2978 2573 2769
3111 2881 3091
3205 3115 3310
2457 1770 314
2395 1763 624
2394 1827 1026
2452 1970 1493
2572 2195 2000
2752 2503 2473
2935 2809 2869
3095 3078 3172
3210 3276 3368
2428 2248 391
2350 2230 698
2345 2275 1104
2411 2385 1578
2543 2562 2091
2738 2806 2562
2935 3048 2950
3109 3263 3240
3238 3423 3421
2477 2732 498
2405 2710 781
2408 2737 1175
2478 2812 1647
2611 2934 2160
2798 3100 2628
2987 3267 3008
3157 3417 3289
3288 3534 3460
2544 3136 601
2501 3123 865
2521 3141 1250
2599 3188 1717
2727 3263 2229
2897 3361 2689
3067 3458 3058
3221 3546 3329
3344 3619 3491
2613 3440 693
2616 3443 950
2665 3460 1331
2755 3490 1796
2880 3529 2304
3028 3572 2752
3171 3613 3106
3299 3649 3361
3403 3681 3513
2667 3623 769
2728 3645 1038
2818 3669 1425
2931 3693 1891
3058 3714 2392
3184 3722 2823
3297 3725 3156
3390 3724 3390
3462 3723 3526
3322 1296 326
3288 1282 482
3289 1352 751
3321 1505 1121
3376 1740 1577
3435 2045 2079
3483 2354 2539
3520 2649 2929
3546 2917 3221
3139 1342 277
3086 1310 520
3078 1371 857
3113 1529 1270
3187 1784 1744
3292 2130 2227
3388 2475 2657
3466 2790 3013
3515 3044 3270
3017 1560 263
2946 1514 560
2928 1559 942
2963 1698 1387
3049 1937 1875
3182 2278 2350
3313 2622 2762
3423 2935 3093
3497 3181 3324
2957 1913 284
2867 1855 606
2839 1877 1011
2871 1984 1475
2961 2181 1975
3108 2480 2448
3259 2792 2852
3393 3083 3168
3490 3318 3377
2959 2364 343
2852 2294 661
2813 2290 1070
2837 2356 1542
2922 2497 2049
3070 2728 2524
3229 2980 2925
3377 3228 3232
3494 3446 3428
3018 2827 443
2912 2760 733
2868 2741 1128
2883 2775 1596
2956 2861 2105
3090 3015 2580
3240 3190 2978
3385 3372 3280
3511 3545 3469
3073 3216 549
2990 3168 814
2955 3150 1196
2969 3165 1658
3031 3211 2165
3148 3297 2636
3280 3398 3027
3413 3510 3321
3533 3625 3502
3108 3508 657
3068 3490 907
3060 3487 1280
3085 3497 1736
3144 3518 2241
3244 3551 2702
3353 3589 3079
3462 3633 3357
3560 3684 3526
3106 3682 762
3127 3700 1015
3164 3721 1387
3219 3742 1842
3291 3756 2342
3377 3756 2788
3460 3746 3141
3533 3735 3394
3590 3726 3540
3539 1445 346
3514 1456 502
3513 1540 770
3533 1695 1137
3571 1919 1590
3616 2200 2088
3654 2480 2547
3686 2749 2939
3711 2993 3235
3424 1511 301
3378 1478 535
3370 1536 864
3396 1684 1272
3453 1922 1740
3532 2243 2223
3605 2564 2656
3664 2861 3016
3702 3106 3280
3357 1727 286
3295 1661 570
3278 1684 941
3303 1800 1378
3367 2012 1860
3465 2327 2336
3560 2655 2754
3641 2965 3094
3696 3228 3332
3338 2063 302
3262 1971 610
3234 1957 1003
3252 2028 1459
3312 2188 1953
3414 2460 2427
3521 2763 2839
3619 3070 3166
3694 3350 3386
3367 2489 354
3276 2377 659
3234 2328 1057
3237 2350 1519
3285 2449 2019
3382 2653 2496
3492 2903 2908
3600 3180 3230
3694 3465 3439
3433 2926 449
3337 2818 727
3283 2758 1110
3271 2751 1566
3301 2801 2065
3384 2932 2544
3485 3107 2957
3594 3318 3278
3698 3557 3484
3485 3292 559
3402 3212 811
3349 3163 1176
3330 3147 1622
3347 3166 2117
3415 3235 2593
3503 3336 3002
3603 3468 3319
3704 3632 3519
3512 3568 682
3458 3533 915
3422 3513 1264
3409 3507 1699
3424 3514 2188
3479 3535 2657
3550 3567 3053
3631 3616 3356
3711 3688 3545
3498 3735 816
3492 3753 1044
3493 3776 1385
3505 3798 1810
3531 3811 2291
3579 3800 2746
3632 3776 3120
3681 3749 3396
3720 3727 3558
3630 1532 362
3623 1578 514
3628 1680 778
3645 1836 1143
3671 2044 1593
3705 2297 2090
3737 2552 2548
3766 2799 2939
3791 3027 3237
3592 1649 336
3576 1642 545
3581 1708 858
3604 1846 1258
3643 2055 1725
3693 2335 2212
3738 2621 2649
3776 2895 3014
3802 3134 3280
3583 1884 334
3562 1827 582
3566 1842 931
3590 1934 1357
3633 2106 1838
3688 2374 2320
3740 2670 2745
3783 2970 3091
3813 3250 3334
3604 2214 357
3578 2111 626
3577 2073 996
3597 2107 1439
3634 2221 1929
3688 2448 2409
3741 2727 2830
3788 3040 3167
3823 3368 3393
3652 2616 408
3620 2477 678
3609 2393 1053
3617 2373 1503
3644 2425 1996
3689 2591 2478
3739 2826 2900
3789 3124 3234
3832 3477 3453
3717 3018 499
3678 2881 749
3655 2788 1110
3649 2745 1551
3661 2758 2040
3696 2861 2521
3740 3027 2946
3789 3260 3284
3838 3565 3504
3769 3355 612
3730 3251 840
3701 3178 1182
3686 3138 1607
3686 3134 2086
3712 3184 2564
3749 3278 2987
3793 3426 3324
3841 3637 3542
3801 3612 751
3769 3563 960
3743 3533 1280
3727 3519 1685
3723 3516 2150
3742 3525 2620
3770 3550 3034
3804 3601 3360
3841 3691 3569
3804 3774 919
3790 3795 1118
3779 3825 1417
3773 3854 1799
3775 3870 2248
3789 3850 2704
3807 3811 3097
3825 3766 3399
3840 3728 3582
3645 1558 369
3656 1635 514
3670 1754 774
3687 1910 1136
3707 2102 1587
3733 2331 2084
3759 2568 2542
3785 2801 2933
3806 3019 3228
3672 1751 377
3696 1798 545
3722 1883 835
3749 2009 1226
3774 2177 1697
3794 2401 2193
3809 2644 2638
3821 2891 3006
3830 3127 3270
3710 2024 398
3750 2012 589
3791 2035 906
3827 2100 1320
3855 2218 1805
3868 2419 2299
3871 2667 2735
3866 2947 3087
3855 3245 3329
3757 2359 435
3814 2277 644
3866 2229 980
3909 2226 1410
3938 2283 1901
3943 2448 2393
3934 2688 2825
3912 2996 3169
3880 3364 3398
3811 2736 488
3879 2593 707
3938 2487 1052
3982 2429 1488
4009 2432 1979
4008 2548 2467
3990 2756 2900
3954 3063 3245
3902 3476 3471
3865 3095 574
3931 2944 785
3985 2830 1121
4024 2761 1546
4046 2742 2027
4042 2812 2512
4020 2961 2947
3979 3205 3298
3918 3563 3530
3912 3397 692
3966 3279 889
4010 3192 1204
4042 3139 1608
4060 3118 2072
4054 3151 2551
4030 3234 2985
3989 3389 3338
3928 3636 3572
3952 3632 850
3983 3577 1032
4013 3545 1319
4037 3530 1691
4050 3525 2130
4042 3526 2598
4018 3541 3025
3982 3590 3371
3933 3690 3599
3983 3790 1060
3983 3818 1229
3993 3860 1480
4007 3900 1810
4017 3924 2217
4006 3898 2668
3984 3845 3076
3957 3782 3404
3934 3726 3613
