Assets/1__3DArt/KimSe/artstation_asset/LUTs_pasterls/3DL/Orange Cream 04.3dl
# Enhanced with VOXCOLOR algorithms
0 64 128 192 256 320 384 448 512 576 640 704 768 832 896 960 1023
273 482 193
285 525 336
297 567 479
307 616 635
313 678 818
320 739 1002
324 815 1190
327 898 1382
330 981 1574
332 1086 1751
334 1190 1929
336 1299 2096
337 1417 2242
339 1534 2388
339 1650 2506
338 1764 2610
337 1879 2714
282 516 194
295 567 344
307 618 494
318 675 657
325 745 845
333 815 1034
337 898 1226
341 989 1421
344 1080 1616
346 1189 1793
347 1298 1970
349 1411 2137
352 1531 2280
354 1651 2424
358 1770 2541
363 1888 2644
368 2006 2747
292 551 194
305 610 352
318 669 509
329 734 678
338 812 872
346 890 1065
351 982 1262
354 1080 1460
358 1178 1658
359 1292 1835
361 1406 2012
363 1523 2178
366 1645 2319
369 1767 2460
377 1889 2576
388 2011 2678
398 2132 2780
309 604 204
323 670 368
337 736 532
350 809 708
359 895 906
368 981 1105
374 1079 1305
378 1184 1505
382 1289 1705
384 1407 1882
385 1525 2058
388 1645 2222
392 1769 2360
397 1893 2499
409 2016 2612
425 2138 2712
441 2261 2812
342 692 230
358 765 401
374 837 572
388 917 754
399 1009 957
410 1102 1160
417 1206 1362
422 1316 1563
427 1427 1764
429 1547 1939
432 1668 2113
436 1789 2274
443 1912 2408
450 2035 2542
466 2156 2650
487 2275 2746
508 2395 2842
375 781 256
393 860 434
411 939 612
427 1024 800
439 1124 1007
452 1223 1214
460 1333 1418
466 1449 1621
472 1564 1823
475 1687 1995
479 1810 2168
484 1933 2326
494 2055 2456
503 2177 2585
524 2295 2689
550 2412 2780
575 2529 2871
427 900 296
447 983 480
466 1066 665
484 1156 857
498 1260 1067
513 1364 1277
522 1477 1482
530 1595 1684
538 1713 1885
543 1836 2054
549 1959 2223
557 2081 2377
569 2200 2502
581 2319 2627
605 2433 2726
634 2544 2812
663 2656 2898
488 1034 344
509 1121 534
531 1208 723
551 1301 920
567 1408 1132
583 1515 1344
595 1630 1548
605 1749 1749
614 1868 1949
622 1990 2114
631 2111 2279
641 2230 2428
656 2345 2548
671 2460 2668
698 2568 2762
729 2674 2843
761 2779 2925
548 1169 392
572 1259 587
596 1349 782
618 1446 984
636 1556 1197
654 1666 1411
668 1783 1615
679 1903 1814
691 2023 2013
702 2143 2173
712 2263 2334
725 2380 2480
744 2491 2594
762 2601 2709
791 2704 2798
825 2804 2875
859 2903 2951
627 1319 446
653 1410 645
678 1502 843
702 1599 1047
722 1708 1261
742 1818 1475
758 1933 1677
773 2051 1873
788 2169 2068
802 2284 2225
816 2400 2381
833 2512 2521
854 2617 2631
875 2721 2741
905 2818 2827
940 2910 2900
974 3003 2973
706 1469 501
733 1562 703
760 1654 905
786 1752 1111
808 1861 1325
830 1970 1539
849 2084 1739
867 2199 1932
884 2314 2124
902 2425 2276
920 2537 2427
940 2644 2563
965 2743 2668
989 2842 2774
1020 2932 2855
1054 3017 2925
1089 3103 2995
783 1612 551
812 1705 756
841 1797 960
868 1895 1168
892 2003 1382
917 2111 1596
938 2222 1794
959 2335 1984
979 2447 2174
1001 2554 2321
1022 2660 2468
1046 2762 2600
1073 2856 2701
1101 2949 2802
1133 3033 2880
1166 3112 2947
1200 3191 3014
859 1739 593
889 1831 798
919 1923 1003
948 2019 1211
974 2125 1425
1000 2231 1638
1024 2338 1835
1047 2446 2022
1070 2554 2210
1095 2656 2353
1121 2758 2497
1148 2855 2625
1178 2944 2723
1209 3032 2821
1240 3110 2897
1272 3183 2963
1304 3257 3028
934 1867 636
965 1958 841
997 2049 1047
1027 2144 1255
1055 2247 1468
1083 2350 1681
1109 2453 1876
1135 2558 2061
1161 2662 2246
1190 2759 2386
1219 2855 2526
1250 2948 2651
1283 3031 2746
1316 3115 2841
1348 3187 2915
1378 3255 2978
1409 3322 3042
988 1954 660
1020 2043 864
1053 2132 1069
1084 2225 1276
1113 2326 1488
1142 2426 1701
1170 2526 1895
1198 2627 2079
1225 2728 2262
1256 2821 2401
1288 2914 2539
1320 3004 2663
1356 3084 2756
1391 3164 2850
1422 3233 2923
1451 3296 2985
1480 3359 3048
1032 2021 675
1065 2108 877
1099 2195 1079
1131 2286 1284
1160 2383 1497
1190 2481 1710
1219 2578 1903
1247 2675 2086
1276 2773 2270
1309 2863 2407
1342 2954 2545
1376 3041 2668
1413 3119 2761
1450 3197 2854
1480 3262 2926
1508 3322 2988
1535 3382 3050
1076 2088 691
1110 2173 890
1144 2258 1089
1177 2346 1293
1208 2441 1506
1238 2535 1718
1268 2630 1911
1297 2724 2094
1326 2818 2277
1361 2906 2414
1395 2994 2551
1431 3078 2673
1470 3153 2766
1508 3229 2858
1538 3292 2929
1564 3348 2990
1590 3404 3051
541 504 188
549 549 337
557 594 487
564 646 650
567 712 839
570 778 1028
573 861 1222
574 952 1420
576 1043 1617
579 1157 1798
581 1271 1979
584 1390 2150
588 1517 2298
591 1644 2446
593 1766 2565
593 1887 2670
594 2008 2775
531 541 190
547 594 345
562 647 501
574 707 669
578 781 863
582 855 1057
583 944 1255
583 1041 1455
583 1139 1654
584 1256 1835
584 1374 2016
586 1494 2185
590 1622 2331
593 1749 2476
597 1873 2593
602 1995 2696
607 2117 2799
522 578 192
544 639 353
567 700 514
583 768 688
588 849 887
593 931 1085
594 1027 1287
592 1131 1490
590 1234 1692
589 1355 1873
588 1476 2053
588 1599 2221
591 1727 2363
595 1855 2506
602 1980 2621
611 2102 2722
620 2225 2823
520 632 202
548 700 369
575 768 536
596 844 715
603 932 918
609 1021 1122
610 1124 1326
607 1233 1531
605 1342 1736
603 1466 1915
601 1589 2094
601 1714 2260
605 1842 2399
609 1969 2538
620 2093 2650
633 2216 2749
646 2338 2847
535 719 227
564 793 401
593 868 574
615 949 759
624 1044 966
634 1139 1174
637 1247 1380
636 1361 1585
636 1474 1791
636 1599 1967
635 1724 2144
637 1849 2307
643 1975 2442
649 2101 2576
663 2222 2684
680 2340 2778
698 2459 2872
551 807 252
580 887 432
610 967 613
634 1054 803
646 1156 1014
658 1257 1225
664 1370 1433
665 1488 1639
667 1607 1845
668 1733 2020
669 1859 2194
672 1984 2354
680 2108 2484
688 2232 2615
706 2350 2718
727 2465 2807
749 2580 2897
585 922 291
614 1006 477
644 1091 663
669 1182 858
684 1288 1072
699 1393 1285
707 1509 1493
712 1629 1698
717 1749 1903
721 1875 2074
724 2000 2245
730 2123 2401
741 2244 2527
751 2364 2652
771 2477 2750
795 2587 2835
820 2696 2920
629 1051 336
658 1139 527
688 1227 719
713 1322 919
731 1430 1134
749 1538 1349
760 1655 1556
768 1776 1760
777 1897 1963
783 2020 2130
790 2144 2297
799 2264 2448
813 2380 2569
826 2496 2689
848 2603 2783
874 2707 2863
901 2810 2943
672 1180 381
702 1272 578
731 1363 776
757 1461 979
778 1572 1196
798 1683 1413
812 1802 1620
824 1923 1821
836 2045 2023
846 2166 2185
856 2288 2348
868 2405 2495
884 2516 2611
901 2627 2726
925 2729 2815
953 2827 2891
982 2924 2966
736 1325 433
766 1418 634
795 1510 835
823 1608 1041
845 1719 1258
867 1830 1474
885 1946 1679
900 2065 1877
915 2184 2075
929 2301 2233
943 2417 2391
959 2530 2534
978 2635 2644
998 2740 2755
1023 2836 2841
1052 2927 2913
1081 3018 2986
800 1470 486
830 1563 690
860 1657 894
888 1756 1102
912 1866 1319
937 1976 1535
957 2090 1737
976 2207 1933
994 2323 2128
1012 2435 2281
1030 2547 2434
1050 2655 2572
1072 2754 2678
1095 2854 2784
1122 2943 2866
1151 3027 2936
1179 3111 3005
864 1609 535
895 1702 741
925 1796 948
954 1894 1158
980 2003 1374
1007 2112 1590
1030 2224 1790
1051 2337 1982
1073 2450 2174
1095 2558 2323
1116 2665 2472
1139 2768 2605
1165 2862 2707
1191 2955 2810
1219 3039 2888
1248 3117 2955
1277 3194 3022
929 1734 578
960 1827 785
991 1919 992
1022 2016 1201
1049 2122 1416
1077 2228 1632
1102 2336 1829
1126 2445 2019
1150 2554 2208
1176 2656 2353
1201 2759 2499
1227 2857 2629
1256 2946 2728
1285 3035 2827
1313 3112 2904
1342 3185 2970
1370 3257 3035
994 1860 621
1026 1951 828
1058 2042 1035
1089 2138 1245
1118 2241 1459
1147 2344 1673
1175 2449 1869
1201 2553 2056
1228 2658 2242
1257 2755 2384
1285 2853 2526
1315 2946 2652
1347 3030 2748
1378 3114 2845
1408 3186 2920
1436 3253 2984
1464 3320 3048
1041 1949 646
1074 2039 852
1107 2128 1058
1139 2221 1266
1169 2321 1480
1199 2421 1693
1227 2522 1888
1255 2623 2073
1283 2723 2258
1314 2817 2398
1345 2911 2538
1376 3001 2663
1410 3081 2758
1444 3162 2853
1474 3231 2927
1502 3294 2990
1529 3357 3053
1079 2021 662
1113 2107 866
1148 2194 1070
1180 2284 1276
1211 2381 1489
1241 2478 1703
1270 2575 1897
1299 2673 2081
1327 2770 2265
1359 2861 2405
1391 2952 2544
1425 3038 2668
1460 3116 2762
1496 3195 2856
1526 3261 2929
1553 3321 2992
1580 3380 3055
1118 2092 678
1153 2176 880
1188 2260 1081
1222 2348 1287
1253 2441 1499
1284 2535 1712
1313 2629 1905
1343 2723 2089
1372 2816 2273
1405 2904 2411
1438 2992 2549
1473 3076 2673
1510 3152 2766
1547 3227 2860
1577 3291 2932
1604 3347 2994
1631 3404 3056
809 526 183
813 573 339
818 621 495
821 676 664
821 747 859
821 817 1054
821 907 1254
821 1006 1457
822 1104 1659
825 1228 1845
829 1353 2030
833 1481 2204
838 1617 2354
843 1753 2504
847 1883 2625
849 2010 2731
851 2137 2836
780 565 186
798 621 347
817 676 507
829 739 681
830 817 880
831 895 1080
829 990 1283
825 1094 1488
822 1198 1693
822 1323 1877
822 1449 2062
823 1578 2234
827 1713 2381
832 1848 2528
837 1976 2645
842 2102 2748
847 2228 2851
752 605 190
784 668 355
815 731 519
837 802 697
839 887 901
841 972 1105
837 1073 1312
829 1182 1519
822 1291 1727
818 1418 1910
814 1546 2094
813 1676 2264
817 1809 2408
820 1943 2551
827 2070 2666
835 2194 2766
843 2318 2866
732 660 200
773 730 370
814 801 540
843 878 722
846 970 930
850 1062 1138
845 1168 1347
836 1282 1557
828 1395 1766
822 1524 1948
817 1653 2130
814 1783 2298
818 1914 2438
822 2046 2578
830 2171 2689
841 2293 2786
852 2415 2882
729 746 224
770 822 400
811 898 577
841 981 765
849 1079 976
857 1177 1187
856 1287 1398
851 1405 1607
845 1522 1817
842 1651 1996
838 1780 2176
837 1909 2341
842 2038 2476
848 2167 2611
859 2288 2717
873 2406 2810
887 2523 2902
726 832 248
767 914 431
809 996 613
840 1085 807
853 1188 1021
865 1292 1236
867 1407 1448
865 1528 1658
863 1649 1867
861 1778 2044
859 1908 2221
860 2036 2383
867 2161 2513
874 2287 2644
887 2405 2746
905 2518 2834
922 2631 2922
743 943 285
782 1029 473
822 1115 661
854 1208 859
870 1315 1076
886 1423 1293
893 1540 1504
895 1663 1713
897 1785 1921
898 1913 2095
900 2041 2268
904 2166 2425
913 2288 2551
922 2409 2677
938 2521 2775
957 2629 2858
976 2737 2942
769 1068 327
807 1157 521
844 1246 715
875 1342 917
895 1452 1136
914 1562 1354
925 1680 1564
932 1803 1771
939 1926 1977
944 2051 2146
950 2176 2315
957 2298 2468
969 2415 2589
981 2531 2710
999 2638 2803
1019 2739 2882
1040 2841 2962
796 1192 370
831 1284 569
866 1377 769
897 1476 975
919 1589 1195
942 1701 1415
957 1821 1624
969 1944 1829
981 2067 2033
990 2189 2197
1000 2312 2362
1011 2431 2511
1025 2542 2627
1040 2653 2743
1060 2754 2832
1082 2850 2907
1104 2945 2981
845 1331 420
879 1425 623
913 1518 826
944 1618 1035
968 1730 1254
993 1841 1473
1011 1959 1680
1027 2079 1881
1043 2199 2082
1056 2317 2242
1070 2435 2402
1085 2548 2546
1103 2654 2657
1120 2759 2769
1141 2854 2854
1164 2943 2926
1187 3032 2999
895 1471 471
927 1565 677
960 1660 883
990 1759 1094
1017 1870 1313
1043 1982 1532
1065 2097 1736
1085 2214 1934
1104 2332 2131
1122 2445 2286
1140 2558 2441
1159 2666 2580
1180 2766 2688
1201 2865 2795
1223 2954 2877
1247 3037 2946
1270 3119 3016
945 1605 519
977 1700 727
1009 1794 936
1040 1894 1148
1068 2003 1366
1096 2113 1584
1121 2225 1786
1144 2339 1980
1167 2453 2174
1188 2561 2325
1210 2670 2476
1233 2773 2611
1257 2867 2714
1281 2961 2818
1305 3044 2897
1329 3121 2964
1354 3198 3031
999 1729 562
1032 1822 771
1064 1915 980
1095 2013 1191
1125 2119 1408
1154 2226 1625
1180 2334 1824
1206 2444 2015
1231 2554 2207
1256 2657 2354
1281 2760 2501
1306 2859 2632
1333 2948 2733
1361 3037 2833
1386 3115 2911
1411 3186 2977
1437 3258 3042
1053 1854 606
1086 1945 814
1119 2036 1023
1151 2132 1234
1181 2235 1450
1212 2339 1665
1240 2444 1863
1267 2549 2051
1295 2654 2239
1323 2752 2382
1351 2851 2526
1380 2944 2654
1410 3028 2751
1440 3113 2849
1468 3185 2925
1494 3252 2989
1520 3318 3054
1093 1945 632
1127 2034 839
1161 2123 1047
1194 2216 1257
1225 2316 1471
1255 2416 1686
1285 2517 1881
1313 2618 2068
1341 2719 2254
1371 2814 2396
1401 2908 2537
1432 2998 2664
1464 3079 2760
1497 3160 2856
1525 3229 2931
1552 3292 2995
1579 3355 3059
1126 2021 649
1161 2107 855
1196 2193 1060
1230 2283 1268
1261 2379 1482
1292 2475 1696
1322 2573 1890
1350 2670 2076
1379 2767 2261
1410 2858 2402
1441 2949 2542
1473 3036 2668
1507 3114 2763
1541 3193 2859
1571 3259 2933
1598 3319 2997
1625 3379 3060
1159 2096 666
1196 2179 870
1232 2263 1074
1267 2349 1280
1298 2442 1493
1329 2535 1705
1359 2628 1899
1388 2721 2084
1417 2815 2268
1449 2903 2408
1482 2990 2547
1515 3074 2672
1551 3150 2767
1586 3226 2862
1617 3289 2935
1645 3346 2999
1672 3404 3062
1101 545 174
1101 594 334
1102 642 494
1101 699 668
1097 774 868
1093 848 1068
1091 943 1273
1089 1049 1481
1088 1155 1689
1091 1288 1879
1094 1422 2069
1098 1559 2247
1104 1705 2401
1110 1850 2554
1113 1987 2677
1115 2120 2784
1117 2253 2891
1056 588 179
1075 644 343
1093 701 506
1105 765 683
1102 846 888
1100 927 1092
1094 1027 1300
1087 1137 1510
1080 1247 1720
1079 1381 1909
1077 1515 2098
1078 1652 2274
1083 1794 2423
1087 1937 2573
1091 2071 2692
1096 2200 2796
