Assets/1__3DArt/KimSe/artstation_asset/LUTs_pasterls/3DL/Orange Cream 03.3dl
# Enhanced with VOXCOLOR algorithms
0 128 256 384 512 640 768 896 1023
273 482 177
304 565 435
324 669 757
333 798 1121
332 954 1509
323 1149 1879
310 1358 2208
294 1569 2485
273 1766 2698
297 542 192
323 648 470
341 781 808
351 940 1187
350 1124 1584
339 1339 1951
327 1564 2270
316 1792 2538
311 2017 2750
343 663 236
370 793 538
390 952 896
402 1139 1287
402 1348 1688
390 1577 2045
377 1808 2349
372 2039 2601
380 2268 2801
415 843 305
446 994 635
471 1177 1012
486 1385 1412
488 1613 1811
476 1848 2153
465 2077 2438
465 2300 2669
484 2515 2850
517 1080 398
555 1248 755
585 1447 1147
604 1669 1550
609 1904 1941
600 2136 2264
594 2355 2528
600 2561 2738
626 2754 2899
659 1366 507
701 1541 883
735 1743 1282
759 1963 1681
770 2192 2059
772 2411 2362
779 2613 2606
795 2799 2798
826 2970 2945
808 1642 609
851 1817 995
888 2015 1396
916 2227 1789
936 2444 2154
954 2648 2440
978 2835 2669
1008 3004 2847
1044 3154 2984
947 1886 694
990 2054 1081
1027 2243 1480
1060 2442 1869
1087 2644 2223
1122 2834 2496
1164 3007 2713
1208 3161 2882
1245 3293 3011
1060 2072 755
1100 2228 1134
1137 2403 1529
1171 2588 1914
1205 2775 2262
1253 2951 2526
1311 3114 2735
1363 3256 2897
1397 3372 3019
759 527 182
790 616 460
808 734 802
815 884 1188
810 1070 1599
797 1303 1986
778 1549 2325
753 1793 2605
721 2020 2819
721 599 199
792 716 494
821 861 851
818 1034 1247
795 1238 1661
766 1477 2039
739 1723 2364
715 1966 2631
694 2196 2836
707 724 240
788 865 559
824 1034 932
824 1229 1338
800 1450 1751
767 1692 2115
738 1934 2422
717 2169 2671
705 2391 2862
719 899 304
794 1059 648
833 1248 1038
844 1462 1450
829 1695 1858
800 1936 2205
775 2169 2491
758 2390 2719
754 2596 2893
763 1120 387
825 1295 757
866 1498 1160
886 1722 1572
884 1960 1971
865 2194 2298
848 2413 2563
837 2615 2771
838 2799 2926
849 1380 485
903 1561 871
944 1767 1279
970 1989 1687
979 2218 2071
974 2438 2378
971 2641 2625
973 2824 2816
982 2987 2960
947 1637 579
997 1817 973
1038 2018 1382
1069 2231 1782
1087 2449 2153
1099 2653 2443
1114 2840 2675
1132 3006 2854
1151 3152 2990
1045 1871 661
1094 2045 1057
1135 2235 1462
1169 2435 1855
1195 2638 2214
1224 2827 2490
1258 2999 2710
1293 3152 2882
1323 3284 3012
1131 2064 724
1179 2226 1114
1221 2402 1513
1257 2586 1899
1290 2772 2250
1332 2946 2518
1383 3107 2731
1433 3250 2896
1472 3370 3023
1353 568 172
1374 657 457
1383 781 813
1383 947 1218
1374 1157 1651
1357 1425 2057
1334 1706 2410
1303 1983 2701
1262 2238 2922
1268 656 193
1345 775 496
1370 925 866
1358 1110 1280
1324 1333 1713
1287 1599 2106
1254 1869 2442
1222 2132 2715
1188 2373 2920
1204 790 235
1298 933 561
1334 1107 946
1327 1310 1367
1291 1544 1797
1248 1805 2175
1211 2063 2490
1179 2309 2743
1151 2532 2931
1164 965 295
1251 1127 646
1294 1319 1046
1299 1538 1471
1274 1779 1894
1236 2032 2253
1201 2275 2548
1172 2501 2779
1148 2703 2950
1153 1177 372
1222 1353 746
1265 1557 1158
1283 1784 1583
1274 2026 1996
1248 2267 2334
1222 2492 2607
1199 2696 2818
1178 2875 2972
1180 1420 463
1235 1601 853
1275 1806 1270
1299 2029 1688
1303 2261 2085
1293 2486 2403
1283 2692 2657
1272 2876 2853
1260 3035 2995
1222 1661 553
1269 1840 953
1307 2039 1369
1334 2252 1778
1349 2471 2159
1355 2679 2458
1362 2867 2697
1369 3034 2881
1373 3178 3017
1269 1885 635
1313 2057 1039
1350 2246 1450
1380 2444 1849
1402 2646 2215
1424 2837 2499
1450 3010 2725
1477 3164 2901
1500 3296 3034
1310 2078 702
1356 2239 1104
1395 2413 1509
1428 2594 1897
1456 2778 2251
1492 2953 2524
1536 3114 2742
1582 3258 2913
1624 3380 3044
1974 604 148
1977 684 430
1972 806 791
1959 978 1208
1944 1205 1658
1927 1502 2084
1906 1817 2457
1878 2128 2766
1839 2415 3004
1864 711 174
1918 821 477
1929 969 853
1909 1159 1279
1872 1396 1729
1837 1687 2141
1806 1985 2494
1775 2273 2780
1739 2534 2997
1769 856 218
1845 992 544
1869 1163 936
1856 1371 1368
1817 1616 1816
1775 1897 2212
1738 2176 2543
1704 2439 2807
1669 2673 3002
1693 1036 278
1768 1192 627
1802 1381 1033
1803 1602 1470
1774 1852 1911
1733 2121 2289
1697 2379 2599
1663 2616 2840
1628 2823 3015
1640 1245 352
1701 1415 723
1737 1617 1141
1750 1844 1578
1737 2092 2009
1707 2345 2366
1678 2580 2654
1647 2792 2875
1613 2973 3032
1618 1478 440
1664 1652 829
1696 1854 1251
1713 2076 1681
1713 2313 2095
1699 2546 2430
1684 2759 2698
1666 2949 2903
1641 3109 3049
1608 1707 530
1644 1880 932
1673 2075 1354
1692 2287 1774
1701 2508 2169
1702 2721 2483
1704 2915 2733
1703 3086 2925
1697 3230 3065
1603 1922 617
1636 2088 1027
1663 2272 1445
1684 2469 1852
1700 2672 2227
1715 2866 2522
1735 3043 2758
1755 3199 2942
1773 3332 3078
1596 2113 696
1631 2268 1110
1660 2437 1520
1685 2614 1911
1707 2798 2268
1736 2976 2548
1773 3139 2774
1815 3285 2952
1858 3409 3087
2541 636 110
2522 696 378
2495 805 734
2467 971 1154
2442 1203 1613
2431 1523 2059
2423 1870 2456
2414 2219 2794
2395 2545 3062
2435 760 144
2451 852 436
2439 987 809
2410 1171 1239
2374 1413 1700
2349 1726 2132
2332 2053 2508
2315 2373 2819
2293 2664 3058
2337 917 192
2374 1037 507
2378 1196 897
2358 1399 1336
2322 1650 1798
2289 1951 2216
2263 2255 2570
2240 2544 2855
2213 2801 3066
2250 1104 252
2295 1245 590
2311 1425 996
2304 1643 1442
2277 1899 1901
2242 2185 2303
2213 2463 2635
2185 2721 2895
2154 2943 3082
2179 1315 326
2218 1473 685
2240 1667 1103
2244 1892 1552
2229 2146 2004
2201 2413 2387
2175 2665 2697
2146 2891 2934
2112 3082 3100
2127 1544 416
2154 1708 794
2173 1903 1219
2181 2124 1663
2176 2366 2097
2161 2611 2457
2145 2836 2745
2127 3036 2964
2102 3203 3118
2081 1768 511
2100 1931 908
2115 2121 1335
2124 2331 1767
2126 2557 2180
2123 2779 2515
2121 2982 2782
2119 3159 2987
2113 3308 3133
2035 1979 609
2052 2136 1023
2064 2314 1448
2074 2508 1863
2081 2715 2251
2091 2917 2560
2105 3100 2810
2122 3260 3003
2140 3394 3145
1987 2170 709
2006 2316 1136
2019 2476 1553
2031 2650 1948
2043 2835 2307
2066 3019 2593
2098 3188 2828
2137 3336 3014
2180 3461 3154
2913 655 73
2870 691 318
2820 775 655
2772 921 1064
2738 1143 1520
2737 1473 1979
2753 1844 2400
2777 2227 2772
2799 2596 3082
2843 797 112
2823 862 383
2785 970 739
2741 1134 1159
2703 1364 1618
2693 1687 2066
2699 2039 2467
2712 2393 2810
2724 2725 3086
2774 965 163
2772 1059 456
2751 1193 832
2719 1376 1264
2684 1618 1729
2667 1932 2168
2663 2261 2548
2666 2582 2863
2666 2873 3104
2709 1158 224
2720 1276 539
2714 1434 932
2696 1637 1377
2670 1889 1847
2650 2190 2274
2639 2492 2634
2632 2778 2922
2623 3028 3131
2654 1372 298
2668 1510 633
2672 1688 1042
2667 1905 1496
2651 2160 1966
2633 2443 2378
2619 2716 2716
2606 2965 2978
2590 3177 3161
2608 1602 389
2618 1750 746
2623 1935 1165
2622 2153 1619
2614 2400 2076
2603 2660 2466
2594 2903 2781
2585 3119 3022
2575 3300 3189
2562 1828 490
2568 1979 871
2571 2162 1297
2571 2373 1741
2568 2606 2178
2565 2842 2541
2564 3057 2833
2566 3246 3056
2571 3403 3211
2512 2042 603
2515 2189 1008
2515 2362 1435
2515 2558 1863
2515 2773 2270
2521 2987 2603
2533 3179 2872
2551 3346 3081
2575 3482 3229
2457 2239 730
2458 2374 1159
2457 2529 1579
2455 2703 1980
2458 2896 2349
2476 3091 2651
2504 3267 2900
2540 3418 3096
2582 3538 3241
3150 664 48
3088 678 269
3018 741 588
2954 869 983
2911 1079 1433
2919 1412 1898
2957 1797 2337
3010 2203 2736
3069 2601 3082
3118 821 88
3072 861 336
3012 943 673
2954 1083 1078
2911 1297 1532
2913 1625 1990
2941 1994 2412
2984 2376 2784
3029 2740 3093
3082 997 140
3054 1065 409
3011 1172 766
2965 1333 1187
2929 1561 1651
2927 1883 2105
2945 2232 2509
2974 2581 2852
3004 2905 3122
3048 1194 202
3034 1288 490
3009 1422 867
2981 1607 1305
2955 1850 1781
2950 2163 2229
2959 2487 2616
2974 2800 2930
2990 3079 3163
3019 1411 274
3015 1527 581
3005 1687 976
2992 1892 1430
2977 2146 1914
2972 2445 2354
2973 2740 2721
2977 3013 3008
2982 3248 3209
2994 1643 361
2993 1775 691
2989 1948 1102
2983 2162 1561
2976 2413 2040
2972 2689 2462
2972 2951 2806
2974 3186 3070
2980 3383 3249
2967 1871 462
2966 2010 818
2963 2188 1239
2960 2400 1696
2956 2643 2159
2955 2894 2555
2958 3124 2875
2965 3325 3118
2980 3490 3283
2936 2091 581
2931 2228 964
2925 2400 1389
2921 2601 1832
2919 2827 2267
2923 3055 2632
2934 3258 2927
2951 3431 3152
2978 3568 3307
2898 2298 722
2887 2421 1133
2876 2574 1553
2868 2754 1968
2866 2959 2362
2879 3168 2691
2902 3352 2961
2933 3504 3172
2970 3616 3321
3273 660 34
3198 660 235
3115 709 538
3041 826 922
2993 1026 1367
3007 1359 1836
3059 1748 2285
3134 2163 2700
3218 2573 3069
3273 827 72
3212 849 299
3137 910 618
3068 1031 1011
3020 1232 1460
3031 1560 1924
3076 1939 2360
3141 2336 2752
3213 2720 3084
3269 1009 123
3224 1056 369
3166 1140 708
3110 1281 1118
3071 1496 1579
3080 1822 2044
3116 2186 2467
3167 2556 2832
3222 2904 3125
3264 1209 184
3236 1281 447
3198 1394 806
3161 1562 1237
3135 1796 1716
3143 2119 2182
3169 2462 2591
3204 2798 2928
3240 3102 3181
3262 1426 254
3250 1524 533
3231 1667 914
3213 1862 1365
3201 2114 1860
3207 2427 2325
3223 2742 2718
3243 3039 3028
3263 3297 3244
3266 1660 335
3262 1777 636
3255 1941 1035
3248 2152 1501
3244 2409 2000
3249 2701 2452
3258 2982 2824
3271 3236 3108
3285 3449 3299
3268 1892 428
3267 2021 754
3265 2195 1168
3264 2411 1637
3264 2664 2129
3269 2933 2560
3275 3179 2908
3286 3392 3171
3301 3564 3342
3269 2119 539
3264 2247 890
3261 2418 1311
3259 2628 1771
3261 2870 2242
3267 3114 2646
3275 3330 2970
3288 3508 3213
3309 3643 3373
3266 2336 675
3252 2447 1048
3240 2601 1464
3233 2793 1901
3233 3016 2335
3243 3240 2707
3259 3432 3008
3279 3583 3235
3305 3687 3388
3308 642 32
3228 638 220
3141 686 515
3064 801 894
3014 1001 1338
3030 1331 1810
3086 1716 2261
3167 2123 2679
3260 2521 3051
3325 811 65
3258 825 275
3177 878 583
3103 991 971
3052 1186 1418
3067 1514 1887
3119 1894 2329
3195 2293 2728
3278 2676 3068
3339 996 113
3289 1031 340
3225 1102 665
3164 1231 1069
3124 1440 1530
3139 1769 2004
3184 2141 2438
3247 2521 2815
3313 2877 3117
3354 1196 173
3324 1255 414
3281 1354 759
3240 1511 1185
3215 1741 1667
3231 2072 2147
3268 2429 2572
3315 2782 2924
3360 3101 3187
3373 1413 238
3362 1498 495
3342 1630 862
3324 1818 1313
3315 2071 1817
3331 2398 2302
3359 2732 2715
3388 3048 3042
3412 3323 3267
3402 1648 310
3404 1755 585
3401 1913 974
3398 2124 1445
3400 2389 1963
3415 2699 2442
3433 2998 2838
3450 3269 3139
3459 3492 3335
3436 1884 388
3444 2005 682
3451 2178 1088
3458 2401 1571
3466 2667 2092
3478 2955 2559
3490 3218 2935
3497 3443 3213
3498 3617 3387
3475 2118 476
3480 2237 785
3488 2412 1199
3498 2633 1682
3509 2893 2195
3519 3157 2645
3525 3386 3001
3528 3569 3261
3528 3699 3421
3517 2345 578
3510 2443 894
3510 2601 1302
3517 2809 1769
3527 3054 2263
3535 3297 2693
3539 3497 3033
3542 3647 3281
3549 3742 3437
