Assets/1__3DArt/KimSe/artstation_asset/LUTs_pasterls/3DL/Orange Cream 04.3dl
# Enhanced with VOXCOLOR algorithms
0 128 256 384 512 640 768 896 1023
273 482 193
297 567 479
313 678 818
324 815 1190
330 981 1574
334 1190 1929
337 1417 2242
339 1650 2506
337 1879 2714
292 551 194
318 669 509
338 812 872
351 982 1262
358 1178 1658
361 1406 2012
366 1645 2319
377 1889 2576
398 2132 2780
342 692 230
374 837 572
399 1009 957
417 1206 1362
427 1427 1764
432 1668 2113
443 1912 2408
466 2156 2650
508 2395 2842
427 900 296
466 1066 665
498 1260 1067
522 1477 1482
538 1713 1885
549 1959 2223
569 2200 2502
605 2433 2726
663 2656 2898
548 1169 392
596 1349 782
636 1556 1197
668 1783 1615
691 2023 2013
712 2263 2334
744 2491 2594
791 2704 2798
859 2903 2951
706 1469 501
760 1654 905
808 1861 1325
849 2084 1739
884 2314 2124
920 2537 2427
965 2743 2668
1020 2932 2855
1089 3103 2995
859 1739 593
919 1923 1003
974 2125 1425
1024 2338 1835
1070 2554 2210
1121 2758 2497
1178 2944 2723
1240 3110 2897
1304 3257 3028
988 1954 660
1053 2132 1069
1113 2326 1488
1170 2526 1895
1225 2728 2262
1288 2914 2539
1356 3084 2756
1422 3233 2923
1480 3359 3048
1076 2088 691
1144 2258 1089
1208 2441 1506
1268 2630 1911
1326 2818 2277
1395 2994 2551
1470 3153 2766
1538 3292 2929
1590 3404 3051
809 526 183
818 621 495
821 747 859
821 907 1254
822 1104 1659
829 1353 2030
838 1617 2354
847 1883 2625
851 2137 2836
752 605 190
815 731 519
839 887 901
837 1073 1312
822 1291 1727
814 1546 2094
817 1809 2408
827 2070 2666
843 2318 2866
729 746 224
811 898 577
849 1079 976
856 1287 1398
845 1522 1817
838 1780 2176
842 2038 2476
859 2288 2717
887 2523 2902
743 943 285
822 1115 661
870 1315 1076
893 1540 1504
897 1785 1921
900 2041 2268
913 2288 2551
938 2521 2775
976 2737 2942
796 1192 370
866 1377 769
919 1589 1195
957 1821 1624
981 2067 2033
1000 2312 2362
1025 2542 2627
1060 2754 2832
1104 2945 2981
895 1471 471
960 1660 883
1017 1870 1313
1065 2097 1736
1104 2332 2131
1140 2558 2441
1180 2766 2688
1223 2954 2877
1270 3119 3016
999 1729 562
1064 1915 980
1125 2119 1408
1180 2334 1824
1231 2554 2207
1281 2760 2501
1333 2948 2733
1386 3115 2911
1437 3258 3042
1093 1945 632
1161 2123 1047
1225 2316 1471
1285 2517 1881
1341 2719 2254
1401 2908 2537
1464 3079 2760
1525 3229 2931
1579 3355 3059
1159 2096 666
1232 2263 1074
1298 2442 1493
1359 2628 1899
1417 2815 2268
1482 2990 2547
1551 3150 2767
1617 3289 2935
1672 3404 3062
1440 559 158
1432 654 476
1419 786 853
1404 962 1267
1393 1184 1694
1395 1467 2086
1400 1767 2428
1405 2066 2714
1404 2344 2934
1331 654 172
1395 780 504
1410 939 895
1393 1136 1322
1363 1373 1758
1347 1656 2145
1344 1945 2474
1348 2228 2742
1354 2488 2946
1253 803 209
1344 953 560
1378 1135 967
1375 1351 1403
1350 1599 1841
1333 1877 2219
1329 2153 2532
1336 2416 2782
1349 2655 2969
1210 999 269
1297 1167 642
1344 1367 1063
1360 1596 1503
1355 1850 1938
1348 2119 2301
1352 2378 2598
1365 2618 2829
1383 2833 2998
1204 1238 349
1275 1418 745
1327 1628 1176
1362 1862 1616
1380 2113 2040
1392 2367 2386
1409 2605 2663
1429 2821 2876
1450 3009 3028
1242 1502 447
1302 1685 858
1355 1893 1292
1400 2120 1725
1435 2358 2133
1465 2591 2458
1497 2805 2716
1529 2996 2913
1555 3159 3055
1292 1751 541
1347 1931 960
1402 2131 1392
1452 2344 1815
1498 2565 2207
1542 2777 2513
1588 2969 2755
1631 3138 2941
1668 3282 3077
1338 1967 618
1396 2137 1038
1452 2324 1465
1505 2522 1878
1556 2724 2256
1609 2916 2547
1665 3090 2779
1720 3243 2957
1768 3371 3090
1368 2129 667
1433 2287 1082
1491 2459 1503
1544 2639 1907
1595 2822 2275
1652 2999 2558
1714 3160 2784
1777 3302 2960
1835 3420 3093
2080 582 121
2055 667 426
2023 795 802
1992 975 1226
1967 1212 1672
1961 1526 2091
1962 1862 2460
1963 2195 2770
1958 2504 3010
1949 698 144
1989 812 463
1986 966 855
1956 1165 1291
1917 1413 1744
1896 1722 2156
1890 2041 2509
1890 2351 2798
1889 2632 3017
1843 859 186
1911 997 524
1929 1172 930
1914 1388 1375
1881 1645 1831
1859 1944 2232
1851 2243 2569
1851 2527 2837
1852 2779 3035
1763 1060 247
1833 1216 607
1866 1408 1026
1872 1635 1476
1857 1895 1928
1843 2180 2315
1840 2457 2633
1843 2712 2881
1845 2934 3059
1714 1296 327
1770 1464 709
1810 1666 1139
1834 1897 1589
1842 2153 2031
1845 2419 2399
1853 2669 2697
1861 2895 2924
1865 3086 3085
1702 1552 426
1746 1723 827
1785 1923 1261
1817 2147 1703
1842 2388 2127
1863 2629 2472
1886 2853 2748
1906 3051 2959
1917 3217 3108
1702 1796 527
1740 1963 941
1778 2155 1374
1815 2365 1804
1849 2588 2208
1884 2806 2530
1920 3005 2787
1954 3180 2985
1980 3326 3128
1702 2012 618
1741 2171 1040
1780 2349 1469
1819 2541 1885
1857 2743 2268
1900 2939 2569
1947 3118 2812
1994 3275 3000
2037 3406 3140
1692 2184 690
1739 2331 1115
1781 2492 1536
1819 2664 1936
1856 2845 2300
1903 3023 2587
1958 3187 2820
2017 3333 3004
2075 3454 3144
2643 599 77
2601 660 349
2550 771 709
2502 942 1131
2465 1183 1590
2458 1522 2038
2463 1894 2443
2472 2269 2790
2475 2617 3066
2527 736 107
2530 827 401
2502 962 778
2459 1151 1214
2415 1401 1679
2398 1732 2119
2396 2083 2504
2401 2429 2826
2403 2744 3075
2424 910 154
2451 1026 469
2444 1184 864
2417 1389 1310
2379 1648 1779
2359 1967 2209
2353 2294 2575
2354 2607 2872
2354 2884 3093
2337 1118 218
2372 1254 556
2382 1430 965
2373 1649 1418
2351 1910 1887
2334 2213 2303
2329 2511 2649
2328 2789 2922
2325 3029 3118
2270 1356 301
2300 1506 661
2319 1694 1083
2326 1918 1539
2322 2176 2000
2317 2456 2397
2318 2724 2721
2319 2966 2971
2315 3170 3145
2230 1611 404
2250 1766 787
2268 1954 1217
2283 2172 1667
2292 2415 2110
2302 2668 2480
2314 2905 2780
2326 3115 3010
2331 3289 3170
2197 1854 515
2213 2007 920
2229 2189 1353
2247 2394 1790
2263 2618 2208
2284 2845 2550
2309 3054 2826
2334 3237 3039
2355 3388 3191
2163 2074 628
2180 2220 1050
2196 2388 1481
2213 2575 1900
2233 2778 2289
2262 2980 2603
2298 3166 2858
2338 3329 3058
2378 3463 3206
2122 2260 735
2146 2392 1171
2164 2541 1593
2180 2705 1989
2199 2885 2348
2233 3068 2635
2279 3237 2874
2332 3386 3066
2389 3508 3212
2992 608 40
2931 637 267
2862 719 595
2798 867 1001
2753 1097 1459
2754 1449 1931
2778 1850 2373
2814 2264 2765
2848 2659 3090
2921 761 74
2889 821 330
2837 925 680
2779 1088 1099
2731 1324 1564
2724 1667 2027
2740 2047 2447
2767 2433 2811
2794 2793 3103
2852 945 123
2841 1032 405
2808 1161 775
2765 1342 1209
2724 1587 1681
2713 1919 2135
2721 2273 2536
2739 2623 2871
2757 2941 3128
2790 1158 188
2791 1268 494
2776 1419 883
2751 1618 1329
2723 1870 1806
2712 2187 2250
2715 2512 2630
2725 2821 2936
2735 3093 3160
2740 1397 270
2744 1526 599
2741 1694 1006
2732 1905 1461
2719 2160 1937
2713 2455 2365
2716 2746 2722
2722 3013 3000
2726 3240 3195
2707 1654 376
2708 1792 732
2708 1967 1151
2706 2178 1606
2702 2422 2068
2704 2690 2469
2712 2944 2798
2722 3172 3052
2732 3361 3227
2677 1902 496
2676 2042 878
2675 2215 1306
2675 2418 1752
2677 2647 2191
2686 2886 2560
2700 3107 2861
2720 3301 3092
2742 3460 3254
2645 2134 626
2643 2267 1036
2640 2429 1466
2639 2616 1894
2643 2824 2300
2658 3037 2635
2681 3230 2908
2712 3398 3121
2750 3534 3274
2606 2338 768
2605 2456 1202
2601 2597 1626
2596 2760 2026
2598 2945 2391
2619 3137 2689
2654 3311 2937
2698 3461 3136
2748 3578 3284
3203 614 16
3128 615 204
3044 670 503
2968 798 890
2916 1014 1344
2926 1371 1832
2969 1789 2301
3031 2231 2728
3096 2662 3095
3178 776 50
3122 808 272
3049 883 594
2978 1020 994
2925 1237 1453
2927 1585 1932
2962 1986 2381
3014 2403 2781
3069 2802 3112
3146 964 99
3108 1025 348
3054 1125 692
2996 1280 1110
2951 1508 1579
2950 1847 2053
2975 2225 2483
3014 2607 2853
3056 2963 3145
3114 1178 163
3091 1265 436
3056 1390 802
3017 1567 1238
2985 1808 1719
2983 2136 2186
2999 2484 2596
3026 2825 2935
3053 3131 3187
3088 1417 243
3076 1525 539
3057 1675 926
3036 1871 1378
3018 2121 1866
3017 2431 2322
3026 2744 2710
3042 3039 3017
3058 3292 3233
3074 1675 346
3065 1797 668
3053 1961 1074
3042 2165 1533
3032 2412 2015
3033 2694 2448
3040 2967 2807
3053 3215 3085
3069 3422 3274
3063 1929 464
3053 2057 816
3044 2224 1236
3035 2427 1693
3030 2664 2157
3033 2917 2559
3041 3151 2887
3057 3357 3138
3079 3525 3308
3051 2171 599
3038 2294 983
3026 2454 1409
3016 2646 1852
3011 2865 2287
3017 3090 2651
3030 3292 2948
3052 3464 3175
3084 3600 3333
3034 2394 754
3016 2498 1168
2997 2638 1591
2982 2808 2006
2974 3005 2397
2985 3207 2721
3008 3386 2988
3039 3534 3197
3079 3643 3345
3305 615 3
3221 595 163
3128 632 440
3045 745 813
2990 950 1262
3005 1306 1758
3062 1730 2243
3143 2186 2692
3230 2634 3086
3316 777 35
3246 789 229
3161 842 527
3080 958 912
3022 1160 1365
3032 1508 1854
3081 1920 2322
3153 2357 2747
3232 2781 3106
3316 965 82
3263 1006 302
3194 1082 624
3127 1215 1027
3078 1428 1493
3085 1772 1980
3125 2166 2433
3184 2573 2829
3246 2957 3147
3312 1178 143
3277 1245 386
3228 1349 731
3180 1507 1156
3146 1737 1639
3153 2075 2126
3183 2444 2562
3225 2811 2927
3269 3145 3201
3310 1413 219
3291 1505 484
3263 1638 853
3236 1823 1300
3217 2070 1798
3223 2394 2280
3243 2729 2696
3269 3049 3028
3295 3327 3260
3318 1671 315
3308 1781 605
3294 1936 997
3279 2137 1459
3270 2388 1960
3274 2686 2424
3286 2979 2812
3302 3246 3112
3320 3470 3312
3333 1929 424
3324 2049 743
3315 2213 1153
3307 2421 1622
3302 2668 2114
3305 2936 2551
3312 3186 2907
3323 3405 3177
3340 3580 3354
3349 2181 550
3337 2296 898
3325 2458 1319
3316 2659 1781
3312 2894 2252
3315 3134 2655
3321 3347 2979
3333 3523 3222
3352 3657 3382
3367 2420 696
3343 2513 1071
3322 2655 1491
3306 2839 1931
3298 3054 2365
3303 3270 2730
3313 3454 3024
3330 3599 3246
3354 3699 3396
3324 610 0
3240 582 148
3146 613 415
3062 721 782
3007 922 1229
3025 1275 1728
3085 1695 2216
3169 2144 2670
3260 2585 3067
3357 764 30
3282 766 204
3192 808 489
3107 915 866
3049 1110 1317
3062 1457 1812
3118 1871 2288
3199 2312 2723
3286 2738 3090
3376 947 74
3318 975 271
3243 1039 576
3171 1161 972
3121 1366 1437
3134 1712 1935
3183 2116 2401
3252 2535 2811
3325 2930 3140
3389 1155 131
3351 1209 349
3298 1300 679
3247 1448 1097
3213 1673 1582
3228 2019 2085
3267 2403 2539
3319 2790 2921
3370 3141 3207
3402 1386 202
3385 1467 441
3357 1589 795
3330 1767 1239
3314 2015 1746
3329 2353 2249
3358 2709 2687
3391 3050 3038
3420 3347 3280
3429 1641 287
3426 1744 549
3417 1893 930
3406 2095 1396
3402 2354 1915
3415 2670 2406
3434 2982 2818
3452 3268 3136
3463 3505 3343
3466 1900 381
3469 2015 666
3469 2181 1068
3469 2395 1549
3472 2656 2070
3481 2944 2542
3491 3211 2925
3498 3443 3211
3500 3622 3391
3511 2158 483
3511 2268 788
3512 2436 1203
3514 2651 1687
3520 2905 2200
3525 3163 2647
3529 3389 3002
3529 3571 3261
3528 3700 3422
3565 2409 594
3551 2493 914
3542 2643 1329
3539 2844 1800
3542 3084 2292
3544 3316 2712
3544 3507 3042
3544 3650 3284
3549 3742 3437
