Assets/1__3DArt/KimSe/artstation_asset/LUTs_pasterls/3DL/Orange Cream 02.3dl
# Enhanced with VOXCOLOR algorithms
0 256 512 768 1023
145 321 161
415 586 886
567 822 1663
589 996 2348
546 1092 2842
182 1456 333
310 1591 1099
387 1680 1856
398 1706 2501
377 1705 3016
444 2553 575
502 2607 1289
553 2651 2042
553 2620 2672
486 2511 3146
1179 3378 1078
1163 3375 1479
1182 3378 2058
1165 3347 2681
1083 3260 3183
2088 3854 1750
1925 3815 1796
1858 3781 2060
1808 3742 2585
1734 3710 3131
1747 539 335
1839 698 942
1888 913 1636
1875 1128 2354
1788 1272 2965
1589 1461 322
1717 1615 1021
1677 1758 1777
1595 1856 2466
1501 1886 3030
1505 2446 453
1553 2559 1155
1544 2649 1926
1483 2665 2593
1361 2586 3101
1729 3266 869
1712 3318 1379
1719 3356 1999
1698 3344 2614
1598 3264 3115
2278 3819 1549
2180 3822 1777
2126 3811 2097
2091 3779 2558
2045 3747 3046
3048 824 585
3093 829 1023
3089 978 1636
3034 1211 2368
2935 1382 3020
2862 1496 385
2906 1604 1006
2854 1768 1737
2761 1941 2445
2664 2034 3028
2691 2330 325
2698 2462 1042
2658 2603 1850
2577 2706 2555
2461 2715 3083
2615 3140 580
2587 3231 1237
2571 3317 1975
2546 3360 2623
2476 3339 3112
2712 3750 1179
2679 3797 1631
2665 3835 2154
2672 3841 2656
2674 3822 3076
3667 1036 786
3737 938 1084
3753 1008 1609
3703 1240 2359
3628 1455 3069
3598 1564 519
3618 1604 1044
3608 1727 1724
3549 1929 2443
3472 2100 3065
3557 2255 339
3541 2368 1012
3507 2517 1839
3440 2686 2596
3358 2820 3160
3479 3028 511
3448 3130 1178
3422 3251 2013
3390 3364 2774
3357 3453 3326
3374 3680 1035
3356 3748 1531
3361 3838 2219
3390 3901 2909
3419 3922 3435
3854 1076 867
3926 951 1096
3955 985 1587
3921 1201 2341
3854 1429 3067
3868 1575 619
3903 1571 1079
3925 1662 1724
3894 1867 2457
3826 2078 3109
3951 2188 438
3950 2276 1045
3941 2426 1867
3898 2644 2674
3824 2870 3282
4002 2916 664
3995 3020 1257
3982 3175 2113
3951 3366 2973
3902 3555 3588
3999 3597 1237
3994 3670 1647
3993 3805 2374
3997 3934 3224
3999 3999 3886
