Assets/1__3DArt/KimSe/artstation_asset/LUTs_pasterls/3DL/Orange Cream 02 S.3dl
# Enhanced with VOXCOLOR algorithms
0 128 256 384 512 640 768 896 1023
145 321 161
294 456 513
415 586 886
507 708 1272
567 822 1663
587 917 2026
589 996 2348
575 1055 2623
546 1092 2842
149 887 243
252 988 614
336 1077 991
399 1153 1371
442 1218 1749
456 1267 2098
458 1306 2414
450 1338 2693
437 1364 2932
182 1456 332
252 1529 714
310 1591 1099
355 1642 1482
387 1679 1856
398 1698 2196
398 1706 2501
390 1707 2775
377 1705 3016
270 2015 439
316 2064 815
358 2108 1201
392 2144 1586
418 2169 1962
427 2170 2296
424 2156 2594
409 2130 2857
386 2095 3088
441 2552 573
471 2579 919
501 2607 1289
528 2632 1667
551 2650 2042
558 2645 2378
551 2619 2673
527 2575 2928
486 2511 3146
764 3004 788
777 3015 1059
796 3029 1371
817 3042 1709
835 3052 2062
838 3045 2397
827 3020 2697
797 2976 2958
748 2911 3175
1164 3375 1067
1153 3372 1245
1156 3374 1476
1165 3377 1750
1175 3378 2059
1172 3368 2380
1157 3347 2683
1128 3312 2954
1083 3260 3183
1615 3659 1392
1568 3647 1475
1545 3638 1614
1535 3631 1807
1530 3623 2051
1519 3608 2345
1499 3590 2642
1470 3566 2922
1431 3534 3168
2088 3854 1750
1990 3832 1750
1925 3815 1796
1884 3799 1898
1858 3781 2060
1836 3761 2308
1808 3742 2585
1774 3724 2868
1734 3710 3131
963 420 235
1047 525 563
1119 637 909
1177 753 1270
1219 869 1642
1236 977 2008
1233 1070 2349
1211 1144 2656
1168 1196 2919
897 920 260
988 1005 611
1044 1089 976
1073 1173 1348
1086 1256 1724
1087 1330 2080
1079 1392 2409
1059 1441 2708
1025 1473 2973
851 1442 309
923 1505 675
963 1569 1054
981 1631 1438
985 1692 1819
983 1741 2168
973 1775 2486
952 1794 2773
918 1798 3029
846 1970 389
887 2013 754
914 2059 1137
930 2107 1527
939 2153 1912
939 2183 2257
930 2194 2566
905 2186 2840
863 2157 3081
905 2488 508
919 2513 849
937 2545 1219
954 2580 1603
970 2614 1986
975 2631 2330
965 2626 2634
934 2595 2898
877 2538 3124
1096 2939 711
1095 2953 992
1106 2973 1311
1122 2995 1656
1138 3017 2014
1144 3024 2353
1133 3012 2657
1099 2976 2923
1037 2913 3147
1376 3319 980
1359 3324 1184
1358 3333 1432
1366 3343 1715
1378 3352 2026
1380 3351 2346
1367 3336 2647
1336 3304 2918
1280 3252 3150
1733 3622 1307
1692 3619 1429
1670 3619 1592
1661 3618 1796
1659 3614 2040
1653 3604 2324
1636 3588 2611
1607 3563 2885
1564 3530 3131
2154 3843 1685
2077 3833 1730
2020 3823 1805
1981 3811 1916
1955 3796 2073
1934 3776 2302
1908 3757 2560
1879 3739 2828
1844 3723 3087
1747 539 335
1780 598 627
1812 680 943
1842 783 1281
1869 900 1640
1879 1020 2006
1871 1126 2355
1841 1212 2678
1788 1272 2965
1608 957 293
1656 1007 626
1680 1075 979
1689 1160 1345
1694 1260 1717
1699 1364 2075
1695 1454 2409
1675 1523 2717
1633 1565 2994
1495 1419 291
1529 1457 649
1543 1511 1028
1546 1581 1415
1549 1666 1801
1557 1753 2154
1557 1823 2476
1541 1870 2768
1501 1886 3031
1425 1907 332
1431 1932 699
1436 1974 1088
1442 2031 1487
1452 2102 1880
1466 2171 2231
1469 2219 2545
1452 2241 2823
1405 2229 3069
1411 2405 422
1393 2420 775
1391 2451 1157
1400 2495 1552
1419 2550 1944
1438 2600 2295
1442 2627 2603
1420 2625 2871
1361 2585 3102
1510 2859 602
1484 2870 909
1478 2892 1249
1487 2923 1609
1506 2960 1978
1524 2991 2320
1526 3003 2625
1500 2987 2892
1438 2939 3118
1691 3252 850
1659 3260 1095
1648 3274 1375
1651 3293 1680
1665 3314 2004
1676 3327 2323
1674 3327 2620
1651 3307 2886
1597 3264 3116
1949 3574 1165
1909 3580 1342
1886 3588 1547
1876 3596 1779
1876 3601 2038
1877 3599 2318
1869 3589 2595
1848 3570 2857
1810 3541 3094
2278 3819 1549
2223 3822 1654
2179 3822 1777
2147 3819 1922
2125 3811 2096
2109 3797 2317
2091 3780 2557
2070 3763 2805
2045 3747 3046
2456 675 454
2453 678 701
2458 723 984
2469 806 1299
2485 921 1645
2490 1051 2009
2476 1168 2363
2441 1265 2695
2384 1331 2994
2255 1003 344
2249 1008 655
2244 1051 994
2244 1130 1353
2257 1243 1721
2277 1375 2078
2285 1493 2413
2273 1585 2723
2232 1639 3005
2096 1398 285
2075 1402 639
2061 1441 1018
2060 1513 1408
2077 1617 1796
2108 1742 2150
2129 1850 2473
2128 1929 2765
2093 1966 3029
1987 1842 279
1946 1845 655
1926 1877 1055
1928 1939 1463
1950 2030 1863
1988 2138 2219
2015 2229 2534
2017 2289 2813
1979 2303 3059
1937 2318 332
1880 2319 705
1855 2344 1105
1858 2394 1515
1884 2468 1919
1924 2553 2275
1950 2619 2587
1947 2655 2856
1900 2647 3087
1982 2776 480
1924 2779 819
1897 2800 1187
1897 2837 1571
1918 2890 1956
1951 2947 2303
1972 2988 2611
1965 3003 2876
1916 2982 3101
2085 3180 699
2034 3189 990
2007 3207 1309
2002 3234 1647
2014 3266 1993
2037 3297 2318
2050 3316 2614
2044 3317 2875
2005 3294 3099
2246 3521 995
2204 3534 1226
2177 3551 1482
2165 3567 1756
2165 3583 2044
2174 3592 2331
2178 3593 2603
2172 3585 2855
2148 3565 3078
2463 3787 1371
2428 3801 1536
2398 3814 1716
2375 3824 1912
2360 3828 2123
2353 3821 2352
2346 3810 2586
2338 3795 2815
2326 3780 3035
3048 824 585
3024 768 782
3016 773 1026
3020 833 1315
3035 938 1646
3039 1075 2011
3022 1203 2371
2987 1309 2712
2935 1382 3020
2810 1064 412
2760 1022 697
2737 1035 1018
2740 1102 1365
2767 1218 1727
2805 1372 2083
2827 1515 2419
2826 1630 2731
2795 1699 3016
2632 1392 298
2562 1362 645
2529 1380 1021
2531 1446 1411
2566 1560 1799
2622 1714 2154
2666 1857 2477
2684 1970 2768
2663 2033 3030
2515 1791 245
2432 1770 627
2392 1790 1036
2392 1850 1453
2427 1952 1861
2490 2091 2220
2541 2221 2537
2566 2322 2814
2549 2374 3056
2462 2242 255
2369 2229 647
2323 2246 1065
2318 2296 1492
2348 2379 1911
2407 2492 2276
2457 2597 2592
2480 2676 2861
2459 2714 3086
2483 2698 366
2395 2695 734
2346 2712 1131
2333 2751 1542
2352 2812 1949
2398 2890 2311
2438 2962 2625
2458 3015 2890
2439 3038 3107
2534 3112 553
2462 3120 881
2417 3140 1239
2400 3171 1615
2407 3211 1993
2438 3258 2338
2468 3299 2641
2484 3328 2902
2474 3338 3115
2611 3467 821
2563 3486 1096
2529 3509 1401
2511 3535 1724
2509 3561 2055
2525 3582 2366
2543 3597 2648
2556 3605 2897
2556 3603 3106
2712 3750 1179
2692 3775 1390
2674 3802 1627
2660 3826 1881
2654 3844 2146
2659 3849 2408
2665 3845 2653
2671 3836 2878
2674 3822 3076
3423 950 699
3406 859 854
3403 834 1061
3413 869 1321
3431 958 1634
3434 1091 2000
3418 1225 2369
3386 1342 2725
3343 1426 3048
3211 1140 498
3155 1066 751
3135 1054 1046
3145 1101 1374
3181 1205 1723
3224 1362 2079
3249 1517 2421
3252 1650 2742
3229 1739 3035
3064 1421 351
2982 1367 676
2948 1364 1037
2954 1415 1417
2995 1520 1801
3057 1679 2159
3105 1839 2486
3130 1979 2782
3121 2076 3045
2978 1780 262
2880 1744 633
2833 1748 1037
2831 1796 1454
2868 1890 1867
2933 2035 2234
2990 2185 2558
3026 2322 2837
3027 2424 3074
2950 2200 239
2842 2180 627
2783 2188 1050
2769 2228 1488
2793 2303 1921
2851 2421 2301
2907 2548 2629
2946 2670 2901
2953 2771 3117
2971 2645 322
2867 2639 691
2803 2651 1100
2776 2684 1531
2785 2739 1962
2829 2823 2348
2876 2916 2681
2914 3010 2955
2929 3096 3166
2996 3056 482
2910 3066 815
2851 3087 1192
2820 3117 1595
2817 3157 2007
2846 3211 2385
2884 3269 2716
2920 3331 2992
2943 3394 3206
3019 3419 727
2963 3443 1009
2920 3473 1336
2894 3506 1695
2886 3539 2069
2905 3569 2424
2932 3597 2742
2962 3625 3013
2988 3655 3230
3035 3715 1062
3018 3749 1281
3004 3789 1544
2994 3831 1839
2993 3866 2157
3006 3882 2473
3024 3887 2763
3042 3882 3019
3057 3872 3229
3667 1036 786
3669 932 908
3679 891 1085
3695 907 1320
3712 975 1617
3712 1098 1984
3694 1233 2362
3664 1359 2731
3628 1455 3069
3516 1212 587
3478 1123 805
3469 1094 1071
3486 1123 1377
3521 1208 1713
3555 1354 2070
3572 1509 2419
3570 1652 2751
3547 1760 3055
3423 1468 427
3357 1400 720
3331 1382 1057
3341 1415 1422
3378 1501 1799
3428 1649 2161
3464 1812 2496
3481 1968 2800
3472 2098 3067
3379 1793 317
3295 1749 660
3254 1741 1048
3251 1773 1459
3280 1848 1874
3332 1983 2251
3376 2140 2584
3404 2302 2870
3407 2455 3104
3380 2182 270
3282 2158 637
3226 2158 1051
3208 2185 1492
3222 2243 1935
3265 2353 2333
3309 2490 2676
3344 2646 2957
3358 2814 3166
3406 2606 337
3308 2601 687
3244 2610 1092
3212 2635 1531
3211 2680 1980
3243 2759 2392
3281 2863 2749
3318 2993 3040
3345 3147 3251
3416 3008 485
3333 3023 799
3273 3046 1174
3237 3075 1589
3227 3112 2026
3248 3165 2439
3281 3236 2804
3319 3329 3107
3356 3448 3332
3408 3372 717
3353 3404 980
3309 3442 1306
3280 3483 1680
3269 3522 2084
3284 3557 2484
3312 3595 2846
3346 3644 3156
3383 3709 3397
3374 3680 1035
3359 3723 1238
3345 3779 1500
3336 3838 1813
3337 3890 2166
3353 3916 2536
3375 3928 2882
3399 3928 3188
3419 3922 3435
3803 1079 843
3828 979 942
3851 933 1097
3871 936 1314
3885 986 1600
3879 1095 1967
3859 1226 2351
3830 1355 2729
3796 1459 3077
3728 1273 673
3723 1188 857
3733 1151 1094
3754 1163 1377
3781 1224 1700
3796 1348 2058
3795 1492 2415
3779 1636 2757
3751 1757 3070
3695 1522 519
3668 1456 773
3666 1429 1081
3681 1444 1427
3708 1504 1795
3732 1628 2162
3741 1779 2507
3734 1942 2820
3710 2098 3091
3697 1824 401
3654 1782 706
3638 1765 1068
3642 1779 1466
3662 1830 1879
3685 1942 2268
3698 2091 2615
3696 2269 2910
3676 2465 3143
3724 2180 339
3670 2160 670
3640 2154 1065
3630 2167 1500
3638 2205 1949
3656 2297 2365
3668 2432 2728
3670 2613 3020
3656 2841 3228
3754 2577 400
3696 2579 714
3658 2588 1102
3639 2606 1539
3636 2638 1999
3647 2705 2436
3659 2813 2820
3666 2970 3131
3664 3187 3349
3763 2964 546
3712 2988 824
3675 3016 1181
3652 3047 1596
3643 3080 2046
3651 3129 2491
3663 3206 2893
3676 3324 3227
3687 3496 3471
3747 3325 779
3713 3367 1005
3686 3416 1311
3667 3467 1682
3660 3512 2103
3667 3549 2543
3680 3595 2953
3697 3661 3307
3715 3759 3581
3704 3643 1095
3694 3694 1263
3686 3766 1503
3683 3844 1811
3685 3913 2182
3697 3948 2601
3711 3965 3007
3727 3969 3371
3739 3966 3663
3854 1076 867
3895 992 952
3926 951 1096
3947 949 1304
3955 985 1587
3944 1079 1955
3921 1201 2341
3890 1325 2720
3854 1429 3067
3847 1315 749
3884 1253 904
3917 1219 1113
3943 1218 1375
3957 1251 1688
3946 1344 2049
3920 1467 2412
3883 1600 2759
3839 1725 3073
3868 1575 619
3902 1531 833
3935 1504 1108
3962 1500 1430
3977 1528 1789
3965 1617 2164
3933 1745 2520
3887 1901 2841
3828 2073 3112
3906 1864 505
3938 1836 764
3969 1817 1094
3994 1813 1474
4008 1835 1883
3994 1916 2285
3958 2047 2647
3900 2226 2954
3823 2454 3187
3951 2189 435
3982 2180 720
4010 2173 1087
4031 2174 1510
4041 2191 1962
4026 2259 2395
3988 2383 2778
3923 2576 3086
3830 2849 3297
3984 2554 496
4012 2569 764
4037 2582 1125
4054 2597 1551
4063 2617 2015
4050 2671 2473
4015 2775 2884
3955 2948 3218
3863 3213 3447
4002 2919 652
4026 2958 882
4047 2996 1210
4063 3031 1612
4071 3063 2066
4061 3107 2536
4033 3186 2971
3984 3320 3338
3908 3533 3604
4007 3272 900
4024 3328 1078
4041 3392 1351
4055 3455 1706
4063 3508 2128
4057 3548 2599
4038 3599 3051
4005 3676 3449
3957 3799 3754
3999 3597 1237
4006 3658 1358
4017 3748 1559
4030 3846 1844
4039 3931 2216
4037 3975 2675
4027 3996 3135
4013 4001 3554
3999 3999 3886
