Assets/1__3DArt/KimSe/artstation_asset/LUTs_pasterls/3DL/Orange Cream 04 S.3dl
# Enhanced with VOXCOLOR algorithms
0 64 128 192 256 320 384 448 512 576 640 704 768 832 896 960 1023
273 482 193
285 525 336
297 567 479
307 616 635
313 678 818
320 739 1002
324 815 1190
327 898 1382
330 981 1574
332 1086 1751
334 1190 1929
336 1299 2096
337 1417 2242
339 1534 2388
339 1650 2506
338 1764 2610
337 1879 2714
282 516 194
295 567 344
307 618 494
318 675 657
325 745 845
333 815 1034
337 898 1226
341 989 1421
344 1080 1616
346 1189 1793
347 1298 1970
349 1411 2137
352 1531 2280
354 1651 2424
358 1770 2541
363 1888 2644
368 2006 2747
292 551 194
305 610 352
318 669 509
329 734 678
337 812 872
346 890 1065
351 982 1262
354 1080 1460
358 1178 1658
359 1292 1835
361 1406 2012
363 1523 2178
366 1645 2319
369 1767 2460
377 1889 2576
388 2011 2678
398 2132 2780
309 604 204
323 670 368
337 736 532
350 809 708
359 895 906
368 981 1105
374 1079 1305
378 1184 1505
382 1289 1705
384 1407 1882
385 1525 2058
388 1645 2222
392 1769 2360
397 1892 2499
409 2016 2612
425 2138 2712
441 2261 2812
342 692 230
358 765 401
374 837 572
388 917 754
399 1009 957
410 1102 1160
417 1206 1362
422 1316 1563
427 1426 1764
429 1547 1939
432 1668 2113
436 1789 2274
443 1912 2408
450 2035 2542
466 2155 2650
487 2275 2746
508 2395 2842
375 781 256
393 860 434
411 939 612
427 1024 800
439 1124 1007
451 1223 1214
459 1333 1418
465 1448 1621
471 1564 1823
475 1687 1995
478 1810 2168
484 1933 2326
493 2055 2456
503 2177 2585
523 2295 2689
549 2412 2780
575 2529 2871
426 901 296
446 984 480
466 1067 664
484 1157 857
498 1260 1067
512 1364 1277
522 1477 1482
529 1595 1683
537 1713 1885
542 1836 2054
548 1959 2223
556 2080 2377
568 2199 2502
580 2318 2627
604 2432 2726
634 2544 2812
663 2656 2898
486 1036 343
508 1122 533
530 1209 723
550 1302 920
566 1409 1132
582 1515 1344
594 1630 1548
604 1749 1749
613 1868 1949
621 1990 2114
629 2111 2279
640 2230 2429
655 2345 2548
670 2460 2668
697 2568 2762
729 2674 2843
761 2779 2925
546 1171 390
571 1261 586
595 1351 781
617 1447 983
635 1557 1197
653 1666 1411
666 1783 1615
678 1903 1814
689 2023 2012
700 2143 2173
710 2263 2334
723 2380 2480
742 2490 2595
760 2601 2709
789 2704 2798
824 2803 2875
859 2903 2951
623 1324 444
649 1414 643
675 1505 842
699 1601 1046
720 1710 1260
740 1819 1474
756 1934 1676
770 2052 1872
785 2169 2068
799 2285 2224
813 2400 2381
829 2512 2522
851 2617 2632
872 2721 2742
903 2818 2827
939 2910 2900
974 3003 2973
700 1477 497
728 1568 700
756 1659 902
782 1755 1109
805 1864 1323
827 1972 1538
846 2085 1738
863 2200 1931
880 2315 2124
898 2426 2276
915 2537 2427
935 2644 2563
960 2743 2669
985 2842 2774
1017 2932 2856
1053 3017 2925
1089 3103 2995
776 1622 546
806 1713 752
836 1804 957
864 1900 1165
888 2007 1380
912 2114 1594
934 2225 1792
954 2337 1983
973 2449 2173
995 2555 2320
1016 2661 2468
1040 2763 2600
1068 2857 2701
1096 2950 2803
1129 3034 2881
1164 3113 2947
1200 3191 3014
850 1751 588
881 1841 794
912 1931 1000
942 2025 1208
968 2130 1422
994 2234 1637
1018 2341 1833
1041 2449 2021
1063 2557 2209
1088 2658 2353
1113 2760 2497
1140 2857 2625
1171 2945 2724
1202 3033 2822
1236 3111 2898
1270 3184 2963
1304 3257 3028
923 1881 629
956 1969 836
989 2058 1042
1020 2151 1252
1048 2252 1465
1076 2354 1679
1103 2457 1874
1128 2561 2059
1153 2665 2245
1182 2761 2385
1210 2858 2526
1241 2950 2651
1275 3033 2746
1309 3116 2842
1343 3188 2916
1376 3255 2979
1409 3322 3042
980 1965 655
1013 2052 860
1047 2139 1065
1079 2231 1273
1108 2330 1486
1137 2429 1699
1165 2529 1893
1192 2630 2077
1219 2730 2262
1250 2823 2400
1281 2916 2539
1313 3005 2663
1349 3085 2757
1385 3165 2851
1418 3234 2924
1449 3296 2986
1480 3359 3048
1028 2026 673
1062 2112 875
1095 2199 1077
1128 2288 1283
1158 2385 1496
1188 2482 1709
1216 2580 1902
1245 2677 2086
1273 2774 2269
1305 2865 2407
1338 2955 2545
1372 3041 2668
1410 3119 2761
1447 3197 2854
1478 3263 2926
1507 3322 2988
1535 3382 3050
1076 2088 691
1110 2173 890
1144 2258 1089
1177 2346 1293
1208 2441 1506
1238 2535 1718
1268 2630 1911
1297 2724 2094
1326 2818 2277
1361 2906 2414
1395 2994 2551
1431 3078 2673
1470 3153 2766
1508 3229 2858
1538 3292 2929
1564 3348 2990
1590 3404 3051
541 504 188
548 548 338
556 593 488
562 644 651
565 710 840
568 776 1029
570 859 1224
572 950 1420
574 1041 1617
577 1156 1799
581 1270 1980
584 1389 2150
587 1516 2298
591 1644 2446
593 1766 2565
593 1887 2670
594 2008 2775
529 542 189
543 594 345
556 647 502
566 706 670
570 779 865
574 851 1059
576 941 1257
577 1038 1456
578 1135 1656
580 1253 1836
582 1371 2017
584 1492 2186
588 1620 2331
592 1749 2476
597 1873 2593
602 1995 2696
607 2117 2799
518 581 190
537 641 353
557 701 515
571 767 690
576 847 889
581 927 1088
582 1022 1290
582 1126 1492
581 1229 1694
582 1350 1874
583 1471 2054
585 1595 2222
589 1724 2364
594 1853 2506
602 1979 2621
611 2102 2722
620 2225 2823
515 637 199
539 704 368
563 771 537
581 844 718
587 931 921
593 1018 1125
595 1119 1329
594 1227 1534
593 1336 1738
594 1460 1917
594 1584 2096
596 1709 2261
602 1838 2400
608 1967 2538
619 2092 2650
633 2215 2749
646 2338 2847
530 727 223
554 800 399
579 874 574
599 954 761
607 1046 968
616 1139 1176
620 1244 1382
622 1357 1587
624 1469 1792
625 1594 1969
627 1719 2145
631 1844 2308
639 1971 2442
647 2098 2577
662 2220 2684
680 2340 2778
698 2459 2872
544 817 247
570 897 430
596 977 612
617 1063 804
628 1161 1015
640 1260 1227
646 1370 1435
650 1486 1640
654 1602 1846
657 1728 2021
661 1854 2195
666 1979 2354
676 2105 2485
686 2230 2615
704 2349 2718
727 2464 2807
749 2580 2897
579 934 285
605 1019 473
631 1103 661
653 1194 858
667 1296 1072
682 1399 1285
691 1511 1493
697 1629 1698
704 1746 1903
710 1871 2074
716 1996 2245
724 2119 2401
736 2240 2527
749 2362 2652
770 2475 2750
795 2586 2835
820 2696 2920
622 1065 330
649 1153 523
676 1242 716
699 1336 917
716 1441 1132
733 1546 1348
744 1660 1555
754 1778 1759
764 1896 1962
773 2018 2129
782 2141 2296
793 2261 2448
808 2377 2568
823 2494 2689
846 2602 2783
874 2706 2863
901 2810 2943
666 1196 374
693 1288 573
720 1380 771
745 1478 976
764 1586 1193
783 1694 1410
798 1809 1617
811 1928 1819
824 2046 2021
836 2166 2184
848 2286 2347
862 2403 2494
880 2514 2610
898 2626 2726
923 2728 2815
952 2826 2891
982 2924 2966
730 1342 426
758 1435 628
786 1528 830
812 1626 1036
833 1734 1253
855 1841 1470
872 1955 1675
888 2071 1874
904 2187 2073
919 2302 2231
935 2417 2390
952 2529 2533
973 2634 2644
994 2740 2755
1021 2835 2841
1051 2926 2913
1080 3017 2986
793 1487 478
822 1581 683
851 1675 888
878 1773 1097
902 1881 1314
926 1988 1531
946 2100 1733
965 2214 1929
984 2327 2124
1003 2438 2278
1022 2548 2433
1042 2655 2571
1066 2754 2678
1090 2853 2785
1119 2943 2867
1149 3027 2936
1179 3111 3005
857 1626 527
887 1720 734
917 1814 941
946 1912 1151
971 2018 1368
997 2125 1585
1020 2234 1785
1042 2345 1978
1063 2455 2171
1086 2561 2320
1108 2667 2470
1132 2769 2604
1159 2862 2707
1186 2956 2810
1215 3039 2889
1246 3117 2956
1276 3194 3023
920 1752 570
952 1844 777
983 1936 985
1014 2032 1195
1041 2136 1411
1068 2240 1627
1094 2346 1825
1117 2453 2015
1141 2560 2205
1167 2661 2351
1192 2762 2497
1219 2859 2628
1249 2947 2728
1279 3036 2828
1309 3113 2905
1340 3185 2970
1370 3257 3036
984 1878 612
1017 1968 820
1050 2058 1029
1081 2152 1239
1111 2253 1454
1140 2355 1669
1167 2457 1865
1193 2560 2052
1219 2664 2239
1248 2760 2382
1276 2857 2524
1306 2949 2652
1339 3032 2749
1372 3115 2846
1403 3187 2921
1433 3254 2985
1464 3320 3049
1033 1963 640
1067 2051 846
1101 2139 1053
1134 2231 1262
1164 2330 1476
1193 2428 1690
1222 2528 1885
1249 2628 2071
1277 2728 2256
1307 2821 2397
1338 2914 2537
1370 3003 2663
1404 3083 2758
1439 3163 2854
1470 3232 2928
1500 3294 2991
1529 3357 3054
1075 2027 659
1110 2114 863
1145 2200 1067
1178 2289 1274
1208 2385 1487
1239 2482 1701
1268 2578 1895
1296 2675 2080
1324 2772 2264
1356 2863 2404
1388 2953 2543
1421 3040 2668
1457 3117 2762
1493 3195 2857
1524 3261 2930
1552 3321 2993
1580 3380 3055
1118 2092 678
1153 2176 880
1188 2260 1081
1222 2348 1287
1253 2441 1499
1284 2535 1712
1313 2629 1905
1343 2723 2089
1372 2817 2273
1405 2904 2411
1438 2992 2549
1473 3076 2673
1510 3152 2766
1547 3227 2860
1577 3291 2932
1604 3347 2994
1631 3404 3056
809 526 183
812 572 340
815 618 496
816 672 666
816 742 861
816 812 1057
817 902 1257
818 1002 1459
819 1101 1661
823 1226 1846
827 1351 2031
832 1479 2204
838 1616 2354
843 1753 2504
847 1883 2625
849 2010 2731
851 2137 2836
776 568 184
791 622 347
805 675 509
815 736 684
815 812 884
816 888 1084
815 983 1287
813 1087 1491
812 1190 1696
814 1317 1880
816 1444 2063
819 1574 2235
825 1710 2381
831 1846 2528
836 1976 2645
842 2102 2748
847 2228 2851
744 611 186
770 672 354
796 732 522
813 800 702
815 882 907
816 964 1111
813 1063 1317
809 1171 1524
804 1280 1731
804 1408 1914
804 1537 2096
806 1668 2266
812 1804 2408
818 1940 2551
826 2068 2666
835 2193 2766
843 2318 2866
721 670 194
754 738 368
788 805 542
811 880 728
814 967 937
817 1055 1145
815 1158 1354
810 1270 1562
805 1382 1771
804 1512 1952
803 1642 2133
805 1773 2300
812 1908 2439
818 2042 2578
829 2169 2689
840 2292 2786
852 2415 2882
717 761 217
751 836 397
785 910 577
809 991 768
816 1083 980
823 1176 1192
824 1282 1402
822 1397 1611
820 1511 1820
822 1640 1999
823 1770 2178
827 1900 2342
836 2031 2476
844 2162 2611
857 2285 2718
872 2404 2810
887 2523 2902
714 853 239
747 934 425
781 1015 612
807 1101 808
817 1199 1024
828 1296 1239
833 1407 1451
834 1523 1660
836 1640 1869
839 1769 2046
843 1898 2222
849 2026 2383
859 2154 2514
870 2283 2644
885 2402 2746
904 2516 2834
922 2631 2922
731 968 274
764 1054 466
796 1140 658
823 1231 858
837 1332 1076
851 1433 1294
859 1545 1505
865 1662 1713
870 1779 1922
877 1906 2095
883 2032 2268
892 2158 2425
905 2281 2551
917 2405 2677
935 2518 2775
956 2627 2858
976 2736 2942
759 1094 316
790 1184 513
821 1275 709
848 1370 914
865 1474 1133
883 1578 1352
895 1690 1562
905 1807 1769
914 1924 1975
924 2047 2144
934 2171 2314
946 2292 2467
961 2410 2588
976 2528 2710
996 2635 2803
1018 2738 2883
1040 2841 2962
786 1220 358
816 1315 559
846 1410 761
873 1509 969
894 1616 1189
914 1722 1410
931 1836 1620
945 1952 1824
958 2069 2029
972 2189 2194
985 2309 2360
1000 2426 2509
1018 2538 2626
1035 2650 2743
1057 2752 2832
1080 2848 2907
1104 2945 2982
836 1359 409
866 1455 613
896 1551 817
924 1650 1027
947 1757 1247
970 1863 1466
989 1975 1674
1006 2090 1875
1023 2204 2077
1040 2319 2238
1057 2434 2399
1075 2546 2544
1095 2652 2656
1116 2758 2769
1138 2853 2855
1163 2942 2927
1187 3032 2999
886 1498 459
916 1595 666
946 1691 873
975 1791 1085
1000 1898 1304
1025 2004 1523
1047 2115 1729
1068 2227 1927
1088 2339 2125
1108 2449 2281
1128 2559 2438
1149 2666 2578
1172 2765 2687
1196 2865 2795
1220 2953 2878
1245 3036 2947
1270 3119 3016
937 1631 508
967 1728 717
998 1824 926
1028 1924 1138
1055 2029 1356
1082 2135 1575
1107 2243 1778
1130 2353 1973
1153 2462 2168
1176 2568 2320
1200 2673 2472
1224 2774 2609
1250 2868 2713
1275 2961 2818
1301 3044 2898
1327 3121 2965
1353 3197 3032
991 1753 552
1023 1847 761
1054 1941 970
1085 2038 1182
1114 2142 1399
1142 2245 1617
1169 2350 1817
1194 2456 2009
1219 2562 2201
1245 2663 2349
1271 2764 2498
1298 2861 2631
1326 2949 2732
1355 3038 2834
1382 3115 2912
1409 3186 2978
1436 3258 3043
1045 1876 596
1078 1967 805
1111 2058 1015
1143 2153 1226
1173 2254 1442
1203 2355 1658
1231 2457 1856
1258 2560 2045
1285 2663 2234
1314 2759 2379
1342 2856 2523
1372 2948 2653
1403 3031 2751
1434 3114 2850
1463 3186 2926
1491 3252 2991
1519 3318 3055
1087 1961 625
1121 2050 833
1155 2139 1040
1188 2231 1251
1219 2329 1466
1250 2427 1680
1279 2527 1877
1307 2626 2064
1335 2726 2251
1365 2819 2393
1395 2912 2536
1426 3001 2663
1459 3081 2760
1492 3161 2857
1522 3230 2932
1550 3292 2996
1578 3355 3060
1123 2029 645
1158 2115 851
1194 2201 1057
1227 2290 1265
1258 2386 1479
1289 2481 1693
1319 2577 1888
1347 2674 2074
1376 2770 2259
1407 2861 2400
1438 2951 2541
1471 3038 2667
1505 3116 2763
1539 3193 2859
1569 3259 2934
1597 3319 2997
1625 3379 3061
1159 2096 666
1196 2179 870
1232 2263 1074
1267 2349 1280
1298 2442 1493
1329 2535 1705
1359 2628 1899
1388 2722 2084
1417 2815 2268
1449 2903 2408
1482 2991 2547
1515 3074 2672
1551 3150 2767
1586 3226 2862
1617 3289 2935
1645 3347 2999
1672 3404 3062
1101 545 174
1098 591 336
1096 637 497
1093 692 672
1089 765 872
1085 839 1073
1083 935 1278
1083 1042 1485
1082 1149 1692
1087 1283 1882
1091 1418 2071
1096 1557 2248
1103 1703 2401
1109 1849 2554
1113 1987 2677
1115 2120 2784
1117 2253 2891
1049 593 176
1061 645 343
1074 698 510
1081 759 690
1078 837 895
1074 916 1100
1071 1015 1308
1067 1125 1517
1063 1234 1726
1066 1370 1914
1068 1506 2101
1072 1645 2276
1078 1789 2425
1085 1934 2574
1090 2069 2692
1095 2200 2796
