Assets/1__3DArt/KimSe/artstation_asset/LUTs_pasterls/3DL/Orange Cream 02.3dl
# Enhanced with VOXCOLOR algorithms
0 64 128 192 256 320 384 448 512 576 640 704 768 832 896 960 1023
145 321 161
219 388 337
294 456 513
361 522 695
415 586 886
469 649 1078
507 708 1272
537 765 1467
567 822 1663
577 870 1844
587 917 2026
593 961 2197
589 996 2348
585 1032 2499
575 1055 2623
560 1074 2733
546 1092 2842
147 604 202
210 663 383
273 722 563
330 779 748
375 831 939
421 884 1130
453 931 1322
479 975 1514
504 1020 1706
513 1056 1884
522 1092 2062
527 1125 2231
524 1151 2381
520 1178 2531
512 1197 2658
502 1212 2773
492 1228 2887
149 887 243
201 937 429
252 988 614
299 1035 801
336 1077 991
373 1118 1182
399 1153 1371
420 1186 1560
442 1218 1749
449 1242 1923
456 1267 2098
460 1289 2264
458 1306 2414
456 1324 2563
450 1338 2693
444 1351 2812
437 1364 2932
159 1171 286
200 1213 475
242 1256 664
279 1296 854
309 1328 1044
340 1361 1235
361 1387 1424
379 1410 1610
397 1433 1797
403 1447 1969
409 1462 2140
412 1475 2304
410 1484 2452
408 1493 2599
404 1501 2730
399 1509 2853
395 1517 2976
182 1456 333
217 1492 523
252 1529 714
284 1563 906
310 1591 1099
336 1619 1293
355 1642 1482
371 1661 1669
387 1680 1856
393 1689 2026
398 1698 2196
401 1704 2357
398 1706 2501
395 1707 2646
390 1707 2774
383 1706 2895
377 1705 3016
205 1741 379
233 1771 571
262 1801 764
288 1830 958
310 1854 1154
332 1878 1350
349 1896 1540
363 1911 1728
377 1926 1915
382 1930 2083
387 1934 2251
389 1934 2409
386 1928 2551
382 1922 2692
375 1913 2819
367 1903 2937
358 1893 3056
271 2016 439
294 2040 628
317 2064 816
339 2087 1006
358 2108 1201
377 2129 1396
393 2144 1586
406 2157 1774
419 2169 1962
423 2170 2129
428 2171 2296
429 2167 2454
424 2157 2594
420 2146 2733
410 2130 2857
398 2113 2973
386 2095 3088
358 2284 507
376 2303 688
395 2322 868
413 2340 1053
430 2358 1245
447 2375 1438
461 2388 1627
474 2399 1814
486 2410 2002
490 2409 2169
494 2408 2337
495 2403 2494
489 2388 2633
482 2374 2772
469 2353 2893
452 2328 3005
436 2303 3117
444 2553 575
459 2566 748
473 2579 921
487 2593 1099
502 2607 1289
517 2622 1479
530 2633 1667
542 2642 1855
553 2651 2042
557 2648 2210
561 2645 2377
561 2638 2535
553 2620 2672
545 2602 2810
528 2575 2928
507 2543 3037
486 2511 3146
608 2779 685
618 2788 839
628 2797 992
638 2807 1153
651 2818 1331
664 2829 1508
675 2838 1688
686 2845 1870
696 2852 2052
699 2849 2219
702 2846 2387
701 2838 2545
692 2820 2684
683 2803 2824
664 2776 2943
641 2743 3052
617 2711 3160
772 3006 795
777 3011 929
782 3016 1063
789 3021 1207
800 3029 1372
811 3037 1537
821 3043 1709
830 3048 1886
840 3053 2062
842 3049 2229
844 3046 2396
842 3038 2555
831 3021 2696
821 3004 2838
800 2976 2957
774 2944 3066
748 2911 3175
956 3213 921
956 3213 1033
955 3214 1146
957 3216 1271
965 3221 1420
973 3225 1569
981 3229 1730
989 3232 1898
997 3235 2066
998 3231 2231
999 3227 2397
995 3219 2555
984 3203 2698
973 3187 2842
952 3161 2964
924 3129 3074
897 3098 3185
1179 3378 1078
1171 3376 1165
1163 3374 1251
1159 3373 1352
1163 3375 1479
1167 3377 1606
1172 3378 1751
1177 3378 1904
1182 3378 2058
1182 3374 2219
1181 3369 2379
1176 3361 2535
1165 3347 2681
1154 3334 2828
1133 3312 2953
1108 3286 3068
1083 3260 3183
1402 3543 1236
1386 3538 1296
1371 3533 1357
1360 3530 1433
1361 3529 1538
1361 3528 1643
1363 3526 1771
1365 3524 1911
1368 3522 2050
1365 3517 2206
1363 3511 2362
1357 3503 2515
1345 3492 2664
1334 3480 2813
1315 3463 2942
1291 3443 3062
1268 3422 3181
1629 3662 1404
1603 3655 1443
1577 3648 1482
1558 3642 1535
1551 3639 1617
1544 3636 1699
1541 3632 1808
1539 3627 1929
1537 3623 2051
1532 3616 2197
1526 3609 2344
1519 3601 2491
1506 3591 2640
1494 3580 2789
1475 3566 2921
1453 3550 3044
1431 3534 3168
1858 3758 1577
1821 3749 1596
1783 3740 1616
1753 3732 1648
1738 3727 1707
1722 3722 1766
1712 3715 1853
1705 3709 1954
1698 3702 2056
1689 3693 2191
1681 3685 2326
1671 3676 2466
1657 3666 2613
1643 3656 2760
1625 3645 2894
1604 3634 3022
1583 3622 3150
2088 3854 1750
2039 3843 1750
1990 3832 1750
1949 3822 1761
1925 3815 1796
1901 3808 1832
1884 3799 1898
1871 3790 1979
1858 3781 2060
1847 3771 2184
1836 3761 2308
1823 3751 2440
1808 3742 2585
1793 3732 2731
1774 3724 2868
1754 3717 3000
1734 3710 3131
554 370 198
613 431 368
673 492 538
727 553 713
771 614 897
814 674 1082
845 733 1270
870 790 1461
896 847 1652
904 898 1834
913 948 2017
917 995 2191
912 1033 2349
906 1072 2506
893 1100 2639
875 1122 2760
857 1144 2881
543 639 226
600 694 401
656 750 576
706 803 754
742 855 940
778 907 1126
802 955 1314
820 1002 1503
838 1048 1693
843 1087 1872
847 1127 2052
848 1163 2223
842 1193 2379
836 1223 2535
824 1245 2670
809 1263 2793
794 1281 2917
533 908 255
586 958 434
640 1007 614
685 1054 795
713 1097 982
741 1139 1169
758 1177 1357
769 1213 1545
780 1249 1733
781 1277 1910
781 1306 2087
780 1332 2256
773 1353 2410
766 1374 2564
756 1390 2700
744 1404 2826
731 1418 2952
528 1180 287
577 1224 470
626 1267 653
666 1308 838
688 1344 1027
710 1379 1216
722 1409 1404
728 1436 1591
734 1463 1779
732 1482 1953
729 1502 2127
725 1519 2294
718 1531 2446
711 1544 2598
701 1554 2733
690 1562 2861
679 1570 2988
532 1457 326
574 1495 511
616 1534 696
651 1570 884
670 1601 1075
690 1633 1267
700 1659 1457
705 1681 1645
711 1704 1834
708 1718 2006
705 1731 2179
700 1742 2344
692 1746 2492
684 1751 2641
673 1752 2773
660 1752 2898
647 1752 3022
537 1734 365
572 1767 553
607 1800 740
636 1832 929
653 1859 1124
670 1887 1318
678 1908 1510
683 1927 1699
687 1946 1888
684 1953 2059
680 1961 2230
675 1965 2393
666 1962 2538
657 1959 2683
645 1951 2813
630 1942 2935
616 1933 3056
577 2001 421
605 2030 604
634 2058 788
658 2085 975
673 2109 1169
688 2133 1363
696 2151 1554
701 2167 1743
706 2183 1933
703 2187 2103
700 2191 2274
695 2191 2435
685 2183 2578
675 2174 2721
660 2160 2848
642 2143 2966
624 2126 3085
634 2265 485
656 2288 661
678 2311 838
698 2334 1020
712 2354 1212
726 2375 1404
734 2391 1594
739 2404 1783
745 2418 1972
743 2420 2142
741 2421 2313
736 2418 2473
726 2406 2615
715 2394 2756
697 2374 2880
675 2350 2995
653 2325 3110
691 2528 548
707 2546 719
723 2565 889
738 2583 1066
751 2600 1255
763 2617 1444
772 2631 1634
778 2642 1823
785 2653 2012
783 2652 2182
782 2652 2352
778 2646 2512
766 2630 2652
755 2614 2792
734 2587 2913
707 2556 3024
681 2525 3135
819 2753 654
830 2767 807
841 2781 961
851 2795 1122
862 2809 1299
873 2823 1477
882 2833 1658
888 2842 1841
895 2851 2024
894 2850 2193
894 2848 2362
889 2842 2522
877 2825 2664
866 2809 2805
843 2783 2926
815 2751 3037
787 2718 3148
947 2978 760
953 2988 896
958 2997 1032
965 3007 1178
974 3018 1344
984 3028 1509
992 3036 1683
999 3043 1860
1005 3049 2037
1005 3047 2205
1005 3044 2373
1001 3037 2533
988 3021 2675
976 3005 2818
952 2978 2939
922 2945 3050
892 2912 3161
1096 3184 882
1096 3190 999
1095 3195 1116
1098 3201 1244
1105 3208 1394
1112 3216 1545
1119 3221 1708
1126 3225 1876
1132 3229 2044
1132 3226 2210
1131 3223 2376
1127 3215 2534
1115 3200 2678
1102 3185 2822
1078 3158 2945
1048 3127 3057
1017 3095 3168
1288 3352 1036
1280 3354 1130
1273 3356 1223
1270 3359 1328
1273 3363 1458
1277 3368 1587
1281 3370 1733
1286 3372 1887
1291 3374 2042
1290 3369 2202
1288 3365 2362
1283 3358 2517
1271 3344 2663
1259 3331 2809
1237 3309 2934
1209 3282 3050
1182 3256 3166
1479 3519 1191
1465 3518 1260
1451 3517 1330
1442 3517 1412
1442 3518 1521
1442 3519 1630
1444 3519 1759
1447 3519 1899
1450 3518 2039
1447 3513 2193
1445 3508 2348
1440 3500 2500
1428 3489 2647
1416 3477 2795
1396 3459 2924
1371 3438 3044
1346 3417 3164
1687 3643 1361
1664 3640 1410
1641 3636 1459
1623 3633 1520
1617 3632 1607
1610 3631 1693
1607 3628 1802
1605 3625 1924
1604 3622 2045
1599 3615 2189
1594 3608 2334
1587 3601 2479
1575 3590 2625
1563 3580 2771
1543 3565 2902
1520 3549 3026
1498 3532 3149
1904 3746 1539
1871 3740 1569
1837 3734 1600
1810 3729 1641
1795 3726 1704
1780 3722 1767
1770 3717 1855
1762 3711 1955
1755 3705 2056
1747 3697 2188
1739 3688 2319
1730 3680 2455
1716 3670 2599
1703 3660 2742
1685 3648 2875
1664 3636 3002
1643 3624 3129
2121 3849 1718
2077 3841 1729
2033 3833 1740
1996 3825 1761
1973 3819 1801
1949 3813 1840
1933 3805 1907
1920 3797 1987
1907 3788 2067
1896 3779 2186
1885 3769 2305
1872 3759 2432
1858 3749 2573
1844 3740 2714
1827 3732 2848
1808 3724 2978
1789 3716 3109
963 420 235
1007 474 399
1052 528 563
1093 584 732
1126 642 909
1159 699 1086
1184 757 1269
1204 815 1455
1224 873 1641
1231 926 1824
1239 979 2008
1241 1028 2184
1234 1071 2349
1228 1113 2513
1211 1144 2656
1190 1170 2787
1168 1196 2919
940 675 250
990 726 419
1040 777 588
1082 828 761
1108 879 941
1135 930 1121
1151 979 1306
1161 1028 1493
1172 1076 1679
1172 1119 1860
1173 1162 2042
1170 1202 2216
1161 1235 2378
1152 1269 2540
1136 1294 2682
1117 1314 2814
1097 1335 2946
916 930 266
972 978 440
1028 1026 613
1071 1073 790
1091 1117 974
1110 1161 1157
1117 1201 1343
1118 1240 1530
1119 1279 1717
1113 1312 1897
1107 1345 2076
1099 1375 2248
1088 1400 2407
1077 1424 2566
1062 1443 2708
1044 1458 2840
1025 1473 2973
896 1189 288
953 1234 465
1010 1279 642
1052 1321 823
1067 1359 1009
1081 1397 1196
1083 1431 1384
1077 1462 1572
1072 1494 1760
1061 1518 1937
1050 1542 2114
1038 1563 2284
1026 1579 2441
1014 1595 2597
998 1606 2737
980 1615 2868
963 1624 3000
883 1457 320
932 1498 499
981 1539 679
1018 1578 861
1031 1612 1052
1044 1646 1242
1045 1676 1431
1040 1702 1621
1034 1729 1811
1023 1747 1986
1012 1765 2162
1000 1779 2330
986 1787 2483
973 1795 2635
956 1798 2772
937 1798 2900
918 1798 3028
869 1726 352
911 1762 534
952 1799 715
984 1834 900
996 1865 1094
1007 1895 1287
1008 1920 1479
1002 1943 1670
997 1965 1861
985 1976 2036
974 1988 2210
961 1995 2376
947 1995 2525
933 1996 2674
914 1990 2807
893 1981 2932
873 1972 3057
883 1987 403
917 2020 581
950 2052 760
977 2083 943
988 2110 1136
999 2137 1329
1000 2159 1521
996 2177 1713
992 2196 1904
982 2204 2078
972 2211 2251
960 2214 2416
945 2209 2562
930 2203 2709
910 2190 2838
886 2173 2960
863 2157 3081
911 2246 462
936 2273 635
962 2301 808
983 2327 987
993 2351 1178
1004 2375 1369
1007 2394 1560
1005 2410 1751
1004 2426 1942
996 2430 2115
988 2434 2288
977 2434 2452
962 2424 2597
947 2414 2741
924 2395 2868
897 2371 2985
870 2347 3102
938 2504 522
956 2527 689
973 2550 857
988 2572 1032
999 2593 1221
1009 2613 1410
1013 2629 1600
1015 2642 1790
1016 2655 1981
1010 2657 2153
1004 2658 2326
995 2654 2488
980 2639 2631
964 2625 2774
939 2600 2897
908 2569 3010
877 2538 3124
1030 2727 623
1042 2746 776
1053 2765 929
1064 2783 1090
1073 2799 1268
1083 2816 1446
1088 2829 1628
1091 2840 1812
1094 2850 1996
1089 2850 2167
1085 2850 2338
1077 2845 2500
1063 2831 2643
1048 2816 2786
1021 2790 2909
989 2758 3022
957 2726 3135
1122 2951 725
1128 2965 863
1133 2979 1001
1140 2993 1149
1148 3006 1315
1156 3020 1482
1162 3029 1656
1167 3038 1834
1171 3046 2012
1169 3044 2181
1166 3043 2350
1160 3037 2511
1146 3022 2655
1131 3006 2799
1104 2979 2921
1071 2946 3034
1037 2913 3146
1237 3156 844
1236 3166 964
1236 3176 1085
1238 3186 1217
1244 3196 1369
1251 3206 1521
1257 3213 1685
1262 3218 1854
1267 3224 2023
1266 3221 2189
1264 3219 2354
1259 3212 2513
1245 3197 2658
1231 3182 2803
1205 3156 2926
1171 3124 3039
1138 3092 3152
1397 3326 994
1390 3332 1094
1384 3339 1194
1380 3345 1304
1384 3352 1437
1387 3358 1569
1391 3363 1716
1395 3366 1870
1399 3369 2025
1398 3365 2184
1396 3362 2344
1391 3355 2499
1378 3342 2644
1365 3328 2790
1341 3306 2916
1311 3279 3033
1281 3252 3149
1557 3495 1145
1544 3498 1224
1531 3501 1302
1523 3504 1392
1523 3508 1504
1523 3511 1616
1525 3512 1747
1528 3513 1887
1531 3513 2027
1530 3509 2180
1528 3504 2333
1523 3497 2484
1511 3486 2631
1499 3474 2777
1477 3456 2906
1450 3434 3026
1423 3412 3146
1746 3625 1318
1725 3625 1377
1704 3625 1437
1688 3625 1506
1682 3625 1596
1676 3626 1686
1673 3625 1797
1671 3622 1918
1670 3620 2039
1666 3614 2181
1662 3608 2323
1655 3600 2466
1643 3590 2609
1631 3579 2753
1612 3564 2884
1588 3547 3007
1564 3530 3131
1950 3734 1502
1920 3731 1543
1891 3729 1583
1866 3726 1633
1851 3724 1700
1837 3722 1768
1827 3718 1857
1820 3713 1956
1813 3708 2056
1805 3700 2185
1798 3692 2313
1789 3683 2445
1776 3673 2585
1763 3663 2725
1745 3651 2856
1725 3639 2982
1704 3627 3109
2154 3843 1685
2115 3838 1708
2077 3833 1730
2043 3828 1760
2021 3823 1805
1998 3818 1849
1981 3811 1916
1968 3804 1995
1955 3796 2073
1944 3786 2188
1934 3776 2302
1922 3767 2424
1908 3757 2560
1895 3747 2696
1879 3739 2828
1861 3731 2957
1844 3723 3087
1363 474 278
1396 520 435
1428 567 592
1458 616 753
1482 670 923
1506 724 1092
1524 780 1270
1539 838 1452
1555 895 1635
1559 951 1818
1564 1006 2002
1564 1058 2181
1556 1104 2350
1547 1149 2519
1528 1184 2669
1503 1212 2809
1479 1241 2950
1329 714 281
1373 760 443
1416 806 605
1452 853 771
1470 902 946
1488 951 1120
1496 1000 1302
1500 1050 1486
1504 1100 1670
1501 1146 1852
1497 1193 2034
1491 1236 2211
1480 1273 2377
1468 1310 2543
1449 1337 2691
1425 1360 2830
