Assets/1__3DArt/KimSe/artstation_asset/LUTs_pasterls/3DL/Orange Cream 02 S.3dl
# Enhanced with VOXCOLOR algorithms
0 256 512 768 1023
145 321 161
415 586 886
567 822 1663
589 996 2348
546 1092 2842
182 1456 332
310 1591 1099
387 1679 1856
398 1706 2501
377 1705 3016
441 2552 573
501 2607 1289
551 2650 2042
551 2619 2673
486 2511 3146
1164 3375 1067
1156 3374 1476
1175 3378 2059
1157 3347 2683
1083 3260 3183
2088 3854 1750
1925 3815 1796
1858 3781 2060
1808 3742 2585
1734 3710 3131
1747 539 335
1812 680 943
1869 900 1640
1871 1126 2355
1788 1272 2965
1495 1419 291
1543 1511 1028
1549 1666 1801
1557 1823 2476
1501 1886 3031
1411 2405 422
1391 2451 1157
1419 2550 1944
1442 2627 2603
1361 2585 3102
1691 3252 850
1648 3274 1375
1665 3314 2004
1674 3327 2620
1597 3264 3116
2278 3819 1549
2179 3822 1777
2125 3811 2096
2091 3780 2557
2045 3747 3046
3048 824 585
3016 773 1026
3035 938 1646
3022 1203 2371
2935 1382 3020
2632 1392 298
2529 1380 1021
2566 1560 1799
2666 1857 2477
2663 2033 3030
2462 2242 255
2323 2246 1065
2348 2379 1911
2457 2597 2592
2459 2714 3086
2534 3112 553
2417 3140 1239
2407 3211 1993
2468 3299 2641
2474 3338 3115
2712 3750 1179
2674 3802 1627
2654 3844 2146
2665 3845 2653
2674 3822 3076
3667 1036 786
3679 891 1085
3712 975 1617
3694 1233 2362
3628 1455 3069
3423 1468 427
3331 1382 1057
3378 1501 1799
3464 1812 2496
3472 2098 3067
3380 2182 270
3226 2158 1051
3222 2243 1935
3309 2490 2676
3358 2814 3166
3416 3008 485
3273 3046 1174
3227 3112 2026
3281 3236 2804
3356 3448 3332
3374 3680 1035
3345 3779 1500
3337 3890 2166
3375 3928 2882
3419 3922 3435
3854 1076 867
3926 951 1096
3955 985 1587
3921 1201 2341
3854 1429 3067
3868 1575 619
3935 1504 1108
3977 1528 1789
3933 1745 2520
3828 2073 3112
3951 2189 435
4010 2173 1087
4041 2191 1962
3988 2383 2778
3830 2849 3297
4002 2919 652
4047 2996 1210
4071 3063 2066
4033 3186 2971
3908 3533 3604
3999 3597 1237
4017 3748 1559
4039 3931 2216
4027 3996 3135
3999 3999 3886
