Assets/1__3DArt/KimSe/artstation_asset/LUTs_pasterls/3DL/Orange Cream 04.3dl
# Enhanced with VOXCOLOR algorithms
0 256 512 768 1023
273 482 193
313 678 818
330 981 1574
337 1417 2242
337 1879 2714
342 692 230
399 1009 957
427 1427 1764
443 1912 2408
508 2395 2842
548 1169 392
636 1556 1197
691 2023 2013
744 2491 2594
859 2903 2951
859 1739 593
974 2125 1425
1070 2554 2210
1178 2944 2723
1304 3257 3028
1076 2088 691
1208 2441 1506
1326 2818 2277
1470 3153 2766
1590 3404 3051
1440 559 158
1419 786 853
1393 1184 1694
1400 1767 2428
1404 2344 2934
1253 803 209
1378 1135 967
1350 1599 1841
1329 2153 2532
1349 2655 2969
1204 1238 349
1327 1628 1176
1380 2113 2040
1409 2605 2663
1450 3009 3028
1292 1751 541
1402 2131 1392
1498 2565 2207
1588 2969 2755
1668 3282 3077
1368 2129 667
1491 2459 1503
1595 2822 2275
1714 3160 2784
1835 3420 3093
2643 599 77
2550 771 709
2465 1183 1590
2463 1894 2443
2475 2617 3066
2424 910 154
2444 1184 864
2379 1648 1779
2353 2294 2575
2354 2884 3093
2270 1356 301
2319 1694 1083
2322 2176 2000
2318 2724 2721
2315 3170 3145
2197 1854 515
2229 2189 1353
2263 2618 2208
2309 3054 2826
2355 3388 3191
2122 2260 735
2164 2541 1593
2199 2885 2348
2279 3237 2874
2389 3508 3212
3203 614 16
3044 670 503
2916 1014 1344
2969 1789 2301
3096 2662 3095
3146 964 99
3054 1125 692
2951 1508 1579
2975 2225 2483
3056 2963 3145
3088 1417 243
3057 1675 926
3018 2121 1866
3026 2744 2710
3058 3292 3233
3063 1929 464
3044 2224 1236
3030 2664 2157
3041 3151 2887
3079 3525 3308
3034 2394 754
2997 2638 1591
2974 3005 2397
3008 3386 2988
3079 3643 3345
3324 610 0
3146 613 415
3007 922 1229
3085 1695 2216
3260 2585 3067
3376 947 74
3243 1039 576
3121 1366 1437
3183 2116 2401
3325 2930 3140
3402 1386 202
3357 1589 795
3314 2015 1746
3358 2709 2687
3420 3347 3280
3466 1900 381
3469 2181 1068
3472 2656 2070
3491 3211 2925
3500 3622 3391
3565 2409 594
3542 2643 1329
3542 3084 2292
3544 3507 3042
3549 3742 3437
