Assets/1__3DArt/KimSe/artstation_asset/LUTs_pasterls/3DL/Orange Cream 03.3dl
# Enhanced with VOXCOLOR algorithms
0 64 128 192 256 320 384 448 512 576 640 704 768 832 896 960 1023
273 482 177
289 523 306
304 565 435
317 612 580
324 669 757
331 727 933
333 798 1121
333 876 1315
332 954 1509
328 1051 1694
323 1149 1879
317 1250 2054
310 1358 2208
303 1467 2363
294 1569 2485
284 1668 2592
273 1766 2698
285 512 184
299 559 318
314 607 452
325 660 602
333 725 783
340 790 963
342 869 1154
342 954 1350
341 1039 1546
336 1142 1731
331 1244 1915
325 1349 2088
318 1461 2239
312 1573 2391
305 1680 2512
299 1786 2618
292 1892 2724
297 542 192
310 595 331
323 648 470
334 708 624
341 781 808
348 854 993
351 940 1187
350 1032 1385
350 1124 1584
345 1232 1767
339 1339 1951
333 1449 2122
327 1564 2270
320 1678 2418
316 1792 2538
314 1904 2644
311 2017 2750
314 588 207
327 646 351
339 705 495
350 771 654
358 852 843
365 932 1032
368 1025 1229
368 1124 1429
368 1223 1629
362 1334 1810
356 1446 1992
350 1559 2161
343 1676 2306
337 1793 2450
335 1909 2567
337 2026 2672
338 2142 2776
343 663 236
356 728 387
370 793 538
381 865 703
390 952 896
398 1040 1089
402 1139 1287
402 1244 1488
402 1348 1688
396 1463 1867
390 1577 2045
383 1692 2210
377 1808 2349
371 1924 2488
372 2039 2601
376 2153 2701
380 2268 2801
371 739 264
386 810 423
400 880 581
413 959 752
422 1053 949
432 1148 1147
435 1253 1346
436 1363 1547
436 1474 1748
430 1591 1923
423 1708 2098
417 1824 2259
411 1940 2393
405 2056 2527
408 2169 2635
415 2281 2731
423 2394 2826
415 843 305
430 919 470
446 994 635
460 1078 812
471 1177 1012
482 1276 1212
486 1385 1412
487 1499 1611
488 1613 1811
482 1730 1982
476 1848 2153
470 1964 2309
465 2077 2438
460 2190 2566
465 2300 2669
474 2407 2760
484 2515 2850
466 962 351
483 1042 523
500 1121 695
516 1209 877
528 1312 1079
540 1415 1282
545 1527 1481
547 1643 1679
549 1758 1876
543 1875 2042
538 1992 2208
533 2106 2360
530 2216 2483
526 2325 2606
532 2430 2704
544 2532 2789
555 2635 2875
517 1080 398
536 1164 576
555 1248 755
572 1340 942
585 1447 1147
598 1554 1352
604 1669 1550
606 1786 1746
609 1904 1941
604 2020 2103
600 2136 2264
596 2249 2411
594 2355 2528
592 2461 2645
600 2561 2738
613 2658 2818
626 2754 2899
588 1223 453
608 1309 636
628 1395 819
646 1488 1009
660 1595 1214
674 1702 1419
681 1816 1616
685 1932 1808
689 2048 2000
688 2161 2157
686 2274 2313
685 2383 2455
686 2484 2567
687 2585 2679
697 2680 2768
712 2771 2845
726 2862 2922
659 1366 507
680 1453 695
701 1541 883
720 1635 1076
735 1743 1282
750 1851 1487
759 1963 1681
764 2077 1870
770 2192 2059
771 2301 2210
772 2411 2362
774 2516 2499
779 2613 2606
783 2710 2714
795 2799 2798
811 2885 2872
826 2970 2945
732 1506 560
753 1595 751
775 1683 943
795 1778 1139
810 1885 1344
826 1992 1549
837 2102 1741
844 2215 1927
852 2327 2112
856 2433 2259
860 2539 2406
866 2640 2538
875 2733 2641
883 2826 2744
897 2910 2826
914 2990 2896
931 3070 2967
808 1642 609
830 1730 802
851 1817 995
871 1911 1191
888 2015 1396
904 2120 1600
916 2227 1789
926 2336 1972
936 2444 2154
945 2546 2297
954 2648 2440
964 2746 2569
978 2835 2669
992 2924 2768
1008 3004 2847
1026 3079 2916
1044 3154 2984
884 1778 658
906 1865 852
928 1952 1047
948 2043 1244
965 2146 1447
982 2248 1650
996 2352 1838
1008 2457 2017
1020 2562 2197
1033 2660 2335
1047 2758 2474
1062 2852 2599
1081 2937 2696
1100 3022 2793
1119 3098 2869
1138 3168 2936
1156 3239 3002
947 1886 694
968 1970 888
990 2054 1081
1010 2143 1278
1027 2243 1480
1045 2342 1683
1060 2442 1869
1074 2543 2046
1087 2644 2223
1105 2739 2360
1122 2834 2496
1141 2924 2618
1164 3007 2713
1188 3089 2807
1208 3161 2882
1226 3227 2946
1245 3293 3011
1003 1979 725
1024 2060 916
1045 2141 1107
1065 2227 1302
1082 2323 1505
1099 2418 1707
1115 2515 1891
1131 2612 2067
1146 2710 2243
1167 2801 2377
1188 2893 2511
1210 2980 2631
1237 3060 2724
1264 3140 2817
1285 3208 2889
1303 3271 2952
1321 3333 3015
1060 2072 755
1080 2150 944
1100 2228 1134
1120 2310 1327
1137 2403 1529
1154 2495 1730
1171 2588 1914
1188 2681 2088
1205 2775 2262
1229 2863 2394
1253 2951 2526
1280 3036 2645
1311 3114 2735
1341 3191 2826
1363 3256 2897
1380 3314 2958
1397 3372 3019
516 504 179
532 547 313
547 590 447
560 640 597
566 702 779
573 764 961
574 841 1155
573 927 1354
571 1012 1554
566 1119 1743
560 1226 1932
553 1337 2111
544 1454 2267
535 1571 2422
524 1681 2545
510 1787 2652
497 1893 2758
513 538 188
532 587 326
552 636 465
568 692 619
574 761 804
579 830 990
579 914 1186
576 1005 1387
572 1097 1588
564 1207 1776
556 1317 1964
548 1430 2140
539 1549 2292
529 1667 2444
520 1780 2565
510 1890 2670
500 2000 2776
509 571 196
533 627 339
558 682 482
576 745 640
581 821 829
586 897 1019
584 987 1217
578 1084 1420
573 1181 1623
563 1294 1809
553 1408 1995
543 1523 2168
533 1643 2317
523 1763 2466
516 1879 2585
509 1992 2689
503 2106 2793
511 618 210
538 680 359
566 742 507
586 811 670
591 894 863
597 976 1056
594 1072 1257
587 1175 1460
580 1278 1664
569 1394 1848
557 1510 2032
546 1627 2202
536 1747 2347
526 1868 2491
521 1984 2607
517 2100 2709
514 2215 2811
525 694 238
552 761 393
579 829 548
599 904 717
607 993 914
614 1083 1111
613 1184 1313
607 1292 1516
601 1399 1720
590 1517 1900
578 1635 2080
567 1753 2247
558 1871 2386
548 1990 2525
544 2104 2636
544 2217 2734
543 2329 2831
538 770 266
565 843 428
592 916 590
613 997 765
623 1093 965
632 1189 1166
632 1296 1369
627 1408 1572
622 1521 1775
611 1640 1952
599 1759 2128
589 1878 2291
579 1995 2424
570 2112 2558
568 2224 2665
570 2334 2758
571 2444 2851
567 871 304
593 949 473
620 1027 642
641 1112 822
652 1213 1025
663 1313 1228
665 1424 1431
662 1539 1633
658 1654 1834
648 1773 2007
638 1892 2179
628 2009 2336
620 2123 2464
612 2237 2593
611 2345 2694
615 2450 2783
619 2556 2872
604 986 348
629 1067 524
655 1149 699
676 1238 884
689 1343 1089
701 1447 1295
705 1559 1496
704 1676 1696
703 1793 1895
694 1911 2063
685 2028 2230
677 2144 2382
670 2253 2505
664 2363 2628
665 2466 2724
670 2566 2808
675 2666 2892
640 1100 392
665 1186 574
690 1272 756
711 1365 946
725 1473 1153
740 1581 1361
745 1695 1561
746 1814 1759
747 1932 1956
739 2048 2119
732 2165 2281
726 2278 2428
721 2384 2545
716 2490 2663
718 2588 2754
725 2682 2833
732 2777 2912
697 1236 444
722 1324 630
746 1411 816
767 1506 1009
782 1614 1217
798 1722 1424
805 1835 1623
808 1952 1817
810 2068 2011
807 2182 2168
803 2295 2326
800 2404 2468
798 2505 2580
796 2607 2693
801 2700 2781
810 2789 2857
818 2878 2932
754 1373 496
778 1462 686
802 1551 877
823 1647 1073
839 1755 1280
856 1863 1488
864 1976 1684
869 2090 1875
874 2205 2065
874 2315 2218
873 2425 2370
873 2530 2508
875 2627 2615
877 2723 2723
884 2811 2807
894 2895 2880
904 2978 2952
813 1508 546
837 1598 740
861 1688 934
882 1783 1132
899 1891 1339
916 1998 1546
926 2109 1740
933 2221 1927
941 2334 2115
944 2440 2262
947 2546 2410
950 2648 2543
956 2740 2647
962 2833 2751
972 2916 2832
984 2994 2901
995 3073 2971
877 1640 594
901 1728 789
924 1817 984
946 1912 1183
963 2017 1389
981 2122 1595
993 2229 1786
1002 2338 1970
1011 2446 2154
1019 2549 2298
1026 2651 2442
1035 2749 2571
1046 2837 2672
1057 2926 2772
1070 3005 2851
1084 3079 2919
1097 3153 2987
942 1771 641
965 1859 838
988 1947 1034
1010 2040 1233
1027 2142 1438
1045 2245 1643
1059 2349 1832
1071 2454 2012
1082 2559 2193
1094 2657 2333
1106 2756 2473
1119 2849 2599
1136 2935 2696
1152 3020 2793
1168 3095 2870
1184 3164 2937
1199 3234 3003
996 1878 678
1019 1964 874
1042 2049 1069
1063 2140 1268
1081 2239 1471
1099 2338 1675
1114 2439 1862
1128 2540 2040
1141 2641 2219
1157 2735 2356
1173 2830 2493
1190 2921 2616
1211 3003 2711
1232 3085 2807
1250 3156 2882
1267 3222 2947
1284 3288 3012
1046 1973 709
1068 2056 903
1091 2138 1096
1112 2225 1293
1130 2321 1496
1148 2416 1699
1164 2513 1884
1179 2610 2061
1194 2707 2237
1214 2798 2373
1233 2889 2508
1254 2977 2629
1279 3057 2722
1304 3136 2816
1324 3205 2889
1342 3267 2953
1359 3330 3016
1095 2068 739
1118 2147 932
1140 2227 1124
1161 2310 1319
1179 2402 1521
1197 2495 1723
1214 2587 1906
1231 2680 2081
1247 2773 2256
1270 2861 2389
1293 2949 2522
1318 3033 2641
1347 3110 2733
1376 3188 2825
1398 3253 2897
1416 3312 2959
1435 3371 3021
759 527 182
775 571 321
790 616 460
802 668 614
808 734 802
814 800 989
815 884 1188
812 977 1393
810 1070 1599
804 1187 1792
797 1303 1986
789 1423 2168
778 1549 2325
767 1676 2482
753 1793 2605
737 1907 2712
721 2020 2819
740 563 191
766 615 334
791 666 477
810 725 636
815 797 826
819 870 1017
816 959 1218
809 1057 1424
803 1154 1630
792 1272 1821
781 1390 2013
770 1511 2191
759 1636 2344
747 1762 2497
734 1879 2618
721 1994 2723
707 2108 2828
721 599 199
757 658 346
792 716 494
817 782 657
821 861 851
824 940 1045
818 1034 1247
806 1136 1454
795 1238 1661
780 1357 1850
766 1477 2039
752 1598 2215
739 1723 2364
727 1848 2513
715 1966 2631
705 2081 2733
694 2196 2836
708 649 214
750 714 366
792 779 519
821 850 686
825 936 883
828 1021 1081
820 1120 1285
806 1226 1492
792 1333 1700
775 1453 1886
758 1574 2072
743 1696 2244
730 1819 2388
716 1942 2532
706 2060 2647
698 2174 2747
690 2289 2847
707 724 240
747 795 400
788 865 559
817 943 732
824 1034 932
830 1125 1133
824 1229 1338
812 1340 1545
800 1450 1751
783 1571 1933
767 1692 2115
751 1813 2283
738 1934 2422
725 2055 2561
717 2169 2671
711 2280 2766
705 2391 2862
705 800 267
745 876 433
784 952 599
814 1035 777
823 1132 982
832 1230 1186
828 1339 1391
818 1453 1597
808 1567 1803
792 1689 1981
775 1811 2159
760 1931 2322
747 2049 2456
735 2167 2589
728 2278 2694
724 2386 2786
720 2494 2877
719 899 304
756 979 476
794 1059 648
822 1146 832
833 1248 1038
845 1350 1245
844 1462 1450
836 1578 1654
829 1695 1858
814 1815 2031
800 1936 2205
786 2054 2363
775 2169 2491
763 2283 2619
758 2390 2719
756 2493 2806
754 2596 2893
741 1009 345
775 1093 524
809 1177 702
836 1268 891
850 1373 1099
863 1478 1307
865 1592 1511
861 1710 1713
856 1827 1915
844 1946 2083
832 2065 2251
821 2181 2404
811 2291 2527
801 2401 2649
798 2503 2745
797 2600 2827
796 2698 2909
763 1120 387
794 1207 572
825 1295 757
851 1389 950
866 1498 1160
882 1607 1370
886 1722 1572
885 1841 1772
884 1960 1971
875 2077 2134
865 2194 2298
856 2307 2446
848 2413 2563
840 2519 2680
837 2615 2771
838 2707 2848
838 2799 2926
806 1250 436
835 1339 625
864 1428 814
889 1524 1010
905 1632 1219
922 1741 1429
928 1855 1630
930 1972 1825
931 2089 2021
925 2203 2180
920 2316 2338
914 2425 2481
910 2527 2594
905 2628 2706
905 2719 2794
908 2806 2868
910 2893 2943
849 1380 485
876 1471 678
903 1561 871
927 1658 1070
944 1767 1279
961 1876 1489
970 1989 1687
974 2104 1879
979 2218 2071
976 2328 2225
974 2438 2378
972 2544 2517
971 2641 2625
971 2737 2733
973 2824 2816
977 2905 2888
982 2987 2960
895 1509 532
920 1601 729
946 1692 925
969 1789 1126
987 1897 1335
1005 2005 1544
1016 2116 1739
1023 2228 1928
1029 2341 2117
1031 2447 2266
1033 2553 2415
1035 2655 2549
1038 2747 2653
1042 2839 2757
1047 2921 2837
1053 2998 2906
1060 3075 2976
947 1637 579
972 1727 776
997 1817 973
1020 1913 1174
1038 2018 1382
1057 2124 1590
1069 2231 1782
1078 2340 1968
1087 2449 2153
1093 2551 2298
1099 2653 2443
1106 2751 2574
1114 2840 2675
1123 2928 2776
1132 3006 2854
1142 3079 2922
1151 3152 2990
999 1764 625
1024 1853 823
1048 1943 1022
1071 2036 1223
1090 2139 1429
1108 2242 1635
1122 2347 1825
1133 2452 2007
1145 2557 2190
1155 2655 2331
1165 2753 2472
1177 2847 2598
1191 2932 2696
1205 3017 2794
1218 3091 2871
1230 3160 2938
1243 3229 3004
1045 1871 661
1070 1958 859
1094 2045 1057
1116 2136 1257
1135 2235 1462
1154 2335 1667
1169 2435 1855
1182 2536 2034
1195 2638 2214
1210 2732 2352
1224 2827 2490
1239 2917 2615
1258 2999 2710
1277 3081 2806
1293 3152 2882
1308 3218 2947
1323 3284 3012
1088 1968 693
1112 2051 889
1137 2135 1085
1159 2223 1284
1178 2319 1488
1197 2414 1691
1213 2511 1877
1228 2608 2054
1243 2705 2232
1260 2795 2368
1278 2886 2504
1297 2974 2626
1320 3053 2721
1343 3132 2815
1363 3201 2889
1380 3264 2953
1398 3327 3018
1131 2064 724
1155 2145 919
1179 2226 1114
1202 2310 1311
1221 2402 1513
1240 2494 1715
1257 2586 1899
1274 2679 2075
1290 2772 2250
1311 2859 2384
1332 2946 2518
1355 3030 2638
1383 3107 2731
1410 3184 2823
1433 3250 2896
1453 3310 2960
1472 3370 3023
1029 548 181
1043 594 323
1058 639 465
1069 692 624
1073 762 816
1077 832 1008
1077 921 1212
1074 1021 1423
1071 1121 1634
1063 1247 1832
1055 1372 2031
1046 1501 2216
1034 1636 2375
1022 1771 2535
1005 1897 2659
987 2017 2767
968 2138 2875
996 588 190
1025 641 336
1053 694 483
1073 754 645
1076 829 840
1079 905 1035
1073 999 1241
1064 1102 1453
1054 1206 1664
1042 1331 1859
1029 1457 2054
1016 1585 2236
1003 1718 2391
989 1850 2546
974 1974 2667
957 2093 2772
