Assets/1__3DArt/KimSe/artstation_asset/LUTs_pasterls/3DL/Pastelopolis 03.3dl
# Enhanced with VOXCOLOR algorithms
0 128 256 384 512 640 768 896 1023
353 466 883
337 588 1126
298 721 1428
244 864 1781
184 1014 2177
150 1174 2601
161 1335 3015
238 1491 3401
401 1638 3742
279 883 966
251 1030 1210
219 1181 1511
187 1336 1861
158 1493 2252
149 1646 2666
174 1792 3065
246 1933 3435
382 2070 3765
290 1386 1077
282 1541 1327
279 1698 1633
281 1855 1985
289 2008 2373
312 2146 2771
358 2271 3147
439 2387 3489
569 2499 3789
423 1940 1226
451 2087 1480
486 2235 1791
526 2382 2143
569 2521 2525
621 2638 2901
688 2737 3247
781 2825 3553
913 2904 3812
713 2511 1419
779 2631 1674
848 2755 1982
919 2878 2326
989 2993 2691
1060 3084 3039
1139 3157 3349
1238 3216 3617
1365 3264 3835
1190 2998 1681
1267 3081 1920
1343 3170 2205
1417 3259 2520
1486 3344 2850
1551 3410 3159
1622 3461 3433
1706 3500 3666
1809 3527 3855
1683 3380 1963
1751 3430 2173
1815 3487 2424
1874 3545 2701
1926 3602 2989
1975 3648 3258
2027 3683 3497
2088 3707 3702
2161 3720 3870
2127 3651 2236
2170 3675 2408
2209 3705 2617
2243 3738 2852
2271 3772 3097
2296 3802 3330
2327 3825 3540
2363 3840 3723
2405 3845 3876
2457 3806 2473
2464 3811 2598
2471 3823 2764
2476 3839 2958
2478 3857 3166
2483 3877 3371
2494 3893 3560
2507 3903 3729
2521 3902 3870
985 525 899
996 611 1130
1002 712 1428
1002 833 1786
993 975 2198
989 1153 2647
1011 1344 3077
1078 1544 3468
1209 1746 3799
891 881 956
938 1004 1189
944 1135 1487
921 1275 1844
882 1427 2252
855 1591 2685
863 1758 3097
920 1925 3473
1043 2092 3796
843 1329 1043
906 1471 1283
924 1617 1587
911 1766 1946
877 1917 2349
857 2064 2764
869 2202 3153
928 2334 3503
1048 2462 3802
876 1839 1168
945 1981 1416
983 2127 1726
996 2273 2085
991 2415 2479
993 2539 2872
1020 2648 3232
1086 2745 3549
1201 2832 3815
1024 2382 1338
1099 2507 1591
1159 2636 1902
1204 2764 2254
1234 2886 2632
1263 2985 2996
1307 3065 3321
1377 3129 3601
1480 3181 3830
1349 2874 1581
1424 2967 1824
1492 3065 2117
1550 3163 2444
1597 3256 2790
1637 3330 3116
1685 3387 3403
1747 3429 3648
1829 3457 3847
1731 3281 1859
1795 3341 2078
1856 3408 2340
1910 3475 2631
1955 3540 2935
1993 3592 3219
2034 3632 3471
2082 3658 3686
2141 3672 3860
2118 3590 2152
2161 3622 2333
2201 3659 2554
2237 3699 2800
2266 3739 3058
2291 3773 3301
2318 3800 3520
2349 3817 3709
2387 3822 3866
2457 3792 2439
2469 3801 2572
2479 3815 2743
2487 3833 2939
2490 3853 3149
2493 3874 3356
2502 3891 3547
2516 3903 3716
2534 3905 3860
1657 598 903
1671 664 1124
1698 741 1416
1731 839 1775
1763 967 2199
1783 1151 2668
1809 1365 3115
1855 1599 3514
1940 1845 3841
1553 900 933
1618 1005 1158
1640 1117 1454
1632 1242 1816
1605 1385 2238
1582 1556 2692
1582 1740 3121
1619 1932 3505
1706 2128 3824
1469 1296 996
1549 1423 1229
1574 1555 1532
1559 1695 1897
1516 1843 2315
1480 1998 2751
1473 2151 3157
1507 2301 3518
1594 2447 3818
1431 1760 1099
1507 1893 1341
1541 2032 1650
1540 2174 2016
1512 2317 2425
1486 2450 2839
1485 2571 3217
1519 2682 3548
1600 2782 3821
1468 2268 1249
1535 2391 1497
1581 2520 1809
1605 2651 2169
1608 2778 2563
1604 2886 2948
1618 2977 3292
1655 3052 3589
1723 3112 3829
1648 2755 1477
1709 2851 1719
1761 2955 2018
1801 3059 2356
1826 3160 2719
1842 3243 3065
1866 3309 3371
1902 3359 3632
1955 3392 3842
1901 3176 1750
1952 3243 1973
2000 3317 2245
2042 3393 2549
2074 3467 2871
2098 3527 3174
2124 3573 3441
2156 3605 3669
2197 3623 3853
2192 3516 2053
2228 3555 2245
2264 3600 2477
2295 3647 2736
2320 3694 3009
2339 3735 3267
2360 3766 3498
2385 3787 3696
2416 3797 3860
2487 3761 2375
2503 3776 2521
2516 3795 2702
2525 3817 2907
2529 3841 3126
2533 3865 3339
2541 3886 3535
2555 3900 3709
2576 3906 3855
2309 685 898
2312 740 1111
2344 800 1395
2395 878 1752
2454 989 2182
2497 1171 2667
2525 1397 3131
2551 1657 3542
2586 1941 3869
2211 939 905
2257 1028 1122
2280 1124 1415
2288 1234 1779
2285 1366 2211
2280 1540 2684
2282 1738 3131
2300 1952 3527
2344 2178 3848
2114 1286 943
2176 1396 1170
2197 1515 1471
2188 1644 1841
2157 1787 2271
2126 1947 2729
2113 2114 3155
2125 2284 3530
2170 2454 3835
2038 1704 1024
2096 1823 1259
2119 1952 1568
2113 2088 1940
2080 2229 2363
2044 2371 2800
2026 2507 3200
2034 2634 3548
2075 2752 3830
1998 2174 1155
2045 2289 1397
2073 2413 1708
2081 2542 2076
2065 2672 2486
2041 2791 2895
2030 2895 3263
2037 2984 3578
2068 3058 3832
2055 2645 1371
2092 2741 1609
2124 2845 1911
2144 2952 2259
2149 3060 2640
2143 3153 3009
2144 3230 3337
2155 3291 3617
2180 3335 3841
2178 3070 1638
2209 3141 1862
2239 3220 2141
2264 3302 2458
2280 3384 2798
2287 3453 3123
2296 3508 3410
2311 3549 3654
2334 3575 3852
2352 3430 1946
2377 3477 2145
2402 3529 2388
2423 3584 2662
2439 3639 2953
2450 3687 3229
2462 3725 3475
2479 3752 3686
2502 3768 3859
2564 3711 2287
2581 3734 2448
2594 3760 2643
2603 3790 2862
2608 3821 3095
2611 3850 3321
2619 3875 3527
2633 3894 3707
2654 3905 3857
2882 784 890
2872 835 1095
2899 885 1370
2955 948 1720
3031 1040 2148
3095 1211 2644
3131 1441 3124
3145 1719 3551
3144 2036 3889
2807 996 875
2822 1073 1087
2837 1155 1374
2855 1251 1736
2879 1370 2170
2901 1541 2658
2914 1748 3124
2922 1982 3537
2929 2238 3867
2725 1299 890
2751 1392 1111
2761 1496 1409
2759 1614 1780
2748 1748 2217
2737 1911 2694
2730 2090 3142
2730 2281 3536
2740 2477 3852
2644 1674 947
2670 1776 1176
2678 1891 1483
2669 2018 1859
2642 2155 2293
2611 2303 2753
2590 2453 3177
2581 2600 3547
2589 2742 3842
2570 2105 1059
2588 2206 1294
2595 2320 1605
2588 2444 1978
2563 2574 2402
2528 2701 2836
2503 2820 3230
2490 2927 3569
2492 3020 3839
2537 2552 1265
2547 2641 1498
2554 2741 1800
2554 2849 2157
2541 2959 2554
2519 3062 2948
2502 3152 3302
2493 3227 3604
2495 3288 3846
2547 2969 1528
2554 3041 1750
2562 3121 2032
2568 3208 2361
2565 3295 2719
2555 3374 3068
2548 3439 3378
2548 3492 3643
2556 3530 3856
2603 3337 1836
2611 3389 2039
2620 3448 2292
2628 3511 2580
2632 3575 2891
2631 3630 3188
2633 3677 3453
2641 3713 3680
2657 3738 3864
2705 3641 2182
2717 3674 2356
2726 3710 2568
2732 3749 2805
2736 3789 3058
2740 3826 3301
2747 3858 3521
2760 3883 3712
2780 3901 3867
3252 876 882
3240 927 1080
3261 973 1347
3313 1028 1687
3393 1104 2106
3473 1260 2605
3523 1483 3097
3544 1768 3541
3534 2106 3898
3218 1057 855
3214 1125 1061
3222 1198 1340
3245 1283 1693
3285 1389 2120
3331 1552 2615
3362 1759 3096
3376 2007 3529
3370 2288 3878
3178 1326 850
3178 1406 1065
3178 1497 1356
3181 1602 1721
3188 1726 2157
3200 1886 2645
3210 2072 3112
3214 2280 3529
3211 2505 3863
3132 1667 883
3132 1753 1106
3126 1854 1408
3116 1969 1782
3100 2098 2221
3085 2249 2697
3076 2409 3145
3069 2577 3539
3065 2748 3855
3077 2065 971
3071 2152 1199
3062 2253 1507
3046 2367 1883
3019 2492 2317
2989 2625 2774
2965 2757 3195
2950 2885 3561
2945 3006 3853
3018 2488 1165
3006 2566 1391
2995 2658 1692
2981 2760 2055
2957 2870 2466
2928 2979 2886
2905 3083 3267
2890 3178 3597
2888 3263 3860
2971 2887 1426
2958 2954 1642
2948 3033 1925
2937 3119 2263
2920 3210 2639
2898 3296 3013
2882 3374 3349
2874 3443 3638
2880 3501 3870
2944 3248 1739
2935 3302 1938
2928 3364 2195
2922 3433 2495
2914 3504 2825
2904 3569 3147
2897 3625 3435
2900 3673 3682
2915 3713 3881
2948 3557 2091
2947 3596 2267
2946 3641 2487
2946 3691 2740
2946 3742 3014
2947 3788 3280
2953 3829 3519
2965 3864 3723
2984 3891 3887
3494 949 877
3484 1000 1070
3501 1044 1330
3548 1093 1662
3628 1157 2072
3716 1297 2570
3779 1510 3069
3810 1792 3526
3803 2140 3899
3497 1106 844
3485 1167 1043
3490 1233 1314
3516 1309 1658
3565 1403 2078
3629 1556 2575
3676 1760 3066
3700 2014 3514
3693 2312 3880
3500 1348 824
3488 1416 1031
3483 1497 1315
3489 1592 1673
3510 1705 2104
3543 1861 2598
3570 2051 3081
3584 2272 3515
3578 2519 3869
3496 1662 835
3482 1734 1050
3470 1823 1346
3461 1928 1716
3456 2049 2155
3459 2200 2645
3465 2370 3113
3468 2556 3530
3464 2753 3865
3479 2033 894
3461 2106 1116
3442 2196 1421
3423 2302 1799
3400 2421 2240
3379 2559 2716
3366 2704 3163
3359 2854 3555
3355 3005 3868
3429 2436 1071
3407 2504 1290
3386 2588 1590
3363 2684 1959
3336 2792 2384
3307 2908 2829
3286 3026 3239
3276 3142 3595
3278 3255 3879
3364 2820 1329
3341 2881 1538
3320 2956 1823
3299 3041 2169
3274 3134 2562
3248 3228 2963
3228 3319 3327
3220 3406 3641
3231 3488 3892
3294 3172 1654
3275 3224 1845
3257 3287 2103
3241 3359 2414
3224 3436 2762
3207 3510 3110
3196 3578 3422
3197 3641 3690
3216 3698 3904
3232 3478 2032
3218 3518 2199
3208 3569 2419
3200 3627 2680
3194 3687 2970
3193 3744 3258
3198 3795 3517
3210 3840 3738
3231 3879 3912
3634 1001 877
3626 1053 1065
3641 1095 1319
3683 1139 1645
3759 1193 2049
3850 1319 2544
3920 1520 3045
3959 1794 3510
3960 2139 3895
3663 1140 842
3651 1196 1034
3656 1256 1297
3682 1325 1635
3737 1410 2048
3810 1552 2543
3869 1751 3040
3902 2003 3497
3900 2306 3875
3701 1360 811
3686 1419 1009
3681 1491 1286
3691 1579 1637
3721 1684 2064
3770 1835 2561
3812 2026 3054
3837 2254 3502
3835 2515 3869
3738 1651 802
3720 1712 1008
3708 1791 1298
3702 1888 1665
3707 2004 2104
3728 2155 2603
3750 2334 3087
3765 2535 3522
3766 2755 3873
3763 2001 833
3744 2063 1047
3725 2144 1348
3707 2243 1728
3691 2360 2176
3685 2502 2670
3686 2661 3140
3691 2833 3556
3695 3013 3886
3747 2388 983
3726 2449 1196
3704 2526 1498
3680 2619 1874
3655 2726 2314
3634 2850 2783
3622 2983 3221
3621 3122 3603
3631 3265 3903
3699 2763 1234
3676 2819 1437
3653 2889 1724
3629 2973 2082
3603 3068 2495
3578 3173 2924
3563 3278 3316
3561 3386 3654
3577 3493 3918
3625 3110 1579
3603 3158 1760
3581 3219 2018
3560 3293 2337
3539 3375 2705
3520 3459 3080
3510 3540 3418
3514 3618 3706
3536 3695 3931
3536 3414 2008
3513 3450 2157
3494 3501 2368
3479 3562 2629
3468 3630 2932
3465 3697 3242
3469 3759 3521
3483 3815 3757
3508 3866 3939
3694 1028 883
3688 1081 1064
3702 1123 1315
3740 1163 1639
3810 1209 2039
3898 1324 2531
3968 1513 3032
4010 1774 3498
4015 2104 3886
3735 1154 848
3725 1207 1032
3731 1263 1291
3759 1327 1624
3814 1404 2034
3890 1538 2527
3953 1729 3024
3992 1974 3484
3994 2269 3865
3792 1357 811
3780 1409 1001
3779 1475 1270
3794 1557 1618
3829 1657 2042
3886 1805 2541
3937 1996 3039
3971 2225 3493
3975 2489 3864
3856 1629 786
3844 1681 984
3837 1754 1267
3838 1847 1631
3852 1960 2072
3886 2114 2579
3921 2300 3075
3948 2513 3521
3955 2747 3879
3918 1961 787
3907 2016 994
3895 2091 1293
3885 2188 1675
3879 2305 2132
3889 2456 2642
3906 2630 3132
3924 2823 3566
3936 3029 3906
3948 2340 901
3939 2396 1111
3925 2470 1416
3909 2561 1803
3892 2671 2260
3885 2806 2755
3888 2957 3219
3899 3120 3622
3914 3291 3931
3946 2713 1139
3935 2766 1338
3920 2834 1631
3901 2918 2003
3881 3017 2439
3866 3133 2899
3862 3256 3320
3869 3385 3678
3888 3518 3948
3909 3064 1510
3893 3106 1682
3875 3165 1939
3856 3238 2268
3837 3325 2657
3823 3420 3062
3820 3515 3427
3829 3611 3732
3853 3706 3960
3838 3372 2023
3810 3399 2147
3786 3443 2339
3768 3503 2593
3754 3576 2904
3749 3652 3235
3754 3724 3531
3772 3791 3780
3806 3854 3967
