Assets/1__3DArt/KimSe/artstation_asset/LUTs_pasterls/3DL/Pastelopolis 03 S.3dl
# Enhanced with VOXCOLOR algorithms
0 256 512 768 1023
353 466 883
298 721 1428
184 1014 2177
161 1335 3015
401 1638 3742
290 1386 1077
279 1698 1633
289 2008 2373
357 2271 3147
569 2499 3789
710 2511 1416
846 2755 1980
986 2992 2689
1136 3156 3348
1365 3264 3835
1666 3380 1945
1805 3486 2416
1916 3600 2984
2017 3680 3493
2161 3720 3870
2457 3806 2473
2471 3823 2764
2478 3857 3166
2494 3893 3560
2521 3902 3870
1657 598 903
1677 720 1410
1748 953 2197
1806 1362 3115
1940 1845 3841
1393 1283 899
1431 1482 1457
1410 1767 2280
1442 2122 3147
1594 2447 3818
1396 2262 1131
1453 2450 1699
1508 2697 2501
1585 2943 3273
1722 3111 3829
1869 3175 1690
1950 3290 2175
2031 3433 2823
2105 3557 3423
2195 3622 3853
2487 3761 2375
2516 3796 2700
2529 3843 3123
2540 3886 3534
2576 3906 3855
2882 784 890
2839 819 1353
2989 992 2142
3122 1431 3124
3144 2036 3889
2524 1258 668
2441 1338 1270
2506 1577 2163
2649 2016 3124
2739 2476 3852
2375 2088 808
2287 2195 1400
2315 2405 2284
2412 2726 3181
2491 3018 3839
2480 2968 1418
2437 3080 1877
2453 3227 2585
2502 3392 3314
2555 3529 3856
2705 3641 2182
2725 3718 2549
2735 3806 3021
2746 3867 3502
2780 3901 3867
3494 949 877
3458 988 1316
3598 1116 2068
3772 1502 3068
3803 2140 3899
3343 1305 639
3247 1344 1207
3330 1524 2072
3504 1948 3065
3577 2517 3869
3319 2016 698
3186 2092 1252
3190 2234 2126
3284 2543 3091
3355 2999 3869
3309 2821 1244
3206 2951 1613
3178 3081 2320
3196 3235 3182
3231 3483 3892
3232 3478 2032
3221 3621 2313
3223 3784 2775
3217 3848 3412
3231 3879 3912
3694 1028 883
3702 1123 1315
3810 1209 2039
3968 1513 3032
4015 2104 3886
3792 1357 808
3824 1443 1260
3902 1565 2039
3984 1891 3024
3975 2484 3864
3918 1962 779
3977 2074 1229
4023 2174 2057
4020 2424 3048
3939 3010 3909
3949 2719 1120
4008 2904 1423
4045 3030 2145
4005 3155 3104
3892 3499 3952
3838 3372 2023
3866 3575 2105
3917 3810 2481
3859 3853 3294
3806 3854 3967
