Assets/1__3DArt/KimSe/artstation_asset/LUTs_pasterls/3DL/Pastelopolis 02 S.3dl
# Enhanced with VOXCOLOR algorithms
0 256 512 768 1023
466 385 434
673 806 1381
916 1495 2518
1151 2353 3376
1381 3083 3854
726 1470 667
925 1894 1579
1168 2449 2669
1419 3014 3486
1666 3459 3928
1301 2806 909
1447 3034 1781
1644 3313 2802
1864 3562 3558
2093 3745 3962
1987 3629 1027
2059 3680 1865
2176 3758 2821
2335 3831 3548
2530 3892 3960
2489 3950 1060
2481 3922 1855
2526 3918 2774
2630 3931 3511
2762 3950 3934
2111 641 356
2184 932 1243
2264 1491 2341
2303 2306 3253
2323 3043 3794
1730 1360 448
1812 1623 1314
1904 2134 2431
2066 2816 3353
2213 3367 3877
1766 2528 652
1788 2667 1509
1922 2978 2583
2140 3374 3451
2335 3665 3935
2175 3477 861
2176 3506 1688
2270 3612 2691
2434 3749 3491
2605 3854 3952
2597 3943 1005
2585 3927 1785
2612 3922 2720
2696 3930 3480
2815 3947 3937
3494 942 535
3412 1093 1285
3425 1553 2290
3419 2321 3207
3365 3052 3793
2860 1338 380
2717 1448 1190
2793 1879 2259
2998 2640 3242
3112 3312 3854
2643 2310 469
2470 2344 1268
2542 2615 2333
2785 3131 3309
2981 3599 3920
2803 3338 727
2655 3314 1474
2661 3403 2481
2814 3607 3384
2992 3820 3958
2974 3947 952
2934 3940 1695
2916 3935 2651
2965 3937 3464
3057 3947 3962
3948 1111 768
3882 1236 1425
3901 1635 2331
3918 2342 3205
3899 3082 3812
3598 1371 589
3448 1436 1259
3507 1788 2223
3678 2514 3190
3782 3292 3866
3504 2195 652
3300 2193 1245
3305 2372 2186
3483 2872 3190
3678 3563 3943
3589 3228 891
3388 3176 1394
3316 3207 2272
3416 3415 3248
3607 3804 4001
3608 3952 1106
3535 3961 1679
3472 3971 2542
3493 3963 3434
3561 3962 4022
4031 1172 867
4041 1353 1512
4049 1710 2367
4042 2344 3200
4031 3067 3806
4016 1402 902
4042 1534 1421
4057 1825 2264
4055 2434 3175
4043 3265 3876
4029 2094 1033
4061 2138 1360
4079 2261 2148
4073 2676 3130
4053 3541 3983
4053 3095 1249
4076 3076 1450
4088 3097 2164
4080 3273 3163
4061 3794 4064
4063 3918 1526
4071 3957 1798
4077 4004 2436
4067 3997 3396
4063 3983 4095
