Assets/1__3DArt/KimSe/artstation_asset/LUTs_pasterls/3DL/Pastelopolis 01 S.3dl
# Enhanced with VOXCOLOR algorithms
0 256 512 768 1023
80 209 418
369 557 1302
726 1224 2278
1238 2130 2965
1895 2891 3340
172 1199 699
493 1709 1566
1046 2361 2570
1757 2935 3201
2469 3321 3491
665 2524 1010
1128 2872 1803
1798 3233 2757
2472 3462 3328
3008 3578 3567
1600 3336 1127
2037 3474 1938
2540 3596 2831
2974 3657 3359
3310 3681 3584
2425 3661 1220
2673 3690 2022
2948 3709 2852
3211 3718 3359
3421 3710 3581
1962 746 384
2117 964 1150
2304 1521 2137
2547 2339 2923
2859 3059 3389
1554 1355 500
1792 1669 1304
2064 2221 2355
2504 2871 3111
2948 3326 3480
1511 2436 718
1747 2630 1515
2200 2976 2541
2741 3336 3241
3161 3545 3549
1974 3276 919
2238 3353 1727
2644 3483 2688
3049 3601 3307
3349 3663 3578
2568 3674 1139
2774 3696 1934
3023 3713 2798
3259 3718 3338
3449 3714 3579
3262 1183 348
3225 1314 1057
3297 1818 2061
3407 2551 2913
3507 3174 3421
2778 1493 298
2699 1593 1114
2856 2067 2172
3194 2806 3027
3449 3351 3479
2622 2392 404
2521 2394 1230
2733 2670 2289
3145 3154 3123
3461 3524 3538
2806 3276 664
2775 3242 1464
2946 3324 2466
3250 3495 3210
3513 3645 3576
3012 3719 998
3112 3732 1799
3256 3739 2710
3421 3730 3312
3569 3718 3590
3582 1399 370
3547 1572 1061
3608 2044 2052
3697 2679 2909
3760 3225 3432
3377 1648 289
3297 1667 1065
3393 2053 2090
3597 2751 2973
3743 3365 3476
3392 2452 357
3261 2325 1117
3319 2467 2125
3533 2938 3023
3738 3515 3539
3543 3323 611
3411 3188 1294
3404 3181 2237
3549 3344 3087
3743 3638 3588
3598 3780 983
3591 3801 1662
3603 3817 2529
3672 3774 3236
3756 3721 3610
3629 1477 385
3654 1761 1077
3707 2199 2062
3765 2729 2903
3806 3196 3404
3674 1827 386
3766 1930 1055
3841 2198 2056
3864 2713 2945
3849 3348 3465
3781 2558 471
3921 2403 1094
4002 2409 2051
3985 2761 2976
3895 3504 3559
3897 3344 707
4003 3172 1235
4056 3112 2101
4025 3229 3013
3923 3630 3616
3967 3806 1140
3985 3867 1589
4005 3915 2312
3965 3832 3129
3918 3726 3629
