Assets/1__3DArt/KimSe/artstation_asset/LUTs_pasterls/3DL/Pastelopolis 03.3dl
# Enhanced with VOXCOLOR algorithms
0 64 128 192 256 320 384 448 512 576 640 704 768 832 896 960 1023
353 466 883
345 527 1005
337 588 1126
323 652 1262
298 721 1428
272 790 1594
244 864 1781
214 939 1979
184 1014 2177
167 1094 2389
150 1174 2601
144 1254 2811
161 1335 3015
178 1416 3220
238 1491 3401
320 1565 3571
401 1638 3742
316 674 925
305 742 1046
294 809 1168
280 878 1304
259 951 1469
237 1024 1635
215 1100 1821
193 1177 2018
171 1254 2215
160 1332 2424
150 1410 2634
149 1487 2840
167 1564 3040
186 1640 3240
242 1712 3418
317 1783 3586
392 1854 3753
279 883 966
265 957 1088
251 1030 1210
236 1104 1346
219 1181 1511
203 1258 1676
187 1336 1861
172 1415 2057
158 1493 2252
153 1569 2459
149 1646 2666
153 1720 2869
174 1792 3065
194 1864 3260
246 1933 3435
314 2002 3600
382 2070 3765
263 1113 1014
251 1191 1137
238 1268 1260
225 1346 1397
215 1425 1562
204 1505 1727
197 1584 1912
190 1663 2107
184 1742 2302
187 1815 2505
190 1889 2708
200 1960 2907
223 2026 3098
246 2093 3288
296 2157 3457
360 2221 3617
424 2285 3777
290 1386 1077
286 1464 1202
282 1541 1327
280 1619 1466
279 1698 1633
279 1777 1800
281 1855 1985
285 1932 2179
289 2008 2373
300 2077 2572
312 2146 2771
329 2212 2965
358 2271 3147
386 2330 3329
439 2387 3489
504 2443 3639
569 2499 3789
317 1659 1140
322 1737 1267
327 1814 1393
334 1892 1534
344 1971 1703
354 2050 1872
366 2126 2058
380 2201 2252
394 2275 2445
414 2339 2640
434 2403 2834
458 2463 3022
492 2516 3196
526 2568 3370
582 2617 3521
648 2665 3661
714 2713 3801
423 1940 1226
437 2013 1353
451 2087 1480
467 2160 1621
486 2235 1791
505 2310 1960
526 2382 2143
547 2452 2334
569 2521 2525
595 2579 2713
621 2638 2901
650 2692 3082
688 2737 3247
725 2783 3412
781 2825 3553
847 2865 3683
913 2904 3812
568 2226 1322
592 2292 1450
615 2359 1577
640 2426 1718
667 2495 1886
694 2564 2054
722 2630 2234
751 2693 2421
779 2757 2608
809 2809 2789
840 2861 2970
874 2908 3142
914 2947 3298
953 2986 3453
1010 3020 3585
1074 3052 3704
1139 3084 3824
713 2511 1419
746 2571 1547
779 2631 1674
813 2692 1815
848 2755 1982
884 2818 2149
919 2878 2326
954 2935 2508
989 2993 2691
1024 3039 2865
1060 3084 3039
1097 3125 3203
1139 3157 3349
1181 3189 3495
1238 3216 3617
1302 3240 3726
1365 3264 3835
952 2755 1550
988 2805 1674
1023 2856 1797
1059 2908 1933
1096 2962 2093
1133 3017 2254
1168 3068 2423
1203 3118 2597
1237 3168 2771
1271 3208 2935
1306 3247 3099
1341 3282 3254
1381 3309 3391
1420 3336 3528
1472 3358 3641
1529 3377 3743
1587 3395 3845
1190 2998 1681
1229 3040 1800
1267 3081 1920
1306 3124 2051
1343 3170 2205
1381 3215 2359
1417 3259 2520
1451 3301 2685
1486 3344 2850
1519 3377 3005
1551 3410 3159
1586 3440 3305
1622 3461 3433
1659 3483 3560
1706 3500 3666
1757 3513 3761
1809 3527 3855
1433 3216 1817
1471 3248 1931
1510 3281 2044
1548 3315 2169
1585 3353 2315
1622 3390 2461
1656 3426 2614
1688 3461 2769
1720 3496 2925
1750 3523 3069
1780 3551 3214
1811 3575 3350
1844 3593 3470
1877 3610 3589
1918 3622 3687
1963 3631 3776
2008 3641 3864
1683 3380 1963
1717 3405 2068
1751 3430 2173
1784 3457 2288
1815 3487 2424
1846 3516 2559
1874 3545 2701
1900 3574 2845
1926 3602 2989
1951 3625 3123
1975 3648 3258
2000 3668 3385
2027 3683 3497
2054 3698 3609
2088 3707 3702
2125 3713 3786
2161 3720 3870
1934 3544 2108
1963 3562 2205
1991 3580 2301
2019 3599 2407
2045 3621 2532
2070 3643 2657
2092 3665 2787
2112 3686 2920
2133 3708 3053
2151 3726 3177
2169 3745 3301
2189 3761 3419
2210 3773 3524
2232 3785 3629
2258 3791 3717
2286 3795 3796
2315 3799 3876
2127 3651 2236
2149 3663 2322
2170 3675 2408
2190 3688 2503
2209 3705 2617
2227 3721 2732
2243 3738 2852
2257 3755 2974
2271 3772 3097
2283 3787 3213
2296 3802 3330
2310 3815 3440
2327 3825 3540
2343 3836 3639
2363 3840 3723
2384 3842 3800
2405 3845 3876
2292 3728 2355
2305 3736 2429
2317 3743 2503
2329 3752 2587
2340 3764 2691
2351 3776 2795
2359 3789 2905
2367 3802 3018
2374 3815 3131
2382 3827 3241
2390 3839 3350
2399 3851 3455
2410 3859 3550
2422 3868 3645
2435 3872 3726
2449 3873 3800
2463 3873 3873
2457 3806 2473
2461 3809 2536
2464 3811 2598
2468 3816 2671
2471 3823 2764
2474 3831 2858
2476 3839 2958
2477 3848 3062
2478 3857 3166
2481 3867 3268
2483 3877 3371
2487 3886 3469
2494 3893 3560
2500 3901 3651
2507 3903 3729
2514 3903 3799
2521 3902 3870
669 495 891
668 547 1010
667 599 1128
662 655 1262
650 717 1428
638 779 1593
623 848 1783
606 921 1986
589 995 2188
579 1079 2406
569 1163 2624
569 1249 2838
586 1340 3046
603 1430 3253
658 1518 3435
732 1605 3603
805 1692 3770
627 689 926
629 748 1045
631 808 1164
628 870 1298
616 937 1463
604 1004 1629
588 1077 1818
571 1152 2019
554 1227 2220
545 1309 2435
536 1391 2650
535 1473 2861
552 1557 3064
569 1641 3266
621 1723 3444
690 1805 3610
759 1886 3775
585 882 961
590 950 1080
594 1017 1199
594 1086 1334
582 1158 1499
570 1230 1664
554 1306 1852
537 1383 2052
520 1460 2252
511 1539 2464
502 1618 2675
502 1697 2883
518 1775 3081
535 1853 3279
583 1929 3454
648 2005 3617
713 2081 3781
559 1098 1003
568 1171 1123
576 1244 1243
579 1318 1379
570 1393 1545
560 1469 1710
547 1546 1898
533 1624 2097
518 1702 2295
512 1778 2503
506 1854 2711
508 1928 2914
525 1999 3107
543 2070 3300
590 2140 3470
652 2209 3628
713 2278 3787
567 1357 1060
580 1432 1183
594 1506 1305
603 1581 1442
602 1658 1610
601 1734 1778
596 1810 1965
590 1887 2163
583 1963 2361
584 2034 2564
584 2105 2768
592 2173 2965
613 2236 3150
635 2300 3335
684 2361 3496
746 2421 3646
808 2481 3796
574 1617 1117
593 1693 1242
612 1768 1366
627 1844 1506
634 1922 1676
641 1999 1845
645 2075 2033
646 2149 2230
648 2224 2427
655 2290 2625
662 2356 2824
676 2418 3016
702 2474 3193
727 2529 3370
778 2582 3523
841 2632 3664
903 2683 3804
649 1889 1197
674 1962 1323
698 2034 1448
720 2107 1589
735 2181 1758
750 2256 1928
761 2327 2114
771 2398 2308
780 2468 2502
793 2528 2694
807 2588 2887
825 2644 3071
854 2692 3239
883 2741 3407
934 2785 3551
995 2826 3682
1057 2868 3814
759 2168 1288
789 2235 1414
819 2301 1541
846 2369 1681
869 2438 1850
892 2508 2019
911 2574 2202
928 2639 2392
946 2704 2582
965 2757 2767
984 2811 2952
1007 2861 3128
1039 2902 3287
1070 2943 3446
1120 2979 3580
1180 3012 3702
1240 3045 3823
869 2446 1379
904 2508 1506
939 2569 1633
973 2631 1774
1004 2696 1942
1034 2760 2110
1061 2821 2290
1086 2880 2475
1111 2939 2661
1136 2987 2839
1161 3034 3017
1189 3077 3186
1223 3111 3335
1258 3145 3485
1307 3173 3609
1365 3198 3721
1423 3222 3833
1069 2691 1505
1106 2744 1629
1142 2797 1752
1178 2850 1889
1211 2907 2051
1243 2963 2214
1272 3016 2386
1299 3068 2563
1326 3120 2741
1352 3161 2909
1378 3202 3077
1406 3239 3236
1439 3268 3377
1471 3296 3517
1517 3318 3633
1569 3338 3737
1621 3357 3842
1270 2936 1631
1308 2980 1752
1346 3024 1872
1383 3069 2004
1418 3117 2161
1453 3165 2317
1483 3211 2482
1512 3255 2651
1541 3300 2820
1568 3335 2979
1594 3370 3137
1623 3401 3287
1654 3424 3418
1685 3447 3549
1726 3464 3657
1773 3478 3754
1819 3492 3851
1479 3157 1764
1517 3193 1880
1554 3228 1995
1591 3265 2122
1625 3305 2271
1660 3345 2420
1691 3383 2576
1720 3421 2736
1749 3458 2895
1774 3487 3044
1800 3516 3193
1827 3542 3333
1856 3561 3455
1884 3579 3578
1921 3592 3678
1961 3601 3769
2001 3610 3859
1707 3330 1911
1740 3358 2018
1773 3386 2125
1805 3415 2243
1835 3447 2382
1865 3479 2521
1892 3510 2666
1916 3541 2814
1941 3571 2962
1962 3596 3100
1984 3620 3239
2006 3642 3369
2030 3657 3484
2055 3673 3598
2085 3683 3694
2118 3689 3779
2151 3696 3865
1935 3503 2058
1963 3523 2156
1992 3543 2255
2019 3565 2364
2045 3589 2493
2071 3613 2621
2093 3637 2755
2113 3661 2892
2133 3684 3029
2150 3704 3156
2167 3724 3284
2186 3741 3405
2205 3754 3512
2225 3767 3619
2249 3773 3709
2276 3778 3790
2302 3782 3871
2122 3621 2194
2144 3635 2282
2165 3649 2370
2186 3664 2468
2205 3682 2586
2224 3700 2703
2240 3719 2826
2254 3737 2952
2268 3755 3077
2281 3771 3196
2293 3788 3315
2307 3802 3428
2322 3813 3530
2338 3823 3631
2356 3829 3716
2376 3831 3794
2396 3833 3871
2290 3710 2325
2303 3719 2401
2316 3727 2478
2328 3738 2564
2340 3751 2670
2352 3764 2775
2361 3777 2887
2368 3791 3002
2376 3805 3117
2384 3818 3228
2391 3831 3339
2399 3843 3445
2410 3852 3542
2421 3862 3638
2434 3866 3719
2448 3867 3794
2462 3868 3868
2457 3799 2456
2462 3803 2521
2467 3806 2585
2471 3811 2660
2475 3819 2754
2479 3827 2848
2481 3836 2949
2483 3846 3053
2484 3855 3158
2486 3865 3260
2488 3875 3363
2492 3884 3462
2498 3892 3553
2504 3900 3645
2512 3903 3723
2520 3903 3794
2528 3903 3865
985 525 899
991 568 1015
996 611 1130
1001 658 1262
1002 712 1428
1004 767 1593
1002 833 1786
998 904 1992
993 975 2198
991 1064 2422
989 1153 2647
993 1245 2866
1011 1344 3077
1028 1444 3287
1078 1544 3468
1144 1645 3634
1209 1746 3799
938 703 927
952 755 1043
967 808 1159
976 863 1292
973 924 1457
970 985 1623
961 1054 1815
949 1128 2020
937 1201 2225
930 1287 2445
922 1372 2666
922 1459 2881
937 1551 3087
952 1643 3293
999 1735 3471
1063 1827 3634
1126 1919 3798
891 881 956
914 943 1072
938 1004 1189
951 1068 1321
944 1135 1487
937 1202 1653
921 1275 1844
901 1351 2048
882 1427 2252
868 1509 2468
855 1591 2685
851 1674 2896
863 1758 3097
875 1841 3299
920 1925 3473
982 2008 3635
1043 2092 3796
855 1082 992
885 1151 1109
915 1219 1227
932 1289 1361
924 1361 1527
916 1433 1694
898 1508 1884
875 1585 2087
852 1662 2289
837 1741 2502
822 1819 2714
816 1896 2921
827 1972 3117
839 2048 3312
883 2122 3482
943 2197 3640
1003 2271 3797
843 1329 1043
874 1400 1163
906 1471 1283
927 1543 1419
924 1617 1587
922 1691 1756
911 1766 1946
894 1842 2147
877 1917 2349
867 1991 2556
857 2064 2764
855 2135 2965
869 2202 3153
884 2269 3341
928 2334 3503
988 2398 3653
1048 2462 3802
831 1575 1094
864 1649 1217
897 1722 1339
921 1797 1478
925 1873 1648
929 1948 1818
923 2023 2008
912 2098 2208
902 2173 2408
897 2240 2611
891 2308 2814
893 2373 3009
911 2432 3190
928 2491 3370
974 2546 3524
1033 2599 3666
1093 2653 3808
876 1839 1168
911 1910 1292
945 1981 1416
972 2054 1556
983 2127 1726
994 2201 1897
996 2273 2085
994 2344 2282
991 2415 2479
992 2477 2675
993 2539 2872
1000 2597 3060
1020 2648 3232
1041 2698 3403
1086 2745 3549
1143 2788 3682
1201 2832 3815
950 2110 1253
986 2177 1378
1022 2244 1504
1052 2312 1644
1071 2382 1814
1089 2452 1984
1100 2519 2169
1106 2584 2362
1113 2650 2555
1120 2706 2744
1128 2762 2934
1141 2813 3114
1164 2856 3276
1187 2899 3439
1231 2937 3575
1286 2972 3699
1340 3007 3822
1024 2382 1338
1062 2444 1465
1099 2507 1591
1133 2571 1732
1159 2636 1902
1185 2702 2071
1204 2764 2254
1219 2825 2443
1234 2886 2632
1248 2935 2814
1263 2985 2996
1281 3029 3168
1307 3065 3321
1334 3100 3474
1377 3129 3601
1429 3155 3716
1480 3181 3830
1187 2628 1460
1224 2683 1584
1262 2737 1708
1296 2793 1845
1325 2851 2009
1354 2909 2174
1377 2964 2349
1396 3017 2530
1415 3071 2711
1433 3114 2883
1450 3157 3056
1470 3196 3218
1496 3226 3362
1522 3256 3506
1562 3279 3625
1608 3299 3732
1654 3319 3838
1349 2874 1581
1387 2921 1703
1424 2967 1824
1460 3015 1958
1492 3065 2117
1524 3115 2276
1550 3163 2444
1573 3210 2617
1597 3256 2790
1617 3293 2953
1637 3330 3116
1659 3363 3269
1685 3387 3403
1711 3411 3538
1747 3429 3648
1788 3443 3748
1829 3457 3847
1526 3099 1712
1562 3138 1829
1598 3176 1946
1633 3215 2074
1666 3258 2227
1699 3300 2379
1726 3341 2539
1752 3380 2702
1777 3420 2866
1798 3451 3019
1820 3482 3172
1842 3509 3315
1867 3529 3441
1891 3548 3566
1923 3561 3670
1959 3570 3762
1994 3580 3854
1731 3281 1859
1763 3311 1968
1795 3341 2078
1826 3373 2198
1856 3408 2340
1885 3442 2482
1910 3475 2631
1932 3508 2783
1955 3540 2935
1974 3566 3077
1993 3592 3219
2012 3615 3353
2034 3632 3471
2055 3648 3588
2082 3658 3686
2112 3665 3773
2141 3672 3860
1936 3463 2007
1964 3485 2108
1992 3507 2210
2019 3531 2321
2045 3557 2453
2071 3584 2585
2093 3610 2723
2113 3635 2864
2132 3661 3004
2149 3682 3136
2165 3703 3267
2182 3721 3391
2201 3735 3501
2219 3748 3610
2241 3756 3702
2265 3760 3784
2289 3764 3866
2118 3590 2152
2139 3606 2243
2161 3622 2333
2181 3639 2434
2201 3659 2554
2221 3679 2674
2237 3699 2800
2252 3719 2929
2266 3739 3058
2278 3756 3180
2291 3773 3301
2303 3788 3417
2318 3800 3520
2332 3811 3623
2349 3817 3709
2368 3820 3788
2387 3822 3866
2287 3691 2296
2301 3701 2374
2315 3712 2453
2328 3723 2541
2340 3737 2648
2352 3751 2756
2362 3766 2870
2370 3781 2987
2378 3796 3104
2385 3810 3216
2392 3823 3328
2400 3836 3436
2410 3845 3533
2420 3855 3630
2433 3860 3713
2447 3862 3788
2461 3863 3863
2457 3792 2439
2463 3797 2506
2469 3801 2572
2475 3807 2648
2479 3815 2743
2484 3824 2838
2487 3833 2939
2488 3843 3044
2490 3853 3149
2491 3863 3252
2493 3874 3356
2496 3883 3455
2502 3891 3547
2508 3899 3638
2516 3903 3716
2525 3904 3788
2534 3905 3860
1311 558 904
1320 594 1017
1330 630 1130
1340 670 1260
1352 717 1425
1365 765 1589
1374 826 1784
1381 895 1994
1388 964 2204
1393 1055 2434
1398 1147 2663
1406 1244 2888
1423 1352 3102
1439 1460 3316
1482 1571 3496
1538 1684 3660
1594 1797 3824
1260 721 926
1282 768 1039
1304 814 1153
1321 863 1283
1326 918 1449
1330 973 1614
1328 1039 1808
1322 1110 2017
1316 1182 2226
1311 1270 2452
1305 1358 2677
1306 1449 2898
1319 1548 3107
1332 1647 3316
1373 1748 3493
1429 1850 3655
