Assets/1__3DArt/KimSe/artstation_asset/LUTs_pasterls/3DL/Pastelopolis 04 S.3dl
# Enhanced with VOXCOLOR algorithms
0 64 128 192 256 320 384 448 512 576 640 704 768 832 896 960 1023
418 562 289
424 585 393
431 609 496
435 631 614
436 653 760
437 675 906
435 696 1067
432 717 1236
429 738 1404
423 758 1570
416 777 1735
408 795 1891
396 809 2027
385 823 2164
366 830 2271
344 832 2364
321 835 2457
443 675 373
450 703 477
456 730 581
461 758 698
463 787 842
465 815 986
465 844 1144
464 872 1310
463 900 1475
458 925 1636
454 950 1797
448 972 1949
439 990 2082
430 1007 2215
415 1017 2322
397 1024 2416
379 1030 2509
469 789 457
476 820 561
482 852 665
487 885 782
490 920 924
493 955 1066
495 991 1221
496 1026 1384
496 1061 1546
494 1092 1703
492 1122 1860
488 1150 2008
482 1171 2137
475 1192 2267
464 1205 2373
450 1215 2467
436 1225 2562
502 917 557
509 952 661
516 987 765
522 1024 880
526 1065 1020
531 1105 1160
534 1146 1312
537 1187 1471
540 1228 1629
541 1263 1781
541 1298 1933
539 1329 2076
535 1352 2201
531 1375 2326
522 1391 2430
512 1403 2523
502 1415 2617
550 1074 690
558 1111 792
565 1149 895
573 1188 1008
580 1231 1145
587 1275 1282
594 1319 1430
599 1362 1583
605 1406 1736
608 1442 1881
611 1479 2026
612 1511 2163
610 1534 2282
608 1558 2401
602 1574 2500
594 1586 2589
586 1598 2678
597 1232 822
606 1271 923
615 1310 1024
624 1351 1136
634 1398 1270
643 1445 1405
653 1491 1548
662 1537 1696
670 1584 1843
676 1622 1982
682 1659 2120
685 1693 2250
685 1717 2362
686 1741 2475
681 1756 2569
675 1768 2654
669 1780 2739
661 1399 978
671 1437 1075
681 1476 1172
691 1517 1280
703 1564 1409
716 1610 1537
727 1657 1674
739 1703 1814
750 1750 1954
758 1787 2085
766 1824 2215
771 1857 2338
773 1880 2444
775 1903 2550
773 1918 2638
768 1929 2718
763 1939 2798
733 1571 1144
744 1608 1237
755 1644 1329
767 1684 1432
781 1729 1553
796 1774 1675
810 1820 1803
823 1865 1935
837 1910 2067
847 1946 2189
857 1981 2311
864 2012 2426
867 2034 2525
871 2055 2624
869 2069 2707
866 2078 2782
863 2087 2857
805 1743 1311
817 1778 1399
829 1812 1486
843 1850 1583
859 1894 1698
876 1939 1813
892 1982 1933
908 2026 2056
924 2070 2180
936 2104 2293
948 2138 2407
957 2168 2514
962 2188 2606
966 2208 2698
966 2220 2776
964 2228 2845
962 2235 2915
896 1902 1480
909 1933 1561
922 1964 1642
937 1998 1731
954 2038 1837
972 2079 1942
989 2119 2053
1006 2159 2167
1023 2199 2280
1035 2230 2385
1048 2262 2490
1058 2288 2589
1063 2306 2675
1068 2323 2761
1069 2334 2833
1068 2340 2899
1067 2346 2965
987 2062 1649
1001 2089 1723
1016 2116 1797
1031 2146 1879
1050 2182 1976
1068 2219 2072
1086 2256 2174
1104 2292 2277
1122 2329 2381
1135 2357 2477
1148 2385 2574
1158 2409 2664
1164 2424 2744
1170 2439 2824
1172 2447 2891
1172 2452 2953
1172 2457 3014
1082 2210 1809
1097 2233 1876
1112 2256 1943
1128 2282 2018
1147 2315 2105
1165 2348 2193
1184 2381 2285
1202 2414 2379
1219 2446 2474
1233 2471 2562
1246 2496 2650
1257 2517 2733
1263 2529 2807
1269 2542 2880
1272 2549 2943
1272 2553 3001
1273 2557 3059
1184 2337 1951
1199 2356 2011
1213 2375 2071
1229 2397 2138
1247 2425 2217
1265 2454 2297
1282 2482 2380
1298 2511 2465
1315 2540 2551
1327 2561 2631
1340 2583 2712
1350 2600 2788
1356 2611 2857
1362 2621 2925
1365 2626 2984
1366 2629 3039
1367 2632 3095
1286 2463 2092
1300 2478 2146
1315 2493 2199
1330 2511 2259
1347 2535 2329
1364 2560 2400
1380 2584 2474
1395 2609 2551
1411 2633 2628
1422 2651 2701
1434 2669 2774
1444 2684 2843
1450 2692 2907
1456 2700 2970
1458 2704 3026
1459 2706 3078
1461 2707 3130
1387 2558 2211
1399 2569 2256
1411 2581 2302
1424 2596 2353
1437 2615 2415
1451 2635 2478
1464 2655 2544
1477 2676 2613
1489 2696 2682
1499 2711 2749
1509 2726 2816
1518 2738 2881
1523 2745 2940
1528 2751 2999
1529 2754 3052
1529 2755 3101
1528 2756 3151
1489 2636 2318
1497 2645 2355
1505 2654 2392
1513 2665 2434
1523 2680 2489
1533 2696 2543
1542 2712 2602
1551 2728 2664
1560 2744 2726
1568 2756 2787
1575 2768 2849
1582 2778 2909
1586 2783 2964
1590 2788 3020
1589 2790 3070
1586 2791 3118
1583 2791 3165
1590 2714 2425
1594 2720 2453
1599 2726 2481
1603 2734 2516
1609 2745 2562
1614 2756 2608
1620 2768 2660
1625 2780 2714
1631 2792 2769
1636 2801 2826
1642 2810 2882
1646 2817 2937
1649 2822 2989
1651 2826 3041
1649 2827 3089
1643 2827 3134
1638 2826 3180
681 587 308
687 606 411
693 624 514
698 643 632
700 663 780
702 683 928
703 705 1093
703 728 1268
704 751 1442
700 774 1615
697 798 1788
691 821 1951
681 840 2096
671 860 2240
652 873 2354
629 883 2453
607 892 2552
685 696 384
696 720 488
707 744 591
714 768 710
717 795 857
719 822 1004
719 850 1167
718 880 1338
717 909 1509
713 938 1677
709 967 1844
704 994 2003
695 1017 2142
686 1040 2281
670 1055 2393
651 1066 2491
632 1077 2590
689 805 460
705 834 564
720 863 669
731 893 787
733 927 933
735 960 1079
734 995 1240
732 1032 1408
730 1068 1576
726 1102 1738
722 1136 1901
716 1168 2054
709 1193 2188
701 1219 2323
688 1236 2432
672 1250 2530
656 1263 2627
701 929 552
719 963 657
738 996 762
751 1031 879
753 1070 1024
756 1108 1168
756 1149 1326
754 1191 1490
751 1233 1654
748 1271 1810
745 1308 1967
741 1343 2114
734 1370 2243
728 1398 2372
718 1416 2479
705 1431 2574
692 1445 2670
728 1084 677
745 1120 780
762 1155 884
776 1193 1000
781 1235 1141
787 1277 1283
789 1320 1436
790 1364 1594
791 1408 1753
791 1447 1903
790 1486 2053
788 1521 2193
784 1549 2315
780 1576 2438
771 1594 2539
760 1607 2630
749 1621 2720
754 1239 802
771 1277 904
787 1315 1006
801 1355 1120
809 1400 1259
817 1445 1398
822 1491 1546
827 1537 1699
831 1584 1852
833 1624 1995
835 1664 2138
836 1700 2272
834 1727 2388
832 1754 2503
825 1771 2599
815 1784 2685
805 1797 2771
798 1404 951
814 1441 1049
829 1479 1147
843 1520 1257
854 1565 1390
864 1610 1524
873 1656 1665
880 1702 1811
888 1749 1957
892 1788 2092
897 1827 2227
900 1862 2353
900 1887 2462
899 1913 2571
894 1929 2661
885 1940 2742
877 1951 2823
851 1573 1113
866 1609 1206
880 1646 1299
894 1685 1403
907 1730 1529
920 1774 1655
931 1819 1789
942 1863 1926
953 1908 2063
960 1946 2190
967 1983 2316
973 2016 2435
974 2039 2537
975 2063 2639
971 2077 2723
964 2086 2799
956 2095 2875
903 1742 1274
917 1777 1362
931 1813 1450
945 1851 1548
961 1894 1667
976 1938 1787
990 1981 1912
1004 2024 2041
1018 2068 2170
1028 2103 2288
1038 2139 2406
1045 2169 2517
1048 2191 2612
1051 2212 2707
1048 2224 2786
1042 2231 2856
1036 2239 2927
979 1898 1443
993 1931 1524
1007 1963 1605
1022 1998 1695
1038 2038 1805
1055 2078 1915
1070 2118 2031
1086 2158 2149
1101 2198 2268
1112 2230 2377
1123 2262 2487
1131 2289 2589
1135 2308 2678
1139 2327 2766
1137 2337 2840
1132 2342 2906
1127 2348 2973
1054 2055 1612
1069 2084 1686
1083 2113 1760
1099 2144 1843
1116 2181 1943
1134 2218 2043
1151 2254 2149
1167 2291 2258
1184 2327 2366
1196 2356 2467
1208 2385 2567
1218 2409 2661
1222 2425 2744
1227 2441 2826
1226 2449 2894
1222 2453 2957
1218 2458 3019
1135 2201 1773
1150 2227 1840
1164 2252 1907
1180 2280 1982
1198 2313 2074
1216 2346 2165
1234 2379 2261
1251 2412 2359
1268 2445 2458
1281 2470 2550
1294 2496 2642
1304 2517 2728
1309 2531 2804
1314 2544 2880
1314 2550 2944
1311 2553 3002
1308 2556 3061
1226 2327 1920
1241 2349 1980
1255 2370 2041
1271 2394 2108
1288 2423 2190
1306 2452 2272
1323 2481 2359
1339 2510 2448
1355 2539 2537
1367 2561 2620
1379 2583 2704
1389 2601 2783
1394 2612 2854
1399 2623 2924
1399 2628 2984
1397 2630 3040
1395 2632 3095
1318 2453 2067
1332 2471 2120
1346 2488 2174
1362 2508 2233
1378 2533 2306
1395 2558 2379
1411 2583 2456
1427 2608 2536
1442 2633 2615
1453 2652 2691
1465 2670 2766
1474 2686 2838
1479 2694 2903
1484 2703 2968
1485 2706 3024
1483 2707 3077
1482 2708 3129
1412 2549 2190
1425 2563 2237
1437 2578 2283
1450 2594 2335
1464 2615 2399
1478 2636 2463
1492 2657 2532
1505 2678 2603
1517 2699 2674
1527 2714 2742
1537 2729 2811
1544 2742 2877
1549 2748 2937
1553 2755 2997
1553 2758 3051
1550 2758 3100
1548 2759 3150
1509 2630 2303
1518 2641 2341
1528 2653 2380
1537 2666 2424
1548 2683 2480
1558 2699 2535
1568 2716 2596
1578 2732 2659
1587 2749 2722
1594 2761 2785
1601 2774 2847
1607 2784 2907
1610 2789 2963
1613 2794 3019
1611 2796 3070
1607 2797 3118
1603 2797 3165
1605 2711 2416
1611 2719 2446
1618 2728 2477
1625 2738 2513
1632 2750 2561
1638 2762 2608
1645 2775 2660
1651 2787 2715
1656 2800 2771
1661 2809 2827
1666 2818 2883
1670 2826 2938
1672 2830 2989
1673 2834 3041
1670 2835 3089
1664 2835 3135
1658 2835 3180
945 613 327
950 626 429
955 640 531
960 655 649
964 673 800
968 692 950
971 714 1120
975 739 1300
978 763 1480
978 791 1660
978 819 1841
975 846 2012
966 872 2164
956 898 2316
938 917 2436
915 933 2541
893 948 2646
927 717 395
942 737 499
957 757 602
968 778 721
970 803 871
972 828 1021
973 857 1189
972 888 1366
970 919 1543
968 952 1717
965 985 1892
960 1016 2056
951 1044 2202
942 1072 2347
925 1092 2464
905 1109 2567
885 1125 2670
910 822 463
934 848 568
959 874 673
975 901 793
976 933 943
977 965 1093
974 1000 1259
968 1038 1432
963 1075 1606
957 1113 1774
951 1151 1942
945 1186 2100
936 1216 2240
927 1246 2379
912 1268 2492
894 1285 2593
877 1302 2693
900 942 547
930 973 653
960 1004 758
980 1037 878
981 1074 1027
982 1111 1177
977 1152 1339
970 1194 1509
962 1237 1678
956 1278 1840
949 1319 2001
942 1357 2153
934 1389 2286
926 1420 2418
913 1442 2527
897 1459 2625
881 1476 2722
906 1094 664
933 1128 768
960 1162 873
979 1198 991
982 1238 1137
986 1278 1284
985 1321 1442
981 1366 1606
977 1410 1770
973 1452 1924
969 1494 2079
964 1532 2224
958 1563 2349
952 1594 2475
940 1614 2578
926 1629 2671
912 1644 2763
911 1247 781
936 1283 884
960 1320 987
978 1359 1103
984 1402 1247
990 1445 1391
992 1491 1544
992 1537 1703
991 1584 1861
990 1626 2009
989 1669 2156
986 1707 2294
982 1737 2413
978 1767 2531
968 1786 2629
955 1800 2717
942 1813 2804
936 1408 924
957 1446 1023
978 1483 1122
995 1522 1234
1004 1566 1372
1013 1610 1510
1018 1655 1657
1022 1702 1808
1025 1748 1959
1027 1789 2098
1028 1830 2238
1029 1867 2368
1026 1895 2480
1024 1923 2592
1015 1940 2684
1003 1951 2766
991 1963 2848
969 1574 1081
987 1611 1174
1006 1648 1268
1022 1687 1374
1033 1730 1505
1044 1773 1635
1053 1817 1774
1061 1862 1917
1068 1907 2059
1073 1946 2191
1078 1984 2322
1081 2019 2444
1080 2044 2549
1080 2070 2653
1072 2084 2740
1061 2093 2816
1050 2102 2893
1002 1740 1237
1018 1777 1325
1033 1813 1413
1048 1851 1513
1062 1894 1637
1076 1937 1761
1088 1979 1891
1100 2023 2026
1112 2066 2160
1120 2102 2283
1128 2139 2405
1133 2171 2520
1134 2194 2618
1135 2217 2715
1129 2229 2796
1119 2235 2867
1109 2242 2939
1062 1894 1406
1077 1928 1487
1092 1962 1568
1107 1997 1660
1122 2037 1774
1138 2076 1888
1152 2116 2008
1165 2156 2132
1179 2196 2256
1189 2229 2369
1198 2262 2483
1205 2290 2589
1207 2310 2680
1210 2330 2772
1204 2340 2847
1196 2345 2914
1187 2350 2981
1122 2048 1575
1136 2079 1649
1151 2110 1722
1166 2143 1806
1183 2180 1910
1199 2216 2014
1215 2253 2125
1231 2289 2238
1246 2326 2352
1258 2355 2456
1269 2384 2561
1277 2410 2659
1280 2427 2743
1284 2443 2828
1280 2451 2898
1272 2455 2961
1264 2458 3023
1188 2193 1738
1203 2221 1805
1217 2248 1872
1232 2278 1947
1250 2311 2042
1267 2345 2136
1284 2378 2236
1301 2411 2339
1317 2444 2442
1329 2470 2538
1341 2496 2633
1351 2518 2723
1355 2532 2801
1359 2546 2879
1356 2552 2945
1349 2554 3004
1343 2556 3063
1269 2318 1890
1283 2342 1950
1297 2366 2010
1313 2392 2078
1330 2421 2163
1347 2451 2247
1363 2480 2337
1379 2510 2430
1395 2539 2523
1407 2561 2609
1418 2584 2696
1427 2602 2778
1432 2614 2850
1436 2625 2923
1433 2630 2984
1428 2631 3040
1423 2632 3096
1350 2443 2041
1364 2463 2094
1378 2483 2148
1393 2505 2208
1410 2531 2283
1427 2557 2358
1443 2583 2438
1458 2608 2521
1473 2634 2603
1485 2652 2681
1496 2671 2759
1504 2687 2833
1508 2696 2900
1513 2705 2966
1511 2708 3023
1507 2709 3076
1503 2709 3129
1437 2541 2170
1450 2557 2217
1463 2574 2264
1477 2593 2317
1491 2615 2383
1506 2636 2448
1519 2658 2519
1532 2679 2592
1545 2701 2665
1554 2716 2736
1564 2732 2806
1571 2745 2873
1574 2752 2934
1578 2759 2996
1576 2762 3049
1571 2762 3100
1567 2762 3150
1529 2624 2288
1539 2638 2328
1550 2652 2368
1561 2667 2414
1573 2685 2471
1584 2703 2528
1594 2720 2590
1604 2737 2654
1614 2754 2719
1621 2767 2782
1627 2779 2845
1633 2790 2906
1635 2795 2962
1636 2800 3018
1634 2802 3069
1628 2803 3117
1623 2803 3165
1620 2708 2406
1629 2719 2440
1637 2729 2473
1646 2741 2511
1654 2755 2559
1663 2769 2608
1670 2782 2661
1676 2795 2716
1682 2808 2772
1687 2817 2828
1691 2827 2884
1694 2834 2939
1695 2838 2990
1695 2842 3041
1691 2843 3089
1685 2844 3135
1679 2844 3181
1209 638 343
1214 646 443
1219 654 543
1224 664 660
1230 681 811
1236 697 962
1243 719 1135
1251 745 1320
1258 771 1504
1262 802 1693
1266 834 1881
1267 865 2060
1260 896 2221
1253 927 2382
1237 952 2511
1215 974 2624
1193 996 2737
1175 738 402
1191 753 504
1208 768 607
1221 785 726
1224 808 879
1228 831 1031
1230 860 1203
1231 892 1384
1232 924 1566
1232 961 1747
1232 997 1929
1229 1033 2101
1222 1066 2254
1215 1099 2407
1199 1124 2531
1179 1146 2640
