Assets/1__3DArt/KimSe/artstation_asset/LUTs_pasterls/3DL/Pastelopolis 02 S.3dl
# Enhanced with VOXCOLOR algorithms
0 128 256 384 512 640 768 896 1023
466 385 434
562 559 860
673 806 1381
794 1120 1949
916 1495 2518
1034 1926 2994
1151 2353 3376
1266 2748 3664
1381 3083 3854
550 857 541
647 1056 962
759 1312 1472
881 1616 2029
1007 1963 2590
1133 2333 3059
1257 2687 3432
1381 3007 3711
1504 3279 3896
726 1470 667
818 1662 1081
925 1894 1579
1043 2159 2121
1168 2449 2669
1293 2742 3125
1419 3014 3486
1543 3256 3753
1666 3459 3928
981 2147 796
1062 2304 1201
1159 2489 1686
1268 2695 2214
1384 2913 2744
1504 3123 3183
1624 3314 3530
1744 3480 3784
1864 3617 3950
1301 2806 909
1366 2911 1308
1447 3034 1781
1541 3171 2291
1644 3313 2802
1753 3445 3225
1864 3562 3558
1978 3663 3803
2093 3745 3962
1656 3289 981
1702 3345 1375
1764 3415 1836
1839 3494 2330
1922 3577 2823
2015 3653 3233
2114 3721 3559
2218 3780 3802
2328 3830 3964
1987 3629 1027
2016 3650 1416
2059 3680 1865
2113 3717 2344
2176 3758 2821
2251 3796 3224
2335 3831 3548
2427 3863 3794
2530 3892 3960
2271 3844 1051
2283 3840 1434
2306 3844 1871
2340 3854 2336
2384 3867 2803
2443 3883 3204
2512 3898 3531
2591 3914 3780
2681 3932 3950
2489 3950 1060
2479 3932 1429
2481 3922 1855
2497 3917 2312
2526 3918 2774
2573 3924 3179
2630 3931 3511
2693 3940 3765
2762 3950 3934
1265 497 360
1340 645 781
1421 858 1290
1501 1137 1848
1574 1480 2415
1636 1896 2905
1695 2320 3306
1750 2718 3612
1805 3058 3816
1170 870 443
1273 1029 845
1355 1248 1343
1426 1524 1899
1494 1856 2471
1568 2236 2964
1646 2609 3362
1726 2950 3663
1805 3236 3863
1173 1403 550
1269 1551 944
1348 1750 1434
1420 1997 1982
1494 2289 2547
1583 2610 3032
1678 2914 3420
1774 3186 3710
1868 3409 3900
1271 2024 669
1342 2144 1061
1413 2305 1544
1489 2504 2079
1574 2737 2629
1674 2984 3099
1780 3212 3472
1885 3410 3749
1986 3568 3929
1461 2664 787
1504 2743 1179
1565 2855 1653
1640 2994 2173
1730 3157 2705
1834 3326 3154
1942 3477 3512
2049 3605 3777
2152 3704 3949
1737 3175 881
1764 3217 1270
1811 3283 1733
1877 3368 2238
1957 3469 2749
2051 3572 3181
2150 3663 3526
2250 3741 3784
2348 3801 3955
2021 3554 951
2036 3569 1336
2071 3600 1789
2122 3643 2277
2186 3696 2769
2264 3749 3188
2349 3797 3526
2438 3839 3782
2530 3873 3955
2288 3808 1003
2293 3806 1380
2313 3812 1819
2346 3825 2292
2391 3844 2769
2451 3865 3179
2520 3885 3514
2595 3904 3771
2677 3922 3947
2516 3945 1038
2506 3932 1402
2507 3923 1825
2520 3919 2283
2546 3919 2749
2590 3924 3158
2643 3930 3494
2703 3938 3754
2771 3949 3934
2111 641 356
2143 755 756
2184 932 1243
2227 1176 1782
2264 1491 2341
2287 1890 2839
2303 2306 3253
2314 2701 3575
2323 3043 3794
1870 914 384
1924 1028 771
1964 1206 1255
1998 1451 1800
2037 1766 2372
2089 2154 2881
2142 2543 3300
2193 2902 3622
2236 3204 3838
1730 1360 448
1775 1462 832
1812 1623 1314
1851 1846 1859
1904 2134 2431
1982 2479 2938
2066 2816 3353
2146 3120 3668
2213 3367 3877
1694 1918 540
1714 1996 926
1746 2128 1404
1796 2313 1942
1866 2552 2505
1964 2833 3002
2067 3102 3405
2165 3338 3710
2248 3524 3910
1766 2528 652
1762 2575 1037
1788 2667 1509
1842 2802 2036
1922 2978 2583
2030 3182 3063
2140 3374 3451
2245 3539 3744
2335 3665 3935
1956 3061 765
1944 3081 1144
1963 3135 1607
2011 3220 2119
2083 3333 2647
2180 3465 3106
2281 3587 3478
2380 3692 3760
2468 3771 3947
2175 3477 861
2162 3481 1236
2176 3506 1688
2212 3550 2184
2270 3612 2691
2349 3683 3132
2434 3749 3491
2521 3808 3765
2605 3854 3952
2397 3773 942
2387 3767 1310
2394 3772 1749
2416 3787 2227
2455 3809 2716
2512 3837 3142
2578 3864 3491
2650 3889 3761
2726 3912 3948
2597 3943 1005
2587 3933 1362
2585 3927 1785
2592 3923 2247
2612 3922 2720
2649 3925 3136
2696 3930 3480
2751 3937 3749
2815 3947 3937
2891 796 417
2875 872 785
2877 1014 1241
2890 1228 1755
2907 1518 2298
2911 1902 2797
2903 2307 3220
2887 2698 3554
2865 3040 3786
2555 977 376
2536 1047 746
2532 1185 1210
2545 1399 1738
2579 1696 2300
2631 2088 2816
2678 2489 3251
2714 2866 3591
2731 3183 3823
2318 1339 385
2287 1397 760
2280 1520 1229
2300 1717 1763
2352 1994 2331
2439 2357 2854
2526 2723 3292
2599 3060 3631
2646 3334 3861
2188 1832 440
2140 1872 818
2130 1972 1287
2159 2136 1819
2226 2372 2385
2334 2680 2904
2444 2987 3337
2541 3265 3671
2610 3486 3895
2174 2407 536
2111 2423 909
2096 2490 1373
2128 2612 1898
2200 2791 2454
2313 3026 2960
2430 3258 3382
2537 3466 3707
2619 3630 3925
2289 2954 660
2226 2951 1024
2209 2988 1477
2232 3065 1989
2293 3183 2527
2391 3339 3013
2496 3493 3417
2596 3633 3730
2680 3744 3942
2439 3403 779
2388 3392 1135
2371 3407 1578
2385 3447 2074
2428 3512 2593
2504 3599 3057
2589 3686 3443
2676 3767 3744
2758 3836 3952
2599 3738 885
2567 3728 1237
2553 3729 1668
2558 3741 2149
2582 3764 2648
2633 3798 3092
2695 3834 3461
2765 3870 3750
2838 3903 3953
2745 3943 973
2732 3937 1320
2723 3932 1740
2722 3928 2206
2732 3927 2687
2761 3929 3115
2800 3932 3471
2849 3938 3749
2906 3946 3946
3494 942 535
3436 982 865
3412 1093 1285
3411 1281 1769
3425 1553 2290
3430 1925 2782
3419 2321 3207
3396 2708 3550
3365 3052 3793
3128 1048 426
3044 1078 774
3008 1181 1213
3014 1367 1716
3060 1647 2259
3128 2039 2775
3184 2450 3218
3219 2842 3573
3224 3175 3821
2860 1338 380
2759 1359 741
2717 1448 1190
2729 1618 1704
2793 1879 2259
2899 2251 2787
2998 2640 3242
3075 3007 3603
3112 3312 3854
2696 1772 395
2584 1781 758
2538 1851 1211
2552 1991 1727
2622 2213 2285
2744 2535 2816
2865 2873 3273
2967 3192 3637
3031 3456 3888
2643 2310 469
2523 2301 823
2470 2344 1268
2478 2446 1780
2542 2615 2333
2660 2866 2858
2785 3131 3309
2898 3385 3669
2981 3599 3920
2710 2864 597
2596 2840 933
2538 2857 1365
2532 2920 1865
2576 3030 2403
2672 3200 2910
2780 3383 3347
2886 3562 3696
2976 3721 3943
2803 3338 727
2710 3313 1053
2655 3314 1474
2639 3344 1960
2661 3403 2481
2729 3500 2967
2814 3607 3384
2905 3717 3719
2992 3820 3958
2898 3708 849
2838 3691 1173
2796 3685 1587
2775 3692 2061
2780 3712 2564
2820 3750 3028
2878 3795 3423
2948 3845 3739
3022 3896 3965
2974 3947 952
2954 3943 1282
2934 3940 1695
2919 3937 2161
2916 3935 2651
2934 3936 3093
2965 3937 3464
3007 3941 3757
3057 3947 3962
3788 1043 666
3725 1068 969
3698 1164 1359
3698 1337 1814
3717 1592 2309
3731 1949 2787
3729 2335 3207
3716 2719 3552
3692 3071 3805
3486 1109 533
3387 1120 852
3345 1205 1261
3354 1373 1737
3406 1635 2257
3481 2015 2761
3543 2424 3204
3582 2824 3566
3589 3177 3829
3269 1353 465
3148 1357 792
3096 1427 1211
3107 1575 1697
3172 1816 2230
3280 2178 2751
3381 2572 3211
3459 2960 3587
3498 3301 3859
3140 1743 462
3007 1739 786
2946 1789 1203
2949 1908 1691
3012 2106 2227
3129 2418 2756
3248 2767 3225
3351 3118 3612
3420 3438 3893
3103 2247 524
2961 2229 830
2887 2254 1235
2875 2333 1715
2922 2478 2245
3029 2719 2773
3149 2999 3244
3264 3293 3637
3358 3578 3928
3157 2796 647
3018 2764 927
2933 2765 1313
2903 2807 1778
2923 2896 2295
3005 3059 2810
3107 3257 3273
3218 3477 3662
3323 3704 3956
3219 3284 774
3101 3251 1042
3019 3240 1415
2975 3254 1866
2973 3298 2368
3026 3391 2867
3106 3511 3314
3201 3653 3691
3303 3810 3976
3270 3680 893
3189 3658 1165
3123 3646 1536
3078 3645 1980
3061 3658 2469
3089 3694 2947
3142 3746 3372
3213 3813 3725
3295 3894 3987
3293 3952 996
3262 3951 1289
3228 3951 1673
3199 3952 2119
3181 3952 2601
3190 3950 3058
3215 3948 3453
3252 3949 3770
3296 3953 3990
3948 1111 768
3901 1142 1055
3882 1236 1425
3884 1398 1858
3901 1635 2331
3915 1971 2793
3918 2342 3205
3912 2721 3550
3899 3082 3812
3742 1160 649
3659 1172 940
3626 1251 1322
3635 1406 1772
3679 1649 2269
3743 2008 2759
3795 2405 3196
3830 2805 3561
3840 3176 3834
3598 1371 589
3493 1374 876
3448 1436 1259
3455 1570 1715
3507 1788 2223
3595 2128 2732
3678 2514 3190
3745 2913 3575
3782 3292 3866
3518 1724 590
3400 1719 860
3341 1761 1233
3337 1862 1686
3383 2035 2195
3475 2325 2714
3572 2670 3188
3661 3045 3593
3728 3424 3903
3504 2195 652
3374 2177 892
3300 2193 1245
3278 2254 1684
3305 2372 2186
3386 2591 2707
3483 2872 3190
3584 3201 3611
3678 3563 3943
3548 2733 771
3417 2701 978
3331 2694 1304
3289 2719 1724
3291 2786 2212
3350 2932 2726
3433 3134 3208
3532 3388 3633
3639 3693 3976
3589 3228 891
3474 3195 1084
3388 3176 1394
3333 3178 1799
3316 3207 2272
3352 3290 2775
3416 3415 3248
3503 3586 3665
3607 3804 4001
3614 3646 1006
3532 3624 1207
3459 3609 1518
3405 3603 1916
3376 3611 2379
3393 3643 2866
3436 3698 3320
3500 3780 3712
3582 3895 4017
3608 3952 1106
3574 3955 1346
3535 3961 1679
3498 3967 2084
3472 3971 2542
3474 3968 3011
3493 3963 3434
3524 3960 3781
3561 3962 4022
4014 1152 836
3994 1202 1118
3988 1301 1478
3993 1456 1896
4003 1675 2351
4011 1989 2799
4013 2344 3203
4010 2717 3546
4004 3082 3812
3914 1200 765
3870 1230 1034
3855 1315 1392
3864 1463 1819
3891 1684 2292
3927 2015 2765
3958 2391 3192
3979 2784 3556
3986 3168 3837
3847 1389 739
3789 1407 984
3765 1473 1330
3770 1598 1755
3801 1792 2235
3851 2101 2727
3900 2468 3178
3939 2869 3567
3964 3281 3873
3816 1708 760
3747 1717 971
3713 1760 1295
3710 1849 1709
3735 1998 2187
3786 2257 2691
3842 2588 3163
3896 2977 3580
3941 3411 3916
3821 2147 830
3742 2141 996
3696 2157 1289
3679 2206 1684
3691 2299 2153
3734 2490 2662
3790 2762 3151
3853 3115 3593
3917 3552 3962
3853 2670 942
3772 2647 1067
3715 2640 1329
3683 2657 1701
3679 2705 2156
3709 2829 2663
3757 3026 3158
3819 3307 3613
3894 3683 4002
3879 3167 1058
3805 3139 1165
3746 3122 1408
3705 3119 1761
3688 3138 2202
3705 3208 2702
3742 3332 3194
3798 3525 3647
3871 3799 4031
3890 3603 1173
3835 3585 1294
3784 3573 1534
3744 3569 1877
3719 3575 2305
3725 3602 2796
3750 3658 3274
3792 3752 3704
3849 3897 4050
3879 3942 1284
3855 3951 1457
3825 3964 1719
3796 3979 2064
3774 3990 2484
3772 3987 2961
3782 3980 3413
3802 3973 3794
3826 3972 4058
4031 1172 867
4035 1245 1154
4041 1353 1512
4046 1505 1922
4049 1710 2367
4046 2004 2804
4042 2344 3200
4037 2706 3539
4031 3067 3806
4020 1230 873
4029 1293 1127
4038 1393 1467
4046 1538 1872
4050 1737 2323
4049 2033 2778
4047 2382 3193
4043 2762 3551
4038 3151 3834
4016 1402 902
4029 1453 1111
4042 1534 1421
4052 1655 1813
4057 1825 2264
4057 2095 2735
4055 2434 3175
4050 2829 3562
4043 3265 3876
4019 1689 955
4035 1725 1109
4050 1781 1383
4061 1867 1755
4068 1992 2201
4067 2216 2686
4064 2525 3152
4057 2919 3574
4047 3399 3928
4029 2094 1033
4045 2110 1125
4061 2138 1360
4072 2185 1710
4079 2261 2148
4078 2422 2642
4073 2676 3130
4065 3043 3585
4053 3541 3983
4042 2599 1136
4057 2596 1180
4070 2601 1381
4080 2619 1708
4085 2657 2133
4084 2760 2631
4079 2946 3129
4070 3241 3604
4058 3673 4029
4053 3095 1249
4065 3082 1274
4076 3076 1450
4084 3080 1754
4088 3097 2164
4085 3155 2660
4080 3273 3163
4072 3477 3641
4061 3794 4064
4060 3547 1378
4069 3538 1417
4077 3537 1583
4082 3543 1868
4085 3554 2259
4082 3579 2750
4076 3632 3246
4069 3732 3705
4063 3898 4086
4063 3918 1526
4067 3933 1621
4071 3957 1798
4075 3983 2066
4077 4004 2436
4073 4005 2918
4067 3997 3396
4062 3987 3810
4063 3983 4095
