Assets/1__3DArt/KimSe/artstation_asset/LUTs_pasterls/3DL/Pastelopolis 03 S.3dl
# Enhanced with VOXCOLOR algorithms
0 128 256 384 512 640 768 896 1023
353 466 883
337 588 1126
298 721 1428
244 864 1781
184 1014 2177
150 1174 2601
161 1335 3015
238 1491 3401
401 1638 3742
279 883 966
251 1030 1210
219 1181 1511
187 1336 1861
157 1493 2252
149 1646 2666
174 1792 3065
246 1933 3435
382 2070 3765
290 1386 1077
282 1541 1327
279 1698 1633
281 1855 1985
289 2008 2373
311 2145 2771
357 2271 3147
439 2387 3489
569 2499 3789
422 1940 1224
451 2087 1479
485 2235 1790
525 2381 2143
568 2521 2524
619 2637 2901
686 2736 3246
781 2824 3553
913 2904 3812
710 2511 1416
777 2631 1672
846 2755 1980
917 2877 2324
986 2992 2689
1056 3083 3037
1136 3156 3348
1236 3215 3616
1365 3264 3835
1180 2998 1670
1260 3081 1913
1337 3169 2200
1411 3258 2517
1479 3342 2847
1544 3408 3156
1615 3459 3430
1701 3498 3665
1809 3527 3855
1666 3380 1945
1738 3430 2161
1805 3486 2416
1865 3544 2695
1916 3600 2984
1963 3645 3253
2017 3680 3493
2082 3705 3700
2161 3720 3870
2110 3651 2219
2158 3675 2397
2200 3704 2610
2234 3737 2847
2261 3770 3092
2286 3800 3325
2318 3824 3537
2357 3839 3722
2405 3845 3876
2457 3806 2473
2464 3811 2598
2471 3823 2764
2476 3839 2958
2478 3857 3166
2483 3877 3371
2494 3893 3560
2507 3903 3729
2521 3902 3870
985 525 899
992 608 1129
996 707 1426
996 827 1785
989 972 2198
987 1151 2646
1010 1344 3077
1078 1544 3468
1209 1746 3799
875 878 935
906 990 1167
906 1114 1469
885 1252 1831
854 1407 2243
839 1578 2680
855 1751 3095
918 1923 3473
1043 2092 3796
819 1325 1006
860 1451 1245
870 1586 1554
859 1731 1920
837 1886 2332
833 2043 2755
858 2191 3149
925 2331 3502
1048 2462 3802
849 1836 1122
897 1959 1366
926 2092 1681
942 2233 2049
949 2378 2455
967 2514 2858
1008 2634 3225
1082 2740 3547
1201 2832 3815
1000 2380 1291
1059 2487 1538
1112 2604 1852
1158 2726 2213
1197 2850 2603
1240 2960 2979
1295 3052 3313
1373 3125 3599
1480 3181 3830
1328 2873 1541
1394 2953 1778
1458 3042 2074
1517 3136 2408
1569 3230 2764
1618 3312 3099
1673 3377 3395
1741 3425 3646
1828 3457 3847
1711 3280 1826
1773 3334 2043
1833 3394 2308
1887 3459 2604
1934 3525 2915
1976 3581 3206
2022 3625 3463
2075 3655 3683
2140 3671 3860
2103 3590 2131
2147 3619 2314
2189 3655 2537
2225 3693 2786
2254 3733 3046
2279 3768 3293
2309 3796 3515
2344 3815 3707
2385 3822 3866
2457 3792 2439
2469 3801 2572
2479 3816 2743
2487 3833 2939
2490 3853 3149
2493 3874 3355
2502 3891 3546
2516 3903 3716
2534 3905 3860
1657 598 903
1656 650 1119
1677 720 1410
1710 819 1771
1748 953 2197
1775 1144 2668
1806 1362 3115
1855 1598 3514
1940 1845 3841
1505 890 878
1531 967 1105
1539 1063 1412
1536 1182 1787
1531 1333 2221
1537 1522 2682
1561 1722 3116
1613 1926 3503
1706 2128 3824
1393 1283 899
1424 1374 1137
1431 1482 1457
1423 1612 1843
1410 1767 2280
1415 1945 2731
1442 2122 3147
1498 2291 3515
1594 2447 3818
1348 1749 980
1376 1843 1224
1390 1954 1551
1396 2083 1941
1398 2230 2375
1415 2388 2808
1449 2537 3202
1509 2669 3543
1599 2781 3821
1396 2262 1131
1424 2349 1375
1453 2450 1699
1482 2567 2081
1508 2697 2501
1541 2828 2909
1585 2943 3273
1644 3039 3582
1722 3111 3829
1598 2752 1387
1634 2822 1619
1675 2906 1922
1716 2999 2276
1756 3102 2660
1795 3200 3027
1840 3283 3351
1892 3348 3625
1954 3392 3842
1869 3175 1690
1908 3228 1903
1950 3290 2175
1992 3359 2488
2031 3433 2823
2067 3501 3142
2105 3557 3423
2147 3598 3663
2195 3622 3853
2176 3516 2024
2209 3550 2210
2243 3591 2441
2274 3635 2703
2300 3682 2981
2323 3725 3247
2349 3759 3486
2379 3784 3692
2414 3796 3860
2487 3761 2375
2503 3776 2520
2516 3796 2700
2525 3818 2905
2529 3843 3123
2532 3866 3336
2540 3886 3534
2555 3900 3708
2576 3906 3855
2309 685 898
2284 712 1101
2303 759 1384
2355 837 1744
2425 959 2178
2482 1155 2666
2519 1390 3130
2550 1656 3542
2586 1941 3869
2121 918 808
2109 962 1036
2111 1030 1349
2127 1132 1736
2160 1276 2186
2203 1480 2670
2245 1706 3125
2290 1942 3525
2344 2177 3848
1974 1260 779
1963 1316 1024
1956 1397 1357
1960 1510 1762
1977 1661 2222
2013 1858 2700
2056 2063 3140
2108 2265 3525
2170 2453 3835
1883 1684 825
1868 1747 1077
1863 1832 1419
1868 1945 1830
1884 2090 2290
1919 2268 2754
1962 2445 3176
2014 2610 3540
2074 2751 3830
1865 2163 962
1850 2227 1206
1852 2310 1541
1866 2415 1944
1891 2544 2391
1927 2693 2833
1970 2834 3229
2017 2958 3566
2067 3056 3832
1966 2641 1229
1961 2700 1452
1972 2774 1761
1995 2863 2131
2024 2967 2541
2060 3079 2942
2098 3182 3299
2138 3269 3602
2178 3334 3841
2129 3069 1550
2135 3120 1754
2153 3182 2029
2177 3253 2354
2204 3331 2712
2234 3409 3062
2265 3478 3374
2298 3535 3640
2332 3574 3852
2334 3431 1908
2349 3471 2092
2368 3518 2327
2388 3569 2599
2407 3622 2896
2425 3671 3186
2447 3713 3449
2471 3746 3675
2501 3767 3859
2564 3711 2287
2581 3735 2445
2594 3763 2636
2603 3795 2851
2607 3827 3082
2611 3855 3310
2619 3878 3520
2633 3895 3704
2654 3905 3857
2882 784 890
2831 790 1080
2839 819 1353
2896 883 1708
2989 992 2142
3072 1186 2642
3122 1431 3124
3144 1718 3551
3144 2036 3889
2679 962 743
2623 977 973
2612 1022 1290
2643 1108 1683
2712 1244 2143
2796 1456 2643
2861 1702 3117
2906 1967 3535
2929 2237 3867
2524 1258 668
2463 1282 925
2441 1338 1270
2456 1433 1688
2506 1577 2163
2581 1786 2661
2649 2016 3124
2703 2252 3529
2739 2476 3852
2421 1643 684
2358 1677 948
2331 1739 1303
2337 1834 1729
2373 1970 2208
2435 2160 2697
2496 2362 3145
2549 2561 3534
2588 2740 3842
2375 2088 808
2314 2131 1056
2287 2195 1400
2289 2284 1817
2315 2405 2284
2363 2563 2754
2412 2726 3181
2457 2882 3549
2491 3018 3839
2409 2546 1083
2359 2595 1298
2338 2658 1607
2340 2738 1987
2359 2837 2416
2394 2957 2848
2431 3077 3241
2466 3189 3578
2494 3286 3846
2480 2968 1418
2449 3019 1608
2437 3080 1877
2440 3149 2209
2453 3227 2585
2476 3311 2967
2502 3392 3314
2529 3466 3615
2555 3529 3856
2581 3338 1791
2572 3386 1965
2571 3439 2197
2575 3497 2475
2583 3556 2788
2595 3611 3108
2611 3659 3402
2632 3702 3658
2656 3737 3864
2705 3641 2182
2717 3677 2349
2725 3718 2549
2731 3763 2775
2735 3806 3021
2739 3840 3271
2746 3867 3502
2760 3887 3704
2780 3901 3867
3252 876 882
3199 879 1065
3202 902 1329
3256 957 1674
3352 1053 2100
3451 1233 2603
3514 1473 3096
3543 1766 3541
3534 2106 3898
3090 1017 718
3021 1019 945
3006 1052 1257
3041 1126 1644
3123 1250 2099
3228 1455 2604
3309 1705 3091
3359 1986 3527
3370 2287 3878
2974 1278 625
2895 1287 880
2866 1327 1223
2885 1408 1638
2948 1537 2111
3043 1742 2616
3126 1981 3095
3185 2240 3520
3210 2503 3863
2903 1631 621
2818 1651 883
2780 1697 1237
2784 1775 1663
2826 1895 2142
2901 2079 2641
2973 2292 3109
3031 2518 3522
3064 2745 3855
2875 2046 725
2787 2080 968
2742 2130 1308
2733 2203 1725
2756 2305 2195
2807 2455 2681
2862 2629 3133
2910 2814 3531
2944 3003 3853
2885 2481 989
2807 2527 1188
2762 2583 1486
2747 2652 1863
2756 2736 2298
2787 2849 2754
2823 2976 3179
2858 3115 3554
2887 3259 3860
2901 2887 1320
2843 2942 1485
2809 3004 1738
2793 3071 2064
2794 3142 2448
2809 3222 2859
2829 3307 3246
2853 3399 3589
2880 3499 3871
2922 3251 1696
2892 3308 1842
2873 3372 2055
2863 3437 2327
2861 3500 2650
2866 3554 3004
2876 3605 3339
2892 3657 3638
2914 3712 3881
2948 3557 2091
2948 3606 2245
2949 3666 2433
2950 3730 2656
2951 3789 2913
2953 3828 3196
2958 3855 3465
2967 3875 3702
2984 3891 3887
3494 949 877
3454 962 1059
3458 988 1316
3507 1037 1652
3598 1116 2068
3700 1276 2568
3772 1502 3068
3808 1791 3526
3803 2140 3899
3400 1070 730
3341 1073 947
3330 1103 1247
3366 1168 1621
3447 1276 2064
3552 1464 2568
3636 1705 3063
3686 1990 3512
3692 2311 3880
3343 1305 639
3272 1311 879
3247 1344 1207
3267 1413 1609
3330 1524 2072
3423 1713 2577
3504 1948 3065
3560 2220 3506
3577 2517 3869
3317 1628 621
3238 1645 867
3201 1683 1206
3205 1748 1621
3245 1848 2091
3316 2017 2594
3384 2229 3075
3437 2476 3508
3463 2749 3865
3319 2016 698
3233 2049 924
3186 2092 1252
3173 2151 1660
3190 2234 2126
3235 2369 2620
3284 2543 3091
3326 2753 3516
3355 2999 3869
3324 2430 931
3243 2480 1109
3194 2534 1393
3173 2594 1763
3174 2663 2199
3197 2761 2672
3225 2889 3125
3253 3051 3535
3278 3249 3880
3309 2821 1244
3246 2885 1379
3206 2951 1613
3184 3017 1931
3178 3081 2320
3185 3150 2758
3196 3235 3182
3211 3344 3568
3231 3483 3892
3278 3175 1618
3241 3245 1730
3216 3321 1918
3202 3396 2177
3195 3462 2506
3193 3512 2894
3194 3561 3274
3201 3619 3619
3216 3695 3904
3232 3478 2032
3224 3540 2155
3221 3621 2313
3222 3708 2516
3223 3784 2775
3220 3825 3095
3217 3848 3412
3220 3863 3695
3231 3879 3912
3634 1001 877
3612 1033 1059
3621 1066 1312
3664 1109 1640
3744 1172 2047
3843 1308 2543
3917 1516 3045
3958 1793 3510
3960 2139 3895
3613 1117 775
3580 1135 976
3580 1169 1258
3615 1227 1615
3686 1314 2042
3778 1477 2541
3853 1700 3038
3897 1978 3495
3900 2305 3875
3619 1333 702
3579 1350 917
3571 1384 1221
3594 1444 1601
3648 1535 2047
3724 1698 2547
3789 1919 3040
3829 2191 3491
3834 2512 3869
3642 1630 678
3598 1655 894
3582 1692 1208
3592 1748 1602
3626 1829 2059
3680 1974 2560
3728 2176 3048
3760 2434 3496
3766 2748 3874
3677 1990 719
3628 2032 918
3603 2075 1226
3600 2126 1621
3614 2191 2079
3644 2305 2577
3672 2473 3061
3691 2703 3507
3696 3003 3888
3690 2386 900
3643 2448 1055
3616 2505 1325
3605 2560 1689
3607 2616 2126
3618 2698 2610
3628 2822 3085
3634 3002 3525
3632 3253 3905
3670 2767 1180
3633 2844 1289
3611 2918 1507
3600 2986 1820
3597 3043 2215
3595 3101 2675
3591 3183 3131
3585 3304 3555
3579 3483 3920
3618 3115 1552
3595 3198 1630
3584 3288 1792
3580 3374 2039
3578 3444 2374
3570 3488 2793
3556 3532 3215
3544 3593 3606
3537 3690 3932
3536 3414 2008
3527 3487 2086
3531 3589 2199
3540 3698 2370
3546 3791 2625
3536 3832 2984
3520 3847 3352
3507 3853 3685
3508 3866 3939
3694 1028 883
3688 1081 1064
3702 1123 1315
3740 1163 1639
3810 1209 2039
3898 1324 2531
3968 1513 3032
4010 1774 3498
4015 2104 3886
3735 1154 847
3736 1199 1029
3752 1244 1288
3787 1296 1625
3845 1360 2036
3916 1491 2528
3970 1688 3022
4000 1948 3481
3994 2268 3865
3792 1357 808
3803 1399 989
3824 1443 1260
3857 1497 1613
3902 1565 2039
3950 1696 2532
3984 1891 3024
3994 2154 3480
3975 2484 3864
3856 1629 781
3878 1675 957
3904 1720 1238
3934 1771 1606
3966 1833 2046
3991 1950 2543
4002 2134 3034
3992 2393 3490
3957 2737 3880
3918 1962 779
3948 2022 945
3977 2074 1229
4003 2123 1607
4023 2174 2057
4029 2267 2555
4020 2424 3048
3991 2665 3507
3939 3010 3909
3950 2343 887
3982 2425 1022
4011 2493 1282
4035 2549 1644
4049 2597 2083
4045 2663 2577
4023 2780 3067
3982 2973 3528
3919 3269 3935
3949 2719 1120
3978 2817 1211
4008 2904 1423
4031 2976 1740
4045 3030 2145
4034 3078 2623
4005 3155 3104
3957 3286 3556
3892 3499 3952
3912 3069 1493
3933 3169 1543
3961 3275 1686
3988 3371 1926
4003 3445 2269
3988 3483 2716
3953 3521 3174
3907 3584 3602
3856 3696 3962
3838 3372 2023
3841 3455 2047
3866 3575 2105
3897 3703 2235
3917 3810 2481
3897 3848 2876
3859 3853 3294
3822 3846 3676
3806 3854 3967
