Assets/1__3DArt/KimSe/artstation_asset/LUTs_pasterls/3DL/Pastelopolis 03 S.3dl
# Enhanced with VOXCOLOR algorithms
0 64 128 192 256 320 384 448 512 576 640 704 768 832 896 960 1023
353 466 883
345 527 1005
337 588 1126
323 652 1262
298 721 1428
272 790 1594
244 864 1781
214 939 1979
184 1014 2177
167 1094 2389
150 1174 2601
144 1254 2811
161 1335 3015
178 1416 3220
238 1491 3401
320 1565 3571
401 1638 3742
316 674 925
305 742 1046
294 809 1168
280 878 1304
259 951 1469
237 1024 1635
215 1100 1821
193 1177 2018
171 1254 2215
160 1332 2424
149 1410 2634
149 1487 2840
167 1563 3040
186 1640 3240
242 1712 3418
317 1783 3586
392 1854 3753
279 883 966
265 957 1088
251 1030 1210
236 1104 1346
219 1181 1511
203 1258 1676
187 1336 1861
172 1415 2057
157 1493 2252
153 1569 2459
149 1646 2666
153 1720 2869
174 1792 3065
194 1864 3260
246 1933 3435
314 2002 3600
382 2070 3765
263 1113 1014
250 1191 1137
238 1268 1260
225 1346 1397
215 1425 1562
204 1505 1727
196 1584 1912
190 1663 2107
184 1742 2301
187 1815 2505
190 1889 2708
200 1960 2907
223 2026 3097
246 2092 3288
296 2157 3457
360 2221 3617
424 2285 3777
290 1386 1077
286 1464 1202
282 1541 1327
280 1619 1466
279 1698 1633
279 1777 1800
281 1855 1985
285 1931 2179
289 2008 2373
300 2077 2572
311 2145 2771
329 2211 2965
357 2271 3147
386 2330 3329
439 2387 3489
504 2443 3639
569 2499 3789
317 1659 1140
322 1737 1266
327 1814 1393
334 1892 1534
344 1971 1703
354 2050 1872
366 2126 2058
380 2200 2251
393 2275 2445
413 2339 2640
433 2402 2834
458 2462 3022
492 2515 3196
526 2567 3370
581 2617 3521
648 2665 3661
714 2713 3801
422 1940 1224
436 2013 1352
451 2087 1479
467 2160 1621
485 2235 1790
504 2310 1959
525 2381 2143
546 2451 2333
568 2521 2524
593 2579 2712
619 2637 2901
649 2691 3081
686 2736 3246
724 2782 3411
781 2824 3553
847 2864 3683
913 2904 3812
566 2226 1320
590 2292 1448
614 2359 1576
639 2426 1717
666 2495 1885
693 2564 2053
721 2629 2234
749 2693 2420
777 2756 2607
807 2808 2788
838 2860 2969
871 2907 3141
911 2946 3297
951 2985 3453
1008 3019 3584
1074 3052 3704
1139 3084 3824
710 2511 1416
743 2571 1544
777 2631 1672
811 2692 1813
846 2755 1980
882 2818 2147
917 2877 2324
951 2934 2507
986 2992 2689
1021 3037 2863
1056 3083 3037
1094 3124 3202
1136 3156 3348
1179 3188 3494
1236 3215 3616
1301 3239 3726
1365 3264 3835
945 2755 1543
981 2805 1668
1018 2856 1792
1055 2908 1929
1092 2962 2090
1129 3016 2251
1164 3067 2421
1198 3117 2594
1232 3167 2768
1266 3206 2932
1300 3245 3097
1336 3280 3252
1376 3308 3389
1416 3335 3526
1469 3357 3640
1528 3376 3743
1587 3395 3845
1180 2998 1670
1220 3040 1792
1260 3081 1913
1299 3124 2045
1337 3169 2200
1376 3215 2355
1411 3258 2517
1445 3300 2682
1479 3342 2847
1511 3375 3002
1544 3408 3156
1578 3437 3302
1615 3459 3430
1653 3482 3559
1701 3498 3665
1755 3512 3760
1809 3527 3855
1419 3216 1803
1459 3248 1919
1500 3281 2035
1540 3315 2162
1577 3352 2309
1614 3389 2457
1648 3425 2609
1680 3459 2765
1711 3494 2921
1741 3521 3065
1771 3549 3210
1802 3573 3347
1836 3591 3467
1870 3608 3587
1913 3621 3686
1960 3631 3775
2008 3641 3864
1666 3380 1945
1702 3405 2053
1738 3430 2161
1773 3457 2279
1805 3486 2416
1837 3516 2553
1865 3544 2695
1890 3572 2839
1916 3600 2984
1939 3623 3118
1963 3645 3253
1989 3665 3381
2017 3680 3493
2046 3695 3606
2082 3705 3700
2121 3713 3785
2161 3720 3870
1913 3544 2087
1945 3562 2187
1977 3580 2287
2007 3599 2396
2033 3620 2523
2059 3642 2650
2081 3663 2781
2100 3685 2914
2120 3706 3047
2138 3724 3172
2156 3742 3296
2176 3758 3414
2199 3770 3520
2221 3783 3626
2250 3790 3715
2283 3794 3795
2315 3799 3876
2110 3651 2219
2134 3663 2308
2158 3675 2397
2180 3688 2494
2200 3704 2610
2219 3721 2726
2234 3737 2847
2247 3754 2970
2261 3770 3092
2273 3785 3209
2286 3800 3325
2300 3813 3437
2318 3824 3537
2335 3834 3637
2357 3839 3722
2381 3842 3799
2405 3845 3876
2284 3728 2346
2297 3736 2422
2311 3743 2497
2324 3752 2583
2335 3764 2687
2347 3776 2792
2355 3788 2902
2362 3801 3016
2369 3814 3129
2377 3826 3239
2385 3838 3348
2394 3850 3453
2406 3859 3548
2418 3867 3644
2432 3871 3725
2447 3872 3799
2463 3873 3873
2457 3806 2473
2461 3809 2536
2464 3811 2598
2468 3816 2671
2471 3823 2764
2474 3831 2858
2476 3839 2958
2477 3848 3062
2478 3857 3166
2481 3867 3268
2483 3877 3371
2487 3886 3469
2494 3893 3560
2500 3901 3651
2507 3903 3729
2514 3903 3799
2521 3902 3870
669 495 891
667 546 1009
665 598 1127
659 652 1262
647 714 1427
635 776 1593
620 845 1783
603 919 1985
586 993 2187
577 1078 2406
568 1162 2624
568 1249 2838
585 1339 3046
603 1430 3253
658 1518 3435
732 1605 3603
805 1692 3770
623 688 921
622 746 1039
622 804 1158
617 865 1292
605 931 1459
592 997 1625
578 1070 1814
562 1146 2016
546 1222 2218
539 1304 2433
531 1387 2648
532 1471 2860
550 1555 3063
568 1640 3266
620 1723 3444
690 1805 3610
759 1886 3775
577 881 951
578 945 1070
579 1010 1189
575 1077 1323
562 1148 1490
550 1219 1656
536 1294 1846
521 1372 2047
506 1450 2248
500 1531 2460
494 1612 2673
496 1692 2881
515 1772 3080
533 1851 3279
582 1928 3454
647 2005 3617
713 2081 3781
548 1096 988
552 1165 1108
555 1235 1228
554 1306 1364
544 1380 1531
535 1454 1699
523 1531 1888
512 1610 2089
500 1689 2289
498 1767 2499
495 1845 2708
500 1921 2912
520 1994 3105
540 2068 3299
588 2138 3469
651 2208 3628
713 2278 3787
554 1356 1042
563 1426 1164
571 1496 1286
576 1568 1423
575 1642 1593
573 1717 1763
570 1793 1953
566 1870 2153
563 1947 2353
568 2021 2558
572 2094 2763
583 2165 2962
608 2231 3148
632 2296 3334
682 2359 3496
745 2420 3646
808 2480 3796
560 1615 1095
574 1686 1219
587 1757 1343
599 1830 1483
605 1905 1655
611 1980 1827
616 2055 2017
621 2130 2217
626 2206 2416
638 2274 2617
649 2343 2818
666 2409 3011
695 2467 3190
724 2525 3368
776 2579 3522
840 2631 3663
903 2683 3804
635 1888 1173
655 1955 1298
674 2023 1423
692 2092 1564
706 2164 1736
720 2236 1908
733 2307 2096
746 2378 2293
758 2449 2490
776 2512 2684
793 2575 2879
815 2634 3066
847 2685 3236
879 2736 3405
931 2782 3550
994 2825 3682
1057 2868 3814
745 2167 1263
771 2229 1388
796 2291 1514
820 2355 1655
842 2421 1826
865 2488 1997
885 2554 2182
905 2620 2375
925 2685 2568
948 2742 2756
970 2798 2944
997 2851 3122
1031 2894 3283
1066 2938 3444
1118 2976 3579
1179 3011 3701
1240 3045 3823
855 2445 1353
886 2502 1479
918 2559 1605
949 2617 1746
979 2679 1916
1009 2741 2086
1037 2802 2269
1064 2861 2458
1091 2921 2646
1120 2971 2827
1148 3021 3008
1179 3067 3179
1216 3104 3330
1253 3140 3482
1304 3170 3607
1363 3196 3720
1423 3222 3833
1054 2691 1479
1088 2739 1602
1123 2788 1725
1156 2838 1862
1188 2892 2026
1221 2946 2191
1251 2999 2366
1279 3051 2546
1308 3104 2726
1336 3147 2897
1364 3191 3068
1395 3230 3229
1430 3261 3371
1465 3292 3514
1513 3316 3631
1567 3336 3737
1621 3357 3842
1254 2936 1605
1290 2976 1726
1327 3017 1846
1363 3060 1978
1398 3106 2137
1433 3152 2295
1464 3197 2463
1494 3241 2634
1524 3286 2806
1552 3323 2967
1581 3360 3128
1611 3393 3280
1644 3418 3413
1678 3443 3546
1721 3462 3655
1770 3477 3753
1818 3492 3851
1462 3157 1739
1499 3190 1854
1537 3223 1970
1573 3258 2097
1608 3296 2248
1643 3334 2400
1674 3372 2558
1703 3409 2720
1732 3446 2881
1759 3477 3032
1786 3508 3183
1814 3535 3325
1845 3555 3450
1876 3576 3574
1915 3589 3676
1958 3600 3768
2000 3610 3859
1688 3330 1885
1722 3356 1994
1756 3382 2102
1788 3409 2221
1819 3440 2362
1849 3471 2503
1876 3502 2650
1900 3532 2800
1925 3562 2949
1947 3588 3090
1970 3613 3230
1993 3636 3362
2019 3653 3478
2046 3670 3595
2078 3680 3691
2114 3688 3778
2151 3696 3865
1914 3503 2032
1945 3522 2133
1975 3541 2234
2004 3561 2345
2030 3585 2476
2056 3608 2606
2078 3632 2741
2098 3655 2879
2117 3679 3017
2135 3699 3147
2153 3719 3276
2172 3736 3398
2193 3750 3507
2215 3764 3616
2242 3771 3707
2271 3776 3789
2301 3781 3871
2107 3621 2175
2130 3634 2265
2153 3647 2355
2174 3662 2455
2194 3679 2573
2214 3697 2692
2229 3715 2816
2243 3733 2943
2257 3752 3069
2270 3768 3189
2283 3784 3309
2296 3799 3423
2313 3810 3526
2330 3821 3628
2350 3827 3715
2373 3830 3793
2395 3833 3871
2282 3710 2316
2296 3718 2393
2310 3727 2470
2323 3737 2557
2335 3749 2664
2346 3762 2770
2355 3776 2882
2363 3790 2998
2371 3803 3113
2378 3817 3225
2385 3830 3336
2394 3842 3443
2406 3851 3540
2417 3861 3636
2431 3865 3719
2446 3867 3793
2461 3868 3868
2457 3799 2456
2462 3803 2521
2467 3806 2585
2471 3811 2660
2475 3819 2754
2479 3827 2848
2481 3836 2949
2483 3846 3053
2484 3855 3157
2486 3865 3260
2488 3875 3363
2492 3885 3462
2498 3892 3553
2504 3900 3645
2512 3903 3723
2520 3903 3794
2528 3903 3865
985 525 899
989 566 1014
992 608 1129
995 653 1261
996 707 1426
998 761 1592
996 827 1785
992 900 1991
989 972 2198
988 1061 2422
987 1151 2646
992 1244 2866
1010 1344 3077
1028 1444 3287
1078 1544 3468
1144 1645 3634
1209 1746 3799
930 701 917
939 750 1033
949 799 1148
954 851 1281
951 911 1448
948 970 1614
940 1040 1808
931 1115 2014
922 1189 2221
917 1277 2442
913 1364 2663
916 1454 2880
933 1547 3086
950 1641 3292
998 1734 3470
1062 1826 3634
1126 1919 3798
875 878 935
890 934 1051
906 990 1167
913 1049 1301
906 1114 1469
898 1179 1637
885 1252 1831
869 1330 2037
854 1407 2243
847 1493 2462
839 1578 2680
839 1664 2893
855 1751 3095
871 1838 3297
918 1923 3473
981 2007 3634
1043 2092 3796
834 1078 962
853 1140 1079
873 1201 1196
883 1265 1331
874 1334 1501
865 1403 1671
850 1478 1865
833 1557 2071
816 1636 2277
808 1719 2492
801 1801 2707
801 1883 2917
817 1963 3113
834 2043 3310
880 2120 3481
942 2195 3639
1003 2271 3797
819 1325 1006
839 1388 1125
860 1451 1245
873 1516 1381
870 1586 1554
867 1656 1726
859 1731 1920
848 1809 2126
837 1886 2332
835 1964 2543
833 2043 2755
838 2119 2959
858 2191 3149
878 2263 3338
925 2331 3502
986 2396 3652
1048 2462 3802
804 1572 1050
826 1636 1172
848 1700 1293
863 1767 1432
866 1838 1607
869 1909 1781
867 1984 1976
863 2060 2182
859 2137 2387
862 2210 2594
865 2284 2802
875 2355 3001
898 2419 3184
922 2483 3367
970 2542 3523
1031 2597 3665
1092 2652 3808
849 1836 1122
873 1897 1244
897 1959 1366
917 2024 1506
926 2092 1681
936 2161 1856
942 2233 2049
945 2305 2252
949 2378 2455
958 2446 2656
967 2514 2858
982 2578 3050
1008 2634 3225
1034 2691 3399
1082 2740 3547
1141 2786 3681
1201 2832 3815
925 2108 1206
951 2165 1329
978 2223 1452
1002 2283 1592
1019 2348 1766
1036 2413 1941
1050 2479 2131
1061 2547 2330
1073 2614 2529
1088 2675 2724
1103 2737 2918
1123 2794 3103
1151 2843 3269
1180 2892 3434
1227 2933 3573
1284 2969 3698
1340 3006 3822
1000 2380 1291
1030 2433 1414
1059 2487 1538
1087 2543 1678
1112 2604 1852
1136 2664 2025
1158 2726 2213
1178 2788 2408
1197 2850 2603
1218 2905 2791
1240 2960 2979
1264 3010 3156
1295 3052 3313
1326 3093 3469
1373 3125 3599
1426 3153 3714
1480 3181 3830
1164 2627 1416
1195 2673 1537
1227 2720 1658
1257 2769 1795
1285 2823 1963
1313 2876 2131
1337 2931 2311
1360 2986 2497
1383 3040 2684
1406 3088 2861
1429 3136 3039
1454 3179 3206
1484 3214 3354
1515 3249 3501
1557 3275 3622
1605 3297 3730
1654 3319 3838
1328 2873 1541
1361 2913 1660
1394 2953 1778
1427 2995 1912
1458 3042 2074
1489 3089 2236
1517 3136 2408
1543 3183 2586
1569 3230 2764
1593 3271 2932
1618 3312 3099
1644 3348 3257
1673 3377 3395
1703 3405 3533
1741 3425 3646
1785 3441 3746
1828 3457 3847
1505 3098 1674
1539 3132 1789
1573 3165 1905
1606 3200 2033
1639 3240 2188
1671 3279 2343
1700 3319 2506
1726 3359 2674
1753 3399 2842
1777 3433 2999
1802 3467 3156
1827 3497 3304
1855 3520 3433
1882 3543 3561
1917 3558 3667
1955 3568 3760
1993 3579 3854
1711 3280 1826
1742 3307 1934
1773 3334 2043
1804 3362 2163
1833 3394 2308
1862 3427 2452
1887 3459 2604
1911 3492 2760
1934 3525 2915
1955 3553 3061
1976 3581 3206
1998 3606 3343
2022 3625 3463
2046 3644 3584
2075 3655 3683
2107 3663 3771
2140 3671 3860
1916 3462 1977
1945 3482 2079
1973 3502 2181
2001 3524 2294
2027 3549 2428
2053 3574 2562
2075 3600 2702
2095 3625 2845
2115 3651 2988
2132 3673 3122
2150 3695 3256
2168 3715 3382
2188 3730 3494
2209 3745 3606
2233 3753 3699
2260 3758 3782
2287 3763 3866
2103 3590 2131
2125 3605 2222
2147 3619 2314
2169 3635 2415
2189 3655 2537
2208 3674 2658
2225 3693 2786
2239 3713 2916
2254 3733 3046
2267 3751 3170
2279 3768 3293
2293 3784 3410
2309 3796 3515
2324 3808 3620
2344 3815 3707
2364 3818 3787
2385 3822 3866
2280 3691 2285
2294 3701 2364
2308 3710 2443
2322 3721 2532
2334 3735 2640
2346 3749 2748
2356 3763 2862
2364 3778 2980
2372 3793 3098
2379 3807 3211
2386 3821 3324
2395 3834 3433
2405 3844 3531
2416 3854 3629
2430 3859 3712
2445 3861 3787
2460 3863 3863
2457 3792 2439
2463 3797 2506
2469 3801 2572
2475 3807 2648
2479 3816 2743
2484 3824 2837
2487 3833 2939
2488 3843 3044
2490 3853 3149
2491 3863 3252
2493 3874 3355
2496 3883 3455
2502 3891 3546
2508 3899 3638
2516 3903 3716
2525 3904 3788
2534 3905 3860
1311 558 904
1316 590 1016
1322 623 1127
1330 660 1257
1341 707 1422
1353 754 1587
1362 816 1782
1371 886 1992
1380 956 2203
1387 1050 2433
1393 1143 2663
1403 1241 2888
1421 1350 3102
1439 1459 3316
1482 1571 3496
1538 1684 3660
1594 1797 3824
1246 719 909
1260 759 1021
1274 799 1134
1284 843 1265
1288 896 1433
1292 949 1601
1292 1015 1797
1290 1088 2008
1289 1162 2219
1289 1253 2446
1290 1345 2674
1295 1440 2895
1312 1542 3105
1328 1644 3315
1371 1746 3493
1428 1849 3655
