Assets/1__3DArt/KimSe/artstation_asset/LUTs_pasterls/3DL/Pastelopolis 04.3dl
# Enhanced with VOXCOLOR algorithms
0 128 256 384 512 640 768 896 1023
418 562 289
431 609 496
436 653 760
435 696 1067
429 738 1404
416 777 1735
396 809 2027
366 830 2271
321 835 2457
469 789 457
482 852 665
490 920 924
495 991 1221
496 1061 1546
492 1122 1860
482 1171 2137
464 1205 2373
436 1225 2562
550 1074 690
565 1149 895
580 1231 1145
594 1319 1430
606 1406 1736
612 1478 2026
611 1534 2282
602 1574 2500
586 1598 2678
662 1398 979
681 1475 1173
704 1563 1409
728 1657 1674
751 1750 1954
767 1824 2215
775 1880 2444
773 1918 2638
763 1939 2798
807 1741 1315
831 1811 1489
861 1894 1699
894 1982 1934
927 2069 2180
950 2138 2407
964 2187 2606
968 2219 2776
962 2235 2915
994 2056 1660
1020 2112 1804
1054 2180 1980
1090 2254 2176
1127 2327 2382
1154 2383 2575
1170 2422 2744
1175 2446 2891
1172 2457 3014
1196 2328 1968
1221 2369 2083
1253 2422 2224
1288 2480 2384
1323 2537 2553
1349 2579 2713
1364 2608 2857
1370 2625 2984
1367 2632 3095
1398 2549 2228
1419 2576 2313
1443 2612 2422
1470 2653 2548
1497 2693 2685
1517 2723 2818
1530 2742 2940
1534 2752 3052
1528 2756 3151
1590 2714 2425
1599 2726 2481
1609 2745 2562
1620 2768 2660
1631 2792 2769
1642 2810 2882
1649 2822 2989
1649 2827 3089
1638 2826 3180
945 613 327
957 643 530
967 677 797
975 718 1117
981 766 1477
979 821 1840
966 873 2163
938 917 2436
893 948 2646
918 822 477
979 880 679
1002 943 942
999 1012 1253
982 1086 1599
963 1158 1937
941 1220 2237
914 1269 2491
877 1302 2693
918 1092 693
989 1167 893
1019 1249 1148
1021 1336 1443
1006 1425 1766
987 1505 2076
967 1569 2347
943 1616 2578
912 1645 2763
950 1402 964
1008 1483 1157
1042 1573 1398
1057 1667 1671
1057 1762 1964
1048 1841 2239
1036 1901 2480
1018 1942 2683
991 1963 2848
1015 1731 1281
1057 1808 1459
1092 1894 1676
1120 1985 1918
1139 2075 2174
1146 2147 2412
1144 2198 2620
1133 2230 2796
1109 2242 2939
1133 2037 1615
1168 2101 1766
1203 2175 1949
1237 2252 2154
1266 2328 2369
1283 2387 2570
1289 2428 2746
1284 2451 2898
1265 2458 3023
1281 2306 1923
1310 2355 2045
1343 2413 2194
1378 2475 2361
1409 2536 2538
1430 2581 2704
1440 2612 2854
1438 2628 2984
1423 2632 3095
1446 2531 2191
1471 2566 2284
1498 2608 2400
1527 2653 2532
1553 2697 2674
1571 2728 2811
1580 2749 2936
1579 2760 3049
1567 2762 3149
1620 2708 2406
1637 2729 2473
1654 2755 2560
1670 2782 2661
1682 2808 2772
1691 2826 2884
1695 2838 2990
1691 2843 3089
1679 2844 3181
1474 665 355
1491 676 538
1510 698 794
1531 732 1116
1555 779 1492
1573 842 1889
1576 908 2253
1560 970 2569
1522 1025 2821
1408 854 484
1483 901 670
1517 957 927
1522 1023 1244
1513 1100 1609
1502 1182 1981
1488 1259 2317
1464 1325 2606
1427 1376 2836
1363 1111 679
1449 1181 868
1489 1260 1121
1496 1348 1425
1482 1442 1769
1463 1534 2109
1442 1611 2412
1415 1672 2670
1377 1713 2876
1342 1412 931
1412 1494 1119
1454 1585 1361
1471 1683 1645
1468 1785 1958
1454 1875 2261
1436 1946 2528
1410 1997 2754
1372 2024 2933
1346 1737 1233
1395 1819 1412
1434 1910 1635
1462 2007 1889
1477 2104 2164
1477 2184 2425
1467 2244 2654
1445 2282 2846
1407 2295 2999
1400 2043 1563
1436 2114 1720
1473 2193 1911
1506 2276 2128
1532 2359 2359
1543 2424 2578
1542 2470 2770
1526 2497 2934
1493 2503 3065
1486 2313 1876
1515 2369 2006
1549 2434 2165
1582 2501 2343
1612 2567 2532
1628 2617 2712
1632 2651 2872
1623 2669 3010
1597 2672 3125
1598 2541 2157
1624 2583 2260
1653 2631 2385
1681 2681 2526
1707 2729 2677
1723 2764 2821
1728 2788 2953
1723 2800 3071
1704 2802 3174
1727 2721 2390
1751 2751 2468
1774 2783 2563
1793 2816 2671
1809 2846 2788
1817 2868 2903
1820 2882 3012
1815 2890 3114
1800 2893 3208
1951 714 376
1975 707 528
2006 715 763
2043 738 1074
2088 780 1455
2130 845 1882
2157 916 2290
2162 991 2657
2142 1065 2964
1881 883 481
1948 916 644
1989 961 886
2012 1021 1199
2027 1097 1575
2041 1188 1981
2048 1277 2360
2042 1360 2695
2016 1431 2971
1823 1125 652
1900 1188 825
1946 1262 1069
1967 1348 1376
1973 1447 1736
1973 1550 2112
1968 1644 2456
1952 1722 2755
1919 1782 2997
1779 1420 884
1845 1500 1062
1891 1592 1302
1918 1694 1593
1927 1803 1926
1925 1907 2265
1915 1994 2569
1893 2061 2830
1854 2102 3037
1750 1747 1170
1797 1832 1346
1839 1929 1573
1873 2032 1839
1893 2138 2136
1896 2232 2430
1889 2305 2690
1865 2355 2911
1820 2378 3084
1754 2060 1498
1789 2137 1658
1826 2223 1858
1861 2314 2089
1888 2404 2342
1899 2480 2587
1897 2536 2804
1878 2571 2989
1836 2583 3135
1785 2337 1819
1812 2400 1957
1845 2472 2127
1879 2546 2319
1908 2619 2527
1923 2677 2726
1926 2718 2904
1912 2743 3058
1879 2749 3183
1839 2570 2115
1864 2619 2229
1894 2674 2366
1923 2731 2521
1950 2786 2685
1965 2827 2844
1970 2856 2989
1962 2873 3117
1940 2879 3227
1911 2751 2368
1939 2789 2459
1966 2829 2567
1990 2869 2686
2011 2907 2813
2023 2935 2938
2027 2956 3055
2023 2969 3164
2010 2976 3263
2322 757 391
2352 735 509
2394 728 714
2447 738 1003
2512 769 1374
2581 829 1819
2637 901 2264
2674 982 2686
2684 1067 3059
2274 904 472
2327 923 608
2373 955 826
2417 1004 1123
2463 1074 1496
2511 1167 1929
2551 1265 2350
2575 1361 2740
2575 1452 3076
2235 1131 618
2294 1183 770
2343 1249 997
2384 1330 1296
2420 1428 1661
2452 1540 2070
2477 1648 2459
2487 1746 2810
2475 1828 3105
2203 1418 824
2257 1494 989
2304 1584 1220
2345 1686 1511
2378 1800 1858
2401 1917 2233
2414 2023 2583
2412 2110 2891
2387 2174 3143
2175 1749 1091
2216 1836 1260
2260 1936 1486
2301 2045 1761
2335 2160 2079
2354 2269 2410
2361 2361 2713
2350 2430 2976
2314 2472 3185
2156 2077 1413
2187 2159 1575
2225 2251 1782
2264 2349 2028
2299 2450 2303
2319 2540 2583
2325 2611 2836
2312 2661 3054
2276 2688 3228
2149 2367 1741
2174 2438 1887
2208 2517 2069
2244 2600 2280
2277 2684 2511
2297 2753 2739
2303 2806 2945
2293 2842 3124
2264 2860 3270
2155 2611 2054
2178 2667 2181
2209 2731 2334
2242 2797 2508
2273 2862 2694
2293 2914 2875
2301 2953 3040
2296 2979 3186
2278 2994 3311
2172 2798 2334
2200 2842 2440
2231 2890 2564
2261 2941 2700
2290 2990 2845
2310 3029 2987
2321 3060 3120
2322 3082 3241
2314 3097 3348
2515 785 400
2548 754 491
2596 734 666
2659 732 927
2738 751 1275
2827 800 1718
2911 864 2182
2980 940 2642
3027 1024 3075
2502 911 464
2546 919 575
2596 938 765
2655 973 1035
2724 1029 1388
2802 1114 1825
2875 1209 2273
2934 1310 2708
2970 1411 3107
2501 1119 585
2548 1161 715
2600 1215 918
2656 1285 1194
2718 1373 1546
2784 1483 1969
2844 1597 2393
2890 1708 2796
2913 1809 3154
2507 1394 764
2552 1464 910
2603 1546 1121
2657 1641 1399
2713 1751 1742
2768 1875 2142
2815 1994 2534
2847 2103 2897
2856 2193 3211
2515 1723 1002
2553 1808 1157
2600 1906 1372
2651 2016 1644
2703 2135 1970
2749 2257 2335
2785 2368 2686
2803 2463 3004
2799 2536 3271
2516 2066 1307
2546 2150 1460
2587 2246 1666
2634 2351 1920
2682 2462 2215
2722 2567 2534
2750 2660 2835
2761 2736 3104
2753 2791 3328
2511 2376 1627
2536 2451 1774
2572 2539 1965
2615 2633 2193
2660 2730 2451
2695 2817 2721
2718 2890 2971
2728 2949 3194
2722 2993 3382
2502 2640 1949
2525 2703 2084
2558 2777 2254
2599 2857 2451
2642 2938 2669
2675 3008 2889
2697 3065 3092
2708 3111 3274
2708 3147 3430
2492 2848 2254
2516 2896 2373
2550 2955 2518
2590 3020 2682
2632 3087 2858
2667 3144 3032
2693 3192 3195
2709 3230 3342
2714 3260 3471
2628 804 408
2661 766 478
2711 738 631
2780 726 870
2866 734 1197
2969 772 1632
3072 824 2101
3165 888 2583
3242 961 3054
2640 911 459
2680 910 549
2733 917 715
2801 939 960
2885 981 1291
2983 1054 1723
3080 1141 2184
3166 1238 2650
3234 1338 3095
2670 1099 560
2713 1132 669
2768 1174 848
2835 1231 1101
2915 1306 1434
3007 1409 1860
3095 1523 2307
3171 1639 2749
3227 1752 3161
2712 1359 713
2755 1419 838
2810 1492 1029
2875 1579 1288
2951 1681 1620
3033 1805 2033
3111 1934 2459
3175 2059 2871
3219 2172 3243
2759 1680 922
2799 1760 1058
2851 1853 1256
2914 1960 1518
2984 2079 1845
3056 2212 2236
3122 2341 2631
3173 2461 3005
3204 2565 3333
2795 2031 1200
2829 2115 1338
2876 2212 1537
2934 2322 1791
2998 2441 2101
3061 2564 2457
3115 2680 2809
3157 2784 3136
3181 2873 3418
2814 2359 1503
2843 2438 1641
2885 2531 1833
2938 2636 2074
2998 2748 2358
3054 2856 2673
3100 2955 2976
3135 3042 3254
3158 3118 3493
2818 2648 1820
2841 2715 1954
2880 2799 2134
2930 2893 2354
2987 2994 2606
3039 3087 2874
3082 3169 3127
3115 3240 3357
3138 3303 3555
2807 2884 2138
2826 2935 2264
2862 3004 2427
2910 3085 2618
2967 3173 2832
3022 3254 3052
3067 3324 3258
3102 3384 3444
3125 3432 3603
2682 814 414
2714 773 471
2764 740 610
2834 720 833
2923 720 1144
3034 747 1568
3147 786 2035
3255 835 2524
3349 890 3014
2708 906 455
2746 897 530
2801 894 677
2874 905 903
2966 934 1216
3076 995 1639
3188 1071 2104
3292 1157 2584
3381 1246 3055
2760 1074 541
2801 1097 631
2860 1129 790
2935 1173 1023
3027 1236 1339
3136 1330 1762
3244 1439 2222
3342 1554 2690
3423 1668 3137
2829 1316 673
2874 1367 777
2934 1429 947
3010 1506 1189
3100 1600 1509
3204 1722 1930
3306 1856 2380
3396 1992 2830
3468 2120 3247
2911 1623 854
2956 1696 969
3016 1783 1149
3091 1886 1399
3178 2004 1722
3275 2144 2134
3367 2290 2568
3448 2433 2991
3508 2564 3374
2988 1976 1100
3030 2057 1220
3087 2154 1406
3157 2267 1658
3239 2394 1977
3327 2535 2368
3408 2675 2770
3478 2809 3154
3531 2931 3493
3046 2317 1376
3082 2397 1499
3135 2496 1686
3201 2610 1935
3278 2737 2243
3358 2870 2604
3430 2997 2965
3492 3117 3303
3540 3226 3595
3083 2631 1677
3110 2702 1800
3156 2793 1984
3218 2902 2221
3291 3022 2507
3367 3143 2830
3434 3255 3144
3491 3358 3432
3536 3451 3678
3096 2904 1995
3111 2955 2117
3148 3032 2289
3205 3129 2505
3277 3239 2760
3352 3348 3038
3420 3446 3301
3477 3532 3539
3519 3607 3739
2698 819 418
2729 775 470
2779 738 602
2848 715 817
2936 710 1120
3048 729 1536
3163 757 1997
3274 788 2482
3372 819 2971
2727 896 453
2763 881 517
2819 872 653
2894 875 870
2989 896 1172
3104 946 1590
3221 1010 2051
3331 1079 2530
3426 1148 3001
2785 1047 528
2827 1061 604
2888 1082 748
2969 1118 969
3069 1171 1275
3187 1257 1697
3304 1359 2161
3413 1467 2638
3503 1570 3095
2868 1269 644
2916 1309 730
2983 1362 885
3068 1431 1114
3171 1518 1426
3289 1639 1852
3406 1775 2319
3511 1915 2791
3595 2047 3233
2971 1558 802
3026 1622 897
3097 1703 1061
3184 1801 1301
3287 1919 1620
3403 2067 2049
3517 2227 2513
3617 2389 2976
3694 2539 3397
3086 1905 1016
3142 1981 1114
3212 2077 1286
3298 2192 1535
3398 2327 1860
3509 2485 2283
3615 2650 2730
3708 2812 3165
3777 2961 3551
3191 2253 1258
3241 2332 1360
3308 2433 1537
3390 2556 1789
3485 2698 2115
3591 2857 2523
3690 3017 2942
3775 3169 3339
3838 3308 3680
3279 2591 1530
3315 2660 1634
3372 2757 1811
3447 2878 2058
3537 3019 2376
3637 3171 2758
3731 3318 3140
3811 3456 3492
3871 3579 3787
3340 2907 1831
3354 2952 1935
3394 3033 2104
3458 3143 2337
3542 3275 2633
3638 3416 2980
3729 3547 3316
3808 3667 3620
3870 3774 3870
