Assets/1__3DArt/KimSe/artstation_asset/LUTs_pasterls/3DL/Pastelopolis 02.3dl
# Enhanced with VOXCOLOR algorithms
0 256 512 768 1023
466 385 434
673 806 1381
916 1495 2518
1151 2353 3376
1381 3083 3854
726 1470 667
925 1894 1579
1168 2449 2669
1419 3015 3486
1666 3459 3928
1305 2806 911
1449 3035 1782
1647 3314 2803
1868 3564 3559
2093 3745 3962
2004 3632 1035
2069 3681 1869
2188 3760 2825
2347 3833 3551
2530 3892 3960
2489 3950 1060
2481 3922 1855
2526 3918 2774
2630 3931 3511
2762 3950 3934
2111 641 356
2220 957 1248
2290 1510 2345
2309 2310 3254
2323 3043 3794
1852 1385 497
2040 1725 1351
2075 2243 2469
2118 2859 3371
2213 3368 3877
1886 2562 711
1995 2795 1573
2085 3111 2649
2196 3429 3480
2335 3666 3935
2226 3496 892
2262 3570 1729
2345 3677 2736
2467 3778 3512
2607 3855 3952
2597 3943 1005
2585 3926 1787
2613 3921 2723
2697 3930 3482
2815 3947 3937
3494 942 535
3511 1173 1307
3496 1614 2305
3434 2334 3210
3365 3052 3793
3166 1402 524
3221 1668 1295
3184 2129 2357
3132 2756 3290
3113 3314 3854
2943 2380 626
2960 2598 1423
2952 2923 2501
2950 3297 3402
2983 3603 3920
2911 3373 792
2880 3457 1585
2880 3579 2628
2921 3712 3473
2995 3823 3958
2974 3947 952
2942 3937 1710
2933 3930 2682
2975 3934 3483
3057 3947 3962
3948 1111 768
3953 1302 1445
3952 1685 2345
3929 2353 3208
3899 3082 3812
3827 1425 746
3833 1646 1414
3825 2068 2370
3804 2689 3271
3783 3295 3866
3733 2242 820
3720 2444 1497
3703 2774 2489
3682 3192 3388
3680 3573 3943
3671 3250 960
3629 3344 1636
3594 3483 2629
3581 3651 3492
3610 3812 4001
3608 3952 1106
3561 3945 1766
3524 3939 2722
3522 3943 3543
3561 3962 4022
4031 1172 867
4041 1353 1512
4049 1710 2367
4042 2344 3200
4031 3067 3806
4016 1402 906
4031 1602 1512
4044 2010 2404
4047 2635 3277
4043 3271 3876
4029 2094 1043
4040 2287 1631
4052 2643 2548
4056 3120 3429
4053 3567 3983
4053 3095 1270
4060 3205 1838
4063 3387 2752
4061 3613 3587
4061 3822 4064
4063 3918 1526
4065 3918 2009
4066 3929 2863
4060 3950 3665
4063 3983 4095
