Assets/1__3DArt/KimSe/artstation_asset/LUTs_pasterls/3DL/Pastelopolis 04.3dl
# Enhanced with VOXCOLOR algorithms
0 64 128 192 256 320 384 448 512 576 640 704 768 832 896 960 1023
418 562 289
424 585 393
431 609 496
435 631 614
436 653 760
437 675 906
435 696 1067
432 717 1236
429 738 1404
423 758 1570
416 777 1735
408 795 1891
396 809 2027
385 823 2164
366 830 2271
344 832 2364
321 835 2457
443 675 373
450 703 477
456 730 581
461 758 698
463 787 842
465 815 986
465 844 1144
464 872 1310
463 900 1475
458 925 1636
454 950 1797
448 972 1949
439 990 2082
430 1007 2215
415 1017 2322
397 1024 2416
379 1030 2509
469 789 457
476 820 561
482 852 665
487 885 782
490 920 924
493 955 1066
495 991 1221
496 1026 1384
496 1061 1546
494 1092 1703
492 1122 1860
488 1150 2008
482 1171 2137
475 1192 2267
464 1205 2373
450 1215 2467
436 1225 2562
502 917 557
509 952 661
516 987 765
522 1024 880
526 1065 1020
531 1105 1160
535 1146 1312
538 1187 1471
541 1228 1629
541 1263 1781
541 1298 1933
540 1329 2076
535 1352 2201
531 1375 2326
523 1391 2430
512 1403 2523
502 1415 2617
550 1074 690
558 1111 792
565 1149 895
573 1188 1009
580 1231 1145
587 1275 1282
594 1319 1430
600 1362 1583
606 1406 1736
609 1442 1881
612 1478 2026
613 1511 2163
611 1534 2282
609 1558 2401
602 1574 2500
594 1586 2589
586 1598 2678
598 1232 823
606 1271 924
615 1310 1025
624 1351 1137
634 1398 1271
644 1444 1405
653 1491 1548
662 1537 1696
671 1584 1843
677 1622 1982
682 1659 2120
686 1693 2250
686 1717 2362
686 1741 2475
682 1756 2569
676 1768 2654
669 1780 2739
662 1398 979
672 1437 1076
681 1475 1173
692 1517 1281
704 1563 1409
716 1610 1538
728 1657 1674
740 1703 1814
751 1750 1954
759 1787 2085
767 1824 2215
773 1857 2338
775 1880 2444
776 1903 2550
773 1918 2638
768 1929 2718
763 1939 2798
734 1570 1147
745 1607 1239
756 1643 1331
768 1683 1433
782 1729 1554
797 1774 1676
811 1819 1804
825 1864 1936
839 1909 2067
849 1945 2189
859 1981 2311
866 2012 2426
869 2033 2525
872 2055 2624
871 2069 2707
867 2078 2782
863 2087 2857
807 1741 1315
819 1776 1402
831 1811 1489
844 1849 1585
861 1894 1699
877 1938 1814
894 1982 1934
910 2025 2057
927 2069 2180
939 2103 2294
950 2138 2407
960 2167 2514
964 2187 2606
969 2207 2698
968 2219 2776
965 2227 2845
962 2235 2915
901 1899 1487
913 1930 1567
926 1962 1646
940 1996 1734
957 2037 1840
975 2078 1945
992 2118 2055
1009 2158 2168
1027 2198 2281
1039 2229 2386
1052 2260 2491
1062 2287 2589
1067 2305 2675
1072 2322 2761
1072 2333 2833
1069 2340 2899
1067 2346 2965
994 2056 1660
1007 2084 1732
1020 2112 1804
1035 2143 1884
1054 2180 1980
1072 2217 2075
1090 2254 2176
1109 2290 2279
1127 2327 2382
1140 2355 2478
1154 2383 2575
1164 2407 2665
1170 2422 2744
1175 2437 2824
1175 2446 2891
1174 2452 2953
1172 2457 3014
1091 2203 1823
1105 2227 1888
1118 2252 1952
1133 2279 2024
1152 2312 2111
1170 2346 2197
1189 2378 2289
1208 2411 2382
1226 2444 2476
1240 2468 2563
1253 2493 2651
1264 2514 2734
1270 2527 2807
1275 2540 2880
1276 2547 2943
1274 2552 3001
1273 2557 3059
1196 2328 1968
1208 2349 2026
1221 2369 2083
1236 2393 2147
1253 2422 2224
1271 2451 2302
1288 2480 2384
1306 2508 2469
1323 2537 2553
1336 2558 2633
1349 2579 2713
1359 2597 2789
1364 2608 2857
1369 2619 2925
1370 2625 2984
1368 2628 3039
1367 2632 3095
1300 2453 2114
1312 2470 2163
1324 2487 2213
1338 2507 2269
1354 2531 2337
1371 2556 2406
1387 2581 2479
1404 2605 2555
1420 2630 2631
1432 2647 2703
1444 2665 2776
1454 2680 2845
1459 2688 2907
1464 2697 2970
1464 2702 3025
1462 2704 3078
1461 2707 3130
1398 2549 2228
1409 2563 2270
1419 2576 2313
1430 2592 2361
1443 2612 2422
1457 2632 2483
1470 2653 2548
1483 2673 2617
1497 2693 2685
1507 2708 2751
1517 2723 2818
1526 2735 2882
1530 2742 2940
1534 2749 2999
1534 2752 3052
1531 2754 3101
1528 2756 3151
1494 2632 2326
1501 2641 2362
1509 2651 2397
1517 2663 2438
1526 2679 2492
1536 2694 2545
1545 2710 2604
1554 2726 2666
1564 2742 2727
1572 2754 2788
1579 2766 2850
1586 2776 2909
1589 2782 2965
1593 2787 3020
1591 2790 3070
1587 2790 3118
1583 2791 3165
1590 2714 2425
1594 2720 2453
1599 2726 2481
1603 2734 2516
1609 2745 2562
1614 2756 2608
1620 2768 2660
1625 2780 2714
1631 2792 2769
1636 2801 2826
1642 2810 2882
1646 2817 2937
1649 2822 2989
1651 2826 3041
1649 2827 3089
1643 2827 3134
1638 2826 3180
681 587 308
688 607 410
694 626 513
699 645 631
702 665 778
704 686 926
705 707 1092
705 730 1266
705 752 1441
701 775 1614
698 799 1787
692 821 1951
681 841 2095
671 861 2240
652 873 2354
630 883 2453
607 892 2552
687 696 387
700 721 490
712 746 593
721 771 710
724 799 856
726 826 1002
726 854 1164
724 884 1336
722 913 1507
717 941 1675
713 970 1843
706 996 2002
696 1018 2141
687 1040 2281
670 1055 2393
651 1066 2491
632 1077 2590
693 805 467
712 836 570
730 866 672
743 898 789
746 932 933
749 966 1077
747 1001 1237
743 1038 1405
739 1074 1572
734 1107 1735
728 1140 1898
721 1171 2052
712 1195 2187
702 1220 2322
689 1237 2432
673 1250 2530
656 1263 2627
707 929 563
729 964 665
751 999 767
767 1036 883
771 1076 1025
774 1115 1167
773 1156 1323
769 1198 1487
765 1240 1650
759 1277 1807
753 1313 1964
746 1347 2112
738 1373 2242
730 1399 2371
719 1417 2478
705 1431 2574
692 1446 2670
734 1083 691
755 1120 793
777 1158 894
793 1197 1008
800 1240 1147
806 1283 1286
808 1327 1437
807 1371 1594
806 1416 1751
803 1454 1901
799 1492 2051
795 1526 2192
789 1552 2314
782 1578 2437
772 1595 2539
761 1608 2630
749 1621 2720
762 1237 820
782 1277 920
803 1316 1020
820 1358 1132
829 1405 1268
838 1451 1404
842 1498 1550
845 1545 1701
847 1592 1853
846 1631 1995
846 1670 2138
843 1705 2271
839 1730 2387
835 1756 2503
826 1772 2599
816 1785 2685
805 1797 2771
806 1400 971
825 1440 1068
845 1479 1165
861 1521 1273
873 1568 1403
884 1615 1533
892 1662 1672
898 1709 1816
904 1756 1959
906 1794 2093
908 1833 2227
908 1866 2353
905 1890 2462
903 1915 2570
896 1930 2661
886 1940 2742
877 1951 2823
858 1568 1135
876 1606 1227
894 1644 1320
911 1685 1422
925 1731 1545
939 1777 1668
950 1823 1799
959 1868 1934
968 1914 2068
973 1951 2193
978 1987 2319
981 2019 2436
980 2042 2537
979 2064 2639
973 2077 2723
965 2086 2799
956 2095 2875
911 1736 1298
927 1773 1386
944 1810 1474
960 1849 1571
976 1894 1687
993 1939 1804
1007 1984 1926
1020 2028 2052
1033 2072 2177
1040 2107 2294
1048 2142 2410
1053 2172 2519
1054 2193 2613
1055 2213 2707
1050 2225 2786
1043 2232 2856
1036 2239 2927
987 1892 1468
1003 1925 1549
1019 1958 1629
1035 1994 1719
1052 2036 1826
1070 2077 1933
1085 2118 2045
1100 2159 2161
1115 2200 2276
1124 2232 2384
1133 2263 2491
1140 2291 2592
1142 2309 2679
1144 2327 2767
1140 2337 2840
1133 2342 2906
1127 2348 2973
1064 2047 1637
1079 2077 1711
1094 2107 1785
1110 2139 1867
1128 2177 1964
1147 2216 2062
1164 2253 2165
1180 2290 2270
1197 2327 2376
1207 2356 2474
1218 2385 2572
1227 2409 2664
1229 2425 2745
1232 2440 2826
1230 2449 2895
1224 2453 2957
1218 2457 3019
1146 2192 1799
1160 2218 1866
1174 2245 1932
1190 2274 2006
1209 2308 2095
1228 2343 2183
1245 2376 2276
1263 2410 2372
1280 2443 2468
1292 2469 2557
1304 2494 2647
1313 2516 2731
1316 2529 2806
1320 2542 2880
1318 2549 2944
1313 2552 3002
1308 2556 3061
1238 2317 1946
1252 2340 2005
1266 2362 2064
1281 2388 2130
1298 2418 2209
1316 2448 2288
1333 2477 2372
1349 2507 2459
1366 2536 2545
1378 2558 2627
1389 2580 2709
1398 2599 2786
1402 2610 2855
1406 2621 2924
1404 2626 2984
1400 2629 3039
1395 2632 3095
1331 2442 2092
1344 2461 2144
1357 2480 2195
1371 2501 2253
1388 2527 2323
1404 2553 2393
1420 2578 2468
1436 2604 2546
1452 2629 2623
1464 2648 2697
1475 2666 2771
1484 2681 2841
1488 2690 2905
1492 2699 2968
1490 2704 3024
1486 2706 3076
1482 2708 3129
1422 2540 2210
1434 2556 2254
1445 2571 2298
1457 2589 2349
1471 2610 2411
1485 2632 2473
1498 2653 2540
1512 2674 2610
1525 2695 2679
1535 2710 2747
1544 2726 2814
1552 2738 2879
1555 2745 2938
1558 2753 2997
1557 2756 3050
1552 2757 3100
1548 2759 3150
1514 2626 2313
1522 2638 2350
1531 2649 2388
1541 2663 2431
1551 2680 2486
1562 2697 2541
1572 2714 2600
1581 2731 2663
1591 2747 2725
1598 2760 2787
1605 2772 2849
1611 2782 2908
1613 2788 2964
1616 2793 3019
1613 2795 3070
1608 2796 3117
1603 2797 3165
1605 2711 2416
1611 2719 2446
1618 2728 2477
1625 2738 2513
1632 2750 2561
1638 2762 2608
1645 2775 2660
1651 2787 2716
1656 2800 2771
1661 2809 2827
1666 2818 2883
1670 2826 2938
1672 2830 2990
1673 2834 3041
1670 2835 3089
1664 2835 3135
1658 2835 3180
945 613 327
951 628 428
957 643 530
963 659 647
967 677 797
971 696 946
975 718 1117
978 742 1297
981 766 1477
980 793 1658
979 821 1840
976 847 2011
966 873 2163
957 898 2315
938 917 2436
915 933 2541
893 948 2646
931 717 402
950 739 503
968 761 605
981 784 721
984 810 870
988 836 1018
987 865 1185
984 896 1361
982 926 1538
976 958 1713
971 989 1888
964 1019 2054
954 1046 2200
943 1073 2346
926 1093 2464
905 1109 2567
885 1125 2670
918 822 477
948 851 578
979 880 679
1000 910 796
1002 943 942
1004 976 1089
999 1012 1253
991 1049 1426
982 1086 1599
973 1122 1768
963 1158 1937
953 1192 2097
941 1220 2237
930 1248 2377
914 1269 2491
895 1285 2592
877 1302 2693
911 941 569
949 976 670
987 1011 770
1013 1047 886
1015 1086 1030
1017 1125 1174
1011 1167 1335
1000 1209 1503
989 1251 1671
977 1290 1834
965 1329 1996
953 1365 2149
942 1394 2283
930 1423 2417
915 1444 2527
898 1460 2624
881 1476 2722
918 1092 693
953 1129 793
989 1167 893
1014 1206 1007
1019 1249 1148
1025 1292 1289
1021 1336 1443
1014 1381 1605
1006 1425 1766
997 1465 1921
987 1505 2076
977 1541 2221
967 1569 2347
956 1597 2474
943 1616 2578
927 1630 2670
912 1645 2763
925 1242 817
958 1282 916
991 1323 1016
1015 1365 1128
1024 1411 1266
1032 1458 1403
1032 1505 1552
1028 1552 1707
1024 1600 1862
1016 1640 2009
1009 1681 2155
1001 1717 2292
992 1744 2412
983 1771 2531
970 1788 2629
956 1801 2716
942 1813 2804
950 1402 964
979 1442 1061
1008 1483 1157
1031 1526 1266
1042 1573 1398
1053 1620 1529
1057 1667 1671
1057 1715 1817
1057 1762 1964
1053 1802 2102
1048 1841 2239
1043 1876 2368
1036 1901 2480
1029 1927 2591
1018 1942 2683
1005 1952 2765
991 1963 2848
982 1567 1122
1007 1606 1215
1032 1645 1308
1053 1687 1412
1067 1734 1537
1081 1780 1661
1088 1826 1795
1093 1872 1932
1098 1919 2069
1097 1956 2197
1097 1994 2326
1095 2027 2446
1090 2050 2550
1085 2073 2654
1075 2086 2740
1063 2094 2816
1050 2102 2893
1015 1731 1281
1036 1770 1370
1057 1808 1459
1076 1849 1558
1092 1894 1676
1108 1940 1793
1120 1985 1918
1129 2030 2046
1139 2075 2174
1142 2111 2293
1146 2147 2412
1147 2177 2524
1144 2198 2620
1141 2219 2716
1133 2230 2796
1121 2236 2867
1109 2242 2939
1074 1884 1448
1093 1919 1530
1112 1954 1613
1130 1992 1704
1148 2034 1812
1165 2077 1921
1179 2119 2036
1190 2160 2154
1202 2202 2272
1208 2234 2381
1214 2267 2491
1218 2294 2594
1217 2313 2683
1215 2331 2773
1208 2341 2847
1198 2345 2914
1187 2350 2981
1133 2037 1615
1151 2069 1690
1168 2101 1766
1185 2135 1850
1203 2175 1949
1221 2214 2049
1237 2252 2154
1252 2290 2261
1266 2328 2369
1275 2357 2469
1283 2387 2570
1289 2411 2664
1289 2428 2746
1290 2444 2829
1284 2451 2898
1274 2454 2960
1265 2458 3023
1200 2181 1775
1215 2209 1844
1231 2238 1912
1247 2269 1988
1266 2304 2079
1285 2340 2169
1301 2375 2264
1318 2409 2362
1334 2443 2460
1344 2469 2551
1354 2495 2643
1361 2517 2729
1363 2531 2805
1365 2545 2881
1360 2551 2945
1352 2553 3003
1343 2555 3062
1281 2306 1923
1295 2331 1984
1310 2355 2045
1325 2382 2112
1343 2413 2194
1361 2445 2275
1378 2475 2361
1393 2506 2449
1409 2536 2538
1420 2558 2621
1430 2581 2704
1438 2600 2783
1440 2612 2854
1442 2623 2924
1438 2628 2984
1431 2630 3039
1423 2632 3095
1361 2431 2070
1375 2452 2124
1389 2473 2177
1404 2496 2237
1421 2523 2309
1438 2550 2381
1454 2576 2457
1469 2602 2536
1485 2629 2615
1495 2648 2691
1506 2667 2766
1514 2683 2838
1517 2692 2902
1519 2702 2967
1516 2706 3023
1510 2707 3075
1504 2709 3128
1446 2531 2191
1458 2549 2238
1471 2566 2284
1484 2585 2336
1498 2608 2400
1513 2631 2464
1527 2653 2532
1540 2675 2603
1553 2697 2674
1562 2712 2743
1571 2728 2811
1578 2741 2877
1580 2749 2936
1583 2756 2996
1579 2760 3049
1573 2761 3099
1567 2762 3149
1533 2620 2299
1544 2634 2339
1554 2648 2379
1565 2663 2424
1576 2681 2480
1588 2700 2536
1598 2717 2597
1608 2735 2660
1618 2752 2723
1624 2765 2785
1631 2777 2848
1636 2788 2908
1638 2793 2963
1639 2799 3019
1635 2801 3069
1629 2802 3117
1623 2803 3165
1620 2708 2406
1629 2719 2440
1637 2729 2473
1646 2741 2511
1654 2755 2560
1663 2769 2608
1670 2782 2661
1676 2795 2717
1682 2808 2772
1687 2817 2828
1691 2826 2884
1694 2834 2939
1695 2838 2990
1695 2842 3041
1691 2843 3089
1685 2843 3135
1679 2844 3181
1209 638 343
1216 649 442
1223 659 540
1229 672 655
1236 688 805
1242 705 955
1249 727 1129
1255 752 1314
1262 776 1499
1265 807 1689
1269 837 1878
1268 867 2058
1261 897 2220
1254 927 2381
1237 952 2511
1215 974 2624
1193 996 2737
1181 738 414
1203 757 512
1226 776 610
1242 796 725
1247 820 874
1252 845 1023
1252 874 1194
1251 905 1375
1249 936 1557
1246 971 1740
1242 1005 1923
1237 1038 2096
1227 1070 2251
1217 1101 2405
1200 1125 2530
1179 1147 2640
