Assets/1__3DArt/KimSe/artstation_asset/LUTs_pasterls/3DL/Pastelopolis 01 S.3dl
# Enhanced with VOXCOLOR algorithms
0 64 128 192 256 320 384 448 512 576 640 704 768 832 896 960 1023
80 209 418
148 276 623
216 343 829
288 430 1050
369 557 1302
449 683 1555
538 850 1799
632 1037 2038
726 1224 2278
844 1451 2469
961 1678 2661
1089 1905 2833
1238 2130 2965
1387 2356 3098
1551 2546 3191
1723 2718 3266
1895 2891 3340
83 411 477
147 497 682
210 582 888
281 685 1110
366 826 1366
452 966 1623
552 1138 1870
661 1327 2113
769 1515 2356
904 1727 2547
1039 1939 2737
1182 2147 2905
1343 2346 3031
1505 2545 3156
1677 2711 3245
1856 2860 3314
2034 3009 3384
86 614 537
145 717 742
204 820 947
273 941 1170
364 1095 1430
455 1248 1691
567 1426 1942
690 1616 2188
813 1806 2435
964 2003 2624
1116 2200 2812
1275 2389 2978
1449 2562 3096
1623 2734 3215
1804 2876 3298
1988 3002 3362
2173 3128 3427
109 861 607
167 976 810
225 1092 1012
296 1222 1234
395 1383 1496
494 1543 1758
618 1720 2011
756 1905 2260
893 2090 2508
1059 2269 2694
1225 2448 2881
1396 2616 3043
1579 2763 3155
1761 2910 3268
1945 3028 3345
2131 3132 3405
2316 3236 3465
172 1199 699
236 1313 894
301 1428 1089
381 1556 1306
493 1709 1566
605 1863 1826
743 2026 2077
895 2194 2324
1046 2361 2570
1221 2516 2753
1397 2671 2936
1574 2814 3093
1757 2935 3201
1939 3057 3308
2117 3153 3381
2293 3237 3436
2469 3321 3491
234 1536 791
305 1650 979
376 1765 1167
466 1890 1378
591 2036 1636
716 2182 1894
868 2331 2143
1034 2482 2387
1199 2632 2632
1384 2763 2811
1568 2893 2990
1752 3012 3144
1935 3108 3246
2117 3204 3348
2289 3278 3416
2455 3342 3467
2622 3406 3518
357 1867 869
437 1974 1051
517 2080 1234
615 2195 1440
750 2326 1695
885 2458 1950
1044 2589 2196
1216 2720 2437
1387 2850 2679
1572 2958 2854
1756 3066 3029
1938 3163 3179
2113 3239 3278
2289 3315 3376
2450 3373 3441
2603 3422 3489
2756 3470 3537
511 2196 939
600 2290 1117
689 2384 1295
796 2485 1498
939 2599 1749
1081 2713 2001
1245 2824 2243
1419 2933 2480
1593 3042 2718
1773 3128 2889
1953 3215 3061
2128 3292 3207
2293 3350 3303
2458 3409 3398
2605 3452 3460
2743 3488 3506
2882 3524 3552
665 2524 1010
763 2606 1183
862 2689 1357
977 2775 1556
1128 2872 1803
1278 2968 2051
1446 3058 2290
1622 3146 2523
1798 3233 2757
1974 3298 2924
2150 3364 3092
2318 3421 3235
2472 3462 3328
2626 3502 3420
2760 3532 3480
2884 3555 3523
3008 3578 3567
892 2762 1045
995 2831 1221
1098 2900 1396
1215 2972 1595
1362 3051 1841
1509 3130 2086
1668 3203 2320
1834 3273 2550
2000 3343 2779
2161 3395 2943
2322 3446 3107
2476 3490 3247
2615 3521 3338
2754 3553 3429
2874 3575 3488
2985 3592 3530
3096 3609 3573
1120 3000 1080
1227 3056 1258
1333 3111 1436
1452 3169 1635
1596 3230 1878
1739 3292 2120
1891 3348 2351
2047 3401 2576
2202 3454 2801
2349 3491 2962
2495 3528 3123
2634 3560 3260
2758 3581 3349
2881 3603 3438
2988 3617 3496
3086 3629 3538
3184 3640 3579
1354 3203 1109
1462 3246 1290
1569 3290 1471
1686 3334 1671
1823 3381 1911
1960 3427 2151
2101 3468 2378
2244 3506 2599
2388 3544 2819
2519 3570 2977
2650 3595 3134
2774 3616 3269
2883 3630 3357
2992 3644 3445
3086 3653 3501
3173 3659 3543
3259 3666 3584
1600 3336 1127
1702 3370 1312
1804 3404 1497
1914 3439 1700
2037 3474 1938
2161 3509 2175
2287 3540 2399
2413 3568 2615
2540 3596 2831
2655 3614 2985
2770 3632 3140
2879 3648 3272
2974 3657 3359
3070 3667 3446
3154 3673 3502
3232 3677 3543
3310 3681 3584
1846 3468 1144
1943 3493 1334
2040 3518 1524
2141 3543 1729
2251 3567 1964
2362 3591 2199
2472 3611 2419
2582 3629 2631
2692 3647 2842
2791 3658 2994
2889 3670 3146
2983 3679 3275
3066 3684 3362
3148 3690 3448
3222 3693 3503
3291 3694 3544
3360 3696 3585
2052 3550 1168
2139 3568 1359
2225 3587 1550
2314 3604 1754
2410 3621 1985
2506 3638 2216
2602 3651 2432
2698 3663 2640
2794 3675 2848
2881 3683 2997
2968 3690 3147
3051 3696 3276
3125 3699 3361
3199 3703 3447
3265 3704 3503
3326 3704 3543
3388 3703 3584
2239 3606 1194
2312 3619 1385
2385 3632 1575
2461 3644 1778
2541 3655 2004
2622 3667 2230
2705 3676 2442
2788 3684 2646
2871 3692 2850
2949 3697 2998
3027 3702 3147
3101 3706 3274
3168 3709 3360
3235 3711 3446
3294 3710 3502
3349 3708 3542
3404 3706 3583
2425 3661 1220
2485 3669 1410
2545 3677 1600
2607 3684 1801
2673 3690 2022
2738 3695 2244
2807 3700 2451
2877 3704 2652
2948 3709 2852
3017 3712 2999
3086 3715 3146
3151 3717 3273
3211 3718 3359
3271 3719 3445
3324 3717 3500
3372 3713 3541
3421 3710 3581
562 347 414
627 405 609
692 464 803
759 542 1016
831 660 1264
904 777 1512
983 936 1756
1065 1116 1998
1147 1295 2239
1248 1516 2437
1349 1737 2635
1459 1958 2814
1587 2181 2953
1714 2403 3092
1856 2592 3192
2005 2765 3273
2154 2937 3354
529 524 464
597 600 658
666 676 852
737 771 1066
813 901 1319
888 1030 1572
974 1194 1821
1065 1375 2067
1156 1556 2313
1271 1764 2510
1386 1973 2707
1510 2177 2883
1650 2376 3015
1790 2574 3147
1940 2741 3242
2097 2891 3317
2253 3041 3392
495 702 514
568 796 708
641 889 902
715 999 1117
794 1141 1374
872 1284 1632
965 1453 1885
1065 1635 2136
1165 1817 2387
1294 2013 2583
1423 2208 2779
1560 2396 2951
1713 2571 3077
1865 2746 3203
2025 2889 3291
2188 3017 3360
2351 3145 3429
480 925 575
556 1030 767
633 1135 958
712 1254 1173
796 1403 1433
880 1551 1694
983 1720 1949
1094 1898 2203
1206 2076 2456
1348 2256 2650
1490 2435 2845
1639 2605 3014
1801 2756 3134
1963 2907 3253
2127 3028 3335
2292 3135 3399
2458 3241 3463
503 1239 657
581 1343 843
659 1447 1030
743 1563 1241
841 1705 1500
938 1848 1759
1055 2004 2013
1183 2167 2265
1310 2330 2517
1463 2488 2708
1617 2645 2899
1774 2792 3064
1938 2920 3179
2103 3047 3293
2263 3147 3370
2422 3234 3429
2581 3320 3488
527 1553 739
606 1655 920
685 1758 1101
775 1872 1308
885 2008 1566
996 2144 1824
1128 2288 2077
1271 2436 2327
1414 2584 2578
1579 2720 2765
1743 2855 2953
1909 2980 3114
2076 3083 3223
2243 3187 3333
2400 3266 3405
2552 3333 3459
2704 3400 3513
611 1868 811
693 1963 989
775 2058 1166
871 2162 1370
991 2286 1625
1112 2409 1881
1254 2536 2131
1406 2666 2378
1558 2796 2626
1726 2910 2809
1893 3024 2993
2060 3128 3151
2223 3212 3256
2385 3296 3361
2534 3358 3430
2675 3410 3481
2817 3462 3531
725 2184 879
811 2268 1053
898 2352 1228
999 2443 1429
1128 2550 1681
1258 2658 1934
1406 2767 2180
1564 2876 2424
1722 2986 2667
1889 3079 2847
2056 3173 3027
2219 3257 3181
2374 3323 3283
2529 3389 3385
2667 3437 3451
2796 3476 3499
2925 3516 3547
839 2500 947
930 2573 1118
1021 2645 1290
1127 2724 1487
1265 2815 1737
1403 2907 1986
1558 2997 2229
1722 3087 2469
1886 3176 2709
2052 3249 2885
2218 3321 3061
2378 3386 3211
2525 3434 3309
2672 3482 3408
2799 3516 3471
2916 3543 3516
3033 3569 3562
1032 2738 986
1126 2798 1160
1220 2859 1333
1328 2925 1532
1464 3000 1779
1601 3075 2026
1750 3149 2265
1907 3222 2500
2063 3294 2735
2217 3352 2907
2372 3410 3079
2519 3461 3226
2653 3498 3322
2787 3535 3418
2902 3561 3480
3007 3581 3525
3113 3601 3569
1226 2975 1025
1322 3024 1201
1419 3073 1377
1529 3125 1576
1663 3185 1820
1798 3244 2065
1942 3301 2301
2091 3357 2531
2240 3412 2762
2383 3455 2930
2526 3498 3098
2661 3535 3241
2782 3562 3335
2902 3589 3429
3005 3606 3489
3099 3620 3533
3193 3633 3576
1429 3179 1060
1527 3218 1238
1624 3256 1417
1732 3297 1617
1862 3342 1859
1992 3388 2101
2128 3430 2333
2267 3471 2559
2407 3511 2785
2536 3541 2949
2666 3571 3113
2788 3597 3253
2896 3615 3345
3004 3633 3437
3095 3644 3496
3179 3652 3539
3262 3660 3581
1653 3317 1084
1747 3348 1267
1841 3378 1450
1943 3410 1652
2061 3445 1892
2180 3480 2131
2302 3511 2359
2427 3541 2580
2551 3572 2801
2665 3593 2961
2780 3615 3122
2888 3634 3258
2983 3646 3349
3078 3658 3440
3160 3666 3498
3236 3671 3540
3311 3677 3582
1877 3454 1108
1967 3477 1295
2057 3500 1483
2153 3524 1687
2260 3548 1924
2368 3572 2161
2477 3593 2385
2586 3612 2601
2695 3632 2818
2795 3645 2974
2894 3659 3130
2987 3670 3264
3070 3677 3353
3153 3684 3442
3225 3688 3500
3292 3691 3542
3359 3693 3583
2075 3541 1138
2156 3558 1327
2237 3575 1516
2322 3592 1720
2416 3609 1952
2510 3626 2185
2605 3640 2404
2701 3653 2615
2797 3666 2827
2884 3675 2981
2972 3684 3134
3055 3691 3266
3128 3695 3354
3202 3699 3443
3267 3701 3500
3327 3701 3541
3387 3702 3583
2259 3602 1172
2328 3614 1361
2398 3626 1549
2470 3638 1751
2550 3649 1978
2629 3661 2206
2711 3670 2419
2794 3679 2626
2877 3687 2834
2955 3693 2985
3033 3699 3136
3106 3703 3266
3173 3706 3354
3239 3709 3441
3297 3709 3498
3351 3707 3540
3405 3706 3581
2442 3663 1206
2500 3670 1394
2558 3677 1582
2619 3684 1782
2684 3690 2004
2749 3696 2226
2817 3700 2435
2887 3704 2638
2957 3709 2840
3025 3711 2989
3093 3714 3138
3158 3716 3267
3217 3717 3353
3275 3718 3440
3327 3716 3497
3374 3714 3538
3422 3711 3579
1044 484 411
1106 534 594
1167 584 778
1229 653 982
1294 762 1226
1359 871 1470
1428 1022 1714
1498 1194 1958
1569 1366 2201
1653 1581 2405
1738 1796 2609
1829 2012 2794
1935 2231 2940
2041 2449 3086
2161 2638 3193
2287 2811 3281
2414 2984 3368
974 638 452
1048 704 634
1122 771 817
1194 856 1022
1259 975 1272
1324 1095 1522
1395 1251 1771
1469 1424 2020
1543 1597 2270
1639 1802 2474
1734 2006 2677
1837 2208 2860
1956 2406 2999
2075 2603 3138
2204 2770 3238
2338 2922 3319
2472 3073 3400
903 791 492
990 875 674
1078 958 857
1158 1058 1063
1224 1188 1318
1289 1319 1573
1363 1479 1828
1440 1654 2083
1518 1829 2338
1624 2022 2542
1730 2216 2745
1845 2404 2925
1976 2581 3058
2108 2757 3191
2246 2903 3284
2388 3032 3358
2530 3162 3431
851 989 543
945 1084 724
1040 1179 905
1127 1287 1111
1197 1423 1370
1267 1559 1629
1348 1719 1887
1433 1890 2145
1519 2062 2404
1637 2242 2606
1755 2422 2808
1881 2593 2985
2023 2749 3112
2164 2904 3239
2309 3028 3326
2454 3137 3393
2599 3246 3460
835 1279 615
926 1372 792
1017 1465 970
1105 1571 1175
1188 1702 1433
1271 1833 1691
1367 1982 1949
1471 2141 2206
1574 2299 2464
1705 2459 2663
1836 2619 2862
1973 2770 3035
2120 2904 3157
2267 3037 3278
2410 3141 3360
2551 3231 3422
2693 3320 3484
819 1569 686
906 1660 861
994 1752 1036
1084 1855 1239
1179 1980 1496
1275 2106 1754
1387 2245 2011
1508 2391 2267
1628 2536 2524
1773 2677 2719
1918 2817 2915
2065 2948 3085
2217 3058 3201
2369 3169 3317
2511 3253 3394
2648 3324 3451
2786 3394 3508
864 1868 753
949 1952 926
1034 2036 1099
1127 2130 1300
1233 2245 1556
1339 2359 1812
1463 2483 2066
1596 2612 2319
1728 2741 2573
1879 2862 2765
2030 2982 2957
2181 3093 3122
2332 3184 3235
2482 3276 3347
2618 3343 3419
2748 3399 3473
2877 3454 3526
938 2172 819
1023 2246 990
1107 2319 1161
1202 2401 1359
1318 2502 1613
1434 2602 1867
1567 2709 2118
1709 2820 2367
1851 2930 2617
2005 3030 2805
2158 3131 2993
2309 3222 3154
2455 3295 3263
2600 3369 3371
2728 3422 3441
2848 3465 3491
2968 3507 3541
1013 2477 884
1097 2539 1053
1180 2602 1222
1277 2673 1419
1403 2759 1670
1528 2845 1921
1671 2935 2169
1822 3027 2415
1973 3119 2661
2130 3199 2845
2286 3279 3029
2437 3351 3186
2578 3407 3291
2718 3462 3395
2838 3501 3462
2948 3530 3509
3058 3560 3557
1172 2713 927
1257 2766 1099
1342 2819 1270
1441 2878 1468
1567 2949 1717
1692 3021 1966
1832 3095 2210
1979 3170 2451
2126 3245 2692
2273 3309 2871
2421 3374 3051
2562 3431 3204
2692 3475 3306
2821 3518 3408
2930 3548 3472
3030 3570 3519
3130 3593 3565
1331 2950 971
1418 2993 1145
1505 3035 1318
1605 3082 1516
1730 3139 1763
1856 3197 2010
1993 3255 2250
2136 3313 2487
2278 3371 2723
2417 3420 2898
2556 3468 3073
2688 3511 3222
2805 3543 3321
2923 3574 3420
3022 3595 3483
3112 3611 3528
3202 3626 3573
1504 3155 1010
1592 3189 1187
1679 3223 1363
1778 3260 1562
1901 3304 1807
2024 3348 2051
2155 3391 2287
2290 3435 2519
2426 3479 2751
2554 3513 2921
2682 3548 3091
2803 3578 3237
2909 3600 3333
3015 3621 3429
3104 3635 3491
3185 3645 3535
3265 3654 3579
1707 3298 1040
1792 3325 1221
1877 3352 1403
1971 3382 1604
2085 3416 1846
2199 3450 2087
2318 3483 2319
2440 3515 2545
2562 3548 2772
2676 3573 2937
2790 3598 3103
2897 3620 3245
2992 3635 3339
3086 3650 3433
3166 3660 3493
3239 3666 3537
3312 3672 3580
1909 3441 1071
1992 3461 1256
2075 3482 1442
2165 3504 1645
2269 3528 1884
2374 3552 2123
2481 3574 2351
2590 3596 2572
2699 3617 2793
2798 3632 2954
2898 3648 3115
2992 3661 3253
3075 3670 3345
3157 3679 3437
3228 3684 3496
3293 3687 3539
3359 3690 3582
2097 3532 1109
2173 3548 1296
2248 3563 1482
2330 3580 1685
2422 3596 1919
2514 3613 2154
2608 3629 2376
2704 3643 2591
2800 3657 2807
2888 3667 2964
2976 3677 3122
3059 3685 3257
3132 3691 3347
3205 3696 3438
3269 3698 3496
3328 3699 3539
3387 3700 3581
2279 3598 1150
2344 3609 1337
2410 3620 1523
2480 3632 1724
2558 3643 1953
2637 3655 2181
2718 3664 2397
2801 3674 2607
2883 3683 2817
2961 3689 2972
3038 3695 3126
3112 3700 3258
3177 3703 3348
3242 3706 3437
3299 3707 3495
3352 3707 3537
3405 3706 3580
2460 3664 1192
2516 3671 1378
2572 3677 1565
2631 3684 1763
2695 3690 1986
2759 3696 2209
2827 3700 2419
2897 3705 2623
2967 3709 2828
3034 3711 2979
3101 3714 3130
3164 3716 3260
3222 3716 3348
3279 3717 3436
3330 3716 3494
3377 3714 3536
3424 3712 3578
1515 619 403
1568 660 577
1621 702 751
1676 763 947
1732 864 1188
1788 966 1428
1845 1110 1673
1904 1275 1920
1963 1440 2166
2032 1649 2376
2101 1858 2586
2176 2069 2777
2262 2283 2929
2348 2497 3082
2447 2683 3194
2551 2855 3288
2655 3026 3381
1414 748 433
1485 805 607
1555 862 781
1621 937 979
1675 1047 1226
1730 1157 1473
1788 1306 1724
1847 1473 1976
1906 1640 2229
1985 1841 2439
2063 2042 2650
2149 2241 2839
2248 2437 2985
2348 2634 3131
2456 2800 3236
2568 2951 3322
