Assets/1__3DArt/KimSe/artstation_asset/LUTs_pasterls/3DL/Pastelopolis 01 S.3dl
# Enhanced with VOXCOLOR algorithms
0 128 256 384 512 640 768 896 1023
80 209 418
216 343 829
369 557 1302
538 850 1799
726 1224 2278
961 1678 2661
1238 2130 2965
1551 2546 3191
1895 2891 3340
86 614 537
204 820 947
364 1095 1430
567 1426 1942
813 1806 2435
1116 2200 2812
1449 2562 3096
1804 2876 3298
2173 3128 3427
172 1199 699
301 1428 1089
493 1709 1566
743 2026 2077
1046 2361 2570
1397 2671 2936
1757 2935 3201
2117 3153 3381
2469 3321 3491
357 1867 869
517 2080 1234
750 2326 1695
1044 2589 2196
1387 2850 2679
1756 3066 3029
2113 3239 3278
2450 3373 3441
2756 3470 3537
665 2524 1010
862 2689 1357
1128 2872 1803
1446 3058 2290
1798 3233 2757
2150 3364 3092
2472 3462 3328
2760 3532 3480
3008 3578 3567
1120 3000 1080
1333 3111 1436
1596 3230 1878
1891 3348 2351
2202 3454 2801
2495 3528 3123
2758 3581 3349
2988 3617 3496
3184 3640 3579
1600 3336 1127
1804 3404 1497
2037 3474 1938
2287 3540 2399
2540 3596 2831
2770 3632 3140
2974 3657 3359
3154 3673 3502
3310 3681 3584
2052 3550 1168
2225 3587 1550
2410 3621 1985
2602 3651 2432
2794 3675 2848
2968 3690 3147
3125 3699 3361
3265 3704 3503
3388 3703 3584
2425 3661 1220
2545 3677 1600
2673 3690 2022
2807 3700 2451
2948 3709 2852
3086 3715 3146
3211 3718 3359
3324 3717 3500
3421 3710 3581
1044 484 411
1167 584 778
1294 762 1226
1428 1022 1714
1569 1366 2201
1738 1796 2609
1935 2231 2940
2161 2638 3193
2414 2984 3368
903 791 492
1078 958 857
1224 1188 1318
1363 1479 1828
1518 1829 2338
1730 2216 2745
1976 2581 3058
2246 2903 3284
2530 3162 3431
835 1279 615
1017 1465 970
1188 1702 1433
1367 1982 1949
1574 2299 2464
1836 2619 2862
2120 2904 3157
2410 3141 3360
2693 3320 3484
864 1868 753
1034 2036 1099
1233 2245 1556
1463 2483 2066
1728 2741 2573
2030 2982 2957
2332 3184 3235
2618 3343 3419
2877 3454 3526
1013 2477 884
1180 2602 1222
1403 2759 1670
1671 2935 2169
1973 3119 2661
2286 3279 3029
2578 3407 3291
2838 3501 3462
3058 3560 3557
1331 2950 971
1505 3035 1318
1730 3139 1763
1993 3255 2250
2278 3371 2723
2556 3468 3073
2805 3543 3321
3022 3595 3483
3202 3626 3573
1707 3298 1040
1877 3352 1403
2085 3416 1846
2318 3483 2319
2562 3548 2772
2790 3598 3103
2992 3635 3339
3166 3660 3493
3312 3672 3580
2097 3532 1109
2248 3563 1482
2422 3596 1919
2608 3629 2376
2800 3657 2807
2976 3677 3122
3132 3691 3347
3269 3698 3496
3387 3700 3581
2460 3664 1192
2572 3677 1565
2695 3690 1986
2827 3700 2419
2967 3709 2828
3101 3714 3130
3222 3716 3348
3330 3716 3494
3424 3712 3578
1962 746 384
2035 814 719
2117 964 1150
2207 1199 1636
2304 1521 2137
2417 1928 2569
2547 2339 2923
2694 2726 3197
2859 3059 3389
1724 957 423
1850 1074 765
1946 1260 1215
2034 1517 1725
2139 1847 2249
2296 2235 2683
2480 2606 3024
2678 2934 3273
2879 3195 3436
1554 1355 500
1680 1482 846
1792 1669 1304
1913 1915 1823
2064 2221 2355
2275 2560 2785
2504 2871 3111
2734 3133 3340
2948 3326 3480
1475 1871 603
1577 1979 949
1709 2142 1407
1875 2353 1926
2083 2608 2453
2340 2880 2872
2598 3120 3184
2840 3313 3396
3048 3445 3518
1511 2436 718
1597 2510 1061
1747 2630 1515
1951 2788 2026
2200 2976 2541
2479 3170 2945
2741 3336 3241
2974 3464 3440
3161 3545 3549
1710 2913 822
1806 2959 1170
1965 3037 1621
2173 3141 2121
2416 3264 2618
2671 3386 3001
2903 3488 3279
3104 3566 3465
3264 3613 3567
1974 3276 919
2082 3306 1279
2238 3353 1727
2429 3414 2213
2644 3483 2688
2857 3548 3047
3049 3601 3307
3215 3640 3481
3349 3663 3578
2272 3529 1021
2382 3549 1390
2522 3574 1831
2683 3603 2299
2855 3633 2748
3021 3658 3083
3170 3677 3326
3301 3690 3489
3411 3696 3581
2568 3674 1139
2664 3686 1509
2774 3696 1934
2895 3706 2377
3023 3713 2798
3147 3716 3111
3259 3718 3338
3360 3717 3490
3449 3714 3579
2734 983 357
2747 1023 670
2780 1152 1089
2830 1370 1575
2893 1676 2089
2967 2062 2542
3046 2449 2915
3132 2810 3204
3226 3121 3406
2451 1109 352
2482 1172 688
2517 1317 1131
2570 1547 1641
2653 1864 2173
2783 2256 2630
2926 2634 2995
3068 2968 3266
3198 3228 3442
2234 1426 385
2255 1489 735
2298 1627 1192
2375 1843 1713
2497 2139 2254
2681 2499 2711
2874 2839 3067
3056 3128 3323
3209 3337 3479
2102 1878 452
2103 1924 808
2157 2037 1270
2266 2218 1792
2431 2468 2333
2656 2769 2784
2882 3049 3130
3086 3281 3373
3246 3441 3513
2074 2407 547
2064 2425 901
2130 2502 1360
2265 2635 1879
2460 2821 2412
2704 3045 2851
2939 3251 3184
3144 3420 3414
3301 3533 3543
2189 2889 663
2194 2891 1016
2272 2936 1471
2411 3021 1980
2601 3142 2496
2824 3286 2913
3036 3419 3227
3220 3527 3442
3361 3601 3563
2357 3269 786
2388 3268 1144
2475 3293 1595
2607 3340 2091
2775 3407 2584
2962 3484 2973
3138 3555 3264
3292 3613 3463
3417 3654 3577
2553 3539 920
2610 3543 1285
2701 3557 1729
2819 3578 2207
2956 3604 2673
3100 3632 3031
3236 3657 3297
3359 3678 3478
3463 3692 3583
2752 3692 1070
2825 3702 1440
2912 3710 1871
3012 3717 2324
3119 3722 2759
3226 3723 3087
3325 3722 3327
3415 3720 3489
3497 3716 3583
3262 1183 348
3227 1201 646
3225 1314 1057
3250 1521 1541
3297 1818 2061
3354 2187 2528
3407 2551 2913
3458 2887 3213
3507 3174 3421
2985 1241 304
2934 1256 641
2925 1366 1080
2959 1575 1584
3038 1884 2118
3159 2279 2590
3279 2662 2973
3386 3000 3261
3467 3261 3449
2778 1493 298
2709 1499 658
2699 1593 1114
2747 1781 1630
2856 2067 2172
3025 2443 2647
3194 2806 3027
3342 3121 3307
3449 3351 3479
2653 1893 331
2569 1882 701
2560 1950 1163
2622 2101 1684
2754 2338 2227
2952 2660 2701
3150 2974 3078
3323 3246 3349
3449 3441 3509
2622 2392 404
2529 2359 770
2521 2394 1230
2592 2496 1749
2733 2670 2289
2939 2913 2755
3145 3154 3123
3327 3367 3386
3461 3524 3538
2701 2881 525
2623 2840 881
2622 2849 1334
2689 2907 1844
2818 3016 2369
3002 3173 2816
3187 3333 3166
3355 3478 3415
3485 3591 3560
2806 3276 664
2762 3244 1018
2775 3242 1464
2838 3268 1962
2946 3324 2466
3096 3408 2885
3250 3495 3210
3394 3577 3441
3513 3645 3576
2917 3562 822
2917 3547 1179
2949 3545 1620
3010 3553 2101
3098 3572 2580
3212 3601 2964
3329 3631 3258
3442 3661 3465
3542 3688 3587
3012 3719 998
3056 3726 1364
3112 3732 1799
3180 3737 2261
3256 3739 2710
3339 3735 3056
3421 3730 3312
3498 3723 3488
3569 3718 3590
3475 1312 359
3432 1334 651
3423 1448 1056
3444 1651 1536
3489 1937 2054
3542 2285 2523
3589 2626 2912
3630 2940 3217
3666 3210 3431
3263 1346 299
3197 1341 632
3180 1435 1064
3210 1630 1561
3283 1927 2091
3391 2311 2566
3493 2686 2957
3580 3021 3254
3639 3283 3452
3119 1566 276
3034 1540 634
3010 1607 1081
3045 1772 1588
3136 2040 2123
3278 2409 2604
3419 2777 2997
3539 3107 3292
3622 3361 3479
3047 1935 292
2946 1888 659
2915 1922 1111
2950 2042 1621
3047 2255 2157
3205 2570 2639
3367 2897 3034
3510 3199 3328
3613 3441 3507
3052 2412 352
2939 2343 711
2898 2340 1158
2926 2408 1663
3017 2552 2195
3173 2788 2674
3338 3046 3068
3491 3298 3360
3612 3519 3536
3134 2898 469
3026 2824 809
2980 2798 1244
2995 2824 1738
3067 2905 2256
3201 3056 2721
3348 3230 3103
3493 3411 3387
3619 3585 3561
3218 3299 611
3136 3239 941
3099 3209 1365
3106 3211 1845
3158 3245 2344
3263 3324 2786
3386 3420 3146
3512 3528 3415
3630 3641 3580
3287 3591 778
3248 3560 1107
3232 3542 1524
3242 3537 1990
3281 3544 2467
3358 3567 2875
3451 3599 3204
3549 3638 3445
3645 3685 3593
3321 3752 967
3336 3758 1308
3358 3765 1726
3387 3771 2179
3427 3772 2631
3482 3763 2997
3544 3748 3281
3605 3732 3482
3663 3719 3600
3582 1399 370
3550 1446 660
3547 1572 1061
3568 1773 1537
3608 2044 2052
3655 2365 2520
3697 2679 2909
3732 2970 3215
3760 3225 3432
3452 1439 313
3403 1440 636
3394 1534 1059
3421 1719 1549
3482 1995 2073
3565 2352 2549
3643 2706 2943
3707 3029 3246
3750 3291 3450
3377 1648 289
3314 1614 631
3297 1667 1065
3325 1812 1562
3393 2053 2090
3496 2396 2572
3597 2751 2973
3684 3085 3278
3743 3365 3476
3357 1996 302
3280 1932 648
3254 1942 1084
3275 2033 1579
3339 2213 2106
3448 2503 2592
3560 2824 2999
3662 3146 3310
3739 3441 3507
3392 2452 357
3302 2359 691
3261 2325 1117
3268 2359 1605
3319 2467 2125
3420 2679 2610
3533 2938 3023
3643 3223 3339
3738 3515 3539
3473 2927 469
3379 2827 779
3326 2771 1187
3316 2766 1659
3347 2817 2165
3429 2949 2641
3529 3125 3049
3636 3339 3365
3739 3581 3567
3543 3323 611
3463 3241 904
3411 3188 1294
3391 3167 1749
3404 3181 2237
3466 3246 2695
3549 3344 3087
3644 3475 3392
3743 3638 3588
3590 3615 783
3540 3572 1070
3503 3542 1449
3485 3527 1888
3490 3525 2354
3533 3541 2783
3595 3569 3146
3669 3615 3426
3749 3685 3603
3598 3780 983
3594 3789 1283
3591 3801 1662
3592 3813 2088
3603 3817 2529
3633 3801 2918
3672 3774 3236
3715 3745 3470
3756 3721 3610
3621 1451 380
3610 1535 670
3617 1679 1069
3640 1880 1542
3675 2133 2055
3714 2425 2520
3749 2712 2906
3779 2982 3208
3803 3220 3424
3572 1522 340
3559 1555 646
3567 1660 1058
3595 1838 1542
3640 2086 2064
3694 2402 2539
3742 2723 2932
3783 3025 3236
3810 3287 3442
3560 1736 328
3544 1721 642
3552 1775 1059
3581 1902 1545
3628 2107 2069
3686 2404 2551
3741 2729 2955
3787 3056 3267
3818 3361 3471
3582 2072 348
3563 2011 659
3567 2008 1072
3591 2073 1553
3632 2212 2072
3688 2460 2559
3743 2759 2975
3791 3091 3298
3826 3437 3507
3637 2504 402
3610 2402 699
3604 2348 1098
3617 2350 1568
3646 2418 2077
3693 2594 2566
3743 2840 2991
3792 3147 3327
3834 3511 3546
3711 2958 508
3677 2843 780
3658 2767 1156
3655 2736 1606
3668 2756 2099
3703 2863 2582
3746 3032 3009
3793 3268 3351
3840 3576 3578
3773 3340 648
3738 3245 898
3712 3176 1251
3698 3138 1679
3699 3134 2152
3722 3184 2622
3756 3278 3040
3798 3425 3376
3843 3635 3600
3812 3628 825
3785 3578 1064
3762 3544 1399
3745 3524 1803
3740 3516 2253
3753 3523 2699
3777 3546 3094
3808 3596 3409
3844 3684 3614
3820 3799 1042
3812 3815 1289
3803 3837 1614
3796 3857 1998
3793 3867 2419
3799 3844 2829
3810 3804 3183
3826 3759 3455
3844 3723 3620
3629 1477 385
3637 1598 677
3654 1761 1077
3678 1962 1551
3707 2199 2062
3738 2465 2522
3765 2729 2903
3789 2977 3198
3806 3196 3404
3642 1596 375
3669 1685 657
3699 1814 1058
3732 1984 1538
3763 2196 2060
3788 2457 2534
3806 2735 2925
3819 3011 3226
3827 3269 3428
3674 1827 386
3720 1861 659
3766 1930 1055
3808 2040 1533
3841 2198 2056
3858 2433 2539
3864 2713 2945
3861 3023 3258
3849 3348 3465
3721 2153 417
3785 2122 681
3844 2122 1067
3892 2162 1536
3926 2253 2052
3935 2444 2541
3927 2707 2962
3906 3037 3292
3872 3428 3510
3781 2558 471
3856 2466 722
3921 2403 1094
3971 2381 1549
4002 2409 2051
4003 2541 2542
3985 2761 2976
3949 3079 3325
3895 3504 3559
3843 2981 569
3915 2866 799
3974 2782 1147
4017 2734 1580
4042 2729 2064
4039 2806 2551
4017 2959 2990
3975 3208 3349
3913 3569 3595
3897 3344 707
3955 3245 915
4003 3172 1235
4038 3128 1639
4056 3112 2101
4049 3145 2578
4025 3229 3013
3983 3384 3371
3923 3630 3616
3939 3626 895
3975 3576 1086
4007 3544 1376
4031 3527 1746
4044 3519 2178
4034 3518 2636
4008 3533 3056
3971 3581 3398
3925 3683 3626
3967 3806 1140
3972 3832 1328
3985 3867 1589
3998 3898 1918
4005 3915 2312
3991 3886 2741
3965 3832 3129
3937 3773 3438
3918 3726 3629
