Assets/1__3DArt/KimSe/artstation_asset/LUTs_pasterls/3DL/Pastelopolis 04 S.3dl
# Enhanced with VOXCOLOR algorithms
0 256 512 768 1023
418 562 289
436 653 760
429 738 1404
396 809 2027
321 835 2457
550 1074 690
580 1231 1145
605 1406 1736
610 1534 2282
586 1598 2678
805 1743 1311
859 1894 1698
924 2070 2180
962 2188 2606
962 2235 2915
1184 2337 1951
1247 2425 2217
1315 2540 2551
1356 2611 2857
1367 2632 3095
1590 2714 2425
1609 2745 2562
1631 2792 2769
1649 2822 2989
1638 2826 3180
1474 665 355
1501 683 805
1548 769 1502
1575 905 2256
1522 1025 2821
1332 1118 603
1408 1235 1107
1414 1405 1789
1420 1595 2422
1377 1713 2876
1315 1760 1124
1363 1910 1552
1412 2079 2138
1444 2229 2651
1407 2295 2999
1471 2331 1815
1523 2449 2096
1585 2570 2495
1619 2651 2863
1596 2673 3126
1727 2721 2390
1774 2784 2562
1809 2849 2785
1820 2883 3011
1800 2893 3208
2322 757 391
2376 681 747
2498 737 1405
2634 894 2272
2684 1067 3059
2189 1149 450
2233 1204 1012
2315 1355 1760
2437 1609 2503
2474 1827 3106
2122 1806 857
2152 1953 1355
2222 2114 2072
2311 2318 2730
2313 2471 3186
2129 2401 1626
2170 2566 1919
2230 2708 2416
2276 2804 2919
2264 2861 3273
2172 2798 2334
2233 2906 2546
2294 3021 2812
2322 3076 3103
2314 3097 3348
2628 804 408
2707 700 659
2862 708 1223
3071 818 2107
3242 961 3054
2690 1123 424
2830 1167 920
2962 1267 1618
3111 1485 2406
3227 1751 3162
2770 1740 743
2941 1940 1209
3062 2090 1962
3151 2287 2736
3204 2561 3337
2817 2392 1413
2971 2674 1664
3082 2870 2252
3132 2973 2961
3158 3115 3497
2807 2884 2138
2898 3096 2338
3029 3343 2675
3098 3417 3178
3125 3432 3603
2698 819 418
2779 738 602
2936 710 1120
3163 757 1997
3372 819 2971
2791 1050 525
3086 1134 822
3332 1206 1456
3453 1341 2295
3504 1567 3098
2983 1566 793
3510 1869 1118
3808 2038 1872
3823 2190 2731
3699 2524 3409
3204 2267 1236
3696 2705 1418
3966 2966 2096
3970 3072 2986
3844 3292 3692
3340 2907 1831
3541 3249 1942
3799 3655 2356
3868 3753 3166
3870 3774 3870
