Assets/1__3DArt/KimSe/artstation_asset/LUTs_pasterls/3DL/Pastelopolis 04 S.3dl
# Enhanced with VOXCOLOR algorithms
0 128 256 384 512 640 768 896 1023
418 562 289
431 609 496
436 653 760
435 696 1067
429 738 1404
416 777 1735
396 809 2027
366 830 2271
321 835 2457
469 789 457
482 852 665
490 920 924
495 991 1221
496 1061 1546
492 1122 1860
482 1171 2137
464 1205 2373
436 1225 2562
550 1074 690
565 1149 895
580 1231 1145
594 1319 1430
605 1406 1736
611 1479 2026
610 1534 2282
602 1574 2500
586 1598 2678
661 1399 978
681 1476 1172
703 1564 1409
727 1657 1674
750 1750 1954
766 1824 2215
773 1880 2444
773 1918 2638
763 1939 2798
805 1743 1311
829 1812 1486
859 1894 1698
892 1982 1933
924 2070 2180
948 2138 2407
962 2188 2606
966 2220 2776
962 2235 2915
987 2062 1649
1016 2116 1797
1050 2182 1976
1086 2256 2174
1122 2329 2381
1148 2385 2574
1164 2424 2744
1172 2447 2891
1172 2457 3014
1184 2337 1951
1213 2375 2071
1247 2425 2217
1282 2482 2380
1315 2540 2551
1340 2583 2712
1356 2611 2857
1365 2626 2984
1367 2632 3095
1387 2558 2211
1411 2581 2302
1437 2615 2415
1464 2655 2544
1489 2696 2682
1509 2726 2816
1523 2745 2940
1529 2754 3052
1528 2756 3151
1590 2714 2425
1599 2726 2481
1609 2745 2562
1620 2768 2660
1631 2792 2769
1642 2810 2882
1649 2822 2989
1649 2827 3089
1638 2826 3180
945 613 327
955 640 531
964 673 800
971 714 1120
978 763 1480
978 819 1841
966 872 2164
938 917 2436
893 948 2646
910 822 463
959 874 673
976 933 943
974 1000 1259
963 1075 1606
951 1151 1942
936 1216 2240
912 1268 2492
877 1302 2693
906 1094 664
960 1162 873
982 1238 1137
985 1321 1442
977 1410 1770
969 1494 2079
958 1563 2349
940 1614 2578
912 1644 2763
936 1408 924
978 1483 1122
1004 1566 1372
1018 1655 1657
1025 1748 1959
1028 1830 2238
1026 1895 2480
1015 1940 2684
991 1963 2848
1002 1740 1237
1033 1813 1413
1062 1894 1637
1088 1979 1891
1112 2066 2160
1128 2139 2405
1134 2194 2618
1129 2229 2796
1109 2242 2939
1122 2048 1575
1151 2110 1722
1183 2180 1910
1215 2253 2125
1246 2326 2352
1269 2384 2561
1280 2427 2743
1280 2451 2898
1264 2458 3023
1269 2318 1890
1297 2366 2010
1330 2421 2163
1363 2480 2337
1395 2539 2523
1418 2584 2696
1432 2614 2850
1433 2630 2984
1423 2632 3096
1437 2541 2170
1463 2574 2264
1491 2615 2383
1519 2658 2519
1545 2701 2665
1564 2732 2806
1574 2752 2934
1576 2762 3049
1567 2762 3150
1620 2708 2406
1637 2729 2473
1654 2755 2559
1670 2782 2661
1682 2808 2772
1691 2827 2884
1695 2838 2990
1691 2843 3089
1679 2844 3181
1474 665 355
1485 665 544
1501 683 805
1522 717 1128
1548 769 1502
1570 837 1895
1575 905 2256
1560 970 2570
1522 1025 2821
1389 854 445
1439 885 658
1460 930 937
1466 992 1268
1468 1071 1635
1474 1162 1999
1474 1248 2326
1460 1321 2608
1427 1376 2837
1332 1118 603
1385 1170 823
1408 1235 1107
1414 1313 1435
1414 1405 1789
1419 1506 2126
1420 1595 2422
1408 1666 2673
1377 1713 2876
1306 1429 830
1345 1495 1040
1368 1570 1312
1382 1655 1625
1394 1749 1959
1406 1846 2266
1411 1928 2533
1402 1990 2756
1371 2024 2933
1315 1760 1124
1339 1832 1308
1363 1910 1552
1388 1992 1836
1412 2079 2138
1433 2162 2414
1444 2229 2651
1437 2276 2846
1407 2295 2999
1377 2065 1475
1399 2133 1623
1427 2204 1825
1456 2277 2064
1487 2350 2321
1511 2414 2558
1524 2463 2763
1519 2494 2933
1492 2503 3066
1471 2331 1815
1494 2388 1934
1523 2449 2096
1554 2510 2288
1585 2570 2495
1607 2618 2691
1619 2651 2863
1617 2670 3009
1596 2673 3126
1590 2552 2127
1615 2596 2222
1642 2643 2347
1670 2691 2494
1696 2737 2652
1713 2770 2807
1721 2792 2947
1719 2803 3070
1703 2803 3175
1727 2721 2390
1751 2751 2467
1774 2784 2562
1793 2818 2669
1809 2849 2785
1817 2870 2901
1820 2883 3011
1815 2891 3113
1800 2893 3208
1951 714 376
1965 686 541
1990 685 785
2027 709 1099
2076 759 1476
2124 833 1894
2154 912 2294
2162 991 2658
2142 1065 2964
1853 882 415
1887 888 629
1911 917 913
1933 970 1252
1962 1049 1632
1999 1154 2020
2027 1259 2380
2035 1353 2701
2016 1431 2971
1776 1138 526
1811 1172 761
1833 1223 1062
1851 1294 1411
1874 1388 1789
1908 1504 2152
1934 1616 2479
1941 1711 2763
1919 1781 2998
1725 1450 715
1749 1506 943
1769 1572 1240
1791 1651 1583
1817 1747 1948
1850 1858 2288
1874 1962 2585
1879 2047 2837
1853 2102 3038
1701 1786 991
1716 1859 1186
1736 1932 1454
1762 2011 1771
1793 2099 2110
1827 2193 2424
1849 2277 2693
1850 2341 2915
1819 2377 3085
1721 2095 1357
1735 2170 1507
1758 2244 1726
1786 2317 1992
1819 2392 2284
1849 2462 2558
1867 2521 2794
1865 2563 2988
1835 2583 3136
1766 2363 1728
1784 2432 1844
1809 2500 2016
1838 2566 2227
1868 2628 2462
1892 2679 2688
1906 2717 2887
1903 2741 3055
1878 2750 3185
1831 2583 2074
1854 2639 2170
1881 2697 2301
1909 2754 2459
1934 2805 2636
1952 2841 2812
1960 2864 2973
1957 2877 3113
1940 2881 3228
1911 2751 2368
1940 2791 2457
1967 2835 2560
1991 2878 2676
2012 2918 2800
2023 2945 2928
2028 2962 3049
2023 2971 3162
2010 2976 3263
2322 757 391
2341 703 528
2376 681 747
2428 693 1040
2498 737 1405
2573 812 1836
2634 894 2272
2673 981 2687
2684 1067 3059
2247 903 383
2270 886 597
2299 897 877
2339 938 1213
2395 1012 1591
2466 1124 1994
2527 1240 2385
2567 1353 2751
2575 1452 3076
2189 1149 450
2209 1168 698
2233 1204 1012
2267 1264 1372
2315 1355 1760
2380 1480 2145
2437 1609 2503
2473 1729 2826
2474 1827 3106
2147 1462 603
2161 1511 850
2183 1568 1166
2214 1639 1531
2258 1732 1919
2315 1854 2289
2365 1977 2620
2393 2088 2907
2386 2173 3144
2122 1806 857
2132 1881 1065
2152 1953 1355
2182 2028 1699
2222 2114 2072
2271 2217 2424
2311 2318 2730
2329 2406 2987
2313 2471 3186
2120 2125 1232
2131 2211 1384
2152 2290 1618
2182 2366 1910
2217 2442 2237
2255 2517 2552
2284 2587 2828
2294 2646 3056
2275 2688 3230
2129 2401 1626
2145 2485 1739
2170 2566 1919
2199 2640 2151
2230 2708 2416
2257 2761 2682
2276 2804 2919
2280 2837 3119
2264 2861 3273
2148 2627 2005
2170 2699 2099
2198 2773 2236
2228 2843 2408
2256 2904 2608
2276 2942 2817
2288 2968 3010
2289 2984 3178
2278 2995 3313
2172 2798 2334
2201 2848 2433
2233 2906 2546
2265 2966 2673
2294 3021 2812
2312 3055 2960
2322 3076 3103
2323 3089 3235
2314 3097 3348
2515 785 400
2541 719 511
2585 685 701
2647 684 968
2728 717 1308
2822 783 1737
2908 857 2190
2980 938 2644
3027 1024 3075
2495 912 374
2530 885 573
2572 883 835
2625 911 1151
2693 972 1511
2780 1073 1913
2862 1185 2322
2929 1300 2725
2970 1411 3107
2486 1142 418
2525 1156 660
2565 1184 965
2613 1233 1316
2672 1309 1695
2749 1426 2086
2822 1556 2465
2881 1687 2825
2912 1808 3155
2486 1445 546
2524 1498 791
2563 1553 1107
2607 1617 1472
2660 1699 1864
2725 1814 2250
2787 1942 2608
2834 2072 2932
2855 2191 3213
2490 1789 775
2527 1876 981
2565 1954 1274
2607 2029 1628
2653 2108 2018
2705 2207 2398
2753 2316 2740
2788 2428 3035
2798 2534 3273
2497 2120 1131
2533 2227 1274
2571 2322 1511
2610 2405 1817
2650 2481 2170
2690 2555 2526
2724 2632 2847
2747 2710 3120
2752 2790 3331
2500 2412 1517
2535 2524 1616
2574 2628 1797
2614 2719 2043
2650 2794 2340
2680 2848 2655
2703 2896 2944
2718 2942 3192
2722 2992 3385
2499 2657 1901
2533 2756 1983
2573 2858 2120
2614 2953 2307
2651 3031 2537
2677 3073 2797
2695 3100 3042
2705 3122 3259
2708 3147 3432
2492 2848 2254
2522 2914 2354
2563 3000 2470
2609 3091 2608
2653 3173 2772
2683 3217 2963
2703 3239 3152
2713 3250 3325
2714 3260 3471
2628 804 408
2659 739 495
2707 700 659
2775 689 902
2862 708 1223
2967 758 1646
3071 818 2107
3165 887 2584
3242 961 3054
2654 914 385
2709 887 556
2767 880 790
2832 896 1082
2906 940 1422
2996 1023 1822
3087 1121 2243
3168 1228 2672
3234 1338 3095
2690 1123 424
2763 1141 640
2830 1167 920
2895 1207 1252
2962 1267 1618
3037 1366 2011
3111 1485 2406
3177 1616 2793
3227 1751 3162
2730 1407 540
2816 1472 759
2890 1531 1057
2957 1591 1412
3017 1660 1801
3077 1761 2197
3135 1883 2576
3184 2021 2929
3218 2169 3245
2770 1740 743
2862 1850 926
2941 1940 1209
3007 2018 1563
3062 2090 1962
3109 2179 2365
3151 2287 2736
3183 2414 3065
3204 2561 3337
2799 2080 1061
2889 2219 1182
2967 2335 1412
3031 2430 1727
3081 2506 2101
3116 2574 2494
3146 2653 2857
3168 2749 3173
3181 2869 3423
2817 2392 1413
2897 2541 1489
2971 2674 1664
3034 2786 1924
3082 2870 2252
3111 2923 2617
3132 2973 2961
3147 3033 3261
3158 3115 3497
2820 2664 1779
2882 2797 1840
2949 2935 1971
3012 3060 2171
3065 3158 2436
3095 3204 2754
3115 3232 3062
3128 3259 3338
3139 3302 3558
2807 2884 2138
2842 2972 2227
2898 3096 2338
2965 3228 2483
3029 3343 2675
3071 3397 2924
3098 3417 3178
3115 3423 3412
3125 3432 3603
2682 814 414
2715 759 480
2765 720 624
2835 701 849
2923 706 1157
3034 740 1575
3147 783 2038
3255 834 2524
3349 890 3014
2730 909 412
2804 890 543
2879 882 743
2957 890 1009
3040 918 1335
3130 980 1735
3220 1058 2166
3305 1148 2611
3381 1246 3055
2794 1093 463
2907 1122 630
3010 1151 874
3102 1186 1180
3182 1232 1536
3252 1309 1935
3317 1409 2343
3374 1529 2748
3423 1666 3139
2866 1350 573
3016 1433 747
3143 1502 1013
3248 1563 1350
3327 1622 1736
3378 1703 2144
3418 1812 2541
3448 1949 2914
3469 2115 3251
2941 1664 752
3117 1802 897
3262 1911 1158
3373 1997 1506
3448 2065 1911
3485 2139 2333
3506 2241 2730
3514 2377 3085
3510 2556 3381
3007 2011 1019
3184 2188 1107
3328 2330 1325
3437 2440 1646
3507 2518 2039
3535 2578 2465
3547 2656 2865
3545 2765 3218
3534 2921 3502
3058 2343 1319
3215 2534 1365
3348 2701 1534
3452 2835 1808
3521 2929 2166
3548 2981 2578
3556 3033 2973
3553 3105 3323
3543 3218 3602
3090 2646 1646
3204 2819 1680
3316 2995 1805
3416 3152 2019
3491 3270 2321
3524 3322 2698
3537 3352 3072
3539 3386 3410
3538 3447 3682
3096 2904 1995
3145 3017 2060
3228 3182 2158
3325 3359 2308
3414 3511 2533
3465 3575 2851
3492 3594 3182
3507 3596 3490
3519 3607 3739
2698 819 418
2729 775 470
2779 738 602
2848 715 817
2936 710 1120
3048 729 1536
3163 757 1997
3274 788 2482
3372 819 2971
2729 897 452
2808 891 530
2900 888 692
2999 891 934
3100 907 1256
3194 948 1669
3281 1004 2109
3359 1072 2560
3426 1147 3002
2791 1050 525
2939 1096 625
3086 1134 822
3220 1170 1103
3332 1206 1456
3403 1263 1872
3453 1341 2295
3485 1442 2709
3504 1567 3098
2877 1274 638
3100 1380 746
3301 1465 971
3466 1534 1288
3584 1589 1676
3632 1653 2102
3645 1744 2516
3631 1870 2901
3599 2039 3239
2983 1566 793
3270 1736 885
3510 1869 1118
3692 1969 1458
3808 2038 1872
3836 2100 2314
3823 2190 2731
3775 2326 3103
3699 2524 3409
3099 1916 999
3399 2134 1050
3642 2307 1256
3819 2434 1583
3926 2516 1995
3947 2571 2449
3927 2645 2879
3871 2762 3259
3784 2943 3565
3204 2267 1236
3474 2504 1252
3696 2705 1418
3863 2862 1708
3966 2966 2096
3987 3017 2548
3970 3072 2986
3921 3155 3377
3844 3292 3692
3288 2602 1510
3483 2817 1515
3665 3030 1636
3818 3218 1868
3924 3355 2206
3956 3413 2640
3951 3448 3074
3921 3491 3472
3874 3570 3793
3340 2907 1831
3417 3045 1863
3541 3249 1942
3679 3469 2096
3799 3655 2356
3852 3731 2750
3868 3753 3166
3868 3755 3556
3870 3774 3870
