Assets/1__3DArt/KimSe/artstation_asset/LUTs_pasterls/3DL/Pastelopolis 02.3dl
# Enhanced with VOXCOLOR algorithms
0 64 128 192 256 320 384 448 512 576 640 704 768 832 896 960 1023
466 385 434
514 472 647
562 559 860
613 664 1097
673 806 1381
734 947 1665
794 1120 1949
855 1307 2233
916 1495 2518
975 1711 2756
1034 1926 2994
1093 2141 3208
1151 2353 3376
1209 2566 3545
1266 2748 3664
1324 2916 3759
1381 3083 3854
508 621 487
556 714 699
604 807 911
656 917 1146
716 1059 1426
776 1200 1707
838 1368 1989
900 1548 2271
962 1729 2554
1023 1929 2790
1083 2130 3026
1144 2327 3239
1204 2520 3404
1264 2713 3570
1324 2878 3688
1383 3029 3781
1442 3181 3875
550 857 541
598 956 752
647 1056 962
699 1170 1195
759 1312 1472
819 1454 1749
881 1616 2029
944 1790 2309
1008 1963 2590
1070 2148 2824
1133 2333 3059
1196 2514 3269
1258 2687 3432
1320 2859 3595
1381 3007 3711
1442 3143 3804
1504 3279 3896
615 1128 600
663 1230 808
711 1332 1017
762 1446 1248
822 1584 1521
881 1722 1795
943 1876 2072
1007 2039 2350
1071 2201 2627
1134 2369 2859
1198 2537 3091
1262 2700 3299
1325 2852 3460
1388 3004 3620
1450 3135 3734
1513 3254 3824
1575 3373 3915
726 1470 667
772 1566 874
818 1662 1081
868 1768 1308
925 1894 1579
983 2020 1849
1044 2159 2121
1106 2304 2395
1168 2449 2669
1231 2596 2897
1294 2743 3125
1357 2884 3329
1419 3015 3486
1482 3145 3642
1543 3257 3753
1605 3358 3840
1666 3459 3928
837 1813 735
881 1902 940
925 1992 1144
973 2090 1369
1029 2204 1636
1085 2318 1903
1144 2442 2171
1205 2569 2441
1266 2697 2711
1328 2823 2935
1390 2948 3159
1452 3068 3359
1514 3177 3512
1575 3287 3665
1636 3379 3772
1697 3462 3857
1757 3545 3941
982 2147 796
1022 2225 999
1063 2304 1201
1107 2390 1424
1160 2489 1687
1212 2589 1949
1269 2695 2214
1327 2804 2479
1385 2913 2744
1446 3019 2964
1506 3124 3184
1566 3225 3380
1626 3315 3530
1686 3405 3680
1746 3480 3785
1805 3549 3867
1864 3617 3950
1143 2477 853
1179 2542 1054
1216 2607 1255
1256 2679 1475
1304 2762 1734
1353 2845 1993
1406 2933 2253
1461 3023 2513
1516 3114 2774
1574 3200 2989
1631 3286 3205
1689 3367 3398
1747 3439 3544
1805 3512 3691
1863 3572 3794
1921 3626 3875
1978 3681 3956
1305 2806 911
1337 2859 1110
1368 2911 1309
1404 2968 1527
1449 3035 1782
1494 3102 2037
1543 3171 2292
1595 3243 2548
1647 3314 2803
1702 3380 3015
1757 3447 3226
1812 3509 3415
1868 3564 3559
1924 3618 3703
1980 3664 3803
2036 3704 3883
2093 3745 3962
1486 3049 948
1513 3089 1146
1539 3128 1344
1570 3173 1559
1610 3225 1810
1650 3278 2061
1694 3333 2312
1741 3390 2563
1789 3446 2814
1840 3499 3023
1891 3551 3231
1942 3601 3417
1995 3644 3560
2048 3687 3703
2101 3723 3803
2156 3755 3883
2210 3788 3963
1667 3291 986
1688 3319 1182
1710 3346 1379
1736 3377 1592
1771 3416 1839
1805 3455 2085
1845 3495 2332
1888 3537 2579
1930 3579 2825
1977 3617 3030
2024 3656 3236
2072 3692 3420
2122 3723 3561
2171 3755 3703
2223 3782 3804
2275 3806 3884
2328 3830 3964
1842 3497 1017
1858 3514 1212
1875 3531 1407
1896 3551 1618
1926 3578 1860
1955 3604 2103
1990 3632 2346
2028 3661 2588
2065 3690 2831
2108 3717 3033
2151 3744 3236
2195 3769 3418
2241 3791 3559
2288 3813 3701
2337 3832 3801
2387 3850 3882
2437 3867 3963
2004 3632 1035
2017 3642 1229
2029 3651 1422
2045 3664 1630
2069 3681 1869
2093 3699 2108
2123 3719 2347
2155 3739 2586
2188 3760 2825
2226 3779 3026
2264 3799 3228
2304 3817 3409
2347 3833 3551
2389 3849 3693
2435 3864 3795
2482 3878 3877
2530 3892 3960
2167 3767 1054
2175 3769 1245
2182 3771 1437
2194 3776 1643
2212 3785 1878
2231 3795 2112
2256 3806 2348
2283 3818 2583
2310 3830 2819
2344 3842 3019
2378 3853 3219
2413 3865 3400
2452 3876 3543
2491 3886 3686
2533 3897 3789
2578 3907 3873
2623 3918 3956
2288 3846 1060
2291 3844 1249
2295 3842 1439
2302 3841 1642
2315 3845 1874
2329 3849 2106
2349 3855 2339
2372 3862 2573
2394 3869 2806
2425 3877 3007
2455 3885 3207
2487 3892 3389
2523 3900 3533
2558 3908 3677
2598 3916 3782
2639 3924 3866
2681 3932 3950
2389 3898 1060
2388 3893 1247
2387 3887 1434
2390 3883 1635
2398 3884 1864
2407 3884 2094
2423 3886 2325
2441 3890 2558
2460 3894 2790
2487 3899 2992
2514 3904 3193
2543 3910 3376
2576 3916 3522
2609 3921 3668
2646 3928 3773
2684 3935 3858
2721 3941 3942
2489 3950 1060
2484 3941 1245
2479 3932 1429
2477 3925 1628
2481 3922 1855
2486 3918 2082
2497 3917 2312
2511 3918 2543
2526 3918 2774
2550 3921 2977
2573 3924 3179
2600 3927 3363
2630 3931 3511
2660 3935 3659
2693 3940 3765
2728 3945 3850
2762 3950 3934
865 441 397
910 523 609
954 604 821
1001 703 1055
1052 835 1336
1104 968 1616
1153 1132 1899
1201 1311 2183
1249 1490 2467
1293 1701 2708
1337 1913 2949
1381 2124 3168
1423 2337 3341
1466 2550 3514
1509 2733 3638
1551 2902 3737
1593 3071 3835
869 654 447
919 741 655
970 828 864
1020 931 1095
1070 1064 1373
1120 1197 1651
1168 1358 1933
1214 1532 2217
1261 1706 2500
1306 1905 2741
1350 2103 2982
1395 2300 3199
1441 2495 3370
1486 2689 3541
1532 2857 3663
1578 3010 3760
1624 3164 3857
873 866 496
929 959 701
985 1051 907
1039 1158 1135
1088 1293 1411
1137 1427 1686
1183 1585 1967
1228 1754 2251
1273 1923 2534
1318 2108 2774
1364 2293 3014
1410 2476 3230
1458 2652 3399
1506 2829 3568
1555 2980 3688
1605 3119 3784
1654 3258 3879
899 1116 551
958 1211 754
1017 1306 956
1072 1413 1182
1120 1545 1455
1168 1676 1728
1213 1827 2007
1257 1987 2289
1301 2148 2571
1348 2318 2810
1394 2488 3048
1441 2654 3262
1491 2811 3428
1542 2968 3593
1593 3103 3711
1646 3226 3805
1698 3348 3899
970 1441 616
1025 1531 818
1080 1621 1019
1133 1721 1244
1180 1843 1514
1228 1965 1784
1274 2102 2060
1319 2247 2338
1363 2391 2616
1411 2541 2850
1458 2691 3084
1506 2837 3294
1558 2973 3456
1609 3108 3618
1661 3224 3733
1714 3329 3823
1767 3434 3914
1041 1766 682
1092 1851 882
1144 1936 1082
1194 2030 1305
1241 2142 1572
1288 2254 1840
1334 2377 2112
1380 2506 2386
1425 2635 2661
1474 2765 2891
1522 2895 3121
1572 3019 3327
1624 3134 3485
1676 3248 3643
1729 3345 3754
1783 3432 3842
1836 3520 3929
1149 2091 742
1195 2167 942
1241 2243 1142
1287 2326 1363
1332 2424 1627
1378 2523 1891
1423 2630 2159
1469 2741 2429
1514 2853 2699
1563 2963 2924
1611 3073 3150
1661 3178 3352
1713 3273 3506
1765 3369 3660
1818 3448 3769
1872 3520 3854
1925 3592 3940
1276 2417 801
1316 2481 1000
1356 2545 1199
1396 2615 1418
1439 2699 1679
1482 2782 1940
1526 2872 2203
1571 2965 2468
1616 3058 2733
1665 3148 2954
1713 3239 3175
1763 3325 3372
1814 3402 3523
1866 3479 3674
1918 3543 3780
1971 3601 3864
2024 3658 3947
1404 2742 860
1437 2794 1058
1470 2847 1256
1505 2905 1474
1546 2973 1731
1586 3041 1989
1630 3114 2248
1674 3189 2508
1719 3263 2768
1767 3334 2984
1815 3405 3200
1864 3472 3393
1915 3530 3541
1966 3589 3688
2018 3638 3792
2070 3681 3874
2122 3725 3955
1561 2990 901
1588 3031 1099
1616 3072 1296
1646 3118 1512
1682 3172 1765
1719 3227 2018
1759 3285 2273
1800 3344 2528
1842 3404 2783
1888 3460 2996
1934 3516 3209
1981 3569 3399
2030 3616 3545
2079 3662 3691
2129 3701 3794
2180 3736 3876
2231 3770 3957
1719 3239 943
1740 3268 1139
1761 3298 1335
1786 3331 1549
1819 3371 1799
1851 3412 2048
1888 3455 2298
1927 3500 2549
1966 3545 2799
2010 3586 3008
2053 3628 3217
2098 3667 3404
2145 3701 3549
2192 3735 3693
2240 3764 3796
2289 3790 3878
2339 3816 3959
1874 3453 978
1890 3472 1173
1906 3491 1368
1926 3513 1580
1954 3542 1825
1982 3570 2071
2015 3601 2317
2051 3632 2563
2087 3664 2809
2128 3693 3015
2169 3722 3221
2211 3750 3406
2255 3774 3549
2299 3798 3693
2346 3818 3795
2393 3837 3878
2441 3855 3960
2026 3598 1002
2038 3609 1195
2049 3621 1388
2065 3635 1597
2088 3654 1838
2111 3674 2079
2140 3696 2321
2171 3718 2564
2202 3741 2806
2239 3762 3010
2276 3783 3215
2315 3803 3399
2356 3821 3543
2397 3838 3687
2441 3854 3790
2486 3868 3874
2531 3883 3957
2178 3742 1025
2185 3746 1216
2192 3750 1407
2203 3756 1614
2221 3767 1851
2240 3778 2088
2264 3790 2326
2291 3804 2565
2318 3817 2803
2351 3830 3006
2384 3843 3208
2419 3856 3392
2457 3867 3536
2495 3879 3680
2536 3890 3785
2578 3900 3870
2621 3911 3954
2297 3830 1037
2300 3829 1225
2303 3828 1414
2310 3829 1618
2323 3834 1852
2337 3839 2085
2356 3846 2320
2379 3854 2556
2401 3862 2792
2431 3870 2994
2460 3879 3197
2492 3887 3380
2527 3895 3526
2562 3903 3672
2600 3911 3777
2640 3919 3863
2680 3927 3949
2400 3889 1043
2399 3884 1229
2398 3880 1415
2400 3877 1616
2409 3878 1846
2417 3879 2076
2432 3882 2309
2450 3886 2543
2468 3890 2777
2495 3896 2980
2521 3901 3183
2549 3907 3367
2582 3913 3514
2614 3918 3662
2649 3925 3769
2686 3932 3855
2723 3939 3941
2502 3948 1049
2498 3940 1232
2493 3932 1415
2491 3926 1613
2494 3923 1840
2498 3919 2067
2508 3918 2297
2522 3919 2530
2536 3919 2762
2559 3921 2965
2582 3924 3168
2607 3927 3354
2636 3930 3503
2666 3934 3652
2698 3939 3760
2732 3944 3847
2767 3950 3934
1265 497 360
1306 574 571
1347 650 781
1388 742 1014
1431 865 1291
1474 988 1568
1511 1143 1849
1547 1314 2132
1582 1485 2416
1611 1692 2661
1640 1899 2905
1669 2108 3128
1696 2321 3306
1723 2534 3484
1751 2718 3612
1778 2888 3714
1805 3058 3816
1230 686 406
1283 767 611
1335 848 816
1384 944 1045
1424 1069 1320
1464 1194 1596
1498 1348 1877
1529 1516 2162
1560 1684 2447
1589 1880 2692
1617 2077 2937
1646 2273 3160
1677 2469 3336
1708 2666 3512
1740 2835 3638
1772 2991 3739
1805 3147 3840
1196 875 451
1260 961 651
1324 1047 851
1379 1147 1076
1417 1274 1350
1455 1401 1624
1485 1553 1906
1512 1718 2192
1538 1882 2478
1566 2068 2724
1594 2254 2970
1624 2438 3191
1658 2618 3366
1693 2798 3540
1729 2952 3664
1767 3094 3763
1805 3236 3863
1183 1104 503
1253 1192 699
1323 1279 895
1382 1380 1117
1418 1505 1389
1455 1631 1662
1483 1778 1943
1508 1936 2229
1532 2094 2515
1561 2267 2760
1589 2439 3004
1621 2608 3224
1658 2770 3396
1696 2932 3567
1736 3071 3689
1779 3197 3786
1821 3324 3884
1214 1412 565
1278 1496 762
1343 1580 958
1398 1675 1179
1436 1793 1449
1473 1910 1719
1504 2045 1998
1531 2189 2280
1559 2333 2563
1590 2487 2803
1622 2640 3044
1656 2789 3260
1696 2930 3427
1736 3071 3594
1779 3191 3712
1824 3300 3806
1868 3409 3900
1244 1720 628
1304 1800 824
1363 1881 1021
1415 1971 1241
1453 2080 1509
1492 2189 1777
1524 2312 2052
1555 2442 2331
1585 2572 2611
1620 2706 2847
1654 2841 3083
1691 2970 3295
1734 3090 3458
1777 3210 3621
1822 3311 3736
1869 3403 3826
1916 3494 3917
1317 2036 689
1368 2109 885
1420 2181 1082
1467 2262 1302
1505 2360 1567
1543 2457 1832
1577 2565 2104
1610 2678 2378
1643 2792 2653
1680 2907 2884
1717 3022 3115
1756 3132 3323
1801 3232 3482
1845 3333 3641
1891 3417 3753
1939 3492 3841
1987 3568 3929
1410 2357 749
1453 2420 946
1496 2482 1143
1537 2552 1362
1574 2636 1624
1611 2719 1886
1647 2811 2153
1682 2907 2423
1717 3002 2692
1756 3097 2919
1795 3192 3145
1836 3283 3347
1881 3365 3502
1927 3446 3657
1974 3514 3767
2022 3575 3853
2069 3636 3939
1502 2678 809
1537 2730 1006
1571 2783 1204
1606 2842 1422
1642 2911 1681
1679 2981 1940
1716 3057 2203
1753 3135 2468
1790 3213 2732
1832 3288 2953
1873 3363 3174
1916 3434 3372
1962 3497 3523
2009 3560 3674
2056 3612 3781
2104 3658 3865
2152 3704 3949
1636 2932 854
1664 2974 1051
1692 3016 1248
1721 3063 1464
1755 3119 1720
1788 3175 1976
1823 3236 2234
1859 3299 2493
1896 3362 2753
1937 3422 2969
1978 3482 3186
2020 3538 3381
2065 3588 3530
2110 3638 3679
2157 3679 3784
2204 3716 3868
2251 3753 3952
1770 3187 900
1791 3218 1096
1813 3249 1292
1837 3284 1507
1867 3327 1759
1897 3370 2011
1931 3416 2264
1966 3463 2519
2002 3510 2773
2042 3555 2986
2082 3600 3199
2124 3642 3389
2168 3679 3536
2212 3716 3683
2257 3746 3788
2303 3774 3872
2349 3801 3955
1907 3409 940
1922 3430 1135
1937 3451 1330
1956 3475 1542
1983 3506 1790
2009 3537 2038
2041 3570 2287
2075 3604 2537
2108 3638 2787
2147 3669 2996
2186 3701 3205
2226 3731 3393
2269 3757 3539
2311 3783 3685
2355 3804 3789
2399 3824 3873
2444 3843 3957
2048 3563 968
2059 3577 1161
2070 3590 1354
2084 3606 1564
2107 3627 1807
2129 3649 2051
2157 3672 2296
2187 3697 2541
2217 3721 2787
2253 3744 2994
2288 3767 3201
2325 3789 3388
2365 3808 3534
2405 3827 3680
2446 3843 3785
2489 3859 3870
2531 3874 3955
2189 3718 996
2196 3723 1187
2202 3729 1378
2213 3737 1585
2231 3749 1825
2249 3761 2064
2272 3775 2304
2299 3790 2546
2325 3805 2787
2358 3819 2992
2391 3833 3197
2425 3847 3383
2462 3859 3529
2498 3871 3675
2538 3882 3781
2578 3893 3867
2619 3904 3953
2306 3813 1013
2309 3814 1202
2311 3814 1390
2318 3817 1594
2331 3823 1829
2344 3829 2064
2363 3837 2301
2385 3846 2540
2408 3854 2778
2437 3863 2982
2466 3872 3186
2497 3881 3372
2531 3890 3519
2565 3898 3666
2602 3906 3773
2640 3915 3860
2679 3923 3947
2411 3879 1025
2410 3876 1211
2409 3873 1396
2411 3872 1596
2419 3873 1827
2427 3875 2058
2442 3878 2292
2459 3882 2528
2477 3887 2764
2502 3892 2968
2528 3898 3172
2556 3904 3358
2587 3910 3506
2618 3916 3655
2653 3922 3764
2689 3929 3852
2725 3936 3941
2516 3945 1038
2511 3939 1220
2507 3932 1402
2504 3926 1599
2507 3923 1826
2511 3920 2052
2520 3919 2283
2533 3919 2516
2546 3919 2749
2568 3922 2954
2590 3924 3158
2614 3926 3344
2643 3930 3494
2671 3934 3644
2703 3938 3754
2737 3944 3844
2771 3949 3934
1676 561 341
1712 632 549
1748 703 756
1784 789 986
1818 903 1258
1852 1018 1530
1878 1164 1809
1902 1326 2091
1926 1489 2373
1941 1691 2620
1957 1893 2867
1972 2098 3093
1986 2310 3276
1999 2522 3458
2013 2707 3590
2026 2877 3696
2040 3048 3801
1611 727 380
1662 802 581
1713 877 783
1758 967 1007
1788 1084 1279
1819 1201 1551
1841 1347 1831
1858 1509 2116
1875 1670 2401
1890 1863 2649
1904 2057 2898
1919 2252 3124
1937 2449 3305
1954 2647 3486
1974 2817 3616
1994 2975 3720
