Assets/1__3DArt/KimSe/artstation_asset/LUTs_pasterls/3DL/Pastelopolis 01.3dl
# Enhanced with VOXCOLOR algorithms
0 256 512 768 1023
80 209 418
369 557 1302
726 1224 2278
1238 2130 2965
1895 2891 3340
172 1199 699
493 1709 1566
1047 2362 2570
1757 2936 3201
2469 3321 3491
668 2524 1012
1130 2872 1804
1803 3234 2758
2477 3463 3329
3008 3578 3567
1618 3336 1139
2049 3474 1942
2554 3597 2835
2989 3658 3362
3310 3681 3584
2425 3661 1220
2673 3690 2022
2948 3709 2852
3211 3718 3359
3421 3710 3581
1962 746 384
2146 997 1148
2325 1545 2136
2551 2345 2923
2859 3059 3389
1684 1407 542
2039 1836 1326
2255 2386 2390
2565 2932 3129
2948 3327 3480
1649 2500 772
1994 2818 1564
2403 3159 2605
2813 3406 3271
3162 3545 3549
2033 3302 947
2346 3434 1762
2743 3559 2732
3093 3631 3328
3352 3663 3577
2568 3674 1139
2775 3696 1936
3025 3712 2801
3260 3717 3340
3449 3714 3579
3262 1183 348
3301 1417 1052
3352 1895 2059
3419 2568 2913
3507 3174 3421
3067 1639 394
3181 1988 1142
3241 2469 2237
3328 2974 3068
3450 3353 3478
2934 2552 519
3043 2821 1307
3181 3121 2423
3325 3367 3200
3463 3527 3536
2925 3340 713
3032 3440 1541
3203 3537 2596
3375 3605 3283
3517 3647 3574
3012 3719 998
3121 3726 1815
3274 3726 2744
3431 3722 3330
3569 3718 3590
3582 1399 370
3598 1659 1057
3645 2109 2050
3704 2693 2909
3760 3225 3432
3563 1789 374
3601 2094 1087
3648 2535 2159
3698 3001 3025
3744 3368 3475
3596 2594 453
3624 2822 1199
3664 3094 2311
3700 3338 3151
3739 3524 3535
3622 3376 653
3631 3449 1430
3658 3520 2502
3694 3584 3254
3744 3644 3583
3598 3780 983
3610 3768 1746
3644 3748 2700
3695 3730 3331
3756 3721 3610
3629 1477 385
3654 1761 1077
3707 2199 2062
3765 2729 2903
3806 3196 3404
3672 1830 389
3715 2117 1072
3772 2541 2126
3820 2990 3001
3848 3354 3463
3776 2564 478
3821 2771 1176
3864 3045 2269
3886 3310 3137
3889 3528 3547
3893 3349 721
3915 3418 1426
3926 3492 2477
3923 3570 3259
3917 3654 3601
3967 3806 1140
3950 3791 1767
3935 3756 2671
3919 3728 3340
3918 3726 3629
