Assets/1__3DArt/KimSe/artstation_asset/LUTs_pasterls/3DL/Pastelopolis 03.3dl
# Enhanced with VOXCOLOR algorithms
0 256 512 768 1023
353 466 883
298 721 1428
184 1014 2177
161 1335 3015
401 1638 3742
290 1386 1077
279 1698 1633
289 2008 2373
358 2271 3147
569 2499 3789
713 2511 1419
848 2755 1982
989 2993 2691
1139 3157 3349
1365 3264 3835
1683 3380 1963
1815 3487 2424
1926 3602 2989
2027 3683 3497
2161 3720 3870
2457 3806 2473
2471 3823 2764
2478 3857 3166
2494 3893 3560
2521 3902 3870
1657 598 903
1698 741 1416
1763 967 2199
1809 1365 3115
1940 1845 3841
1469 1296 996
1574 1555 1532
1516 1843 2315
1473 2151 3157
1594 2447 3818
1468 2268 1249
1581 2520 1809
1608 2778 2563
1618 2977 3292
1723 3112 3829
1901 3176 1750
2000 3317 2245
2074 3467 2871
2124 3573 3441
2197 3623 3853
2487 3761 2375
2516 3795 2702
2529 3841 3126
2541 3886 3535
2576 3906 3855
2882 784 890
2899 885 1370
3031 1040 2148
3131 1441 3124
3144 2036 3889
2725 1299 890
2761 1496 1409
2748 1748 2217
2730 2090 3142
2740 2477 3852
2570 2105 1059
2595 2320 1605
2563 2574 2402
2503 2820 3230
2492 3020 3839
2547 2969 1528
2562 3121 2032
2565 3295 2719
2548 3439 3378
2556 3530 3856
2705 3641 2182
2726 3710 2568
2736 3789 3058
2747 3858 3521
2780 3901 3867
3494 949 877
3501 1044 1330
3628 1157 2072
3779 1510 3069
3803 2140 3899
3500 1348 824
3483 1497 1315
3510 1705 2104
3570 2051 3081
3578 2519 3869
3479 2033 894
3442 2196 1421
3400 2421 2240
3366 2704 3163
3355 3005 3868
3364 2820 1329
3320 2956 1823
3274 3134 2562
3228 3319 3327
3231 3488 3892
3232 3478 2032
3208 3569 2419
3194 3687 2970
3198 3795 3517
3231 3879 3912
3694 1028 883
3702 1123 1315
3810 1209 2039
3968 1513 3032
4015 2104 3886
3792 1357 811
3779 1475 1270
3829 1657 2042
3937 1996 3039
3975 2489 3864
3918 1961 787
3895 2091 1293
3879 2305 2132
3906 2630 3132
3936 3029 3906
3946 2713 1139
3920 2834 1631
3881 3017 2439
3862 3256 3320
3888 3518 3948
3838 3372 2023
3786 3443 2339
3754 3576 2904
3754 3724 3531
3806 3854 3967
