Assets/1__3DArt/KimSe/artstation_asset/LUTs_pasterls/3DL/Pastelopolis 01.3dl
# Enhanced with VOXCOLOR algorithms
0 64 128 192 256 320 384 448 512 576 640 704 768 832 896 960 1023
80 209 418
148 276 623
216 343 829
288 430 1050
369 557 1302
449 683 1555
538 850 1799
632 1037 2038
726 1224 2278
844 1451 2469
961 1678 2661
1089 1905 2833
1238 2130 2965
1387 2356 3098
1551 2546 3191
1723 2718 3266
1895 2891 3340
83 411 477
147 497 682
210 582 888
281 685 1110
366 826 1366
452 966 1623
552 1138 1870
661 1327 2113
769 1515 2356
904 1727 2547
1039 1939 2737
1182 2147 2906
1344 2346 3031
1505 2545 3156
1677 2711 3245
1856 2860 3314
2034 3009 3384
86 614 537
145 717 742
204 820 947
273 941 1170
364 1095 1430
455 1248 1691
567 1426 1942
690 1616 2188
813 1806 2435
965 2003 2624
1116 2200 2812
1275 2389 2978
1449 2562 3097
1623 2734 3215
1804 2876 3298
1988 3002 3363
2173 3128 3427
109 861 607
167 976 810
225 1092 1012
296 1222 1234
395 1383 1496
494 1543 1758
618 1720 2011
756 1905 2260
893 2091 2508
1059 2269 2695
1225 2448 2881
1397 2616 3043
1579 2763 3155
1761 2910 3268
1945 3028 3345
2131 3132 3405
2316 3236 3465
172 1199 699
236 1313 894
301 1428 1089
381 1556 1306
493 1709 1566
605 1863 1826
744 2026 2077
895 2194 2324
1047 2362 2570
1222 2516 2753
1398 2671 2936
1575 2814 3093
1757 2936 3201
1940 3057 3308
2118 3153 3381
2293 3237 3436
2469 3321 3491
235 1536 791
306 1650 979
377 1765 1167
466 1890 1378
591 2036 1636
717 2182 1894
869 2331 2143
1035 2482 2388
1200 2633 2632
1385 2763 2811
1570 2894 2990
1754 3012 3144
1936 3108 3246
2118 3204 3348
2290 3279 3416
2456 3342 3467
2622 3406 3518
359 1867 869
438 1974 1052
518 2080 1234
616 2195 1441
751 2327 1695
886 2458 1950
1045 2590 2196
1217 2720 2438
1389 2851 2679
1574 2959 2855
1759 3067 3030
1941 3164 3180
2116 3240 3278
2291 3316 3377
2451 3373 3441
2604 3422 3489
2756 3470 3537
514 2196 941
602 2290 1119
691 2384 1296
798 2485 1499
940 2599 1750
1083 2713 2001
1247 2824 2243
1422 2933 2481
1596 3043 2719
1777 3129 2890
1957 3216 3062
2132 3293 3208
2296 3351 3303
2461 3410 3399
2607 3453 3461
2745 3489 3506
2882 3524 3552
668 2524 1012
766 2606 1185
864 2689 1359
980 2776 1557
1130 2872 1804
1281 2968 2052
1449 3059 2291
1626 3147 2524
1803 3234 2758
1979 3300 2926
2155 3365 3094
2324 3422 3236
2477 3463 3329
2631 3503 3421
2763 3532 3481
2886 3555 3524
3008 3578 3567
900 2762 1050
1001 2831 1224
1103 2900 1399
1220 2972 1597
1367 3051 1842
1514 3130 2087
1674 3204 2322
1841 3274 2551
2007 3344 2781
2169 3396 2945
2331 3447 3109
2484 3492 3249
2622 3523 3340
2760 3554 3430
2879 3575 3489
2987 3592 3531
3096 3609 3573
1131 3000 1087
1236 3056 1263
1341 3111 1440
1459 3169 1638
1603 3231 1880
1746 3292 2123
1898 3348 2354
2055 3402 2578
2212 3455 2803
2359 3492 2964
2506 3529 3125
2645 3561 3262
2768 3582 3351
2890 3604 3440
2994 3618 3497
3089 3629 3538
3184 3640 3579
1368 3203 1119
1474 3246 1298
1580 3290 1476
1696 3335 1675
1832 3381 1915
1969 3428 2154
2111 3469 2381
2255 3507 2602
2400 3545 2823
2532 3571 2980
2664 3596 3138
2788 3618 3272
2896 3631 3359
3003 3645 3446
3094 3653 3502
3177 3660 3543
3259 3666 3584
1618 3336 1139
1718 3370 1322
1817 3404 1504
1925 3439 1705
2049 3474 1942
2172 3510 2179
2298 3540 2402
2426 3568 2619
2554 3597 2835
2670 3615 2989
2786 3633 3144
2895 3649 3276
2989 3658 3362
3083 3668 3448
3164 3673 3504
3237 3677 3544
3310 3681 3584
1868 3468 1159
1961 3493 1345
2055 3519 1532
2155 3543 1735
2265 3567 1969
2375 3591 2204
2486 3612 2423
2597 3630 2635
2708 3648 2847
2808 3659 2998
2908 3670 3150
3001 3680 3279
3082 3685 3364
3163 3690 3450
3233 3693 3505
3297 3695 3545
3360 3696 3585
2069 3550 1179
2153 3568 1368
2237 3587 1556
2325 3604 1759
2421 3621 1989
2516 3638 2220
2613 3652 2435
2710 3664 2643
2807 3676 2851
2895 3683 3001
2983 3691 3151
3065 3697 3279
3138 3700 3364
3210 3703 3449
3273 3704 3504
3330 3704 3544
3388 3703 3584
2247 3606 1200
2319 3619 1389
2391 3632 1578
2466 3644 1780
2547 3655 2006
2627 3667 2232
2710 3676 2443
2794 3684 2647
2877 3692 2852
2956 3697 3000
3034 3703 3148
3108 3707 3276
3175 3709 3361
3241 3711 3447
3298 3710 3502
3351 3708 3542
3404 3706 3583
2425 3661 1220
2485 3669 1410
2545 3677 1600
2607 3684 1801
2673 3690 2022
2738 3695 2244
2807 3700 2451
2877 3704 2652
2948 3709 2852
3017 3712 2999
3086 3715 3146
3151 3717 3273
3211 3718 3359
3271 3719 3445
3324 3717 3500
3372 3713 3541
3421 3710 3581
562 347 414
628 407 609
695 466 803
763 546 1015
836 664 1264
909 782 1512
987 940 1756
1069 1119 1998
1150 1298 2239
1251 1519 2437
1351 1739 2635
1460 1960 2814
1587 2181 2953
1714 2403 3092
1856 2592 3192
2005 2765 3273
2154 2937 3354
536 527 466
609 606 660
682 685 854
756 782 1067
832 913 1320
908 1044 1573
992 1208 1822
1082 1388 2068
1171 1568 2315
1283 1774 2512
1395 1980 2709
1516 2183 2884
1654 2380 3016
1792 2576 3148
1941 2742 3242
2097 2891 3317
2253 3041 3392
509 707 519
589 805 711
669 904 904
749 1017 1118
828 1162 1377
907 1306 1635
998 1475 1888
1094 1656 2139
1191 1837 2390
1315 2029 2586
1438 2221 2782
1571 2406 2954
1720 2578 3079
1869 2750 3204
2027 2891 3292
2189 3018 3360
2351 3145 3429
500 932 581
585 1043 772
670 1155 962
756 1279 1176
842 1431 1437
927 1582 1698
1027 1750 1954
1134 1927 2208
1240 2103 2462
1376 2278 2656
1511 2453 2849
1654 2618 3018
1811 2765 3137
1968 2912 3255
2130 3031 3336
2294 3136 3399
2458 3241 3463
527 1247 665
614 1359 850
701 1470 1036
792 1593 1246
891 1738 1506
990 1884 1766
1105 2040 2021
1227 2201 2273
1349 2362 2526
1495 2514 2715
1641 2666 2905
1791 2808 3070
1950 2931 3182
2109 3053 3295
2267 3151 3372
2424 3236 3430
2581 3321 3488
553 1563 749
643 1674 929
732 1786 1110
829 1907 1316
941 2046 1575
1053 2186 1834
1182 2330 2087
1320 2476 2338
1458 2621 2589
1614 2751 2775
1771 2880 2961
1929 2999 3121
2090 3096 3228
2251 3194 3336
2404 3270 3407
2554 3335 3460
2704 3400 3513
638 1879 822
730 1983 999
822 2087 1176
924 2198 1380
1047 2325 1636
1169 2452 1893
1308 2579 2143
1455 2707 2391
1603 2834 2639
1762 2942 2821
1922 3050 3003
2081 3148 3159
2238 3225 3262
2394 3303 3365
2539 3362 3432
2678 3412 3482
2817 3462 3531
752 2195 891
847 2288 1065
943 2380 1239
1050 2479 1440
1181 2590 1693
1312 2701 1947
1458 2809 2194
1612 2916 2438
1765 3023 2681
1925 3111 2859
2085 3198 3037
2241 3276 3189
2390 3336 3289
2538 3397 3388
2672 3441 3453
2799 3479 3500
2925 3516 3546
866 2512 959
965 2593 1131
1063 2674 1302
1175 2759 1500
1315 2854 1750
1455 2949 2001
1608 3038 2245
1768 3126 2484
1928 3213 2724
2087 3279 2898
2247 3346 3072
2400 3405 3220
2541 3447 3316
2683 3490 3412
2806 3520 3473
2919 3545 3517
3033 3569 3562
1058 2747 999
1158 2816 1173
1258 2884 1346
1370 2955 1544
1508 3033 1792
1646 3112 2040
1795 3185 2280
1948 3255 2515
2102 3326 2750
2251 3378 2920
2400 3431 3090
2542 3477 3234
2670 3509 3328
2799 3542 3422
2910 3565 3482
3011 3583 3525
3113 3601 3569
1251 2983 1039
1352 3039 1214
1453 3094 1389
1566 3151 1588
1702 3213 1834
1838 3275 2079
1981 3331 2315
2128 3385 2545
2276 3438 2776
2414 3477 2942
2552 3515 3108
2683 3549 3249
2799 3571 3341
2915 3594 3433
3014 3610 3491
3104 3621 3534
3193 3633 3576
1454 3186 1074
1554 3229 1252
1654 3273 1429
1764 3317 1629
1895 3364 1872
2026 3411 2114
2162 3453 2346
2300 3493 2572
2438 3532 2798
2565 3558 2960
2692 3585 3123
2811 3608 3261
2914 3622 3351
3018 3637 3440
3105 3646 3498
3184 3653 3540
3263 3660 3581
1677 3321 1099
1772 3356 1280
1867 3390 1462
1970 3425 1663
2089 3461 1903
2209 3497 2143
2331 3528 2370
2455 3557 2591
2579 3586 2813
2692 3606 2971
2804 3625 3130
2910 3641 3266
3002 3652 3354
3093 3662 3443
3171 3668 3500
3241 3672 3541
3312 3677 3582
1901 3457 1123
1990 3482 1309
2080 3507 1494
2176 3532 1697
2283 3557 1934
2391 3582 2171
2500 3603 2394
2610 3622 2611
2720 3641 2827
2818 3653 2982
2917 3665 3138
3009 3675 3271
3089 3681 3358
3169 3686 3445
3237 3690 3502
3299 3691 3542
3361 3693 3583
2092 3542 1150
2173 3561 1337
2253 3579 1524
2338 3597 1727
2432 3614 1959
2526 3631 2192
2622 3646 2410
2718 3659 2622
2814 3671 2834
2902 3679 2987
2989 3687 3140
3071 3693 3271
3143 3697 3358
3214 3700 3445
3276 3702 3501
3332 3702 3542
3388 3702 3582
2267 3603 1178
2336 3615 1366
2406 3628 1553
2478 3640 1754
2558 3652 1982
2638 3663 2209
2720 3673 2423
2803 3682 2630
2886 3690 2837
2963 3695 2988
3041 3701 3139
3115 3705 3269
3180 3707 3356
3245 3709 3443
3301 3709 3499
3353 3708 3540
3405 3706 3581
2442 3663 1206
2500 3670 1394
2558 3677 1583
2619 3684 1782
2684 3690 2004
2749 3696 2226
2817 3700 2435
2887 3704 2638
2957 3709 2840
3025 3711 2989
3093 3714 3138
3158 3716 3267
3217 3717 3354
3275 3718 3440
3327 3716 3497
3374 3714 3538
3422 3711 3579
1044 484 411
1109 537 594
1173 590 778
1237 661 981
1303 771 1225
1369 880 1469
1437 1031 1713
1506 1201 1957
1575 1372 2201
1658 1586 2405
1741 1799 2609
1831 2014 2794
1936 2232 2940
2042 2450 3086
2161 2638 3193
2287 2811 3281
2414 2984 3368
988 642 456
1070 715 638
1153 788 819
1231 878 1024
1297 1000 1274
1364 1122 1524
1432 1277 1774
1502 1449 2024
1572 1620 2274
1661 1820 2477
1751 2021 2680
1849 2219 2862
1964 2413 3001
2079 2607 3139
2206 2772 3239
2339 2923 3319
2472 3073 3400
931 800 501
1032 894 681
1134 987 861
1224 1094 1067
1291 1229 1323
1359 1364 1579
1428 1524 1835
1498 1696 2090
1569 1868 2346
1665 2055 2549
1761 2242 2752
1866 2423 2930
1991 2594 3062
2116 2765 3193
2250 2907 3285
2390 3034 3358
2530 3162 3431
890 1003 556
1003 1110 734
1116 1218 912
1216 1337 1118
1288 1478 1378
1360 1620 1638
1435 1780 1897
1512 1948 2157
1588 2116 2416
1692 2286 2617
1797 2457 2818
1910 2620 2993
2043 2767 3118
2175 2914 3242
2314 3034 3328
2457 3140 3394
2599 3246 3460
881 1296 631
991 1404 807
1101 1512 982
1204 1630 1186
1289 1768 1446
1375 1905 1706
1466 2054 1965
1559 2208 2223
1652 2363 2481
1768 2512 2678
1884 2662 2875
2007 2802 3046
2143 2926 3164
2279 3049 3282
2416 3148 3362
2555 3234 3423
2693 3320 3484
872 1589 706
980 1698 879
1087 1807 1052
1191 1924 1254
1290 2057 1514
1390 2190 1774
1496 2328 2032
1605 2469 2289
1715 2610 2546
1844 2738 2739
1972 2866 2932
2104 2985 3098
2244 3084 3210
2383 3184 3323
2519 3261 3397
2652 3328 3452
2786 3395 3508
918 1890 775
1022 1992 946
1127 2093 1118
1233 2202 1319
1343 2324 1577
1453 2446 1835
1571 2569 2091
1693 2693 2344
1816 2817 2598
1951 2925 2787
2086 3032 2976
2222 3131 3137
2359 3211 3245
2497 3291 3353
2627 3351 3423
2752 3403 3474
2877 3454 3526
991 2195 841
1093 2285 1011
1194 2376 1182
1302 2473 1381
1421 2580 1637
1541 2688 1893
1669 2794 2145
1802 2899 2394
1934 3004 2644
2073 3092 2828
2212 3180 3013
2349 3259 3170
2483 3321 3274
2616 3383 3377
2737 3430 3444
2853 3469 3493
2968 3507 3541
1064 2499 907
1163 2579 1076
1262 2659 1245
1371 2743 1443
1500 2836 1696
1629 2929 1950
1767 3018 2199
1910 3105 2444
2053 3191 2690
2196 3259 2870
2339 3327 3050
2477 3387 3203
2606 3432 3302
2735 3476 3402
2848 3508 3466
2953 3534 3511
3059 3560 3557
1217 2733 949
1315 2800 1121
1413 2868 1292
1521 2938 1490
1650 3016 1742
1779 3093 1993
1915 3166 2237
2056 3236 2478
2196 3307 2719
2332 3360 2895
2469 3414 3070
2599 3461 3220
2718 3496 3317
2837 3530 3414
2941 3555 3476
3036 3574 3520
3131 3593 3565
1371 2967 991
1468 3021 1165
1564 3076 1339
1672 3133 1538
1800 3195 1787
1929 3257 2035
2064 3313 2276
2201 3368 2512
2339 3422 2748
2469 3462 2920
2599 3502 3091
2721 3536 3236
2831 3560 3331
2940 3584 3426
3033 3601 3486
3118 3614 3529
3203 3626 3572
1539 3169 1029
1633 3212 1206
1728 3256 1383
1833 3300 1582
1958 3348 1828
2083 3395 2074
2213 3438 2311
2345 3478 2542
2477 3518 2773
2598 3546 2940
2720 3574 3107
2834 3598 3250
2933 3614 3342
3032 3629 3435
3116 3639 3494
3191 3647 3536
3267 3654 3578
1737 3307 1058
1826 3342 1239
1916 3376 1419
2015 3411 1621
2130 3447 1863
2245 3484 2106
2364 3516 2338
2484 3546 2564
2604 3576 2790
2714 3596 2953
2823 3617 3117
2925 3634 3256
3014 3645 3347
3103 3656 3438
3178 3663 3496
3246 3667 3538
3314 3672 3580
1934 3446 1087
2019 3471 1272
2105 3496 1456
2197 3521 1659
2302 3547 1898
2408 3572 2138
2515 3594 2365
2623 3614 2586
2731 3634 2807
2829 3646 2967
2926 3659 3126
3017 3670 3262
3095 3676 3351
3174 3683 3441
3240 3686 3498
3301 3688 3540
3361 3690 3581
2115 3535 1121
2192 3553 1307
2268 3571 1492
2351 3590 1695
2443 3607 1929
2536 3625 2164
2631 3640 2386
2726 3653 2601
2822 3667 2817
2909 3675 2973
2995 3683 3129
3077 3690 3263
3147 3694 3352
3218 3698 3441
3278 3699 3498
3333 3700 3539
3389 3700 3581
2288 3600 1156
2354 3612 1342
2420 3624 1529
2491 3637 1729
2569 3648 1957
2648 3660 2186
2729 3670 2402
2812 3679 2612
2894 3688 2822
2971 3693 2976
3048 3699 3130
3121 3703 3262
3185 3705 3350
3249 3707 3438
3304 3708 3496
3355 3707 3538
3406 3706 3579
2460 3664 1192
2516 3671 1378
2572 3677 1565
2631 3684 1763
2695 3690 1986
2760 3696 2209
2827 3700 2419
2897 3704 2624
2967 3709 2828
3034 3711 2979
3101 3714 3130
3164 3716 3260
3222 3716 3348
3279 3717 3436
3330 3716 3494
3377 3714 3536
3424 3712 3578
1515 619 403
1573 666 576
1632 713 750
1690 778 946
1747 881 1187
1804 983 1427
1861 1126 1672
1918 1289 1919
1975 1452 2166
2041 1659 2376
2107 1865 2586
2180 2073 2777
2265 2286 2929
2349 2498 3082
2447 2683 3194
2551 2855 3288
2655 3026 3381
1437 756 440
1522 824 612
1607 892 784
1682 975 981
1738 1089 1229
1794 1204 1476
1848 1351 1728
1901 1515 1981
1953 1679 2235
2022 1873 2445
2091 2067 2654
2168 2260 2843
2261 2450 2988
2354 2640 3132
2459 2804 3237
2570 2953 3322
