Assets/1__3DArt/KimSe/artstation_asset/LUTs_pasterls/3DL/Pastelopolis 04.3dl
# Enhanced with VOXCOLOR algorithms
0 256 512 768 1023
418 562 289
436 653 760
429 738 1404
396 809 2027
321 835 2457
550 1074 690
580 1231 1145
606 1406 1736
611 1534 2282
586 1598 2678
807 1741 1315
861 1894 1699
927 2069 2180
964 2187 2606
962 2235 2915
1196 2328 1968
1253 2422 2224
1323 2537 2553
1364 2608 2857
1367 2632 3095
1590 2714 2425
1609 2745 2562
1631 2792 2769
1649 2822 2989
1638 2826 3180
1474 665 355
1510 698 794
1555 779 1492
1576 908 2253
1522 1025 2821
1363 1111 679
1489 1260 1121
1482 1442 1769
1442 1611 2412
1377 1713 2876
1346 1737 1233
1434 1910 1635
1477 2104 2164
1467 2244 2654
1407 2295 2999
1486 2313 1876
1549 2434 2165
1612 2567 2532
1632 2651 2872
1597 2672 3125
1727 2721 2390
1774 2783 2563
1809 2846 2788
1820 2882 3012
1800 2893 3208
2322 757 391
2394 728 714
2512 769 1374
2637 901 2264
2684 1067 3059
2235 1131 618
2343 1249 997
2420 1428 1661
2477 1648 2459
2475 1828 3105
2175 1749 1091
2260 1936 1486
2335 2160 2079
2361 2361 2713
2314 2472 3185
2149 2367 1741
2208 2517 2069
2277 2684 2511
2303 2806 2945
2264 2860 3270
2172 2798 2334
2231 2890 2564
2290 2990 2845
2321 3060 3120
2314 3097 3348
2628 804 408
2711 738 631
2866 734 1197
3072 824 2101
3242 961 3054
2670 1099 560
2768 1174 848
2915 1306 1434
3095 1523 2307
3227 1752 3161
2759 1680 922
2851 1853 1256
2984 2079 1845
3122 2341 2631
3204 2565 3333
2814 2359 1503
2885 2531 1833
2998 2748 2358
3100 2955 2976
3158 3118 3493
2807 2884 2138
2862 3004 2427
2967 3173 2832
3067 3324 3258
3125 3432 3603
2698 819 418
2779 738 602
2936 710 1120
3163 757 1997
3372 819 2971
2785 1047 528
2888 1082 748
3069 1171 1275
3304 1359 2161
3503 1570 3095
2971 1558 802
3097 1703 1061
3287 1919 1620
3517 2227 2513
3694 2539 3397
3191 2253 1258
3308 2433 1537
3485 2698 2115
3690 3017 2942
3838 3308 3680
3340 2907 1831
3394 3033 2104
3542 3275 2633
3729 3547 3316
3870 3774 3870
