Assets/1__3DArt/KimSe/artstation_asset/LUTs_pasterls/3DL/Pastelopolis 02.3dl
# Enhanced with VOXCOLOR algorithms
0 128 256 384 512 640 768 896 1023
466 385 434
562 559 860
673 806 1381
794 1120 1949
916 1495 2518
1034 1926 2994
1151 2353 3376
1266 2748 3664
1381 3083 3854
550 857 541
647 1056 962
759 1312 1472
881 1616 2029
1008 1963 2590
1133 2333 3059
1258 2687 3432
1381 3007 3711
1504 3279 3896
726 1470 667
818 1662 1081
925 1894 1579
1044 2159 2121
1168 2449 2669
1294 2743 3125
1419 3015 3486
1543 3257 3753
1666 3459 3928
982 2147 796
1063 2304 1201
1160 2489 1687
1269 2695 2214
1385 2913 2744
1506 3124 3184
1626 3315 3530
1746 3480 3785
1864 3617 3950
1305 2806 911
1368 2911 1309
1449 3035 1782
1543 3171 2292
1647 3314 2803
1757 3447 3226
1868 3564 3559
1980 3664 3803
2093 3745 3962
1667 3291 986
1710 3346 1379
1771 3416 1839
1845 3495 2332
1930 3579 2825
2024 3656 3236
2122 3723 3561
2223 3782 3804
2328 3830 3964
2004 3632 1035
2029 3651 1422
2069 3681 1869
2123 3719 2347
2188 3760 2825
2264 3799 3228
2347 3833 3551
2435 3864 3795
2530 3892 3960
2288 3846 1060
2295 3842 1439
2315 3845 1874
2349 3855 2339
2394 3869 2806
2455 3885 3207
2523 3900 3533
2598 3916 3782
2681 3932 3950
2489 3950 1060
2479 3932 1429
2481 3922 1855
2497 3917 2312
2526 3918 2774
2573 3924 3179
2630 3931 3511
2693 3940 3765
2762 3950 3934
1265 497 360
1347 650 781
1431 865 1291
1511 1143 1849
1582 1485 2416
1640 1899 2905
1696 2321 3306
1751 2718 3612
1805 3058 3816
1196 875 451
1324 1047 851
1417 1274 1350
1485 1553 1906
1538 1882 2478
1594 2254 2970
1658 2618 3366
1729 2952 3664
1805 3236 3863
1214 1412 565
1343 1580 958
1436 1793 1449
1504 2045 1998
1559 2333 2563
1622 2640 3044
1696 2930 3427
1779 3191 3712
1868 3409 3900
1317 2036 689
1420 2181 1082
1505 2360 1567
1577 2565 2104
1643 2792 2653
1717 3022 3115
1801 3232 3482
1891 3417 3753
1987 3568 3929
1502 2678 809
1571 2783 1204
1642 2911 1681
1716 3057 2203
1790 3213 2732
1873 3363 3174
1962 3497 3523
2056 3612 3781
2152 3704 3949
1770 3187 900
1813 3249 1292
1867 3327 1759
1931 3416 2264
2002 3510 2773
2082 3600 3199
2168 3679 3536
2257 3746 3788
2349 3801 3955
2048 3563 968
2070 3590 1354
2107 3627 1807
2157 3672 2296
2217 3721 2787
2288 3767 3201
2365 3808 3534
2446 3843 3785
2531 3874 3955
2306 3813 1013
2311 3814 1390
2331 3823 1829
2363 3837 2301
2408 3854 2778
2466 3872 3186
2531 3890 3519
2602 3906 3773
2679 3923 3947
2516 3945 1038
2507 3932 1402
2507 3923 1826
2520 3919 2283
2546 3919 2749
2590 3924 3158
2643 3930 3494
2703 3938 3754
2771 3949 3934
2111 641 356
2168 772 760
2220 957 1248
2263 1202 1788
2290 1510 2345
2301 1901 2841
2309 2310 3254
2315 2702 3575
2323 3043 3794
1948 929 412
2063 1076 792
2127 1275 1274
2153 1528 1820
2156 1837 2392
2161 2202 2897
2177 2569 3309
2203 2911 3625
2236 3204 3838
1852 1385 497
1973 1533 871
2040 1725 1351
2069 1963 1897
2075 2243 2469
2088 2556 2968
2118 2859 3371
2161 3135 3675
2213 3368 3877
1830 1950 599
1924 2083 979
1987 2252 1458
2026 2453 1998
2050 2683 2560
2081 2927 3044
2126 3155 3430
2184 3358 3719
2249 3524 3910
1886 2562 711
1943 2666 1096
1995 2795 1573
2042 2945 2103
2085 3111 2649
2135 3278 3112
2196 3429 3480
2264 3560 3755
2335 3666 3935
2040 3089 809
2069 3154 1194
2107 3237 1663
2152 3332 2180
2201 3437 2706
2260 3539 3151
2326 3630 3505
2397 3709 3770
2470 3773 3947
2226 3496 892
2237 3527 1272
2262 3570 1729
2298 3621 2228
2345 3677 2736
2403 3730 3166
2467 3778 3512
2536 3820 3774
2607 3855 3952
2419 3781 957
2418 3787 1328
2430 3799 1770
2454 3816 2251
2490 3836 2741
2540 3857 3162
2597 3877 3504
2660 3895 3767
2728 3913 3948
2597 3943 1005
2587 3933 1363
2585 3926 1787
2593 3922 2249
2613 3921 2723
2650 3925 3138
2697 3930 3482
2752 3937 3749
2815 3947 3937
2891 796 417
2922 906 794
2946 1066 1253
2959 1280 1768
2956 1557 2307
2937 1923 2802
2913 2316 3222
2888 2700 3555
2865 3040 3786
2694 1006 431
2772 1129 790
2805 1303 1249
2805 1531 1775
2781 1817 2335
2755 2172 2844
2739 2536 3267
2731 2882 3597
2731 3183 3823
2538 1385 477
2623 1512 834
2661 1686 1296
2663 1907 1829
2642 2176 2397
2623 2490 2906
2619 2801 3323
2628 3090 3644
2647 3336 3861
2432 1886 550
2498 2007 912
2535 2165 1379
2548 2360 1914
2542 2589 2479
2539 2842 2978
2552 3085 3383
2576 3305 3690
2611 3488 3895
2388 2463 641
2423 2562 1010
2452 2690 1479
2474 2841 2011
2487 3013 2567
2506 3194 3050
2536 3362 3438
2575 3510 3730
2620 3632 3925
2434 2999 738
2444 3065 1108
2462 3150 1573
2483 3250 2095
2507 3361 2635
2540 3475 3100
2582 3579 3473
2631 3671 3754
2682 3746 3942
2520 3432 826
2515 3466 1194
2523 3513 1649
2541 3567 2157
2567 3628 2680
2606 3690 3129
2652 3746 3491
2704 3795 3765
2760 3838 3952
2629 3750 905
2618 3759 1266
2618 3774 1708
2628 3793 2197
2650 3816 2701
2686 3840 3137
2731 3862 3492
2782 3884 3765
2840 3904 3953
2745 3943 973
2733 3937 1322
2726 3931 1745
2727 3926 2215
2738 3925 2699
2766 3927 3125
2803 3931 3477
2850 3937 3752
2906 3946 3946
3494 942 535
3505 1035 880
3511 1173 1307
3509 1363 1790
3496 1614 2305
3467 1958 2790
3434 2334 3210
3399 2710 3550
3365 3052 3793
3322 1091 513
3358 1194 847
3369 1345 1278
3358 1552 1776
3331 1817 2314
3298 2159 2816
3269 2518 3243
3244 2866 3582
3224 3176 3821
3166 1402 524
3208 1512 857
3221 1668 1295
3212 1873 1805
3184 2129 2357
3153 2440 2864
3132 2756 3290
3119 3054 3623
3113 3314 3854
3037 1843 562
3068 1952 901
3081 2099 1347
3077 2286 1865
3056 2510 2423
3035 2769 2928
3025 3023 3345
3024 3259 3668
3032 3460 3888
2943 2380 626
2953 2475 971
2960 2598 1423
2960 2748 1945
2952 2923 2501
2945 3114 2997
2950 3297 3402
2963 3463 3711
2983 3603 3920
2911 2919 709
2902 2984 1055
2898 3069 1507
2898 3171 2026
2898 3287 2573
2905 3411 3054
2922 3528 3445
2947 3634 3742
2978 3724 3943
2911 3373 792
2891 3409 1138
2880 3457 1585
2877 3514 2095
2880 3579 2628
2896 3647 3095
2921 3712 3473
2954 3771 3761
2995 3823 3958
2935 3722 874
2912 3734 1217
2897 3750 1654
2891 3771 2149
2894 3795 2665
2912 3821 3117
2940 3847 3486
2978 3873 3769
3025 3898 3965
2974 3947 952
2957 3942 1287
2942 3937 1710
2933 3932 2186
2933 3930 2682
2949 3931 3120
2975 3934 3483
3011 3939 3765
3057 3947 3962
3788 1043 666
3793 1125 986
3796 1249 1384
3795 1423 1838
3787 1657 2326
3767 1984 2796
3744 2349 3210
3718 2721 3553
3692 3071 3805
3676 1155 637
3690 1245 947
3694 1382 1348
3688 1573 1816
3673 1823 2326
3651 2152 2812
3630 2506 3235
3610 2856 3578
3590 3178 3829
3570 1419 635
3586 1516 942
3590 1659 1351
3583 1852 1832
3566 2097 2357
3544 2403 2853
3526 2721 3276
3511 3028 3616
3499 3304 3859
3477 1812 658
3486 1910 968
3489 2049 1385
3482 2229 1876
3466 2449 2412
3446 2710 2910
3433 2973 3329
3424 3222 3660
3422 3442 3893
3402 2311 706
3398 2400 1019
3394 2520 1442
3387 2669 1941
3374 2846 2482
3360 3045 2976
3352 3241 3387
3353 3424 3707
3360 3584 3928
3356 2845 775
3339 2910 1089
3326 2995 1514
3314 3099 2014
3303 3219 2552
3295 3352 3037
3296 3481 3436
3306 3602 3744
3326 3710 3956
3326 3315 847
3300 3353 1162
3280 3403 1586
3264 3463 2082
3253 3531 2612
3250 3606 3086
3258 3680 3474
3276 3750 3772
3306 3815 3976
3306 3693 922
3278 3707 1234
3254 3725 1653
3236 3747 2141
3224 3773 2659
3226 3803 3119
3238 3833 3497
3261 3865 3788
3298 3896 3987
3293 3952 996
3269 3948 1305
3247 3943 1715
3229 3939 2189
3218 3935 2690
3222 3936 3137
3236 3939 3506
3260 3945 3793
3296 3953 3990
3948 1111 768
3950 1187 1069
3953 1302 1445
3955 1465 1877
3952 1685 2345
3942 1997 2801
3929 2353 3208
3914 2723 3551
3899 3082 3812
3885 1199 744
3890 1279 1035
3892 1406 1413
3892 1586 1857
3887 1823 2343
3878 2143 2814
3866 2491 3230
3854 2844 3575
3840 3177 3834
3827 1425 746
3831 1512 1032
3833 1646 1414
3831 1830 1869
3825 2068 2370
3814 2370 2852
3804 2689 3271
3793 3004 3614
3783 3295 3866
3775 1777 772
3776 1866 1055
3775 1999 1444
3772 2174 1908
3764 2392 2421
3752 2657 2908
3742 2928 3326
3734 3191 3662
3729 3430 3903
3733 2242 820
3726 2326 1103
3720 2444 1497
3713 2593 1970
3703 2774 2489
3690 2983 2977
3682 3192 3388
3678 3392 3714
3680 3573 3943
3701 2768 888
3685 2833 1170
3671 2919 1566
3659 3027 2043
3645 3153 2564
3633 3297 3045
3627 3440 3446
3629 3577 3759
3641 3703 3976
3671 3250 960
3649 3291 1240
3629 3344 1636
3611 3408 2112
3594 3483 2629
3584 3567 3102
3581 3651 3492
3589 3734 3795
3610 3812 4001
3641 3655 1034
3616 3673 1311
3592 3694 1704
3571 3719 2174
3553 3749 2683
3544 3784 3145
3545 3821 3526
3557 3859 3818
3584 3899 4017
3608 3952 1106
3584 3949 1380
3561 3945 1766
3540 3941 2226
3524 3939 2722
3519 3939 3171
3522 3943 3543
3536 3951 3829
3561 3962 4022
4014 1152 836
4018 1225 1126
4022 1335 1489
4026 1491 1906
4028 1701 2359
4024 2003 2803
4018 2350 3204
4011 2718 3546
4004 3082 3812
3987 1223 827
3991 1298 1104
3995 1419 1466
4000 1591 1891
4002 1820 2359
4001 2131 2818
3998 2474 3228
3993 2828 3572
3986 3169 3837
3966 1419 842
3968 1499 1110
3972 1627 1472
3976 1806 1906
3978 2039 2388
3977 2339 2858
3975 2660 3272
3971 2982 3615
3965 3285 3873
3950 1736 881
3950 1819 1142
3953 1947 1507
3955 2121 1948
3955 2340 2441
3952 2610 2918
3949 2890 3332
3946 3166 3670
3942 3421 3916
3940 2170 941
3937 2249 1199
3936 2366 1566
3934 2519 2015
3931 2706 2515
3926 2927 2993
3921 3151 3403
3918 3368 3730
3918 3567 3962
3933 2687 1023
3925 2751 1276
3919 2840 1646
3912 2954 2098
3904 3091 2600
3896 3248 3073
3890 3406 3472
3889 3560 3786
3896 3701 4002
3922 3177 1109
3911 3221 1357
3899 3279 1725
3887 3350 2177
3875 3435 2677
3865 3532 3143
3859 3629 3530
3861 3724 3830
3873 3815 4031
3905 3608 1197
3890 3628 1437
3875 3654 1799
3860 3685 2246
3845 3723 2739
3835 3766 3195
3830 3812 3572
3834 3858 3861
3850 3906 4050
3879 3942 1284
3863 3940 1513
3847 3938 1863
3831 3937 2298
3817 3937 2779
3809 3941 3225
3807 3947 3595
3812 3958 3876
3826 3972 4058
4031 1172 867
4035 1245 1154
4041 1353 1512
4046 1505 1922
4049 1710 2367
4046 2004 2804
4042 2344 3200
4037 2706 3539
4031 3067 3806
4020 1230 874
4026 1303 1144
4034 1422 1497
4040 1590 1914
4044 1813 2372
4045 2119 2823
4044 2458 3227
4042 2810 3569
4038 3152 3834
4016 1402 906
4023 1478 1162
4031 1602 1512
4038 1779 1934
4044 2010 2404
4047 2311 2867
4047 2635 3277
4046 2961 3619
4043 3271 3876
4019 1689 962
4025 1766 1208
4032 1892 1556
4040 2067 1983
4046 2290 2463
4050 2569 2934
4051 2860 3346
4051 3147 3683
4047 3414 3928
4029 2094 1043
4033 2170 1282
4040 2287 1631
4046 2445 2062
4052 2643 2548
4055 2879 3021
4056 3120 3429
4055 3354 3755
4053 3567 3983
4042 2599 1151
4046 2663 1385
4050 2757 1734
4055 2880 2167
4058 3030 2654
4059 3205 3120
4059 3381 3514
4059 3551 3823
4058 3706 4029
4053 3095 1270
4057 3141 1494
4060 3205 1838
4062 3288 2269
4063 3387 2752
4062 3500 3208
4061 3613 3587
4061 3722 3878
4061 3822 4064
4060 3547 1396
4063 3570 1603
4065 3602 1933
4066 3643 2353
4066 3693 2827
4064 3749 3273
4062 3806 3640
4061 3861 3916
4063 3914 4086
4063 3918 1526
4064 3917 1706
4065 3918 2009
4066 3922 2406
4066 3929 2863
4064 3939 3302
4060 3950 3665
4059 3965 3934
4063 3983 4095
