Assets/1__3DArt/KimSe/artstation_asset/LUTs_pasterls/3DL/Pastelopolis 02 S.3dl
# Enhanced with VOXCOLOR algorithms
0 64 128 192 256 320 384 448 512 576 640 704 768 832 896 960 1023
466 385 434
514 472 647
562 559 860
613 664 1097
673 806 1381
734 947 1665
794 1120 1949
855 1307 2233
916 1495 2518
975 1711 2756
1034 1926 2994
1093 2141 3208
1151 2353 3376
1209 2566 3545
1266 2748 3664
1324 2916 3759
1381 3083 3854
508 621 487
556 714 699
604 807 911
656 917 1146
716 1059 1426
776 1200 1707
838 1368 1989
900 1548 2271
962 1729 2554
1022 1929 2790
1083 2129 3026
1144 2327 3239
1204 2520 3404
1264 2713 3570
1324 2878 3688
1383 3029 3781
1442 3181 3875
550 857 541
598 956 752
647 1056 962
699 1170 1195
759 1312 1472
819 1454 1749
881 1616 2029
944 1789 2309
1007 1963 2590
1070 2148 2824
1133 2333 3059
1196 2514 3269
1257 2687 3432
1319 2859 3595
1381 3007 3711
1442 3143 3804
1504 3279 3896
615 1128 600
663 1230 808
711 1332 1017
762 1446 1248
822 1584 1521
881 1722 1795
943 1876 2072
1007 2039 2350
1070 2201 2627
1134 2369 2859
1198 2537 3091
1261 2699 3299
1324 2852 3460
1387 3004 3620
1450 3134 3734
1512 3254 3824
1575 3373 3915
726 1470 667
772 1566 874
818 1662 1081
867 1768 1308
925 1894 1579
983 2020 1849
1043 2159 2121
1105 2304 2395
1168 2449 2669
1231 2596 2897
1293 2742 3125
1356 2883 3329
1419 3014 3486
1481 3145 3642
1543 3256 3753
1605 3358 3840
1666 3459 3928
837 1813 735
881 1902 940
925 1992 1144
973 2090 1369
1028 2204 1636
1084 2318 1902
1143 2442 2171
1204 2569 2441
1265 2697 2711
1327 2822 2935
1389 2948 3158
1451 3068 3359
1513 3177 3512
1575 3286 3664
1636 3378 3772
1697 3462 3857
1757 3545 3941
981 2147 796
1021 2225 998
1062 2304 1201
1106 2390 1424
1159 2489 1686
1211 2589 1949
1268 2695 2214
1326 2804 2479
1384 2913 2744
1444 3018 2964
1504 3123 3183
1564 3224 3380
1624 3314 3530
1684 3404 3679
1744 3480 3784
1804 3548 3867
1864 3617 3950
1141 2476 852
1177 2542 1053
1214 2607 1254
1254 2679 1475
1303 2762 1734
1352 2845 1992
1404 2933 2252
1459 3023 2513
1514 3113 2773
1571 3198 2989
1628 3284 3204
1686 3366 3397
1744 3438 3544
1802 3511 3690
1861 3571 3794
1920 3626 3875
1978 3681 3956
1301 2806 909
1333 2858 1108
1366 2911 1308
1402 2968 1526
1447 3034 1781
1492 3101 2036
1541 3171 2291
1592 3242 2547
1644 3313 2802
1698 3379 3013
1753 3445 3225
1808 3507 3414
1864 3562 3558
1920 3617 3702
1978 3663 3803
2035 3704 3882
2093 3745 3962
1479 3047 945
1506 3088 1143
1534 3128 1342
1566 3172 1558
1606 3225 1809
1645 3277 2060
1690 3332 2311
1736 3389 2562
1783 3445 2813
1833 3497 3021
1884 3549 3229
1936 3598 3415
1989 3642 3558
2042 3685 3701
2098 3721 3803
2154 3755 3883
2210 3788 3963
1656 3289 981
1679 3317 1178
1702 3345 1375
1729 3377 1589
1764 3415 1836
1799 3454 2083
1839 3494 2330
1881 3535 2576
1922 3577 2823
1969 3615 3028
2015 3653 3233
2063 3689 3417
2114 3721 3559
2164 3753 3701
2218 3780 3802
2273 3805 3883
2328 3830 3964
1828 3495 1010
1846 3512 1206
1865 3530 1403
1887 3550 1614
1917 3577 1857
1947 3603 2101
1982 3631 2343
2019 3659 2585
2055 3688 2828
2098 3714 3030
2140 3741 3233
2184 3766 3415
2231 3788 3557
2279 3810 3698
2330 3830 3800
2384 3849 3882
2437 3867 3963
1987 3629 1027
2001 3639 1221
2016 3650 1416
2034 3663 1626
2059 3680 1865
2083 3698 2105
2113 3717 2344
2144 3737 2582
2176 3758 2821
2214 3777 3023
2251 3796 3224
2291 3814 3406
2335 3831 3548
2379 3847 3691
2427 3863 3794
2479 3878 3877
2530 3892 3960
2146 3763 1043
2156 3766 1237
2167 3770 1430
2180 3775 1638
2200 3784 1873
2220 3793 2109
2244 3804 2344
2270 3816 2579
2296 3827 2815
2330 3839 3015
2363 3851 3215
2398 3862 3397
2439 3873 3540
2479 3884 3683
2525 3895 3787
2574 3906 3872
2623 3918 3956
2271 3844 1051
2277 3842 1242
2283 3840 1434
2291 3840 1638
2306 3844 1871
2320 3848 2103
2340 3854 2336
2362 3861 2569
2384 3867 2803
2414 3875 3003
2443 3883 3204
2475 3890 3386
2512 3898 3531
2549 3906 3675
2591 3914 3780
2636 3923 3865
2681 3932 3950
2380 3897 1056
2381 3892 1244
2381 3886 1431
2384 3883 1633
2394 3883 1863
2403 3883 2092
2418 3886 2324
2436 3889 2556
2455 3893 2789
2482 3898 2990
2508 3903 3191
2538 3909 3375
2571 3914 3521
2605 3920 3667
2642 3927 3773
2682 3934 3857
2721 3941 3942
2489 3950 1060
2484 3941 1245
2479 3932 1429
2477 3925 1628
2481 3922 1855
2486 3918 2082
2497 3917 2312
2511 3918 2543
2526 3918 2774
2550 3921 2977
2573 3924 3179
2600 3927 3363
2630 3931 3511
2660 3935 3659
2693 3940 3765
2728 3945 3850
2762 3950 3934
865 441 397
908 522 609
951 602 820
996 700 1055
1047 832 1335
1098 964 1616
1148 1128 1898
1196 1308 2182
1245 1488 2466
1290 1699 2708
1335 1911 2949
1380 2124 3168
1423 2337 3341
1466 2550 3514
1508 2733 3638
1551 2902 3737
1593 3071 3835
863 652 444
909 737 653
955 822 862
1002 923 1093
1052 1056 1371
1102 1188 1649
1151 1349 1931
1199 1524 2215
1248 1698 2498
1295 1898 2739
1343 2098 2980
1390 2296 3198
1437 2492 3369
1484 2688 3540
1531 2856 3663
1577 3010 3760
1624 3164 3857
860 863 492
910 953 698
960 1043 903
1009 1147 1132
1057 1280 1408
1105 1412 1683
1154 1570 1964
1202 1740 2247
1251 1909 2530
1300 2097 2771
1350 2285 3011
1401 2469 3228
1452 2648 3397
1503 2826 3567
1554 2978 3687
1604 3118 3783
1654 3258 3879
881 1112 545
932 1203 748
983 1294 951
1032 1397 1178
1080 1527 1450
1127 1657 1723
1175 1807 2002
1223 1969 2284
1272 2130 2566
1324 2303 2805
1376 2476 3044
1429 2644 3258
1483 2804 3425
1537 2965 3592
1591 3101 3710
1644 3224 3805
1698 3348 3899
950 1437 608
997 1521 810
1043 1606 1012
1090 1702 1237
1137 1822 1506
1183 1941 1776
1232 2078 2052
1281 2223 2330
1331 2369 2608
1385 2523 2843
1438 2676 3078
1492 2825 3290
1548 2964 3453
1604 3104 3616
1659 3221 3731
1713 3328 3823
1767 3434 3914
1018 1761 672
1061 1840 873
1104 1919 1073
1148 2008 1296
1194 2116 1562
1240 2225 1829
1289 2348 2101
1339 2478 2376
1390 2609 2650
1445 2743 2882
1500 2877 3113
1556 3005 3321
1613 3124 3480
1670 3243 3640
1726 3342 3752
1781 3431 3841
1836 3520 3929
1126 2085 732
1164 2155 931
1202 2224 1131
1242 2302 1352
1286 2397 1615
1330 2493 1878
1378 2599 2146
1429 2712 2416
1479 2825 2687
1534 2939 2914
1589 3054 3141
1645 3163 3345
1702 3263 3501
1759 3363 3657
1815 3445 3767
1870 3519 3853
1925 3592 3940
1254 2410 790
1286 2468 989
1318 2525 1187
1354 2590 1406
1396 2671 1666
1438 2751 1926
1484 2841 2189
1534 2936 2455
1583 3030 2720
1637 3125 2943
1691 3220 3165
1746 3310 3365
1802 3391 3518
1859 3473 3671
1914 3539 3778
1969 3599 3863
2024 3658 3947
1381 2735 848
1408 2781 1046
1435 2827 1243
1466 2879 1460
1506 2945 1717
1545 3010 1973
1590 3083 2232
1639 3159 2493
1687 3235 2753
1740 3310 2971
1793 3385 3190
1848 3456 3385
1903 3520 3535
1959 3583 3685
2013 3634 3790
2068 3679 3873
2122 3724 3955
1539 2983 889
1561 3019 1086
1584 3054 1283
1611 3095 1498
1647 3147 1751
1683 3199 2003
1724 3257 2258
1769 3318 2514
1813 3379 2770
1863 3439 2984
1913 3499 3198
1964 3556 3391
2017 3606 3539
2070 3656 3687
2124 3697 3792
2177 3734 3874
2230 3770 3957
1697 3232 931
1715 3257 1127
1733 3281 1322
1756 3310 1536
1788 3349 1785
1820 3388 2034
1858 3431 2284
1899 3477 2535
1940 3523 2786
1986 3568 2997
2033 3612 3207
2081 3655 3396
2132 3692 3543
2182 3730 3689
2234 3760 3793
2286 3788 3876
2338 3815 3959
1852 3446 966
1866 3462 1161
1881 3477 1356
1900 3496 1567
1928 3523 1812
1955 3550 2057
1989 3581 2303
2026 3613 2550
2063 3646 2796
2106 3677 3004
2149 3709 3211
2194 3739 3398
2241 3766 3543
2289 3792 3689
2338 3815 3793
2389 3835 3876
2440 3855 3960
2004 3592 989
2015 3601 1183
2026 3610 1376
2041 3622 1586
2065 3640 1827
2088 3659 2068
2117 3680 2310
2149 3703 2553
2181 3727 2795
2219 3750 3001
2258 3773 3206
2298 3794 3392
2342 3814 3537
2386 3834 3683
2433 3851 3788
2481 3867 3872
2530 3883 3957
2155 3737 1012
2163 3740 1205
2171 3742 1397
2183 3748 1604
2202 3758 1842
2221 3768 2079
2245 3780 2317
2272 3794 2556
2299 3808 2794
2332 3822 2998
2366 3836 3201
2402 3849 3385
2442 3862 3531
2482 3875 3677
2527 3887 3782
2573 3899 3868
2620 3910 3954
2280 3826 1027
2284 3825 1217
2288 3823 1407
2295 3824 1611
2309 3828 1845
2323 3833 2079
2343 3840 2314
2365 3848 2550
2387 3856 2786
2417 3865 2989
2447 3874 3191
2479 3883 3376
2516 3891 3522
2552 3900 3669
2593 3909 3775
2636 3918 3862
2679 3927 3949
2391 3887 1038
2391 3882 1224
2390 3878 1411
2393 3875 1612
2402 3875 1843
2411 3876 2073
2426 3879 2306
2444 3883 2540
2462 3887 2774
2488 3893 2977
2515 3899 3180
2543 3905 3365
2576 3911 3512
2609 3917 3660
2646 3924 3768
2684 3931 3854
2723 3938 3941
2502 3948 1049
2498 3940 1232
2493 3932 1415
2491 3926 1613
2494 3923 1840
2498 3919 2067
2508 3918 2297
2522 3919 2530
2536 3919 2762
2559 3921 2965
2582 3924 3168
2607 3927 3353
2636 3931 3503
2666 3934 3652
2698 3939 3760
2732 3944 3847
2767 3950 3934
1265 497 360
1302 571 570
1340 645 781
1379 736 1013
1421 858 1290
1463 981 1566
1501 1137 1848
1538 1308 2131
1574 1480 2415
1605 1688 2660
1636 1896 2905
1666 2106 3127
1695 2320 3306
1723 2533 3484
1750 2718 3612
1778 2888 3714
1805 3058 3816
1218 684 401
1262 761 607
1306 837 813
1349 930 1041
1388 1053 1317
1427 1176 1592
1464 1330 1873
1499 1499 2158
1534 1668 2443
1568 1867 2689
1602 2066 2934
1636 2265 3157
1670 2464 3334
1705 2663 3511
1738 2834 3637
1772 2990 3738
1805 3147 3840
1170 870 443
1222 950 644
1273 1029 845
1319 1124 1070
1355 1248 1343
1392 1371 1617
1426 1524 1899
1460 1690 2185
1494 1856 2471
1531 2046 2718
1568 2236 2964
1606 2424 3187
1646 2609 3362
1686 2793 3538
1726 2950 3663
1766 3093 3763
1805 3236 3863
1148 1097 490
1201 1176 688
1255 1256 885
1303 1349 1108
1337 1470 1380
1372 1592 1651
1406 1739 1932
1440 1898 2218
1474 2058 2504
1514 2237 2750
1554 2415 2996
1596 2590 3217
1642 2757 3391
1687 2925 3564
1732 3067 3687
1776 3195 3786
1821 3324 3884
1173 1403 550
1221 1477 747
1269 1551 944
1313 1637 1165
1348 1750 1434
1384 1862 1704
1420 1997 1982
1457 2143 2264
1494 2289 2547
1539 2450 2789
1583 2610 3032
1629 2766 3250
1678 2914 3420
1727 3062 3590
1774 3186 3710
1821 3297 3805
1868 3409 3900
1199 1709 609
1241 1777 806
1283 1846 1002
1323 1926 1222
1359 2029 1489
1395 2132 1756
1434 2255 2031
1475 2388 2311
1515 2520 2590
1563 2663 2829
1611 2805 3068
1661 2943 3283
1713 3071 3449
1766 3200 3616
1816 3305 3733
1866 3400 3825
1916 3494 3917
1271 2024 669
1307 2084 865
1342 2144 1061
1377 2214 1280
1413 2305 1544
1449 2396 1808
1489 2504 2079
1532 2621 2354
1574 2737 2629
1624 2861 2864
1674 2984 3099
1726 3103 3309
1780 3212 3472
1833 3321 3635
1885 3410 3749
1936 3489 3839
1986 3568 3929
1366 2344 728
1395 2394 924
1423 2443 1120
1454 2502 1337
1489 2580 1598
1524 2658 1859
1565 2749 2126
1608 2848 2397
1652 2947 2667
1703 3051 2897
1754 3155 3126
1806 3254 3333
1861 3345 3492
1915 3435 3651
1967 3508 3763
2018 3572 3851
2069 3636 3939
1461 2664 787
1483 2703 983
1504 2743 1179
1530 2791 1395
1565 2855 1653
1599 2919 1910
1640 2994 2173
1685 3076 2439
1730 3157 2705
1782 3242 2929
1834 3326 3154
1887 3406 3356
1942 3477 3512
1997 3548 3668
2049 3605 3777
2101 3654 3863
2152 3704 3949
1599 2919 834
1617 2950 1029
1634 2980 1224
1656 3017 1439
1688 3069 1693
1720 3120 1947
1758 3181 2206
1801 3247 2466
1843 3313 2727
1893 3381 2947
1943 3449 3168
1993 3513 3366
2046 3570 3519
2098 3627 3672
2149 3673 3781
2200 3713 3866
2250 3752 3952
1737 3175 881
1750 3196 1075
1764 3217 1270
1782 3244 1483
1811 3283 1733
1840 3322 1984
1877 3368 2238
1917 3418 2493
1957 3469 2749
2004 3520 2965
2051 3572 3181
2099 3620 3376
2150 3663 3526
2200 3706 3677
2250 3741 3784
2299 3771 3870
2348 3801 3955
1877 3398 922
1887 3411 1115
1897 3424 1309
1912 3442 1520
1938 3469 1767
1964 3497 2014
1997 3530 2264
2034 3567 2514
2071 3603 2765
2115 3640 2977
2159 3677 3190
2204 3713 3381
2251 3743 3530
2299 3774 3679
2347 3799 3786
2395 3821 3871
2443 3843 3957
2021 3554 951
2028 3562 1144
2036 3569 1336
2049 3581 1546
2071 3600 1789
2093 3620 2032
2122 3643 2277
2154 3670 2523
2186 3696 2769
2225 3722 2979
2264 3749 3188
2305 3775 3377
2349 3797 3526
2392 3820 3674
2438 3839 3782
2484 3856 3868
2530 3873 3955
2164 3711 981
2170 3713 1172
2176 3715 1364
2186 3720 1571
2204 3731 1810
2222 3742 2049
2246 3756 2290
2273 3772 2532
2301 3788 2774
2335 3805 2980
2370 3821 3187
2406 3837 3374
2446 3852 3522
2486 3866 3670
2529 3879 3778
2573 3891 3865
2617 3903 3953
2288 3808 1003
2291 3807 1191
2293 3806 1380
2300 3807 1584
2313 3812 1819
2326 3818 2054
2346 3825 2292
2368 3835 2530
2391 3844 2769
2421 3854 2974
2451 3865 3179
2483 3875 3365
2520 3885 3514
2556 3894 3662
2595 3904 3771
2636 3913 3859
2677 3922 3947
2402 3877 1020
2401 3873 1205
2400 3869 1391
2402 3867 1591
2410 3868 1822
2418 3869 2053
2433 3872 2287
2451 3877 2523
2468 3882 2759
2495 3888 2964
2521 3894 3168
2549 3901 3355
2581 3907 3504
2613 3914 3653
2649 3921 3763
2687 3928 3852
2724 3936 3941
2516 3945 1038
2511 3939 1220
2506 3932 1402
2504 3926 1599
2507 3923 1825
2511 3920 2052
2520 3919 2283
2533 3919 2516
2546 3919 2749
2568 3922 2953
2590 3924 3158
2614 3926 3344
2643 3930 3494
2671 3934 3644
2703 3938 3754
2737 3944 3844
2771 3949 3934
1676 561 341
1706 628 548
1735 694 755
1766 777 983
1798 890 1255
1831 1003 1527
1859 1151 1806
1885 1315 2088
1912 1479 2371
1931 1683 2618
1950 1887 2866
1968 2095 3092
1983 2308 3275
1998 2521 3458
2012 2706 3590
2026 2877 3696
2040 3048 3801
1588 723 372
1626 791 574
1664 858 776
1698 942 1001
1728 1056 1272
1757 1170 1544
1782 1316 1824
1807 1480 2109
1831 1643 2394
1855 1841 2643
1878 2040 2893
1902 2239 3120
1925 2440 3302
1948 2642 3484
1971 2815 3615
1992 2974 3720
