Assets/1__3DArt/KimSe/artstation_asset/LUTs_pasterls/3DL/Pastelopolis 01.3dl
# Enhanced with VOXCOLOR algorithms
0 128 256 384 512 640 768 896 1023
80 209 418
216 343 829
369 557 1302
538 850 1799
726 1224 2278
961 1678 2661
1238 2130 2965
1551 2546 3191
1895 2891 3340
86 614 537
204 820 947
364 1095 1430
567 1426 1942
813 1806 2435
1116 2200 2812
1449 2562 3097
1804 2876 3298
2173 3128 3427
172 1199 699
301 1428 1089
493 1709 1566
744 2026 2077
1047 2362 2570
1398 2671 2936
1757 2936 3201
2118 3153 3381
2469 3321 3491
359 1867 869
518 2080 1234
751 2327 1695
1045 2590 2196
1389 2851 2679
1759 3067 3030
2116 3240 3278
2451 3373 3441
2756 3470 3537
668 2524 1012
864 2689 1359
1130 2872 1804
1449 3059 2291
1803 3234 2758
2155 3365 3094
2477 3463 3329
2763 3532 3481
3008 3578 3567
1131 3000 1087
1341 3111 1440
1603 3231 1880
1898 3348 2354
2212 3455 2803
2506 3529 3125
2768 3582 3351
2994 3618 3497
3184 3640 3579
1618 3336 1139
1817 3404 1504
2049 3474 1942
2298 3540 2402
2554 3597 2835
2786 3633 3144
2989 3658 3362
3164 3673 3504
3310 3681 3584
2069 3550 1179
2237 3587 1556
2421 3621 1989
2613 3652 2435
2807 3676 2851
2983 3691 3151
3138 3700 3364
3273 3704 3504
3388 3703 3584
2425 3661 1220
2545 3677 1600
2673 3690 2022
2807 3700 2451
2948 3709 2852
3086 3715 3146
3211 3718 3359
3324 3717 3500
3421 3710 3581
1044 484 411
1173 590 778
1303 771 1225
1437 1031 1713
1575 1372 2201
1741 1799 2609
1936 2232 2940
2161 2638 3193
2414 2984 3368
931 800 501
1134 987 861
1291 1229 1323
1428 1524 1835
1569 1868 2346
1761 2242 2752
1991 2594 3062
2250 2907 3285
2530 3162 3431
881 1296 631
1101 1512 982
1289 1768 1446
1466 2054 1965
1652 2363 2481
1884 2662 2875
2143 2926 3164
2416 3148 3362
2693 3320 3484
918 1890 775
1127 2093 1118
1343 2324 1577
1571 2569 2091
1816 2817 2598
2086 3032 2976
2359 3211 3245
2627 3351 3423
2877 3454 3526
1064 2499 907
1262 2659 1245
1500 2836 1696
1767 3018 2199
2053 3191 2690
2339 3327 3050
2606 3432 3302
2848 3508 3466
3059 3560 3557
1371 2967 991
1564 3076 1339
1800 3195 1787
2064 3313 2276
2339 3422 2748
2599 3502 3091
2831 3560 3331
3033 3601 3486
3203 3626 3572
1737 3307 1058
1916 3376 1419
2130 3447 1863
2364 3516 2338
2604 3576 2790
2823 3617 3117
3014 3645 3347
3178 3663 3496
3314 3672 3580
2115 3535 1121
2268 3571 1492
2443 3607 1929
2631 3640 2386
2822 3667 2817
2995 3683 3129
3147 3694 3352
3278 3699 3498
3389 3700 3581
2460 3664 1192
2572 3677 1565
2695 3690 1986
2827 3700 2419
2967 3709 2828
3101 3714 3130
3222 3716 3348
3330 3716 3494
3424 3712 3578
1962 746 384
2055 836 718
2146 997 1148
2236 1232 1634
2325 1545 2136
2428 1941 2569
2551 2345 2923
2694 2727 3197
2859 3059 3389
1802 988 446
1991 1155 775
2112 1371 1222
2194 1638 1736
2265 1954 2265
2374 2307 2698
2518 2643 3033
2689 2946 3277
2879 3196 3436
1684 1407 542
1892 1604 870
2039 1836 1326
2152 2098 1853
2255 2386 2390
2395 2673 2814
2565 2932 3129
2752 3154 3347
2948 3327 3480
1626 1935 657
1813 2124 986
1981 2337 1445
2141 2566 1973
2300 2800 2506
2479 3012 2915
2670 3193 3209
2863 3338 3405
3049 3446 3518
1649 2500 772
1809 2651 1105
1994 2818 1564
2194 2991 2085
2403 3159 2605
2612 3296 2994
2813 3406 3271
2998 3489 3450
3162 3545 3549
1807 2959 864
1957 3063 1209
2143 3176 1667
2351 3289 2176
2569 3396 2676
2775 3477 3045
2963 3540 3306
3127 3584 3474
3266 3613 3567
2033 3302 947
2173 3366 1307
2346 3434 1762
2541 3500 2255
2743 3559 2732
2929 3601 3081
3093 3631 3328
3235 3652 3488
3352 3663 3577
2296 3537 1035
2420 3570 1406
2569 3604 1851
2733 3635 2322
2902 3661 2773
3058 3677 3103
3196 3688 3338
3314 3694 3493
3415 3696 3580
2568 3674 1139
2664 3685 1509
2775 3696 1936
2896 3705 2379
3025 3712 2801
3148 3715 3113
3260 3717 3340
3360 3717 3491
3449 3714 3579
2734 983 357
2784 1068 667
2834 1218 1086
2883 1436 1572
2932 1725 2087
2987 2088 2541
3054 2459 2915
3133 2812 3204
3226 3121 3406
2583 1168 392
2707 1316 702
2781 1513 1139
2823 1759 1654
2854 2054 2196
2909 2385 2652
2988 2703 3009
3086 2990 3271
3198 3229 3442
2454 1524 456
2595 1700 769
2688 1911 1220
2752 2154 1752
2803 2423 2307
2878 2699 2757
2975 2950 3097
3088 3167 3334
3209 3338 3478
2359 1994 540
2485 2165 860
2594 2362 1319
2691 2575 1857
2782 2797 2413
2887 3004 2852
3004 3184 3173
3127 3331 3389
3248 3443 3512
2311 2520 634
2414 2660 963
2534 2815 1427
2664 2976 1965
2797 3136 2512
2931 3272 2933
3064 3384 3236
3189 3472 3434
3302 3535 3542
2352 2971 728
2446 3066 1072
2570 3169 1538
2713 3275 2066
2863 3375 2594
3008 3456 2993
3142 3521 3277
3262 3569 3461
3364 3602 3562
2449 3315 826
2539 3372 1185
2660 3432 1650
2800 3492 2162
2950 3546 2665
3090 3587 3040
3217 3618 3306
3327 3640 3479
3420 3654 3575
2586 3554 937
2672 3582 1308
2782 3609 1763
2908 3635 2252
3042 3658 2724
3168 3672 3074
3282 3683 3324
3381 3689 3489
3467 3692 3582
2752 3692 1070
2826 3701 1442
2916 3708 1877
3017 3714 2334
3126 3717 2772
3232 3719 3097
3329 3719 3333
3417 3718 3491
3497 3716 3583
3262 1183 348
3279 1270 643
3301 1417 1052
3326 1625 1537
3352 1895 2059
3383 2229 2527
3419 2568 2913
3460 2890 3213
3507 3174 3421
3159 1331 360
3215 1464 658
3250 1647 1087
3273 1879 1598
3290 2155 2146
3319 2466 2618
3360 2764 2992
3411 3035 3268
3468 3261 3449
3067 1639 394
3134 1794 698
3181 1988 1142
3215 2215 1673
3241 2469 2237
3278 2732 2708
3328 2974 3068
3387 3185 3323
3450 3353 3478
2990 2060 449
3052 2214 760
3108 2394 1217
3159 2593 1759
3204 2803 2330
3257 3003 2794
3318 3180 3139
3384 3329 3374
3450 3444 3508
2934 2552 519
2982 2679 842
3043 2821 1307
3112 2971 1855
3181 3121 2423
3252 3254 2873
3325 3367 3200
3397 3459 3418
3463 3527 3536
2916 2995 608
2957 3080 947
3021 3173 1418
3099 3268 1960
3183 3360 2512
3267 3438 2939
3348 3503 3247
3422 3555 3448
3488 3593 3558
2925 3340 713
2966 3389 1070
3032 3440 1541
3114 3490 2069
3203 3537 2596
3292 3575 2997
3375 3605 3283
3450 3629 3471
3517 3647 3574
2958 3582 841
3002 3603 1210
3068 3623 1674
3147 3641 2180
3235 3657 2674
3322 3669 3045
3404 3677 3311
3478 3684 3486
3545 3688 3585
3012 3719 998
3059 3724 1370
3121 3726 1815
3193 3727 2288
3274 3726 2744
3354 3724 3084
3431 3722 3330
3502 3720 3495
3569 3718 3590
3475 1312 359
3482 1408 648
3496 1559 1051
3516 1763 1531
3541 2021 2052
3569 2330 2522
3600 2644 2912
3632 2943 3217
3666 3210 3431
3422 1448 358
3448 1574 650
3470 1750 1069
3491 1972 1573
3512 2236 2118
3539 2528 2595
3570 2809 2977
3604 3066 3263
3639 3284 3452
3382 1727 376
3415 1869 672
3443 2051 1106
3468 2267 1630
3491 2509 2192
3518 2760 2672
3551 2992 3045
3587 3197 3312
3623 3364 3478
3355 2116 413
3385 2255 716
3416 2422 1163
3447 2610 1699
3476 2810 2272
3506 3004 2750
3541 3178 3111
3578 3327 3361
3615 3446 3506
3340 2580 468
3360 2695 780
3391 2827 1238
3427 2967 1783
3463 3109 2357
3499 3238 2825
3537 3352 3171
3576 3448 3405
3614 3524 3534
3333 3017 552
3348 3093 879
3376 3177 1344
3414 3263 1886
3454 3347 2448
3496 3422 2895
3538 3487 3222
3580 3543 3439
3621 3589 3558
3328 3364 660
3342 3405 1003
3370 3448 1469
3408 3490 2001
3452 3529 2541
3497 3564 2961
3543 3594 3265
3588 3620 3466
3633 3643 3577
3324 3612 797
3341 3627 1152
3370 3639 1612
3409 3650 2124
3454 3659 2633
3503 3666 3021
3551 3673 3301
3600 3679 3487
3648 3687 3591
3321 3752 967
3343 3751 1325
3374 3748 1769
3415 3743 2251
3462 3737 2720
3513 3731 3074
3564 3726 3330
3614 3722 3502
3663 3719 3600
3582 1399 370
3585 1505 657
3598 1659 1057
3619 1862 1533
3645 2109 2050
3675 2400 2520
3704 2693 2909
3733 2973 3215
3760 3225 3432
3564 1529 363
3578 1652 650
3596 1825 1062
3618 2040 1559
3643 2293 2099
3671 2570 2578
3699 2837 2964
3726 3082 3255
3751 3293 3450
3563 1789 374
3580 1921 662
3601 2094 1087
3624 2302 1601
3648 2535 2159
3673 2776 2644
3698 3001 3025
3722 3201 3302
3744 3368 3475
3575 2153 403
3591 2280 696
3612 2437 1132
3635 2617 1660
3657 2810 2231
3678 3000 2716
3699 3172 3089
3720 3323 3350
3741 3447 3504
3596 2594 453
3607 2699 753
3624 2822 1199
3644 2956 1737
3664 3094 2311
3681 3222 2790
3700 3338 3151
3719 3439 3397
3739 3524 3535
3614 3025 538
3619 3094 850
3631 3171 1303
3646 3251 1839
3663 3332 2404
3679 3406 2864
3697 3474 3205
3717 3534 3435
3740 3589 3561
3622 3376 653
3623 3412 976
3631 3449 1430
3643 3485 1958
3658 3520 2502
3675 3553 2936
3694 3584 3254
3717 3614 3466
3744 3644 3583
3617 3632 800
3618 3642 1132
3624 3649 1579
3636 3655 2087
3651 3659 2602
3671 3663 3003
3693 3669 3296
3719 3677 3491
3750 3688 3599
3598 3780 983
3601 3776 1315
3610 3768 1746
3625 3758 2225
3644 3748 2700
3668 3738 3065
3695 3730 3331
3725 3725 3509
3756 3721 3610
3621 1451 380
3626 1566 668
3641 1725 1067
3663 1926 1540
3691 2167 2054
3723 2443 2519
3752 2719 2906
3779 2983 3208
3803 3220 3424
3624 1577 370
3636 1701 654
3655 1872 1061
3680 2083 1552
3709 2328 2087
3738 2593 2565
3766 2849 2953
3790 3084 3246
3810 3288 3442
3646 1823 380
3662 1948 661
3683 2117 1077
3708 2319 1584
3735 2546 2138
3760 2780 2625
3783 3000 3010
3802 3198 3292
3818 3365 3470
3684 2167 410
3699 2285 692
3720 2436 1117
3742 2611 1637
3765 2801 2204
3784 2990 2694
3800 3163 3074
3814 3316 3344
3825 3446 3503
3732 2590 461
3744 2687 748
3761 2805 1182
3778 2936 1710
3794 3073 2283
3805 3204 2769
3815 3324 3139
3824 3431 3395
3832 3525 3539
3777 3016 552
3784 3080 848
3794 3154 1287
3803 3232 1815
3811 3313 2378
3816 3390 2847
3822 3461 3198
3828 3529 3437
3838 3592 3569
3809 3372 678
3811 3405 980
3813 3439 1418
3816 3474 1936
3818 3508 2481
3820 3542 2923
3823 3575 3251
3829 3610 3471
3842 3647 3592
3824 3639 840
3821 3648 1144
3819 3652 1572
3817 3655 2070
3816 3656 2584
3817 3660 2995
3821 3666 3297
3829 3676 3498
3844 3691 3608
3820 3799 1042
3814 3794 1339
3809 3783 1745
3806 3769 2210
3806 3755 2684
3810 3742 3059
3817 3732 3334
3828 3725 3519
3844 3723 3620
3629 1477 385
3637 1598 677
3654 1761 1077
3678 1962 1551
3707 2199 2062
3738 2465 2522
3765 2729 2903
3789 2977 3198
3806 3196 3404
3641 1597 376
3656 1722 657
3678 1893 1062
3704 2102 1550
3734 2342 2083
3763 2598 2559
3789 2846 2944
3811 3074 3235
3827 3270 3428
3672 1830 389
3691 1951 662
3715 2117 1072
3743 2317 1575
3772 2541 2126
3798 2772 2614
3820 2990 3001
3837 3186 3285
3848 3354 3463
3717 2157 422
3739 2268 694
3764 2416 1110
3791 2590 1624
3817 2781 2189
3838 2971 2683
3853 3148 3067
3864 3307 3342
3869 3442 3504
3776 2564 478
3798 2655 753
3821 2771 1176
3844 2903 1698
3864 3045 2269
3877 3182 2761
3886 3310 3137
3890 3425 3399
3889 3528 3547
3839 2986 580
3857 3048 861
3874 3122 1287
3889 3203 1807
3901 3289 2370
3907 3372 2844
3909 3451 3202
3908 3526 3446
3905 3599 3579
3893 3349 721
3905 3382 1004
3915 3418 1426
3922 3454 1934
3926 3492 2477
3926 3531 2925
3923 3570 3259
3920 3610 3483
3917 3654 3601
3936 3630 907
3939 3640 1183
3941 3645 1587
3940 3648 2070
3938 3650 2581
3932 3654 2998
3927 3663 3306
3922 3676 3511
3922 3697 3617
3967 3806 1140
3958 3802 1397
3950 3791 1767
3942 3774 2205
3935 3756 2671
3926 3740 3056
3919 3728 3340
3915 3723 3530
3918 3726 3629
