Assets/1__3DArt/KimSe/artstation_asset/LUTs_pasterls/CUBE/Candylandia 01 S.cube
# Enhanced with VOXCOLOR algorithms
LUT_3D_SIZE 5
DOMAIN_MIN 0.000000 0.000000 0.000000
DOMAIN_MAX 0.903226 0.903226 0.903226
0.156863 0.219608 0.105882
0.583515 0.200575 0.038176
0.775799 0.198499 0.021437
0.837548 0.204959 0.024638
0.848623 0.201003 0.025190
0.074180 0.456701 0.154986
0.391573 0.419945 0.082227
0.638335 0.374638 0.036172
0.779417 0.334414 0.024560
0.848410 0.311094 0.032120
0.099182 0.611015 0.173096
0.283979 0.585685 0.118509
0.531430 0.557114 0.060050
0.744111 0.536083 0.033879
0.865926 0.517615 0.046783
0.183126 0.697343 0.161980
0.267016 0.689794 0.133333
0.475230 0.699232 0.083550
0.719491 0.722610 0.049248
0.880251 0.732751 0.060926
0.265868 0.734606 0.142599
0.300482 0.736056 0.130159
0.444539 0.760496 0.099035
0.670125 0.806166 0.066459
0.863220 0.846805 0.070664
0.180904 0.275318 0.412224
0.567669 0.247002 0.313714
0.760967 0.231987 0.251587
0.831478 0.230755 0.218921
0.852203 0.233746 0.195910
0.126830 0.509648 0.384795
0.390700 0.426893 0.298324
0.605008 0.359350 0.243147
0.753606 0.322974 0.218606
0.854636 0.315994 0.196443
0.161347 0.653795 0.341853
0.303359 0.587369 0.282701
0.509664 0.530764 0.237379
0.713611 0.501171 0.217736
0.874850 0.489757 0.210562
0.243672 0.728175 0.289522
0.298598 0.699098 0.255451
0.467983 0.684385 0.221463
0.691742 0.688801 0.205755
0.888559 0.693645 0.215411
0.315357 0.756039 0.241039
0.334196 0.750649 0.219199
0.450782 0.764615 0.191698
0.656735 0.801904 0.174905
0.868854 0.842757 0.190570
0.257784 0.393503 0.664482
0.574536 0.355423 0.584631
0.769429 0.335727 0.522696
0.849809 0.328263 0.480265
0.870714 0.323767 0.449261
0.228122 0.595271 0.644279
0.432308 0.506647 0.567845
0.626102 0.429287 0.503222
0.771578 0.384468 0.463089
0.873562 0.370981 0.432084
0.267238 0.717650 0.592466
0.368727 0.644666 0.533892
0.540137 0.573438 0.481842
0.724385 0.526025 0.451891
0.889973 0.503096 0.436202
0.339125 0.776367 0.522429
0.370011 0.741974 0.483085
0.501378 0.711304 0.447076
0.694881 0.693598 0.430841
0.897567 0.685355 0.435459
0.393607 0.793460 0.449893
0.399087 0.784514 0.417628
0.486459 0.788636 0.388426
0.663337 0.814382 0.380576
0.877350 0.851392 0.402320
0.352587 0.526788 0.804578
0.600690 0.491486 0.759656
0.787711 0.475732 0.724325
0.874726 0.466781 0.697373
0.893128 0.452322 0.675096
0.347303 0.677482 0.814847
0.504710 0.611290 0.768098
0.681989 0.550360 0.720612
0.815614 0.505207 0.684448
0.894580 0.474567 0.658161
0.390493 0.773730 0.793515
0.464134 0.720698 0.755998
0.607770 0.660230 0.712686
0.764821 0.604440 0.678691
0.902611 0.560921 0.658802
0.453293 0.821874 0.749778
0.468318 0.795616 0.722128
0.566081 0.763482 0.689614
0.722699 0.730356 0.665763
0.901116 0.703550 0.658331
0.493764 0.834991 0.693934
0.489525 0.826287 0.666020
0.547575 0.822727 0.639665
0.686002 0.831759 0.628483
0.875970 0.852038 0.636654
0.441172 0.629170 0.855163
0.631609 0.603849 0.833208
0.798241 0.594907 0.818849
0.886664 0.589162 0.807654
0.906115 0.574802 0.796065
0.454947 0.733972 0.874636
0.576851 0.694527 0.854220
0.732126 0.661343 0.832764
0.851453 0.631881 0.813690
0.905492 0.600275 0.797276
0.500726 0.806073 0.877463
0.556928 0.775954 0.863597
0.677464 0.742418 0.843892
0.809010 0.705408 0.824321
0.903572 0.664929 0.809522
0.559374 0.847492 0.868176
0.566478 0.831626 0.858772
0.640750 0.811950 0.843985
0.763761 0.787358 0.828729
0.891962 0.759531 0.819691
0.593092 0.862303 0.849739
0.586690 0.856729 0.839486
0.623300 0.851560 0.827362
0.722090 0.848945 0.817785
0.862679 0.849798 0.813843
