Assets/1__3DArt/KimSe/artstation_asset/LUTs_pasterls/CUBE/Candylandia 03 S.cube
# Enhanced with VOXCOLOR algorithms
LUT_3D_SIZE 8
DOMAIN_MIN 0.000000 0.000000 0.000000
DOMAIN_MAX 0.903226 0.903226 0.903226
0.172549 0.231373 0.227451
0.317148 0.192904 0.205904
0.436403 0.157506 0.185379
0.528065 0.128559 0.166722
0.591348 0.108217 0.150662
0.624101 0.097274 0.138612
0.637458 0.091374 0.130425
0.640718 0.087934 0.124738
0.149188 0.343488 0.281162
0.273725 0.296218 0.244134
0.392523 0.252950 0.206899
0.495538 0.215246 0.172693
0.575576 0.184114 0.144553
0.626304 0.160618 0.128372
0.652836 0.140897 0.124595
0.659093 0.121512 0.128045
0.138789 0.449697 0.335037
0.237829 0.402242 0.290062
0.348968 0.357376 0.240864
0.458090 0.316290 0.194032
0.553795 0.279668 0.155553
0.624143 0.247717 0.135307
0.665774 0.215882 0.133870
0.678945 0.180650 0.142899
0.137699 0.544950 0.385688
0.210044 0.503260 0.339936
0.308783 0.461918 0.285740
0.419135 0.422216 0.232185
0.527811 0.384796 0.187415
0.617463 0.348689 0.163767
0.675119 0.308733 0.161853
0.698733 0.261989 0.171380
0.142497 0.625377 0.430311
0.190477 0.592874 0.390162
0.274157 0.558849 0.339199
0.381157 0.524464 0.286810
0.498726 0.490212 0.241441
0.605803 0.454263 0.215560
0.679786 0.411848 0.209988
0.717000 0.361077 0.214220
0.149585 0.685534 0.464976
0.179322 0.662652 0.435258
0.246699 0.637622 0.396038
0.344946 0.611055 0.353973
0.464878 0.583115 0.315204
0.585974 0.551957 0.289054
0.677076 0.514491 0.276813
0.731213 0.469969 0.270612
0.155704 0.726766 0.489811
0.173120 0.711882 0.470569
0.223852 0.695021 0.445133
0.308380 0.676322 0.416489
0.423310 0.655726 0.387576
0.554290 0.631903 0.363211
0.664192 0.603450 0.345141
0.738311 0.570272 0.329678
0.161056 0.750997 0.507570
0.169384 0.743456 0.497261
0.202966 0.734166 0.483661
0.269551 0.723018 0.466955
0.372534 0.709880 0.447580
0.508785 0.693948 0.426693
0.638939 0.674718 0.406303
0.736059 0.652257 0.386358
0.155843 0.253058 0.304047
0.303844 0.212707 0.280677
0.427118 0.172182 0.256775
0.522503 0.136652 0.233465
0.588603 0.109947 0.211782
0.623242 0.095382 0.193542
0.637470 0.089018 0.179426
0.640727 0.086173 0.168800
0.140270 0.366353 0.353737
0.263693 0.313320 0.311766
0.381465 0.264178 0.272208
0.485337 0.221905 0.237354
0.569307 0.188515 0.209089
0.627365 0.165665 0.190572
0.661347 0.147950 0.180291
0.671757 0.129894 0.174371
0.135233 0.472591 0.403166
0.231299 0.417694 0.351360
0.339390 0.366867 0.300003
0.447965 0.322671 0.254295
0.547490 0.286622 0.218431
0.627453 0.259034 0.197935
0.681599 0.233002 0.189938
0.706056 0.202726 0.187902
0.137571 0.566862 0.448923
0.206899 0.517794 0.395310
0.302370 0.471100 0.338114
0.411563 0.429490 0.285214
0.523175 0.394503 0.243033
0.622723 0.365608 0.219315
0.696577 0.335403 0.210934
0.739354 0.298498 0.209768
0.144328 0.645411 0.488126
0.190228 0.606878 0.439758
0.271154 0.568777 0.384098
0.376637 0.533661 0.329959
0.495878 0.503000 0.284678
0.612079 0.476035 0.257061
0.704608 0.446484 0.244939
0.767637 0.410155 0.240157
0.152241 0.702718 0.516385
0.180603 0.675920 0.479321
0.245476 0.648609 0.433998
0.341700 0.622566 0.387170
0.462006 0.598883 0.344651
0.590987 0.577197 0.313718
0.701087 0.553701 0.294226
0.783822 0.525680 0.280655
0.158428 0.740719 0.533823
0.174462 0.723778 0.509396
0.222428 0.706103 0.478413
0.304208 0.688737 0.444113
0.418213 0.672411 0.409439
0.555286 0.657357 0.378191
0.682173 0.641855 0.351996
0.782530 0.624015 0.329611
0.162947 0.762287 0.543407
0.170162 0.753819 0.530259
0.201053 0.744308 0.512857
0.264381 0.734288 0.491677
0.365000 0.724235 0.467273
0.504292 0.714721 0.440177
0.646469 0.705276 0.412492
0.762626 0.694577 0.386252
0.141245 0.272560 0.386556
0.285926 0.230509 0.362170
0.412514 0.186418 0.337058
0.514110 0.146379 0.312051
0.586348 0.115145 0.287957
0.624988 0.097599 0.266281
0.641022 0.090175 0.248144
0.644731 0.087096 0.233866
0.133914 0.388833 0.434128
0.251565 0.334206 0.392711
0.368844 0.281435 0.354145
0.475913 0.234851 0.320204
0.565299 0.197621 0.292152
0.629457 0.172742 0.271495
0.668970 0.154988 0.255866
0.684204 0.138048 0.242508
0.134006 0.496400 0.480635
0.224104 0.439311 0.429619
0.329879 0.384838 0.380449
0.439615 0.336939 0.337398
0.543469 0.298296 0.303608
0.630583 0.270559 0.282118
0.693872 0.247040 0.268672
0.729248 0.221218 0.258151
0.139094 0.590546 0.522621
0.203579 0.538748 0.469229
0.296143 0.488665 0.414284
0.405114 0.444270 0.364475
0.519779 0.408169 0.324939
0.626806 0.381290 0.300734
0.712883 0.356578 0.287487
0.772538 0.327898 0.278807
0.146912 0.667747 0.557181
0.189587 0.626543 0.508139
0.267613 0.585739 0.453698
0.371872 0.548973 0.401565
0.492846 0.518676 0.357928
0.616387 0.495686 0.329373
0.723342 0.474145 0.313161
0.807606 0.448979 0.303101
0.154833 0.722727 0.579776
0.181203 0.694078 0.541361
0.243275 0.665211 0.495534
0.337498 0.638846 0.448386
0.458286 0.616919 0.405079
0.594021 0.600662 0.371680
0.719359 0.586480 0.348491
0.824797 0.570466 0.331970
0.160678 0.758256 0.590787
0.175341 0.740319 0.564846
0.220560 0.722109 0.532169
0.299727 0.705501 0.495734
0.412995 0.691986 0.458245
0.555590 0.683321 0.423047
0.697009 0.677662 0.392842
0.819073 0.671479 0.368289
0.164583 0.777863 0.593461
0.170944 0.768812 0.578713
0.199423 0.759159 0.559176
0.259810 0.750163 0.535303
0.358398 0.743015 0.507602
0.500929 0.739924 0.476239
0.655180 0.740436 0.443990
0.790011 0.741191 0.414580
0.130197 0.290289 0.468673
0.266231 0.246874 0.444118
0.394650 0.200521 0.419311
0.503274 0.157593 0.394637
0.583419 0.123189 0.370507
0.627464 0.103047 0.347852
0.646093 0.093982 0.327839
0.650779 0.089886 0.311496
0.130227 0.409863 0.515297
0.238462 0.356101 0.477636
0.355008 0.301707 0.442242
0.466412 0.251760 0.410499
0.562062 0.210233 0.383299
0.631384 0.181528 0.361263
0.674713 0.161874 0.342055
0.694562 0.145222 0.323912
0.134652 0.519256 0.559916
0.216367 0.463421 0.514451
0.319884 0.407617 0.470480
0.431676 0.356566 0.431455
0.540186 0.313804 0.399806
0.632600 0.282600 0.377349
0.701808 0.258347 0.360070
0.746173 0.235217 0.344160
0.141769 0.613918 0.599167
0.199807 0.562903 0.551548
0.289298 0.511653 0.502718
0.398428 0.464739 0.458064
0.516183 0.425488 0.421657
0.628777 0.396450 0.397160
0.723107 0.372798 0.380798
0.795674 0.349205 0.367754
0.150004 0.690529 0.630258
0.188330 0.649546 0.586125
0.262920 0.607787 0.537436
0.365799 0.569351 0.490412
0.488339 0.537254 0.450056
0.617604 0.513837 0.421691
0.734835 0.495148 0.403604
0.834634 0.476618 0.391306
0.157415 0.744068 0.648749
0.181098 0.715437 0.613617
0.239739 0.686020 0.571743
0.331502 0.658979 0.528074
0.452371 0.636769 0.486896
0.593457 0.621913 0.453546
0.730199 0.611928 0.429705
0.852080 0.602749 0.413380
0.162651 0.778050 0.655317
0.175771 0.760093 0.630878
0.217910 0.741748 0.599861
0.294032 0.725385 0.564662
0.405975 0.713007 0.527580
0.552741 0.707536 0.491782
0.705680 0.707460 0.461327
0.844362 0.708327 0.438080
0.166072 0.796466 0.653374
0.171675 0.787228 0.638403
0.197710 0.777556 0.618586
0.254880 0.769258 0.594201
0.350819 0.764095 0.565623
0.495461 0.765665 0.532893
0.660306 0.773677 0.499495
0.811617 0.783038 0.470113
0.123635 0.306472 0.544848
0.247110 0.262121 0.520930
0.375308 0.214527 0.497338
0.490350 0.169871 0.474173
0.578781 0.133215 0.451562
0.628939 0.110664 0.429948
0.650755 0.099482 0.410205
0.656927 0.093730 0.393508
0.129139 0.428562 0.591085
0.225396 0.376690 0.558446
0.340325 0.322340 0.527343
0.456088 0.270418 0.498712
0.558206 0.225021 0.473127
0.632000 0.191520 0.450823
0.677652 0.168397 0.430144
0.701123 0.150776 0.410218
0.136693 0.539647 0.634417
0.208291 0.486897 0.596743
0.309034 0.431889 0.559680
0.422979 0.379054 0.525737
0.536203 0.332024 0.496696
0.632600 0.295219 0.473888
0.704749 0.267238 0.454688
0.754895 0.244123 0.436646
0.145119 0.635247 0.671822
0.195448 0.587367 0.633137
0.281268 0.537185 0.592863
0.390387 0.488878 0.554937
0.511091 0.445785 0.522415
0.627764 0.411536 0.498311
0.726526 0.384669 0.480629
0.806754 0.361950 0.466123
0.153359 0.712129 0.700811
0.186351 0.673631 0.665184
0.256678 0.632813 0.625329
0.357610 0.593396 0.585774
0.481270 0.558367 0.550316
0.614765 0.530959 0.523524
0.738221 0.510059 0.505509
0.847104 0.492858 0.493302
0.160012 0.765324 0.717249
0.180328 0.738256 0.688592
0.234677 0.709430 0.653918
0.323111 0.681791 0.616790
0.443176 0.657806 0.580493
0.587953 0.640669 0.549787
0.732306 0.629733 0.527830
0.864273 0.621924 0.513716
0.164504 0.798764 0.721994
0.175794 0.781612 0.701344
0.214256 0.763591 0.674737
0.286426 0.747057 0.643848
0.395770 0.734113 0.610469
0.544668 0.728240 0.577603
0.705729 0.728837 0.550214
0.855660 0.731633 0.530584
0.167509 0.816801 0.718387
0.172315 0.807773 0.704610
0.195621 0.798227 0.686439
0.248806 0.790140 0.663943
0.340672 0.785505 0.637353
0.485161 0.788652 0.606773
0.657840 0.799721 0.575995
0.821977 0.812915 0.549691
0.122197 0.320395 0.607141
0.230788 0.275562 0.584468
0.356098 0.227363 0.562353
0.475320 0.181620 0.540956
0.570753 0.143204 0.520413
0.626779 0.118413 0.501047
0.651957 0.105045 0.483264
0.659887 0.097486 0.467805
0.130425 0.443600 0.653105
0.213672 0.393505 0.625159
0.325304 0.340288 0.598218
0.443896 0.287841 0.572802
0.551577 0.239681 0.549245
0.629193 0.201384 0.527796
0.675794 0.173785 0.507750
0.700701 0.153670 0.488845
0.139539 0.555792 0.695392
0.200492 0.506363 0.665274
0.297215 0.453697 0.635106
0.412113 0.400871 0.606428
0.529288 0.350704 0.580419
0.628642 0.307659 0.558296
0.700872 0.273541 0.539194
0.751787 0.246946 0.521875
0.148549 0.652474 0.731567
0.190721 0.608534 0.702139
0.271743 0.561203 0.670853
0.379701 0.513241 0.640225
0.502482 0.467100 0.612357
0.621837 0.426238 0.589865
0.721128 0.392466 0.572701
0.801894 0.365419 0.559024
0.156599 0.730370 0.759640
0.183773 0.695434 0.733411
0.248714 0.657206 0.703437
0.346410 0.618154 0.672624
0.469958 0.580451 0.643601
0.605874 0.546999 0.620223
0.731281 0.519426 0.604141
0.841435 0.497524 0.593596
0.162527 0.784328 0.776060
0.179053 0.759647 0.755049
0.228061 0.732473 0.729203
0.311681 0.704823 0.700749
0.429114 0.678545 0.671947
0.575138 0.656480 0.646765
0.722976 0.639931 0.628957
0.858050 0.627777 0.618168
0.166324 0.818291 0.781822
0.175493 0.802407 0.766211
0.209432 0.785137 0.745968
0.276079 0.768206 0.722070
0.380432 0.753289 0.695748
0.528157 0.743545 0.669564
0.693155 0.739685 0.648196
0.848345 0.738843 0.633526
0.168975 0.836876 0.779861
0.172834 0.828353 0.768706
0.192869 0.819058 0.754188
0.240666 0.810553 0.736226
0.325881 0.804525 0.714937
0.466220 0.804965 0.690553
0.642116 0.812749 0.666319
0.813546 0.823052 0.645710
0.123262 0.331458 0.653068
0.217623 0.286354 0.631993
0.338279 0.237671 0.611326
0.459196 0.190937 0.591444
0.559696 0.150899 0.572639
0.620830 0.124186 0.555323
0.649109 0.109146 0.539522
0.658586 0.100262 0.525540
0.132553 0.455148 0.699286
0.203834 0.405937 0.674962
0.310547 0.353605 0.651166
0.429599 0.301020 0.628214
0.541150 0.251014 0.606353
0.622264 0.208966 0.585962
0.669370 0.177275 0.567005
0.693619 0.153991 0.549526
0.142281 0.568033 0.740779
0.193576 0.520569 0.716236
0.284903 0.469877 0.691257
0.398622 0.417626 0.666700
0.518076 0.365622 0.643305
0.619793 0.317611 0.622149
0.690713 0.277227 0.603490
0.738056 0.245016 0.586886
0.151501 0.665608 0.775875
0.186227 0.624266 0.753337
0.261365 0.579479 0.729026
0.366320 0.532514 0.704387
0.489397 0.484703 0.680743
0.610185 0.438411 0.660142
0.707466 0.397020 0.643551
0.782585 0.362319 0.630114
0.159413 0.744561 0.803242
0.181157 0.712176 0.784177
0.239914 0.676393 0.762203
0.332819 0.638355 0.738979
0.454310 0.599193 0.716143
0.590621 0.560568 0.696557
0.714505 0.525170 0.682281
0.818856 0.494711 0.672395
0.164916 0.799617 0.820151
0.177764 0.776757 0.805235
0.220854 0.751226 0.787000
0.298318 0.724021 0.766656
0.411016 0.696168 0.745576
0.555531 0.669406 0.726622
0.702900 0.645768 0.712987
0.834363 0.625688 0.704518
0.168237 0.834564 0.827755
0.175195 0.819748 0.816620
0.204159 0.803260 0.802484
0.264100 0.786029 0.785828
0.361303 0.769077 0.767389
0.504558 0.754606 0.749031
0.669226 0.744057 0.734187
0.823719 0.736116 0.723956
0.170436 0.854044 0.828413
0.173253 0.846157 0.820373
0.189750 0.837232 0.810149
0.231277 0.828141 0.797646
0.307975 0.819957 0.782951
0.440762 0.815562 0.766417
0.615271 0.816360 0.750183
0.788503 0.819345 0.735994
0.124613 0.339970 0.684923
0.206580 0.294608 0.666094
0.321783 0.245587 0.647322
0.442729 0.198070 0.629167
0.547072 0.156638 0.612042
0.613038 0.128321 0.596315
0.644344 0.112044 0.581741
0.655109 0.102195 0.568542
0.134631 0.464231 0.733061
0.195442 0.414812 0.711391
0.296198 0.362600 0.689985
0.413817 0.309686 0.669003
0.527827 0.258360 0.648590
0.612496 0.213757 0.629052
0.660548 0.178978 0.610591
0.683381 0.152629 0.593553
0.144688 0.577647 0.774541
0.187536 0.530417 0.753551
0.272529 0.480421 0.732054
0.383230 0.428339 0.710374
0.503291 0.375198 0.688839
0.607003 0.323918 0.668068
0.676416 0.278435 0.648634
0.717872 0.240017 0.630761
0.154023 0.675810 0.808825
0.182208 0.635175 0.790601
0.250793 0.591529 0.770906
0.351169 0.545135 0.750339
0.472696 0.496460 0.729514
0.593757 0.446627 0.709492
0.687484 0.398675 0.691273
0.752532 0.354915 0.674921
0.161976 0.755493 0.835522
0.178824 0.724047 0.820950
0.231030 0.689542 0.804322
0.317975 0.652249 0.786305
0.435612 0.612499 0.767638
0.570346 0.570535 0.749737
0.689557 0.528092 0.734142
0.781545 0.487032 0.720888
0.167482 0.811508 0.852779
0.176799 0.789467 0.841804
0.213854 0.764913 0.828822
0.284522 0.738168 0.814253
0.391125 0.709604 0.798674
0.531789 0.679649 0.783472
0.674337 0.649336 0.770657
0.794464 0.619200 0.760576
0.170604 0.847373 0.861644
0.175272 0.833259 0.853814
0.199319 0.817377 0.844243
0.252426 0.800077 0.833105
0.341804 0.781818 0.820740
0.478504 0.763603 0.808113
0.638300 0.746426 0.797149
0.784941 0.729716 0.788538
0.172026 0.867335 0.863843
0.173781 0.860318 0.858721
0.186923 0.851981 0.852156
0.222385 0.842667 0.844241
0.290501 0.832907 0.835163
0.414417 0.824272 0.825370
0.584115 0.818066 0.815923
0.754493 0.812911 0.807273
