Assets/1__3DArt/KimSe/artstation_asset/LUTs_pasterls/CUBE/Candylandia 03 S.cube
# Enhanced with VOXCOLOR algorithms
LUT_3D_SIZE 5
DOMAIN_MIN 0.000000 0.000000 0.000000
DOMAIN_MAX 0.903226 0.903226 0.903226
0.172549 0.231373 0.227451
0.409198 0.166039 0.190405
0.561887 0.117717 0.158405
0.630350 0.095042 0.135986
0.640718 0.087934 0.124738
0.140055 0.423752 0.321551
0.330569 0.341295 0.243068
0.515811 0.271258 0.167876
0.638690 0.216060 0.128739
0.673830 0.163234 0.137997
0.139934 0.586611 0.408711
0.264883 0.521201 0.326543
0.457885 0.456449 0.234333
0.633584 0.392414 0.184025
0.708156 0.310833 0.191832
0.151260 0.698681 0.472659
0.220619 0.661122 0.419417
0.395436 0.617687 0.351132
0.608014 0.566567 0.302209
0.734054 0.496333 0.284977
0.161056 0.750997 0.507570
0.191971 0.736668 0.487399
0.318666 0.716649 0.457375
0.542238 0.689635 0.421521
0.736059 0.652257 0.386358
0.144677 0.267909 0.365321
0.387352 0.193921 0.322415
0.554033 0.127675 0.279080
0.631445 0.093382 0.241365
0.643319 0.086589 0.215437
0.133513 0.464427 0.448621
0.313352 0.365931 0.362196
0.501528 0.286046 0.291941
0.647515 0.234794 0.251437
0.712660 0.193490 0.233582
0.142340 0.624754 0.521776
0.257996 0.544476 0.427534
0.449021 0.476216 0.338142
0.648010 0.428652 0.286547
0.783050 0.380732 0.270533
0.155989 0.729367 0.567537
0.219615 0.684617 0.499897
0.388483 0.644026 0.420673
0.619504 0.615010 0.358587
0.817804 0.588390 0.323567
0.164200 0.773528 0.579484
0.190221 0.757438 0.551111
0.307376 0.741567 0.509169
0.538031 0.732263 0.457186
0.783081 0.729095 0.404571
0.126550 0.298542 0.507752
0.352991 0.219682 0.465302
0.541814 0.144972 0.423526
0.637550 0.102630 0.384352
0.654081 0.091814 0.353053
0.133766 0.503281 0.587397
0.293612 0.406782 0.517681
0.491259 0.316778 0.458076
0.652657 0.253349 0.416082
0.737216 0.213467 0.384194
0.147651 0.664894 0.652297
0.248740 0.585487 0.577050
0.439105 0.510717 0.503846
0.652999 0.457375 0.454772
0.823864 0.421017 0.430182
0.160260 0.766214 0.686834
0.215221 0.721544 0.630261
0.376404 0.679593 0.561283
0.619580 0.653765 0.501762
0.861276 0.643231 0.468411
0.166788 0.806652 0.686133
0.188529 0.790332 0.657784
0.295408 0.776821 0.615275
0.529565 0.779034 0.561097
0.818139 0.799387 0.508728
0.122087 0.323589 0.621078
0.318327 0.242755 0.582380
0.522775 0.163927 0.545905
0.637072 0.114969 0.512587
0.660201 0.098327 0.484723
0.137819 0.532463 0.698965
0.272221 0.443551 0.649495
0.476615 0.350574 0.602992
0.648439 0.271292 0.563621
0.736384 0.220084 0.531264
0.153522 0.697161 0.759706
0.235886 0.627146 0.712676
0.421675 0.551065 0.662288
0.643019 0.481927 0.621890
0.820400 0.431915 0.599044
0.164374 0.800248 0.792371
0.207424 0.760583 0.757807
0.354592 0.717220 0.712628
0.599186 0.680676 0.670217
0.856215 0.659142 0.647918
0.169341 0.841604 0.793938
0.185743 0.826391 0.773650
0.276218 0.811719 0.743496
0.499301 0.809063 0.705060
0.809777 0.824202 0.669141
0.124613 0.339970 0.684923
0.289561 0.258219 0.652009
0.497642 0.176417 0.620504
0.626063 0.122445 0.592499
0.655109 0.102195 0.568542
0.142170 0.550409 0.764856
0.251652 0.463936 0.727054
0.451938 0.370983 0.689081
0.630083 0.281882 0.652609
0.708609 0.214366 0.620203
0.158174 0.717342 0.822848
0.221732 0.652253 0.792987
0.394039 0.578149 0.758931
0.613063 0.498141 0.725538
0.768188 0.420970 0.698353
0.168620 0.823497 0.856254
0.198802 0.787256 0.837265
0.325198 0.744399 0.812915
0.556628 0.697647 0.787594
0.795449 0.650076 0.769325
0.172026 0.867335 0.863843
0.182466 0.854201 0.853946
0.252458 0.837707 0.839753
0.449974 0.822356 0.822956
0.754493 0.812911 0.807273
