Assets/1__3DArt/KimSe/artstation_asset/LUTs_pasterls/CUBE/Candylandia 03 S.cube
# Enhanced with VOXCOLOR algorithms
LUT_3D_SIZE 32
0.172549 0.231373 0.227451
0.208699 0.221756 0.222064
0.244849 0.212139 0.216677
0.280998 0.202521 0.211290
0.317148 0.192904 0.205904
0.353298 0.183287 0.200517
0.381993 0.174573 0.195431
0.409198 0.166039 0.190405
0.436403 0.157506 0.185379
0.463607 0.148972 0.180353
0.490812 0.140439 0.175327
0.511154 0.133980 0.170880
0.528065 0.128559 0.166722
0.544976 0.123138 0.162563
0.561887 0.117717 0.158405
0.578798 0.112296 0.154247
0.591348 0.108217 0.150662
0.599536 0.105481 0.147649
0.607725 0.102745 0.144637
0.615913 0.100010 0.141625
0.624101 0.097274 0.138612
0.630350 0.095042 0.135986
0.632719 0.093820 0.134132
0.635089 0.092597 0.132278
0.637458 0.091374 0.130425
0.639827 0.090151 0.128571
0.641719 0.089040 0.126850
0.641218 0.088487 0.125794
0.640718 0.087934 0.124738
0.640217 0.087381 0.123681
0.639717 0.086828 0.122625
0.639216 0.086275 0.121569
0.166709 0.259402 0.240879
0.201605 0.249234 0.234524
0.236501 0.239067 0.228170
0.271397 0.228900 0.221816
0.306293 0.218732 0.215461
0.341188 0.208565 0.209107
0.370072 0.199370 0.202963
0.397752 0.190368 0.196861
0.425433 0.181367 0.190759
0.453113 0.172365 0.184657
0.480794 0.163364 0.178555
0.501986 0.156310 0.173199
0.519933 0.150231 0.168214
0.537881 0.144151 0.163230
0.555828 0.138071 0.158246
0.573776 0.131991 0.153262
0.587405 0.127191 0.149135
0.596717 0.123671 0.145864
0.606029 0.120151 0.142593
0.615340 0.116630 0.139323
0.624652 0.113110 0.136052
0.631904 0.110062 0.133381
0.635037 0.107960 0.131910
0.638170 0.105857 0.130439
0.641302 0.103755 0.128967
0.644435 0.101652 0.127496
0.646913 0.099625 0.126216
0.646112 0.097977 0.125890
0.645311 0.096328 0.125564
0.644511 0.094680 0.125239
0.643710 0.093031 0.124913
0.642909 0.091383 0.124588
0.160869 0.287430 0.254307
0.194511 0.276713 0.246985
0.228153 0.265996 0.239663
0.261795 0.255278 0.232341
0.295437 0.244561 0.225019
0.329079 0.233844 0.217697
0.358150 0.224166 0.210495
0.386306 0.214697 0.203317
0.414463 0.205228 0.196139
0.442620 0.195759 0.188961
0.470776 0.186290 0.181783
0.492818 0.178641 0.175517
0.511801 0.171902 0.169707
0.530785 0.165164 0.163897
0.549769 0.158426 0.158087
0.568753 0.151687 0.152277
0.583462 0.146165 0.147608
0.593897 0.141861 0.144079
0.604332 0.137556 0.140550
0.614768 0.133251 0.137021
0.625203 0.128946 0.133492
0.633458 0.125082 0.130777
0.637354 0.122100 0.129688
0.641251 0.119118 0.128599
0.645147 0.116135 0.127510
0.649043 0.113153 0.126421
0.652107 0.110211 0.125581
0.651006 0.107467 0.125986
0.649905 0.104723 0.126391
0.648804 0.101979 0.126796
0.647704 0.099235 0.127201
0.646603 0.096491 0.127607
0.155029 0.315459 0.267734
0.187417 0.304192 0.259445
0.219805 0.292924 0.251155
0.252193 0.281657 0.242866
0.284581 0.270389 0.234576
0.316969 0.259122 0.226287
0.346228 0.248963 0.218027
0.374860 0.239026 0.209773
0.403493 0.229089 0.201519
0.432126 0.219152 0.193265
0.460758 0.209215 0.185011
0.483649 0.200971 0.177836
0.503669 0.193574 0.171200
0.523690 0.186177 0.164564
0.543710 0.178780 0.157928
0.563730 0.171383 0.151292
0.579519 0.165140 0.146080
0.591078 0.160050 0.142293
0.602636 0.154961 0.138506
0.614195 0.149871 0.134719
0.625753 0.144782 0.130932
0.635012 0.140102 0.128172
0.639672 0.136240 0.127466
0.644332 0.132378 0.126759
0.648991 0.128516 0.126053
0.653651 0.124654 0.125346
0.657301 0.120796 0.124947
0.655900 0.116957 0.126082
0.654499 0.113117 0.127218
0.653098 0.109278 0.128354
0.651697 0.105438 0.129490
0.650296 0.101599 0.130625
0.149188 0.343488 0.281162
0.180323 0.331670 0.271905
0.211457 0.319853 0.262648
0.242591 0.308035 0.253391
0.273725 0.296218 0.244134
0.304860 0.284400 0.234876
0.334306 0.273760 0.225559
0.363415 0.263355 0.216229
0.392523 0.252950 0.206899
0.421632 0.242546 0.197569
0.450740 0.232141 0.188239
0.474481 0.223302 0.180155
0.495538 0.215246 0.172693
0.516594 0.207190 0.165231
0.537651 0.199135 0.157769
0.558707 0.191079 0.150307
0.575576 0.184114 0.144553
0.588258 0.178240 0.140508
0.600940 0.172366 0.136463
0.613622 0.166492 0.132418
0.626304 0.160618 0.128372
0.636566 0.155121 0.125567
0.641989 0.150380 0.125243
0.647413 0.145638 0.124919
0.652836 0.140897 0.124595
0.658259 0.136155 0.124271
0.662495 0.131382 0.124312
0.660794 0.126447 0.126179
0.659093 0.121512 0.128045
0.657392 0.116577 0.129911
0.655691 0.111642 0.131778
0.653990 0.106707 0.133644
0.143348 0.371517 0.294590
0.173229 0.359149 0.284365
0.203109 0.346781 0.274141
0.232989 0.334414 0.263916
0.262870 0.322046 0.253691
0.292750 0.309678 0.243466
0.322384 0.298557 0.233091
0.351969 0.287684 0.222685
0.381553 0.276811 0.212279
0.411138 0.265939 0.201873
0.440723 0.255066 0.191467
0.465313 0.245632 0.182474
0.487406 0.236918 0.174186
0.509499 0.228203 0.165898
0.531591 0.219489 0.157610
0.553684 0.210774 0.149322
0.571633 0.203088 0.143026
0.585439 0.196429 0.138723
0.599244 0.189771 0.134419
0.613049 0.183112 0.130116
0.626855 0.176454 0.125812
0.638121 0.170141 0.122963
0.644307 0.164520 0.123021
0.650494 0.158899 0.123080
0.656680 0.153278 0.123138
0.662867 0.147657 0.123196
0.667688 0.141967 0.123678
0.665687 0.135937 0.126275
0.663686 0.129906 0.128872
0.661685 0.123876 0.131469
0.659684 0.117845 0.134066
0.657683 0.111815 0.136663
0.141320 0.397808 0.308066
0.169547 0.385524 0.297428
0.197774 0.373240 0.286789
0.226001 0.360956 0.276151
0.254228 0.348672 0.265513
0.282455 0.336388 0.254875
0.311724 0.325215 0.243754
0.341201 0.314265 0.232537
0.370679 0.303314 0.221319
0.400156 0.292364 0.210102
0.429634 0.281414 0.198885
0.454806 0.271783 0.189167
0.477827 0.262812 0.180198
0.500847 0.253841 0.171230
0.523868 0.244871 0.162262
0.546888 0.235900 0.153294
0.565923 0.227844 0.146531
0.580973 0.220702 0.141974
0.596023 0.213560 0.137417
0.611072 0.206418 0.132861
0.626122 0.199277 0.128304
0.638520 0.192379 0.125352
0.645616 0.185968 0.125609
0.652711 0.179558 0.125866
0.659807 0.173147 0.126123
0.666902 0.166737 0.126380
0.672500 0.160197 0.127095
0.670607 0.153008 0.130095
0.668715 0.145818 0.133095
0.666822 0.138629 0.136095
0.664930 0.131440 0.139095
0.663037 0.124251 0.142095
0.140055 0.423752 0.321551
0.166548 0.411678 0.310610
0.193042 0.399604 0.299670
0.219535 0.387531 0.288729
0.246029 0.375457 0.277788
0.272522 0.363383 0.266847
0.301316 0.352245 0.255043
0.330569 0.341295 0.243068
0.359823 0.330345 0.231092
0.389077 0.319395 0.219116
0.418331 0.308445 0.207140
0.444033 0.298697 0.196735
0.467959 0.289551 0.187115
0.491885 0.280404 0.177496
0.515811 0.271258 0.167876
0.539737 0.262111 0.158256
0.559859 0.253756 0.151042
0.576178 0.246191 0.146233
0.592496 0.238626 0.141424
0.608814 0.231062 0.136615
0.625133 0.223497 0.131805
0.638690 0.216060 0.128739
0.646723 0.208878 0.129158
0.654757 0.201697 0.129578
0.662790 0.194515 0.129997
0.670824 0.187333 0.130416
0.677235 0.179955 0.131322
0.675532 0.171595 0.134659
0.673830 0.163234 0.137997
0.672128 0.154874 0.141334
0.670425 0.146513 0.144672
0.668723 0.138153 0.148010
0.138789 0.449697 0.335037
0.163549 0.437833 0.323793
0.188309 0.425969 0.312550
0.213069 0.414105 0.301306
0.237829 0.402242 0.290062
0.262589 0.390378 0.278819
0.290908 0.379276 0.266333
0.319938 0.368326 0.253599
0.348968 0.357376 0.240864
0.377998 0.346427 0.228130
0.407027 0.335477 0.215395
0.433259 0.325612 0.204303
0.458090 0.316290 0.194032
0.482922 0.306967 0.183761
0.507754 0.297645 0.173490
0.532586 0.288323 0.163219
0.553795 0.279668 0.155553
0.571382 0.271680 0.150492
0.588969 0.263692 0.145430
0.606556 0.255705 0.140369
0.624143 0.247717 0.135307
0.638859 0.239741 0.132127
0.647830 0.231788 0.132708
0.656802 0.223835 0.133289
0.665774 0.215882 0.133870
0.674745 0.207929 0.134452
0.681970 0.199713 0.135549
0.680457 0.190181 0.139224
0.678945 0.180650 0.142899
0.677433 0.171118 0.146574
0.675921 0.161586 0.150249
0.674408 0.152054 0.153924
0.137523 0.475641 0.348522
0.160550 0.463987 0.336976
0.183577 0.452334 0.325430
0.206604 0.440680 0.313883
0.229630 0.429027 0.302337
0.252657 0.417373 0.290791
0.280500 0.406306 0.277622
0.309306 0.395357 0.264129
0.338112 0.384407 0.250637
0.366918 0.373458 0.237144
0.395724 0.362508 0.223651
0.422485 0.352527 0.211872
0.448222 0.343028 0.200949
0.473960 0.333530 0.190027
0.499697 0.324032 0.179105
0.525435 0.314534 0.168182
0.547732 0.305580 0.160064
0.566587 0.297169 0.154750
0.585443 0.288758 0.149437
0.604298 0.280348 0.144123
0.623154 0.271937 0.138809
0.639028 0.263422 0.135514
0.648938 0.254698 0.136257
0.658847 0.245974 0.137001
0.668757 0.237250 0.137744
0.678667 0.228526 0.138488
0.686705 0.219472 0.139776
0.685383 0.208768 0.143788
0.684060 0.198065 0.147801
0.682738 0.187362 0.151814
0.681416 0.176659 0.155826
0.680094 0.165956 0.159839
0.136258 0.501585 0.362008
0.157551 0.490142 0.350159
0.178844 0.478698 0.338310
0.200138 0.467255 0.326461
0.221431 0.455812 0.314612
0.242724 0.444368 0.302763
0.270092 0.433337 0.288912
0.298674 0.422388 0.274660
0.327256 0.411438 0.260409
0.355839 0.400489 0.246157
0.384421 0.389540 0.231906
0.411711 0.379441 0.219440
0.438354 0.369767 0.207866
0.464997 0.360093 0.196292
0.491641 0.350419 0.184719
0.518284 0.340745 0.173145
0.541668 0.331491 0.164575
0.561792 0.322658 0.159009
0.581916 0.313825 0.153443
0.602040 0.304991 0.147877
0.622165 0.296158 0.142311
0.639197 0.287103 0.138902
0.650045 0.277608 0.139807
0.660893 0.268113 0.140712
0.671740 0.258617 0.141618
0.682588 0.249122 0.142523
0.691440 0.239230 0.144003
0.690308 0.227355 0.148353
0.689176 0.215481 0.152703
0.688044 0.203607 0.157053
0.686912 0.191732 0.161403
0.685780 0.179858 0.165753
0.136581 0.524120 0.374177
0.156245 0.513127 0.362432
0.175909 0.502134 0.350687
0.195573 0.491141 0.338942
0.215236 0.480148 0.327197
0.234900 0.469155 0.315451
0.261565 0.458415 0.301436
0.289631 0.447726 0.286966
0.317696 0.437036 0.272496
0.345762 0.426347 0.258026
0.373827 0.415658 0.243556
0.401386 0.405694 0.230830
0.428693 0.396094 0.218977
0.455999 0.386494 0.207124
0.483306 0.376894 0.195271
0.510613 0.367294 0.183417
0.534912 0.357996 0.174613
0.556206 0.349000 0.168858
0.577499 0.340005 0.163103
0.598793 0.331010 0.157348
0.620086 0.322014 0.151593
0.638222 0.312709 0.148030
0.650044 0.302785 0.148849
0.661866 0.292861 0.149668
0.673688 0.282937 0.150487
0.685510 0.273013 0.151305
0.695259 0.262652 0.152693
0.694640 0.250110 0.156924
0.694022 0.237567 0.161154
0.693403 0.225025 0.165385
0.692784 0.212483 0.169616
0.692166 0.199940 0.173846
0.137699 0.544950 0.385688
0.155785 0.534528 0.374250
0.173871 0.524105 0.362812
0.191958 0.513682 0.351374
0.210044 0.503260 0.339936
0.228130 0.492837 0.328498
0.253980 0.482517 0.314576
0.281382 0.472217 0.300158
0.308783 0.461918 0.285740
0.336185 0.451618 0.271322
0.363587 0.441318 0.256903
0.391287 0.431617 0.244132
0.419135 0.422216 0.232185
0.446984 0.412814 0.220238
0.474832 0.403412 0.208291
0.502681 0.394011 0.196344
0.527811 0.384796 0.187415
0.550224 0.375770 0.181503
0.572637 0.366743 0.175591
0.595050 0.357716 0.169679
0.617463 0.348689 0.163767
0.636676 0.339277 0.160028
0.649490 0.329096 0.160636
0.662305 0.318914 0.161245
0.675119 0.308733 0.161853
0.687933 0.298551 0.162461
0.698621 0.287907 0.163615
0.698677 0.274948 0.167497
0.698733 0.261989 0.171380
0.698789 0.249030 0.175263
0.698846 0.236072 0.179146
0.698902 0.223113 0.183028
0.138817 0.565781 0.397200
0.155325 0.555929 0.386069
0.171834 0.546076 0.374938
0.188343 0.536224 0.363807
0.204852 0.526372 0.352676
0.221360 0.516519 0.341545
0.246394 0.506619 0.327717
0.273132 0.496709 0.313351
0.299871 0.486799 0.298984
0.326609 0.476889 0.284617
0.353347 0.466979 0.270251
0.381187 0.457540 0.257435
0.409578 0.448337 0.245394
0.437968 0.439134 0.233353
0.466358 0.429931 0.221312
0.494749 0.420728 0.209271
0.520710 0.411597 0.200216
0.544243 0.402539 0.194147
0.567775 0.393481 0.188078
0.591307 0.384422 0.182009
0.614840 0.375364 0.175940
0.635130 0.365845 0.172027
0.648936 0.355406 0.172424
0.662743 0.344967 0.172822
0.676549 0.334528 0.173219
0.690355 0.324089 0.173616
0.701982 0.313161 0.174537
0.702713 0.299786 0.178071
0.703445 0.286411 0.181606
0.704176 0.273036 0.185141
0.704907 0.259661 0.188675
0.705638 0.246286 0.192210
0.139934 0.586611 0.408711
0.154866 0.577329 0.397887
0.169797 0.568048 0.387063
0.184728 0.558766 0.376239
0.199659 0.549484 0.365415
0.214591 0.540202 0.354591
0.238808 0.530721 0.340858
0.264883 0.521201 0.326543
0.290958 0.511680 0.312228
0.317033 0.502160 0.297913
0.343108 0.492639 0.283598
0.371088 0.483463 0.270737
0.400020 0.474458 0.258602
0.428952 0.465454 0.246467
0.457885 0.456449 0.234333
0.486817 0.447445 0.222198
0.513609 0.438398 0.213018
0.538261 0.429308 0.206792
0.562913 0.420218 0.200566
0.587565 0.411129 0.194340
0.612217 0.402039 0.188114
0.633584 0.392414 0.184025
0.648382 0.381717 0.184212
0.663181 0.371021 0.184398
0.677979 0.360324 0.184585
0.692777 0.349628 0.184772
0.705344 0.338416 0.185458
0.706750 0.324624 0.188645
0.708156 0.310833 0.191832
0.709562 0.297041 0.195019
0.710968 0.283250 0.198205
0.712375 0.269458 0.201392
0.141052 0.607442 0.420222
0.154406 0.598730 0.409705
0.167760 0.590019 0.399189
0.181113 0.581307 0.388672
0.194467 0.572596 0.378155
0.207821 0.563884 0.367638
0.231223 0.554823 0.353999
0.256634 0.545692 0.339735
0.282045 0.536561 0.325472
0.307457 0.527430 0.311209
0.332868 0.518299 0.296945
0.360988 0.509385 0.284039
0.390462 0.500579 0.271810
0.419937 0.491774 0.259582
0.449411 0.482968 0.247353
0.478885 0.474162 0.235125
0.506508 0.465198 0.225819
0.532279 0.456077 0.219436
0.558051 0.446956 0.213053
0.583822 0.437835 0.206670
0.609594 0.428714 0.200287
0.632038 0.418982 0.196024
0.647828 0.408028 0.196000
0.663619 0.397074 0.195975
0.679409 0.386120 0.195951
0.695200 0.375166 0.195927
0.708705 0.363670 0.196380
0.710786 0.349462 0.199219
0.712868 0.335254 0.202058
0.714949 0.321046 0.204897
0.717030 0.306839 0.207735
0.719111 0.292631 0.210574
0.142497 0.625377 0.430311
0.154492 0.617251 0.420274
0.166487 0.609125 0.410236
0.178482 0.601000 0.400199
0.190477 0.592874 0.390162
0.202471 0.584748 0.380124
0.224966 0.576175 0.366907
0.249562 0.567512 0.353053
0.274157 0.558849 0.339199
0.298752 0.550186 0.325345
0.323347 0.541522 0.311492
0.351390 0.532966 0.298848
0.381157 0.524464 0.286810
0.410924 0.515961 0.274771
0.440691 0.507459 0.262733
0.470458 0.498956 0.250695
0.498726 0.490212 0.241441
0.525496 0.481224 0.234971
0.552265 0.472237 0.228501
0.579034 0.463250 0.222030
0.605803 0.454263 0.215560
0.629263 0.444629 0.211121
0.646104 0.433702 0.210743
0.662945 0.422775 0.210365
0.679786 0.411848 0.209988
0.696627 0.400921 0.209610
0.711148 0.389451 0.209674
0.714074 0.375264 0.211947
0.717000 0.361077 0.214220
0.719926 0.346889 0.216493
0.722851 0.332702 0.218766
0.725777 0.318515 0.221039
0.144269 0.640416 0.438977
0.155124 0.632892 0.429592
0.165978 0.625367 0.420206
0.176833 0.617843 0.410821
0.187688 0.610318 0.401436
0.198543 0.602794 0.392050
0.220040 0.594776 0.379581
0.243666 0.586659 0.366495
0.267292 0.578542 0.353409
0.290918 0.570425 0.340323
0.314545 0.562308 0.327237
0.342294 0.554206 0.315165
0.372104 0.546112 0.303601
0.401915 0.538017 0.292036
0.431726 0.529923 0.280472
0.461536 0.521828 0.268907
0.490264 0.513437 0.259881
0.517910 0.504750 0.253394
0.545555 0.496062 0.246908
0.573200 0.487374 0.240421
0.600846 0.478686 0.233934
0.625259 0.469356 0.229318
0.643209 0.458740 0.228443
0.661159 0.448125 0.227569
0.679108 0.437509 0.226694
0.697058 0.426893 0.225819
0.712673 0.415759 0.225339
0.716613 0.402029 0.226828
0.720553 0.388300 0.228318
0.724493 0.374570 0.229807
0.728433 0.360841 0.231297
0.732373 0.347111 0.232786
0.146041 0.655455 0.447643
0.155755 0.648532 0.438910
0.165470 0.641609 0.430176
0.175185 0.634686 0.421443
0.184899 0.627763 0.412710
0.194614 0.620840 0.403976
0.215114 0.613377 0.392255
0.237771 0.605806 0.379937
0.260428 0.598235 0.367619
0.283085 0.590664 0.355300
0.305742 0.583093 0.342982
0.333197 0.575446 0.331482
0.363051 0.567759 0.320392
0.392906 0.560073 0.309301
0.422760 0.552387 0.298210
0.452614 0.544701 0.287119
0.481802 0.536663 0.278322
0.510324 0.528275 0.271818
0.538845 0.519887 0.265315
0.567367 0.511498 0.258811
0.595889 0.503110 0.252307
0.621256 0.494083 0.247514
0.640314 0.483778 0.246143
0.659373 0.473474 0.244772
0.678431 0.463170 0.243400
0.697490 0.452865 0.242029
0.714197 0.442066 0.241004
0.719152 0.428794 0.241710
0.724106 0.415523 0.242416
0.729061 0.402251 0.243122
0.734015 0.388979 0.243828
0.738970 0.375707 0.244534
0.147813 0.670495 0.456309
0.156387 0.664173 0.448228
0.164962 0.657851 0.440147
0.173536 0.651529 0.432065
0.182110 0.645207 0.423984
0.190685 0.638885 0.415902
0.210187 0.631978 0.404930
0.231875 0.624953 0.393379
0.253563 0.617928 0.381829
0.275252 0.610904 0.370278
0.296940 0.603879 0.358727
0.324101 0.596685 0.347799
0.353999 0.589407 0.337182
0.383896 0.582129 0.326566
0.413794 0.574851 0.315949
0.443692 0.567573 0.305332
0.473340 0.559889 0.296763
0.502738 0.551800 0.290242
0.532135 0.543711 0.283722
0.561533 0.535622 0.277201
0.590931 0.527533 0.270681
0.617252 0.518810 0.265711
0.637419 0.508816 0.263843
0.657587 0.498823 0.261975
0.677754 0.488830 0.260107
0.697921 0.478837 0.258239
0.715722 0.468374 0.256669
0.721691 0.455560 0.256591
0.727660 0.442746 0.256514
0.733628 0.429932 0.256436
0.739597 0.417118 0.256359
0.745566 0.404304 0.256281
0.149585 0.685534 0.464976
0.157019 0.679813 0.457546
0.164453 0.674093 0.450117
0.171887 0.668372 0.442687
0.179322 0.662652 0.435258
0.186756 0.656931 0.427828
0.205261 0.650579 0.417604
0.225980 0.644100 0.406821
0.246699 0.637622 0.396038
0.267418 0.631143 0.385256
0.288137 0.624664 0.374473
0.315005 0.617925 0.364116
0.344946 0.611055 0.353973
0.374887 0.604185 0.343830
0.404829 0.597315 0.333687
0.434770 0.590445 0.323544
0.464878 0.583115 0.315204
0.495152 0.575325 0.308666
0.525426 0.567536 0.302129
0.555700 0.559746 0.295591
0.585974 0.551957 0.289054
0.613248 0.543536 0.283907
0.634524 0.533854 0.281543
0.655800 0.524173 0.279178
0.677076 0.514491 0.276813
0.698352 0.504809 0.274448
0.717246 0.494681 0.272334
0.724229 0.482325 0.271473
0.731213 0.469969 0.270612
0.738196 0.457612 0.269751
0.745179 0.445256 0.268890
0.752162 0.432900 0.268028
0.151260 0.698681 0.472659
0.157702 0.693521 0.465882
0.164144 0.688361 0.459106
0.170586 0.683201 0.452330
0.177028 0.678041 0.445553
0.183470 0.672882 0.438777
0.200942 0.667067 0.429361
0.220619 0.661122 0.419417
0.240296 0.655177 0.409474
0.259973 0.649232 0.399530
0.279650 0.643287 0.389587
0.306068 0.637011 0.379883
0.335858 0.630570 0.370299
0.365647 0.624129 0.360716
0.395436 0.617687 0.351132
0.425225 0.611246 0.341549
0.455644 0.604312 0.333505
0.486690 0.596885 0.327002
0.517737 0.589459 0.320500
0.548784 0.582032 0.313997
0.579831 0.574605 0.307494
0.608014 0.566567 0.302209
0.630470 0.557306 0.299363
0.652926 0.548044 0.296516
0.675382 0.538783 0.293670
0.697837 0.529522 0.290823
0.717897 0.519844 0.288184
0.725976 0.508089 0.286580
0.734054 0.496333 0.284977
0.742133 0.484577 0.283374
0.750212 0.472821 0.281771
0.758291 0.461065 0.280168
0.152741 0.708042 0.478376
0.158487 0.703362 0.472255
0.164233 0.698682 0.466134
0.169979 0.694002 0.460013
0.175725 0.689322 0.453892
0.181471 0.684642 0.447771
0.197837 0.679331 0.439283
0.216325 0.673895 0.430322
0.234814 0.668459 0.421360
0.253303 0.663022 0.412399
0.271792 0.657586 0.403438
0.297452 0.651793 0.394549
0.326698 0.645821 0.385696
0.355944 0.639848 0.376843
0.385190 0.633876 0.367991
0.414436 0.627904 0.359138
0.444866 0.621450 0.351529
0.476479 0.614514 0.345163
0.508092 0.607577 0.338797
0.539705 0.600641 0.332432
0.571317 0.593704 0.326066
0.600319 0.586206 0.320723
0.624096 0.577584 0.317424
0.647874 0.568961 0.314125
0.671652 0.560339 0.310827
0.695429 0.551716 0.307528
0.716800 0.542719 0.304402
0.726137 0.531849 0.302140
0.735473 0.520979 0.299877
0.744810 0.510109 0.297615
0.754147 0.499239 0.295353
0.763483 0.488369 0.293090
0.154223 0.717404 0.484094
0.159273 0.713204 0.478628
0.164323 0.709003 0.473162
0.169373 0.704803 0.467696
0.174423 0.700602 0.462230
0.179473 0.696402 0.456765
0.194732 0.691595 0.449205
0.212032 0.686668 0.441226
0.229333 0.681740 0.433247
0.246634 0.676813 0.425268
0.263935 0.671885 0.417289
0.288837 0.666574 0.409214
0.317539 0.661071 0.401093
0.346242 0.655568 0.392971
0.374945 0.650065 0.384849
0.403647 0.644563 0.376727
0.434088 0.638588 0.369552
0.466267 0.632142 0.363324
0.498446 0.625696 0.357095
0.530625 0.619250 0.350867
0.562804 0.612803 0.344639
0.592623 0.605845 0.339236
0.617723 0.597861 0.335485
0.642822 0.589878 0.331735
0.667922 0.581894 0.327984
0.693021 0.573911 0.324233
0.715703 0.565594 0.320621
0.726298 0.555610 0.317699
0.736892 0.545626 0.314778
0.747487 0.535642 0.311856
0.758081 0.525658 0.308935
0.768675 0.515673 0.306013
0.155704 0.726766 0.489811
0.160058 0.723045 0.485001
0.164412 0.719324 0.480190
0.168766 0.715603 0.475380
0.173120 0.711882 0.470569
0.177474 0.708162 0.465759
0.191626 0.703859 0.459126
0.207739 0.699440 0.452130
0.223852 0.695021 0.445133
0.239964 0.690603 0.438136
0.256077 0.686184 0.431140
0.280221 0.681355 0.423880
0.308380 0.676322 0.416489
0.336539 0.671288 0.409098
0.364699 0.666255 0.401707
0.392858 0.661221 0.394316
0.423310 0.655726 0.387576
0.456055 0.649770 0.381484
0.488800 0.643814 0.375393
0.521545 0.637858 0.369302
0.554290 0.631903 0.363211
0.584928 0.625484 0.357750
0.611349 0.618139 0.353547
0.637770 0.610794 0.349344
0.664192 0.603450 0.345141
0.690613 0.596105 0.340938
0.714607 0.588468 0.336839
0.726459 0.579370 0.333258
0.738311 0.570272 0.329678
0.750163 0.561174 0.326097
0.762016 0.552076 0.322517
0.773868 0.542978 0.318936
0.157185 0.736128 0.495528
0.160843 0.732886 0.491373
0.164501 0.729645 0.487218
0.168159 0.726404 0.483063
0.171817 0.723163 0.478908
0.175475 0.719922 0.474753
0.188521 0.716123 0.469048
0.203446 0.712213 0.463034
0.218370 0.708303 0.457019
0.233295 0.704393 0.451005
0.248219 0.700482 0.444990
0.271605 0.696136 0.438546
0.299221 0.691572 0.431886
0.326837 0.687008 0.425226
0.354453 0.682444 0.418566
0.382069 0.677880 0.411906
0.412533 0.672865 0.405599
0.445844 0.667399 0.399645
0.479155 0.661933 0.393691
0.512466 0.656467 0.387738
0.545777 0.651002 0.381784
0.577232 0.645123 0.376263
0.604975 0.638417 0.371608
0.632719 0.631711 0.366953
0.660462 0.625006 0.362298
0.688205 0.618300 0.357643
0.713510 0.611343 0.353057
0.726620 0.603131 0.348818
0.739730 0.594918 0.344578
0.752840 0.586706 0.340338
0.765950 0.578494 0.336099
0.779060 0.570282 0.331859
0.158623 0.744473 0.500853
0.161624 0.741705 0.497323
0.164625 0.738937 0.493793
0.167626 0.736169 0.490264
0.170628 0.733401 0.486734
0.173629 0.730633 0.483204
0.185553 0.727330 0.478379
0.199261 0.723919 0.473296
0.212969 0.720509 0.468212
0.226677 0.717098 0.463128
0.240385 0.713687 0.458045
0.262930 0.709819 0.452381
0.289893 0.705722 0.446427
0.316856 0.701625 0.440473
0.343819 0.697528 0.434519
0.370782 0.693431 0.428565
0.401165 0.688895 0.422692
0.434970 0.683921 0.416900
0.468774 0.678946 0.411109
0.502578 0.673971 0.405317
0.536382 0.668997 0.399525
0.568620 0.663653 0.393985
0.597726 0.657573 0.388951
0.626832 0.651492 0.383916
0.655937 0.645411 0.378881
0.685043 0.639330 0.373846
0.711701 0.633034 0.368851
0.726120 0.625661 0.364052
0.740539 0.618288 0.359254
0.754958 0.610915 0.354455
0.769377 0.603542 0.349657
0.783796 0.596169 0.344858
0.159839 0.747735 0.504212
0.162381 0.745408 0.501158
0.164923 0.743082 0.498104
0.167464 0.740755 0.495051
0.170006 0.738429 0.491997
0.172548 0.736102 0.488944
0.183264 0.733250 0.484759
0.195616 0.730294 0.480347
0.207968 0.727337 0.475936
0.220319 0.724380 0.471525
0.232671 0.721424 0.467114
0.253962 0.718011 0.462062
0.279722 0.714370 0.456691
0.305482 0.710729 0.451319
0.331243 0.707088 0.445947
0.357003 0.703448 0.440575
0.386850 0.699388 0.435136
0.420783 0.694909 0.429629
0.454717 0.690430 0.424123
0.488650 0.685951 0.418616
0.522584 0.681472 0.413109
0.555429 0.676644 0.407753
0.586099 0.671117 0.402699
