Assets/1__3DArt/KimSe/artstation_asset/LUTs_pasterls/CUBE/Candylandia 02.cube
# Enhanced with VOXCOLOR algorithms
LUT_3D_SIZE 8
DOMAIN_MIN 0.000000 0.000000 0.000000
DOMAIN_MAX 0.903226 0.903226 0.903226
0.164706 0.219608 0.129412
0.426583 0.199697 0.095043
0.625416 0.189505 0.076219
0.761986 0.186886 0.068789
0.840756 0.189611 0.068738
0.870687 0.194772 0.071413
0.881372 0.199017 0.072375
0.885247 0.202155 0.071791
0.160463 0.415824 0.170229
0.355907 0.368589 0.129012
0.541206 0.334341 0.100599
0.694441 0.307440 0.083676
0.800899 0.283723 0.076449
0.853213 0.262674 0.076138
0.875802 0.245254 0.076461
0.885135 0.230615 0.075242
0.179964 0.567266 0.197436
0.314586 0.517654 0.159440
0.473456 0.477435 0.127366
0.627214 0.441229 0.103269
0.752906 0.405190 0.088372
0.830068 0.368883 0.083592
0.869240 0.334476 0.083256
0.887223 0.301890 0.082778
0.218665 0.676985 0.211429
0.301061 0.638518 0.182188
0.426334 0.604348 0.151381
0.568008 0.570876 0.123557
0.702952 0.535366 0.102465
0.803078 0.496084 0.092949
0.861466 0.453847 0.091937
0.891068 0.409367 0.093252
0.271989 0.749570 0.213445
0.312938 0.726190 0.194600
0.402470 0.704343 0.168812
0.522869 0.682105 0.141307
0.656214 0.657624 0.116952
0.773731 0.627461 0.103474
0.851988 0.589284 0.101788
0.895840 0.543549 0.105608
0.335340 0.790426 0.206190
0.348667 0.777886 0.195636
0.405657 0.767469 0.176753
0.498891 0.758400 0.153458
0.618384 0.749476 0.129945
0.742696 0.736920 0.114552
0.838442 0.715169 0.112303
0.898743 0.682661 0.118809
0.395934 0.815721 0.196996
0.394277 0.808681 0.191397
0.426338 0.804590 0.178651
0.492742 0.803709 0.160875
0.590923 0.805728 0.140880
0.711039 0.808495 0.125803
0.818806 0.805384 0.123413
0.895657 0.792324 0.132392
0.441576 0.831477 0.189128
0.437224 0.828247 0.186002
0.453974 0.827653 0.178046
0.497885 0.830786 0.165766
0.572411 0.838275 0.150518
0.680231 0.850377 0.137356
0.793825 0.861484 0.135390
0.885774 0.865671 0.146877
0.171360 0.269159 0.312599
0.417852 0.241273 0.271065
0.613853 0.224177 0.236572
0.753907 0.215936 0.209871
0.837502 0.214422 0.190954
0.870402 0.216750 0.178559
0.882313 0.218914 0.168727
0.886619 0.220246 0.160533
0.176742 0.450393 0.315805
0.360596 0.393284 0.267774
0.538957 0.351663 0.228738
0.689426 0.320830 0.199509
0.796496 0.296820 0.180025
0.850939 0.277350 0.168967
0.875037 0.260528 0.160366
0.885261 0.245521 0.151507
0.203204 0.590730 0.313234
0.328540 0.531861 0.267979
0.478863 0.484769 0.228046
0.626541 0.445411 0.196094
0.749612 0.410380 0.173806
0.827194 0.377396 0.162414
0.867528 0.345174 0.156071
0.886698 0.313444 0.149625
0.246481 0.693130 0.305010
0.321025 0.647367 0.267800
0.437615 0.607391 0.230364
0.571740 0.570977 0.197138
0.701690 0.536028 0.171708
0.800252 0.499774 0.158686
0.859154 0.460152 0.154463
0.890140 0.417273 0.152202
0.302159 0.761805 0.291685
0.336377 0.733461 0.264363
0.417793 0.707104 0.232319
0.530186 0.681896 0.200395
0.656935 0.656644 0.173064
0.771090 0.627869 0.157645
0.849139 0.591641 0.154539
0.894490 0.547587 0.156986
0.364927 0.801133 0.274728
0.372978 0.785525 0.255967
0.422998 0.771891 0.231036
0.508582 0.760069 0.203512
0.620818 0.749320 0.177210
0.740445 0.736303 0.159980
0.835172 0.715095 0.156462
0.896830 0.683527 0.162349
0.422190 0.825105 0.258031
0.417095 0.816317 0.245130
0.443895 0.810142 0.226742
0.503806 0.807099 0.204855
0.595024 0.807125 0.182042
0.709616 0.808473 0.164893
0.815346 0.804804 0.160570
0.893068 0.791853 0.168105
0.463195 0.839269 0.242875
0.456742 0.835121 0.233890
0.470015 0.833312 0.220921
0.509098 0.834951 0.204598
0.577702 0.840731 0.186259
0.679599 0.851134 0.170601
0.790009 0.861155 0.165940
0.882096 0.865054 0.174717
0.186560 0.342507 0.491034
0.408567 0.307090 0.446442
0.598467 0.282124 0.403884
0.742378 0.266332 0.366584
0.832876 0.258126 0.336633
0.870606 0.255287 0.314805
0.884564 0.253619 0.297966
0.889595 0.251992 0.284788
0.200793 0.501975 0.476598
0.365321 0.442422 0.428505
0.533922 0.395729 0.384405
0.681877 0.359398 0.346925
0.791272 0.331065 0.317652
0.849517 0.309061 0.297064
0.875961 0.290374 0.280525
0.887434 0.273660 0.265191
0.234124 0.626307 0.457564
0.344853 0.566621 0.412087
0.484282 0.515888 0.368540
0.625504 0.472439 0.330481
0.746659 0.434615 0.300488
0.825589 0.400906 0.280950
0.867579 0.368742 0.267385
0.888144 0.337051 0.254749
0.282032 0.717878 0.434832
0.346020 0.671196 0.395663
0.452219 0.628172 0.354898
0.577869 0.588426 0.317048
0.702462 0.551283 0.285874
0.799375 0.514987 0.266436
0.858623 0.476636 0.256407
0.890809 0.435339 0.249482
0.339912 0.780103 0.409391
0.366836 0.750385 0.378097
0.439274 0.721222 0.342257
0.542649 0.692906 0.306304
0.661752 0.665219 0.274427
0.771444 0.635878 0.253843
0.848220 0.600974 0.246237
0.894268 0.559266 0.246123
0.401799 0.816176 0.382655
0.405062 0.799274 0.358728
0.448031 0.783282 0.329420
0.525361 0.768576 0.297866
0.629241 0.754970 0.267484
0.742457 0.740148 0.245581
0.834224 0.718989 0.237899
0.895701 0.689057 0.242358
0.455933 0.837775 0.357072
0.447952 0.828139 0.338621
0.469698 0.820325 0.315600
0.522860 0.815017 0.289779
0.606275 0.812378 0.263420
0.713564 0.811237 0.242292
0.814870 0.806253 0.233786
0.891320 0.793480 0.239164
0.493161 0.849913 0.333023
0.484785 0.845243 0.318525
0.494622 0.842413 0.300809
0.528669 0.842491 0.280607
0.590756 0.846186 0.259200
0.685343 0.854145 0.240741
0.790262 0.862219 0.232754
0.880023 0.865276 0.238498
0.209348 0.430342 0.646297
0.402764 0.390265 0.602909
0.583564 0.358841 0.559122
0.729853 0.335721 0.518929
0.827385 0.320163 0.485162
0.870911 0.311076 0.459533
0.887490 0.304619 0.439720
0.893452 0.299265 0.424366
0.231697 0.563739 0.628862
0.372990 0.507269 0.585602
0.529437 0.458792 0.541944
0.673893 0.418033 0.501540
0.785816 0.384494 0.467034
0.848664 0.358126 0.440336
0.877972 0.336180 0.418534
0.890911 0.316834 0.399066
0.271403 0.668917 0.604878
0.364680 0.614153 0.564502
0.491326 0.563554 0.522235
0.625125 0.517566 0.482094
0.744215 0.476345 0.447265
0.824887 0.440104 0.421144
0.868843 0.406648 0.401362
0.890921 0.374275 0.383730
0.323574 0.747427 0.576239
0.375550 0.704393 0.540514
0.470008 0.661638 0.500994
0.586137 0.620194 0.461905
0.704753 0.580681 0.426954
0.799831 0.542963 0.401408
0.859331 0.504834 0.385106
0.892589 0.464767 0.373430
0.383343 0.801677 0.544696
0.402773 0.773510 0.514481
0.465523 0.743875 0.479051
0.558931 0.713776 0.442109
0.669418 0.683766 0.407316
0.773808 0.652996 0.381330
0.848621 0.618722 0.367846
0.894823 0.579364 0.364090
0.444172 0.833592 0.512021
0.443129 0.817034 0.487124
0.478924 0.800025 0.456989
0.547381 0.783213 0.424046
0.641898 0.766814 0.391069
0.747376 0.749567 0.364232
0.834855 0.727900 0.350780
0.895085 0.699689 0.352322
0.495375 0.852393 0.480278
0.485094 0.842800 0.459423
0.501948 0.834048 0.434524
0.548044 0.826826 0.406922
0.622830 0.821428 0.378354
0.721384 0.817193 0.353196
0.816529 0.810229 0.339158
0.890137 0.797416 0.340914
0.529453 0.862477 0.449616
0.519594 0.857709 0.431565
0.526166 0.854163 0.410993
0.555008 0.852786 0.388635
0.609997 0.854248 0.365592
0.696079 0.859253 0.345099
0.793685 0.864659 0.333634
0.879136 0.866294 0.335645
0.238883 0.523674 0.764989
0.403621 0.483530 0.726820
0.572620 0.448947 0.687516
0.718373 0.420572 0.650800
0.821466 0.398647 0.619378
0.870957 0.383477 0.595086
0.890513 0.372127 0.576169
0.897568 0.362801 0.561370
0.268533 0.629158 0.753802
0.385935 0.579630 0.718505
0.528318 0.533288 0.680273
0.667342 0.491198 0.642736
0.780702 0.454156 0.608724
0.848128 0.423637 0.580734
0.880502 0.398143 0.557456
0.894993 0.375809 0.536958
0.313724 0.713786 0.733915
0.388925 0.667341 0.702192
0.501437 0.620837 0.666084
0.626433 0.575682 0.629187
0.742559 0.533034 0.594546
0.824807 0.494469 0.565727
0.870809 0.459262 0.542484
0.894406 0.425795 0.522154
0.369384 0.778258 0.707798
0.409094 0.741775 0.679890
0.490922 0.702788 0.646623
0.596478 0.662718 0.611291
0.708275 0.622729 0.576960
0.801160 0.583797 0.548241
0.860802 0.545345 0.527119
0.894998 0.506089 0.511535
0.430527 0.823945 0.677681
0.442688 0.799521 0.653430
0.495306 0.772049 0.623454
0.577958 0.742545 0.590280
0.678967 0.711782 0.556597
0.777398 0.679809 0.527581
0.849823 0.645653 0.508620
0.895822 0.608254 0.500470
0.490160 0.851511 0.645525
0.485350 0.836693 0.624284
0.513912 0.820291 0.597946
0.572970 0.802845 0.567921
0.657268 0.784659 0.535996
0.754045 0.765135 0.506351
0.836415 0.742545 0.487110
0.894728 0.715725 0.484023
0.538609 0.867632 0.613315
0.526652 0.858886 0.593998
0.538793 0.850051 0.571094
0.577536 0.841642 0.545276
0.642958 0.833926 0.517499
0.731693 0.826525 0.490094
0.819535 0.817144 0.470497
0.889257 0.803916 0.466948
0.569975 0.875989 0.581244
0.559264 0.871526 0.562765
0.562876 0.867639 0.542418
0.586427 0.865076 0.520792
0.633812 0.864396 0.498653
0.710423 0.866218 0.477907
0.799380 0.868455 0.463535
0.879025 0.868139 0.461104
0.275759 0.609546 0.835601
0.414719 0.575142 0.805534
0.569218 0.542757 0.774419
0.710034 0.513662 0.745229
0.815482 0.488847 0.720144
0.870156 0.469894 0.700714
0.892881 0.455257 0.685537
0.901322 0.443117 0.673486
0.311109 0.689050 0.832454
0.407107 0.649281 0.806315
0.534135 0.609538 0.776859
0.664858 0.571007 0.746918
0.776958 0.534789 0.718782
0.847683 0.502968 0.694640
0.882819 0.475614 0.674140
0.898797 0.451456 0.656090
0.360013 0.754434 0.820889
0.419170 0.717915 0.798942
0.517140 0.679259 0.772312
0.631637 0.639542 0.743542
0.742810 0.599816 0.714880
0.825365 0.561785 0.689039
0.872920 0.526270 0.666893
0.897754 0.492601 0.647342
0.417567 0.805718 0.803129
0.446619 0.777087 0.784942
0.515924 0.744976 0.761506
0.610055 0.710221 0.734849
0.713736 0.673629 0.706961
0.803390 0.636052 0.680850
0.862649 0.598340 0.659186
0.897391 0.560326 0.642068
0.478936 0.843415 0.781206
0.485093 0.823934 0.765812
0.527964 0.801067 0.745313
0.599551 0.775256 0.720977
0.690308 0.746895 0.694286
0.781968 0.715883 0.668132
0.851487 0.682554 0.647571
0.896844 0.647023 0.635582
0.536928 0.867190 0.756864
0.529365 0.855015 0.742803
0.551173 0.840886 0.724554
0.600774 0.824940 0.702524
0.674323 0.807233 0.677425
0.761667 0.787129 0.650984
0.838386 0.764178 0.629880
0.894330 0.738420 0.621467
0.582745 0.881382 0.731731
0.569955 0.874006 0.717756
0.577893 0.866030 0.701041
0.609340 0.857647 0.681595
0.664973 0.848931 0.659571
0.743156 0.839440 0.635205
0.823071 0.828068 0.613968
0.888341 0.814178 0.604859
0.611775 0.888844 0.705835
0.601056 0.884922 0.691009
0.602317 0.881138 0.674979
0.620803 0.877943 0.658087
0.660349 0.875680 0.640695
0.726839 0.874731 0.623392
0.806351 0.873891 0.609063
0.879187 0.871360 0.602795
0.317207 0.677961 0.873586
0.433337 0.651751 0.851446
0.571916 0.625273 0.828466
0.704652 0.599693 0.806820
0.809652 0.576126 0.788127
0.868329 0.556743 0.773651
0.894042 0.541339 0.762404
0.903947 0.528423 0.753494
0.356594 0.736898 0.874517
0.434521 0.707229 0.856379
0.546158 0.676198 0.835341
0.666629 0.644511 0.813446
0.774882 0.612977 0.792379
0.847083 0.583443 0.773803
0.884233 0.557039 0.757754
0.901381 0.533370 0.743583
0.407418 0.786759 0.869172
0.453583 0.759600 0.855168
0.537809 0.729907 0.837193
0.640947 0.698089 0.816956
0.745302 0.664675 0.795983
0.826404 0.630706 0.776014
0.874551 0.597687 0.757951
0.900034 0.566007 0.741487
0.465186 0.827200 0.859172
0.485989 0.805723 0.848682
0.543962 0.781115 0.833996
0.626703 0.753539 0.816316
0.721338 0.723237 0.796825
0.806501 0.690294 0.777080
0.864475 0.655908 0.758943
0.899038 0.620905 0.743051
0.525428 0.858216 0.846040
0.527242 0.843243 0.837868
0.561621 0.825502 0.825965
0.622794 0.804914 0.810907
0.703257 0.781421 0.793392
0.787577 0.754308 0.774551
0.853535 0.724063 0.757359
0.897535 0.691583 0.744277
0.581083 0.878942 0.831272
0.571806 0.869220 0.823657
0.587942 0.857892 0.813306
0.628961 0.844765 0.800205
0.692259 0.829621 0.784491
0.770183 0.811506 0.766391
0.840941 0.790205 0.749480
0.893974 0.766315 0.738789
0.624170 0.891884 0.815929
0.611226 0.885789 0.807639
0.615808 0.879091 0.797748
0.640773 0.871719 0.786042
0.687235 0.863549 0.772348
0.755149 0.853981 0.756059
0.827122 0.842389 0.739786
0.887638 0.828698 0.729283
0.650827 0.898960 0.799458
0.640768 0.895633 0.789918
0.640441 0.892300 0.779794
0.654576 0.889105 0.769266
0.686833 0.886161 0.758488
0.743502 0.883616 0.747558
0.813691 0.880848 0.737490
0.879518 0.876836 0.730853
0.359911 0.729971 0.893858
0.454668 0.711058 0.878259
0.576928 0.691614 0.862238
0.700381 0.671960 0.847168
0.803744 0.652612 0.834087
0.865764 0.635314 0.823912
0.894051 0.620735 0.816052
0.904958 0.608034 0.810003
0.402455 0.773946 0.896538
0.464381 0.752708 0.884606
0.561141 0.730336 0.870440
0.670734 0.706700 0.855434
0.773837 0.681926 0.840747
0.846288 0.656996 0.827528
0.884717 0.633422 0.815894
0.902491 0.611665 0.805551
0.454150 0.812058 0.895132
0.489342 0.792482 0.886787
0.560831 0.771120 0.875400
0.652592 0.747661 0.862133
0.749211 0.721988 0.848011
0.827651 0.694181 0.834043
0.875544 0.665672 0.820743
0.901012 0.637614 0.808050
0.511113 0.843942 0.890743
0.525231 0.828130 0.885310
0.573059 0.810276 0.876854
0.644946 0.790005 0.866148
0.730308 0.767040 0.853911
0.810228 0.740646 0.840800
0.866153 0.711634 0.827580
0.899752 0.681343 0.814613
0.569411 0.869425 0.884453
0.567827 0.857922 0.880805
0.594852 0.844762 0.874779
0.646593 0.829535 0.866694
0.717336 0.811840 0.856880
0.794309 0.790423 0.845555
0.856193 0.765287 0.833683
0.897959 0.737562 0.822320
0.622353 0.887463 0.877598
0.611790 0.879582 0.874144
0.623189 0.870852 0.869268
0.656835 0.860909 0.862936
0.711112 0.849355 0.855140
0.780409 0.835002 0.845622
0.845044 0.817348 0.835351
0.894265 0.797041 0.826271
0.662567 0.899167 0.870654
0.649686 0.894129 0.866550
0.651622 0.888794 0.861751
0.671255 0.882954 0.856176
0.709998 0.876379 0.849721
0.768887 0.868402 0.841930
0.833107 0.858503 0.833323
0.888189 0.846758 0.825865
0.686265 0.905469 0.862314
0.677309 0.902998 0.857617
0.675984 0.900475 0.852561
0.686598 0.897845 0.847375
0.712651 0.895074 0.842263
0.760583 0.892180 0.837483
0.821963 0.888954 0.833043
0.880808 0.884901 0.829068
