Assets/1__3DArt/KimSe/artstation_asset/LUTs_pasterls/CUBE/Candylandia 04 S.cube
# Enhanced with VOXCOLOR algorithms
LUT_3D_SIZE 32
0.152941 0.258824 0.188235
0.224476 0.261969 0.189254
0.296012 0.265115 0.190272
0.367547 0.268260 0.191291
0.439083 0.271405 0.192310
0.510618 0.274551 0.193328
0.564235 0.278055 0.196072
0.614269 0.281630 0.199161
0.664302 0.285205 0.202250
0.714335 0.288781 0.205339
0.764368 0.292356 0.208428
0.799151 0.295328 0.211433
0.826308 0.297998 0.214395
0.853465 0.300669 0.217357
0.880622 0.303339 0.220319
0.907779 0.306009 0.223281
0.926751 0.308067 0.225565
0.937538 0.309512 0.227172
0.948325 0.310958 0.228778
0.959112 0.312404 0.230385
0.969899 0.313849 0.231991
0.977971 0.314976 0.233111
0.980614 0.315466 0.233256
0.983257 0.315955 0.233402
0.985900 0.316445 0.233547
0.988543 0.316934 0.233693
0.990792 0.317352 0.233735
0.991065 0.317411 0.233263
0.991338 0.317470 0.232790
0.991611 0.317529 0.232318
0.991884 0.317588 0.231845
0.992157 0.317647 0.231373
0.132393 0.291834 0.188090
0.200947 0.293291 0.188498
0.269502 0.294748 0.188906
0.338057 0.296205 0.189314
0.406611 0.297662 0.189722
0.475166 0.299119 0.190130
0.528534 0.301146 0.192007
0.578864 0.303286 0.194178
0.629195 0.305427 0.196348
0.679526 0.307568 0.198519
0.729856 0.309708 0.200690
0.765593 0.311272 0.202874
0.794033 0.312547 0.205065
0.822474 0.313822 0.207256
0.850914 0.315096 0.209447
0.879354 0.316371 0.211638
0.899844 0.317260 0.213480
0.912386 0.317763 0.214974
0.924927 0.318265 0.216467
0.937468 0.318768 0.217960
0.950009 0.319271 0.219454
0.959941 0.319698 0.220752
0.964655 0.319974 0.221662
0.969368 0.320250 0.222572
0.974082 0.320526 0.223482
0.978795 0.320802 0.224392
0.983043 0.321072 0.225293
0.984962 0.321314 0.226155
0.986882 0.321555 0.227017
0.988801 0.321797 0.227879
0.990720 0.322038 0.228741
0.992639 0.322280 0.229603
0.111845 0.324845 0.187944
0.177419 0.324613 0.187742
0.242992 0.324381 0.187540
0.308566 0.324150 0.187337
0.374139 0.323918 0.187135
0.439713 0.323687 0.186933
0.492832 0.324237 0.187942
0.543460 0.324943 0.189194
0.594088 0.325649 0.190447
0.644716 0.326355 0.191699
0.695345 0.327061 0.192951
0.732036 0.327216 0.194315
0.761759 0.327095 0.195735
0.791483 0.326975 0.197155
0.821206 0.326854 0.198575
0.850929 0.326734 0.199995
0.872938 0.326453 0.201396
0.887234 0.326013 0.202776
0.901529 0.325572 0.204156
0.915824 0.325132 0.205536
0.930119 0.324692 0.206916
0.941911 0.324419 0.208394
0.948695 0.324482 0.210068
0.955479 0.324544 0.211742
0.962263 0.324607 0.213416
0.969047 0.324669 0.215091
0.975295 0.324792 0.216852
0.978860 0.325216 0.219048
0.982426 0.325640 0.221244
0.985991 0.326064 0.223440
0.989556 0.326488 0.225636
0.993121 0.326913 0.227832
0.091297 0.357855 0.187799
0.153890 0.355935 0.186986
0.216482 0.354015 0.186173
0.279075 0.352095 0.185360
0.341668 0.350175 0.184547
0.404260 0.348255 0.183735
0.457131 0.347328 0.183877
0.508056 0.346599 0.184211
0.558982 0.345870 0.184545
0.609907 0.345141 0.184878
0.660833 0.344413 0.185212
0.698479 0.343159 0.185756
0.729485 0.341643 0.186405
0.760492 0.340128 0.187054
0.791498 0.338612 0.187704
0.822504 0.337096 0.188353
0.846032 0.335646 0.189311
0.862082 0.334263 0.190578
0.878131 0.332880 0.191845
0.894180 0.331496 0.193112
0.910230 0.330113 0.194378
0.923881 0.329141 0.196036
0.932736 0.328990 0.198474
0.941590 0.328839 0.200913
0.950445 0.328688 0.203351
0.959299 0.328537 0.205789
0.967547 0.328513 0.208410
0.972758 0.329119 0.211940
0.977969 0.329726 0.215471
0.983181 0.330332 0.219001
0.988392 0.330939 0.222531
0.993603 0.331545 0.226062
0.070749 0.390865 0.187654
0.130361 0.387257 0.186230
0.189972 0.383648 0.184807
0.249584 0.380040 0.183383
0.309196 0.376431 0.181960
0.368808 0.372823 0.180537
0.421429 0.370419 0.179812
0.472652 0.368255 0.179228
0.523875 0.366092 0.178643
0.575098 0.363928 0.178058
0.626321 0.361765 0.177474
0.664922 0.359103 0.177197
0.697211 0.356192 0.177076
0.729501 0.353281 0.176954
0.761790 0.350369 0.176832
0.794080 0.347458 0.176710
0.819126 0.344839 0.177226
0.836930 0.342513 0.178380
0.854733 0.340187 0.179533
0.872537 0.337861 0.180687
0.890340 0.335534 0.181841
0.905851 0.333862 0.183678
0.916776 0.333498 0.186880
0.927701 0.333133 0.190083
0.938626 0.332769 0.193286
0.949551 0.332405 0.196488
0.959799 0.332233 0.199968
0.966656 0.333022 0.204833
0.973513 0.333811 0.209697
0.980371 0.334600 0.214562
0.987228 0.335389 0.219427
0.994086 0.336178 0.224291
0.050201 0.423875 0.187508
0.106832 0.418578 0.185474
0.163462 0.413282 0.183441
0.220093 0.407985 0.181407
0.276724 0.402688 0.179373
0.333355 0.397391 0.177339
0.385727 0.393510 0.175747
0.437248 0.389912 0.174244
0.488768 0.386313 0.172741
0.540289 0.382715 0.171238
0.591809 0.379117 0.169735
0.631364 0.375047 0.168639
0.664937 0.370740 0.167746
0.698510 0.366434 0.166853
0.732082 0.362127 0.165960
0.765655 0.357820 0.165067
0.792220 0.354033 0.165141
0.811778 0.350763 0.166182
0.831335 0.347494 0.167222
0.850893 0.344225 0.168263
0.870451 0.340956 0.169303
0.887821 0.338584 0.171319
0.900817 0.338006 0.175286
0.913812 0.337428 0.179253
0.926808 0.336850 0.183220
0.939803 0.336273 0.187187
0.952050 0.335953 0.191526
0.960554 0.336925 0.197725
0.969057 0.337896 0.203924
0.977561 0.338868 0.210123
0.986064 0.339839 0.216322
0.994568 0.340811 0.222521
0.041739 0.451652 0.190487
0.094790 0.445782 0.188139
0.147842 0.439912 0.185790
0.200893 0.434042 0.183441
0.253944 0.428173 0.181093
0.306996 0.422303 0.178744
0.358214 0.417737 0.176569
0.409065 0.413433 0.174429
0.459917 0.409128 0.172289
0.510768 0.404823 0.170148
0.561620 0.400519 0.168008
0.601726 0.395858 0.166329
0.636459 0.391021 0.164880
0.671192 0.386183 0.163431
0.705925 0.381345 0.161982
0.740659 0.376507 0.160533
0.768739 0.372293 0.160232
0.790168 0.368703 0.161080
0.811596 0.365112 0.161928
0.833024 0.361522 0.162776
0.854452 0.357932 0.163624
0.873653 0.355262 0.165598
0.888400 0.354435 0.169827
0.903147 0.353609 0.174055
0.917894 0.352782 0.178283
0.932641 0.351955 0.182512
0.946532 0.351357 0.187165
0.956143 0.351904 0.193941
0.965754 0.352451 0.200718
0.975365 0.352998 0.207494
0.984976 0.353546 0.214271
0.994587 0.354093 0.221047
0.035694 0.478382 0.194091
0.085046 0.472162 0.191487
0.134399 0.465942 0.188883
0.183751 0.459723 0.186279
0.233103 0.453503 0.183674
0.282455 0.447283 0.181070
0.332338 0.442192 0.178369
0.382327 0.437326 0.175647
0.432316 0.432461 0.172926
0.482305 0.427595 0.170205
0.532295 0.422730 0.167484
0.572871 0.417644 0.165268
0.608740 0.412448 0.163306
0.644609 0.407251 0.161344
0.680478 0.402055 0.159382
0.716348 0.396859 0.157420
0.745943 0.392367 0.156758
0.769265 0.388580 0.157398
0.792588 0.384793 0.158037
0.815910 0.381006 0.158676
0.839232 0.377219 0.159316
0.860258 0.374333 0.161205
0.876693 0.373249 0.165594
0.893127 0.372166 0.169983
0.909561 0.371083 0.174372
0.925996 0.370000 0.178761
0.941460 0.369097 0.183619
0.952071 0.369099 0.190822
0.962681 0.369100 0.198025
0.973292 0.369102 0.205227
0.983903 0.369103 0.212430
0.994514 0.369105 0.219633
0.029650 0.505112 0.197694
0.075303 0.498542 0.194835
0.120955 0.491973 0.191975
0.166608 0.485403 0.189116
0.212261 0.478833 0.186256
0.257914 0.472263 0.183396
0.306462 0.466647 0.180168
0.355589 0.461220 0.176866
0.404716 0.455794 0.173564
0.453843 0.450368 0.170261
0.502970 0.444941 0.166959
0.544016 0.439429 0.164208
0.581021 0.433875 0.161733
0.618026 0.428320 0.159258
0.655031 0.422765 0.156782
0.692037 0.417210 0.154307
0.723147 0.412441 0.153285
0.748363 0.408457 0.153715
0.773580 0.404473 0.154146
0.798796 0.400489 0.154577
0.824012 0.396505 0.155008
0.846863 0.393403 0.156811
0.864985 0.392063 0.161361
0.883107 0.390724 0.165911
0.901229 0.389384 0.170461
0.919351 0.388045 0.175010
0.936387 0.386838 0.180073
0.947998 0.386293 0.187702
0.959609 0.385749 0.195332
0.971219 0.385205 0.202961
0.982830 0.384661 0.210590
0.994441 0.384116 0.218219
0.023605 0.531842 0.201298
0.065559 0.524922 0.198183
0.107512 0.518003 0.195068
0.149466 0.511083 0.191953
0.191419 0.504163 0.188838
0.233373 0.497244 0.185723
0.280586 0.491101 0.181967
0.328851 0.485114 0.178084
0.377115 0.479127 0.174201
0.425380 0.473140 0.170318
0.473645 0.467153 0.166435
0.515161 0.461215 0.163148
0.553302 0.455302 0.160160
0.591443 0.449389 0.157171
0.629584 0.443475 0.154182
0.667726 0.437562 0.151194
0.700351 0.432515 0.149811
0.727461 0.428334 0.150033
0.754572 0.424154 0.150255
0.781682 0.419973 0.150477
0.808792 0.415792 0.150699
0.833468 0.412473 0.152418
0.853278 0.410877 0.157128
0.873087 0.409281 0.161839
0.892896 0.407686 0.166549
0.912706 0.406090 0.171260
0.931315 0.404578 0.176528
0.943926 0.403488 0.184583
0.956536 0.402398 0.192639
0.969147 0.401308 0.200694
0.981757 0.400218 0.208749
0.994368 0.399128 0.216805
0.017561 0.558572 0.204902
0.055815 0.551302 0.201531
0.094069 0.544033 0.198161
0.132324 0.536763 0.194790
0.170578 0.529494 0.191419
0.208832 0.522224 0.188049
0.254710 0.515556 0.183767
0.302112 0.509008 0.179303
0.349515 0.502460 0.174839
0.396917 0.495912 0.170374
0.444320 0.489364 0.165910
0.486306 0.483000 0.162088
0.525583 0.476729 0.158586
0.564860 0.470457 0.155084
0.604137 0.464185 0.151583
0.643415 0.457914 0.148081
0.677555 0.452589 0.146337
0.706559 0.448212 0.146351
0.735563 0.443834 0.146364
0.764567 0.439457 0.146378
0.793571 0.435079 0.146391
0.820073 0.431543 0.148024
0.841570 0.429691 0.152895
0.863067 0.427839 0.157767
0.884564 0.425987 0.162638
0.906060 0.424135 0.167509
0.926243 0.422319 0.172982
0.939853 0.420683 0.181464
0.953463 0.419047 0.189945
0.967074 0.417411 0.198427
0.980684 0.415776 0.206909
0.994294 0.414140 0.215390
0.016924 0.580352 0.210266
0.052031 0.573173 0.206812
0.087138 0.565994 0.203358
0.122245 0.558816 0.199904
0.157352 0.551637 0.196451
0.192459 0.544459 0.192997
0.236885 0.537794 0.188522
0.283176 0.531232 0.183843
0.329467 0.524670 0.179163
0.375758 0.518108 0.174484
0.422048 0.511546 0.169805
0.464191 0.505298 0.165787
0.504260 0.499206 0.162099
0.544329 0.493115 0.158412
0.584398 0.487023 0.154724
0.624467 0.480932 0.151036
0.659787 0.475811 0.149138
0.690359 0.471662 0.149028
0.720931 0.467513 0.148918
0.751502 0.463363 0.148808
0.782074 0.459214 0.148699
0.810054 0.455828 0.150211
0.832850 0.453971 0.154966
0.855646 0.452113 0.159721
0.878442 0.450256 0.164477
0.901238 0.448398 0.169232
0.922608 0.446502 0.174573
0.936850 0.444415 0.182842
0.951092 0.442328 0.191111
0.965335 0.440241 0.199381
0.979577 0.438154 0.207650
0.993819 0.436067 0.215919
0.018991 0.599656 0.216510
0.051227 0.592789 0.213060
0.083462 0.585922 0.209609
0.115698 0.579055 0.206158
0.147933 0.572188 0.202707
0.180169 0.565321 0.199256
0.223087 0.558924 0.194755
0.268141 0.552621 0.190043
0.313195 0.546319 0.185332
0.358249 0.540016 0.180621
0.403303 0.533714 0.175909
0.445447 0.527852 0.171865
0.486135 0.522209 0.168155
0.526824 0.516567 0.164446
0.567512 0.510925 0.160736
0.608201 0.505283 0.157026
0.644533 0.500607 0.155075
0.676509 0.496899 0.154885
0.708486 0.493190 0.154695
0.740462 0.489481 0.154504
0.772438 0.485773 0.154314
0.801723 0.482721 0.155687
0.825624 0.480983 0.160188
0.849524 0.479246 0.164690
0.873425 0.477508 0.169191
0.897326 0.475770 0.173692
0.919692 0.473907 0.178732
0.934382 0.471416 0.186470
0.949072 0.468925 0.194207
0.963763 0.466434 0.201944
0.978453 0.463944 0.209681
0.993143 0.461453 0.217419
0.021058 0.618960 0.222755
0.050422 0.612405 0.219307
0.079787 0.605849 0.215859
0.109151 0.599294 0.212411
0.138515 0.592738 0.208963
0.167879 0.586182 0.205515
0.209288 0.580054 0.200988
0.253106 0.574011 0.196244
0.296923 0.567968 0.191501
0.340741 0.561924 0.186757
0.384558 0.555881 0.182013
0.426703 0.550405 0.177944
0.468011 0.545212 0.174212
0.509319 0.540020 0.170479
0.550626 0.534827 0.166747
0.591934 0.529634 0.163015
0.629279 0.525403 0.161013
0.662660 0.522135 0.160742
0.696040 0.518867 0.160471
0.729421 0.515599 0.160200
0.762802 0.512331 0.159929
0.793391 0.509613 0.161164
0.818397 0.507996 0.165411
0.843403 0.506378 0.169658
0.868409 0.504760 0.173905
0.893415 0.503142 0.178151
0.916776 0.501312 0.182891
0.931914 0.498417 0.190097
0.947052 0.495522 0.197302
0.962191 0.492628 0.204508
0.977329 0.489733 0.211713
0.992467 0.486838 0.218918
0.023125 0.638265 0.228999
0.049618 0.632020 0.225554
0.076111 0.625776 0.222109
0.102604 0.619532 0.218664
0.129097 0.613288 0.215220
0.155590 0.607044 0.211775
0.195489 0.601184 0.207221
0.238070 0.595400 0.202445
0.280651 0.589616 0.197669
0.323232 0.583833 0.192893
0.365813 0.578049 0.188118
0.407958 0.572959 0.184023
0.449886 0.568215 0.180268
0.491813 0.563472 0.176513
0.533741 0.558728 0.172759
0.575668 0.553985 0.169004
0.614024 0.550200 0.166951
0.648810 0.547372 0.166599
0.683595 0.544545 0.166248
0.718381 0.541718 0.165896
0.753166 0.538890 0.165544
0.785060 0.536506 0.166641
0.811171 0.535008 0.170633
0.837282 0.533510 0.174626
0.863393 0.532013 0.178619
0.889504 0.530515 0.182611
0.913860 0.528717 0.187051
0.929446 0.525418 0.193724
0.945032 0.522119 0.200398
0.960618 0.518821 0.207071
0.976204 0.515522 0.213745
0.991790 0.512223 0.220418
0.025192 0.657569 0.235244
0.048814 0.651636 0.231802
0.072436 0.645704 0.228360
0.096057 0.639771 0.224918
0.119679 0.633839 0.221476
0.143300 0.627906 0.218034
0.181691 0.622314 0.213454
0.223035 0.616789 0.208646
0.264379 0.611265 0.203838
0.305724 0.605741 0.199030
0.347068 0.600216 0.194222
0.389214 0.595512 0.190101
0.431761 0.591218 0.186324
0.474308 0.586924 0.182547
0.516855 0.582630 0.178770
0.559402 0.578336 0.174993
0.598770 0.574996 0.172889
0.634960 0.572609 0.172456
0.671150 0.570222 0.172024
0.707340 0.567836 0.171592
0.743530 0.565449 0.171160
0.776729 0.563398 0.172117
0.803945 0.562021 0.175856
0.831161 0.560643 0.179594
0.858376 0.559265 0.183332
0.885592 0.557887 0.187071
0.910945 0.556122 0.191210
0.926978 0.552419 0.197351
0.943012 0.548716 0.203493
0.959046 0.545014 0.209635
0.975080 0.541311 0.215776
0.991114 0.537608 0.221918
0.030459 0.673749 0.241919
0.051648 0.668208 0.238565
0.072837 0.662666 0.235210
0.094026 0.657125 0.231856
0.115216 0.651583 0.228501
0.136405 0.646042 0.225147
0.173273 0.640879 0.220732
0.213278 0.635793 0.216104
0.253282 0.630706 0.211477
0.293286 0.625619 0.206849
0.333290 0.620532 0.202222
0.375160 0.616369 0.198279
0.417962 0.612667 0.194677
0.460765 0.608966 0.191076
0.503567 0.605264 0.187475
0.546370 0.601562 0.183874
0.586384 0.598800 0.181860
0.623611 0.596978 0.181434
0.660838 0.595156 0.181007
0.698064 0.593334 0.180580
0.735291 0.591512 0.180154
0.769467 0.589938 0.181012
0.797543 0.588861 0.184441
0.825619 0.587784 0.187871
0.853695 0.586707 0.191300
0.881772 0.585630 0.194729
0.907901 0.584102 0.198496
0.924298 0.580313 0.203957
0.940694 0.576524 0.209418
0.957091 0.572735 0.214878
0.973488 0.568946 0.220339
0.989885 0.565158 0.225800
0.038924 0.686805 0.249025
0.058120 0.681735 0.245843
0.077316 0.676664 0.242660
0.096512 0.671594 0.239478
0.115708 0.666523 0.236296
0.134904 0.661452 0.233114
0.170237 0.656881 0.229055
0.208798 0.652410 0.224820
0.247358 0.647939 0.220586
0.285919 0.643467 0.216352
0.324479 0.638996 0.212118
0.365795 0.635528 0.208555
0.408490 0.632562 0.205328
0.451184 0.629596 0.202100
0.493878 0.626630 0.198873
0.536572 0.623664 0.195646
0.576867 0.621614 0.193865
0.614762 0.620480 0.193531
0.652658 0.619346 0.193196
0.690553 0.618212 0.192862
0.728449 0.617078 0.192527
0.763276 0.616124 0.193326
0.791967 0.615529 0.196390
0.820659 0.614934 0.199455
0.849350 0.614340 0.202520
0.878041 0.613745 0.205585
0.904730 0.612656 0.208911
0.921404 0.609099 0.213541
0.938078 0.605542 0.218172
0.954753 0.601985 0.222802
0.971427 0.598428 0.227432
0.988102 0.594871 0.232063
0.047389 0.699861 0.256131
0.064592 0.695262 0.253121
0.081795 0.690662 0.250111
0.098997 0.686062 0.247101
0.116200 0.681463 0.244090
0.133403 0.676863 0.241080
0.167201 0.672883 0.237378
0.204318 0.669027 0.233537
0.241435 0.665171 0.229696
0.278551 0.661315 0.225854
0.315668 0.657460 0.222013
0.356431 0.654687 0.218831
0.399017 0.652457 0.215978
0.441603 0.650226 0.213124
0.484189 0.647996 0.210271
0.526775 0.645765 0.207418
0.567350 0.644427 0.205870
0.605914 0.643982 0.205628
0.644478 0.643536 0.205385
0.683042 0.643090 0.205143
0.721606 0.642645 0.204900
0.757084 0.642310 0.205639
0.786391 0.642197 0.208340
0.815698 0.642085 0.211040
0.845004 0.641972 0.213741
0.874311 0.641859 0.216441
0.901558 0.641211 0.219325
0.918510 0.637886 0.223125
0.935463 0.634560 0.226925
0.952415 0.631235 0.230726
0.969367 0.627909 0.234526
0.986319 0.624584 0.238326
0.055854 0.712918 0.263237
0.071064 0.708789 0.260399
0.086273 0.704660 0.257561
0.101483 0.700531 0.254723
0.116693 0.696402 0.251885
0.131902 0.692273 0.249047
0.164165 0.688885 0.245701
0.199838 0.685644 0.242253
0.235511 0.682404 0.238805
0.271184 0.679164 0.235357
0.306857 0.675923 0.231909
0.347066 0.673847 0.229107
0.389544 0.672352 0.226628
0.432022 0.670857 0.224148
0.474499 0.669362 0.221669
0.516977 0.667867 0.219190
0.557832 0.667241 0.217875
0.597065 0.667483 0.217725
0.636298 0.667726 0.217574
0.675531 0.667969 0.217424
0.714764 0.668211 0.217274
0.750893 0.668496 0.217952
0.780815 0.668866 0.220289
0.810737 0.669235 0.222625
0.840659 0.669604 0.224961
0.870581 0.669973 0.227297
0.898387 0.669766 0.229739
0.915617 0.666672 0.232709
0.932847 0.663578 0.235679
0.950076 0.660484 0.238649
0.967306 0.657391 0.241619
0.984536 0.654297 0.244589
0.064320 0.725974 0.270343
0.077536 0.722316 0.267677
0.090752 0.718658 0.265011
0.103969 0.715000 0.262345
0.117185 0.711342 0.259680
0.130401 0.707684 0.257014
0.161129 0.704887 0.254024
0.195358 0.702262 0.250969
0.229587 0.699637 0.247914
0.263817 0.697012 0.244860
0.298046 0.694387 0.241805
0.337702 0.693006 0.239383
0.380071 0.692246 0.237278
0.422441 0.691487 0.235172
0.464810 0.690728 0.233067
0.507179 0.689968 0.230962
0.548315 0.690054 0.229880
0.588216 0.690985 0.229822
0.628118 0.691916 0.229764
0.668020 0.692847 0.229705
0.707921 0.693778 0.229647
0.744701 0.694682 0.230266
0.775239 0.695534 0.232238
0.805776 0.696385 0.234210
0.836313 0.697236 0.236182
0.866850 0.698088 0.238154
0.895216 0.698320 0.240154
0.912723 0.695458 0.242293
0.930231 0.692596 0.244433
0.947738 0.689734 0.246573
0.965245 0.686872 0.248713
0.982753 0.684010 0.250853
0.074174 0.737393 0.277121
0.085619 0.734172 0.274647
0.097065 0.730950 0.272173
0.108510 0.727729 0.269699
0.119956 0.724507 0.267225
0.131401 0.721286 0.264751
0.160570 0.719039 0.262142
0.193282 0.716988 0.259507
0.225995 0.714936 0.256872
0.258708 0.712884 0.254237
0.291420 0.710833 0.251602
0.330316 0.710083 0.249586
0.372303 0.709983 0.247879
0.414290 0.709884 0.246173
0.456277 0.709785 0.244466
0.498264 0.709686 0.242760
0.539416 0.710413 0.241936
0.579732 0.711968 0.241996
0.620049 0.713523 0.242057
0.660366 0.715078 0.242117
0.700682 0.716633 0.242177
0.737915 0.718122 0.242772
0.768981 0.719481 0.244439
0.800046 0.720840 0.246106
0.831112 0.722199 0.247772
0.862177 0.723558 0.249439
0.891040 0.724284 0.251071
0.908891 0.721849 0.252532
0.926743 0.719413 0.253993
0.944594 0.716978 0.255454
0.962445 0.714542 0.256915
0.980296 0.712107 0.258376
0.086806 0.745538 0.283243
0.096925 0.742684 0.280999
0.107045 0.739831 0.278756
0.117164 0.736978 0.276513
0.127284 0.734125 0.274270
0.137403 0.731272 0.272027
0.164965 0.729494 0.269851
0.196015 0.727931 0.267689
0.227065 0.726368 0.265527
0.258115 0.724805 0.263365
0.289166 0.723243 0.261203
0.326887 0.722995 0.259643
0.367943 0.723405 0.258384
0.409000 0.723815 0.257126
0.450056 0.724225 0.255867
0.491113 0.724635 0.254608
0.531753 0.725864 0.254095
0.571977 0.727914 0.254326
0.612201 0.729964 0.254557
0.652426 0.732014 0.254788
0.692650 0.734064 0.255020
0.729939 0.736069 0.255667
0.761359 0.737987 0.257145
0.792779 0.739904 0.258624
0.824198 0.741821 0.260103
0.855618 0.743739 0.261581
0.884856 0.745067 0.262994
0.903183 0.743447 0.264079
0.921510 0.741828 0.265165
0.939837 0.740209 0.266250
0.958165 0.738589 0.267335
0.976492 0.736970 0.268420
0.099438 0.753682 0.289365
0.108231 0.751197 0.287352
0.117024 0.748712 0.285340
0.125818 0.746227 0.283328
0.134611 0.743742 0.281315
0.143405 0.741257 0.279303
0.169360 0.739948 0.277560
0.198748 0.738874 0.275871
0.228135 0.737800 0.274182
0.257523 0.736726 0.272492
0.286911 0.735652 0.270803
0.323457 0.735907 0.269700
0.363584 0.736826 0.268889
0.403710 0.737745 0.268078
0.443836 0.738664 0.267268
0.483962 0.739584 0.266457
0.524091 0.741315 0.266253
0.564222 0.743860 0.266655
0.604354 0.746405 0.267058
0.644486 0.748950 0.267460
0.684617 0.751494 0.267863
0.721963 0.754016 0.268561
0.753737 0.756492 0.269852
0.785511 0.758968 0.271142
0.817285 0.761444 0.272433
0.849059 0.763920 0.273724
0.878671 0.765849 0.274918
0.897475 0.765046 0.275627
0.916278 0.764243 0.276336
0.935081 0.763440 0.277046
0.953884 0.762636 0.277755
0.972688 0.761833 0.278464
0.112069 0.761827 0.295486
0.119537 0.759710 0.293705
0.127004 0.757593 0.291924
0.134472 0.755477 0.290142
0.141939 0.753360 0.288361
0.149406 0.751243 0.286579
0.173755 0.750403 0.285269
0.201481 0.749818 0.284053
0.229206 0.749232 0.282836
0.256931 0.748647 0.281620
0.284656 0.748062 0.280404
0.320028 0.748819 0.279756
0.359224 0.750248 0.279394
0.398420 0.751676 0.279031
0.437615 0.753104 0.278669
0.476811 0.754533 0.278306
0.516428 0.756767 0.278411
0.556467 0.759806 0.278985
0.596507 0.762846 0.279558
0.636546 0.765885 0.280132
0.676585 0.768925 0.280705
0.713987 0.771963 0.281455
0.746115 0.774997 0.282558
0.778243 0.778032 0.283661
0.810372 0.781066 0.284764
0.842500 0.784101 0.285867
0.872487 0.786631 0.286841
0.891766 0.786644 0.287175
0.911045 0.786657 0.287508
0.930325 0.786670 0.287842
0.949604 0.786683 0.288175
0.968883 0.786696 0.288509
0.124701 0.769972 0.301608
0.130843 0.768223 0.300058
0.136984 0.766475 0.298507
0.143125 0.764726 0.296957
0.149267 0.762977 0.295406
0.155408 0.761229 0.293856
0.178151 0.760857 0.292978
0.204213 0.760761 0.292234
0.230276 0.760664 0.291491
0.256339 0.760568 0.290747
0.282401 0.760472 0.290004
0.316599 0.761731 0.289813
0.354864 0.763669 0.289899
0.393130 0.765606 0.289984
0.431395 0.767544 0.290069
0.469660 0.769482 0.290155
0.508766 0.772218 0.290570
0.548713 0.775752 0.291314
0.588659 0.779287 0.292059
0.628606 0.782821 0.292804
0.668552 0.786356 0.293548
0.706011 0.789910 0.294350
0.738493 0.793503 0.295264
0.770976 0.797096 0.296179
0.803458 0.800689 0.297094
0.835941 0.804282 0.298009
0.866302 0.807414 0.298765
0.886058 0.808243 0.298722
0.905813 0.809072 0.298680
0.925568 0.809901 0.298638
0.945324 0.810730 0.298595
0.965079 0.811560 0.298553
0.136685 0.777256 0.307316
0.141683 0.775865 0.305999
0.146682 0.774474 0.304683
0.151680 0.773084 0.303367
0.156679 0.771693 0.302051
0.161677 0.770303 0.300734
0.182855 0.770361 0.300259
0.207270 0.770708 0.299953
0.231684 0.771056 0.299646
0.256098 0.771403 0.299339
0.280512 0.771751 0.299032
0.313472 0.773454 0.299261
0.350705 0.775836 0.299758
0.387938 0.778217 0.300255
0.425171 0.780598 0.300752
0.462404 0.782980 0.301249
0.500899 0.786152 0.301952
0.540657 0.790115 0.302862
0.580416 0.794078 0.303772
0.620174 0.798041 0.304682
0.659932 0.802004 0.305592
0.697379 0.806014 0.306455
0.730205 0.810118 0.307226
0.763031 0.814222 0.307997
0.795856 0.818326 0.308768
0.828682 0.822430 0.309540
0.859414 0.826121 0.310129
0.879678 0.827752 0.309810
0.899942 0.829382 0.309491
0.920206 0.831013 0.309172
0.940470 0.832643 0.308853
0.960734 0.834274 0.308534
0.145426 0.780236 0.310951
0.150197 0.779152 0.309885
0.154969 0.778068 0.308820
0.159740 0.776984 0.307754
0.164511 0.775901 0.306689
0.169282 0.774817 0.305623
0.189107 0.775109 0.305403
0.211943 0.775676 0.305353
0.234779 0.776242 0.305302
0.257615 0.776809 0.305251
0.280451 0.777376 0.305200
0.311857 0.779231 0.305668
0.347548 0.781729 0.306394
0.383239 0.784227 0.307120
0.418930 0.786724 0.307846
0.454621 0.789222 0.308572
0.492011 0.792501 0.309458
0.531102 0.796559 0.310503
0.570192 0.800618 0.311549
0.609282 0.804676 0.312594
0.648372 0.808735 0.313639
0.685470 0.812900 0.314619
0.718583 0.817278 0.315466
