Assets/1__3DArt/KimSe/artstation_asset/LUTs_pasterls/CUBE/Candylandia 01.cube
# Enhanced with VOXCOLOR algorithms
LUT_3D_SIZE 32
0.156863 0.219608 0.105882
0.225923 0.216395 0.094348
0.294982 0.213181 0.082815
0.364042 0.209968 0.071281
0.433101 0.206755 0.059747
0.502161 0.203542 0.048213
0.545418 0.201901 0.042602
0.583515 0.200575 0.038176
0.621612 0.199249 0.033749
0.659709 0.197923 0.029323
0.697806 0.196597 0.024896
0.722377 0.196581 0.023060
0.740184 0.197220 0.022519
0.757991 0.197860 0.021978
0.775799 0.198499 0.021437
0.793606 0.199138 0.020896
0.805838 0.199993 0.021002
0.812495 0.201063 0.021755
0.819151 0.202133 0.022508
0.825808 0.203203 0.023262
0.832464 0.204273 0.024015
0.837548 0.204959 0.024638
0.839488 0.204876 0.025000
0.841427 0.204794 0.025362
0.843366 0.204711 0.025725
0.845305 0.204629 0.026087
0.847052 0.204286 0.026297
0.847838 0.202645 0.025743
0.848623 0.201003 0.025190
0.849409 0.199361 0.024636
0.850194 0.197720 0.024083
0.850980 0.196078 0.023529
0.141329 0.255977 0.113747
0.207718 0.252734 0.102224
0.274108 0.249490 0.090701
0.340498 0.246247 0.079178
0.406888 0.243004 0.067655
0.473278 0.239761 0.056132
0.517722 0.237928 0.050007
0.557777 0.236377 0.044962
0.597831 0.234826 0.039916
0.637886 0.233275 0.034871
0.677941 0.231724 0.029825
0.704707 0.230937 0.027444
0.724828 0.230532 0.026394
0.744949 0.230126 0.025344
0.765070 0.229721 0.024294
0.785192 0.229316 0.023245
0.799242 0.228946 0.023005
0.807221 0.228613 0.023575
0.815200 0.228280 0.024145
0.823179 0.227947 0.024715
0.831158 0.227614 0.025285
0.837261 0.226964 0.025796
0.839613 0.225680 0.026190
0.841965 0.224396 0.026583
0.844317 0.223112 0.026977
0.846669 0.221828 0.027371
0.848744 0.220333 0.027609
0.849433 0.217782 0.027068
0.850123 0.215230 0.026527
0.850813 0.212679 0.025985
0.851502 0.210127 0.025444
0.852192 0.207576 0.024903
0.125794 0.292346 0.121612
0.189514 0.289073 0.110100
0.253235 0.285799 0.098588
0.316955 0.282526 0.087076
0.380675 0.279253 0.075563
0.444395 0.275980 0.064051
0.490026 0.273954 0.057412
0.532038 0.272179 0.051748
0.574051 0.270403 0.046083
0.616063 0.268627 0.040418
0.658076 0.266852 0.034754
0.687037 0.265293 0.031827
0.709472 0.263843 0.030269
0.731907 0.262393 0.028710
0.754342 0.260943 0.027152
0.776777 0.259493 0.025594
0.792645 0.257900 0.025008
0.801947 0.256164 0.025394
0.811249 0.254428 0.025781
0.820550 0.252692 0.026168
0.829852 0.250956 0.026554
0.836975 0.248970 0.026954
0.839739 0.246484 0.027379
0.842504 0.243999 0.027805
0.845268 0.241514 0.028230
0.848033 0.239028 0.028655
0.850435 0.236380 0.028921
0.851029 0.232919 0.028393
0.851623 0.229458 0.027864
0.852216 0.225996 0.027335
0.852810 0.222535 0.026806
0.853404 0.219074 0.026277
0.110260 0.328715 0.129477
0.171310 0.325412 0.117976
0.232361 0.322108 0.106474
0.293411 0.318805 0.094973
0.354462 0.315502 0.083472
0.415512 0.312199 0.071970
0.462329 0.309981 0.064817
0.506300 0.307981 0.058533
0.550270 0.305980 0.052250
0.594241 0.303980 0.045966
0.638211 0.301979 0.039683
0.669367 0.299649 0.036210
0.694116 0.297154 0.034143
0.718865 0.294660 0.032077
0.743613 0.292165 0.030010
0.768362 0.289670 0.027943
0.786049 0.286853 0.027011
0.796673 0.283714 0.027214
0.807297 0.280575 0.027418
0.817921 0.277436 0.027621
0.828546 0.274297 0.027824
0.836688 0.270975 0.028112
0.839865 0.267289 0.028569
0.843042 0.263602 0.029026
0.846219 0.259915 0.029482
0.849396 0.256228 0.029939
0.852127 0.252427 0.030234
0.852625 0.248056 0.029717
0.853122 0.243685 0.029200
0.853620 0.239314 0.028684
0.854118 0.234943 0.028167
0.854615 0.230572 0.027650
0.094725 0.365084 0.137342
0.153106 0.361750 0.125852
0.211487 0.358417 0.114361
0.269868 0.355084 0.102870
0.328248 0.351751 0.091380
0.386629 0.348418 0.079889
0.434633 0.346008 0.072222
0.480561 0.343782 0.065319
0.526489 0.341557 0.058417
0.572418 0.339332 0.051514
0.618346 0.337106 0.044611
0.651697 0.334005 0.040594
0.678760 0.330466 0.038018
0.705822 0.326926 0.035443
0.732885 0.323387 0.032867
0.759947 0.319847 0.030292
0.779452 0.315807 0.029014
0.791399 0.311265 0.029034
0.803346 0.306723 0.029054
0.815293 0.302181 0.029074
0.827240 0.297639 0.029094
0.836401 0.292981 0.029270
0.839991 0.288093 0.029758
0.843580 0.283204 0.030247
0.847170 0.278316 0.030735
0.850760 0.273427 0.031223
0.853819 0.268474 0.031546
0.854220 0.263193 0.031042
0.854622 0.257912 0.030537
0.855024 0.252631 0.030033
0.855426 0.247351 0.029529
0.855827 0.242070 0.029024
0.079191 0.401453 0.145207
0.134902 0.398089 0.133727
0.190613 0.394726 0.122248
0.246324 0.391363 0.110768
0.302035 0.388000 0.099288
0.357746 0.384637 0.087808
0.406936 0.382034 0.079627
0.454822 0.379584 0.072105
0.502709 0.377134 0.064583
0.550595 0.374684 0.057062
0.598481 0.372234 0.049540
0.634027 0.368361 0.044977
0.663404 0.363777 0.041893
0.692780 0.359193 0.038809
0.722156 0.354609 0.035725
0.751532 0.350025 0.032641
0.772855 0.344760 0.031017
0.786125 0.338815 0.030854
0.799394 0.332870 0.030690
0.812664 0.326925 0.030527
0.825933 0.320980 0.030364
0.836114 0.314987 0.030428
0.840116 0.308897 0.030948
0.844119 0.302807 0.031468
0.848121 0.296717 0.031988
0.852124 0.290627 0.032507
0.855510 0.284520 0.032859
0.855816 0.278330 0.032366
0.856122 0.272139 0.031874
0.856428 0.265949 0.031382
0.856733 0.259758 0.030890
0.857039 0.253568 0.030398
0.075511 0.429867 0.150372
0.127831 0.426795 0.139331
0.180150 0.423724 0.128290
0.232470 0.420652 0.117249
0.284790 0.417580 0.106209
0.337110 0.414509 0.095168
0.385842 0.412205 0.086791
0.433855 0.410055 0.078946
0.481869 0.407905 0.071102
0.529883 0.405755 0.063257
0.577896 0.403605 0.055413
0.614644 0.399854 0.050408
0.645758 0.395303 0.046822
0.676872 0.390752 0.043237
0.707987 0.386200 0.039652
0.739101 0.381649 0.036067
0.762169 0.376236 0.034046
0.777190 0.369960 0.033590
0.792211 0.363684 0.033134
0.807232 0.357408 0.032677
0.822253 0.351133 0.032221
0.833918 0.344709 0.032099
0.838868 0.337992 0.032645
0.843819 0.331274 0.033190
0.848770 0.324556 0.033736
0.853721 0.317838 0.034281
0.857927 0.311073 0.034681
0.858406 0.304070 0.034353
0.858886 0.297067 0.034025
0.859365 0.290063 0.033697
0.859844 0.283060 0.033369
0.860324 0.276057 0.033041
0.074201 0.456690 0.154996
0.122986 0.453974 0.144480
0.171770 0.451259 0.133964
0.220555 0.448543 0.123448
0.269340 0.445827 0.112932
0.318125 0.443111 0.102416
0.366068 0.441204 0.093906
0.413843 0.439459 0.085798
0.461618 0.437714 0.077690
0.509392 0.435969 0.069582
0.557167 0.434225 0.061474
0.594917 0.430774 0.056048
0.627655 0.426472 0.051963
0.660392 0.422169 0.047878
0.693130 0.417866 0.043793
0.725867 0.413563 0.039708
0.750665 0.408216 0.037280
0.767523 0.401824 0.036509
0.784382 0.395432 0.035738
0.801240 0.389040 0.034967
0.818098 0.382647 0.034196
0.831339 0.375976 0.033873
0.837346 0.368745 0.034443
0.843352 0.361514 0.035013
0.849359 0.354283 0.035583
0.855365 0.347052 0.036153
0.860488 0.339727 0.036606
0.861195 0.331930 0.036473
0.861902 0.324134 0.036339
0.862609 0.316338 0.036206
0.863316 0.308541 0.036072
0.864023 0.300745 0.035939
0.072891 0.483514 0.159620
0.118141 0.481154 0.149629
0.163390 0.478794 0.139637
0.208640 0.476434 0.129646
0.253889 0.474073 0.119655
0.299139 0.471713 0.109664
0.346294 0.470203 0.101022
0.393830 0.468864 0.092650
0.441366 0.467524 0.084279
0.488902 0.466184 0.075907
0.536439 0.464844 0.067535
0.575191 0.461695 0.061688
0.609551 0.457640 0.057104
0.643912 0.453586 0.052519
0.678272 0.449532 0.047934
0.712633 0.445477 0.043349
0.739161 0.440196 0.040514
0.757856 0.433687 0.039428
0.776552 0.427179 0.038343
0.795248 0.420671 0.037257
0.813943 0.414162 0.036172
0.828761 0.407242 0.035646
0.835823 0.399498 0.036241
0.842885 0.391754 0.036836
0.849947 0.384010 0.037431
0.857009 0.376265 0.038025
0.863050 0.368380 0.038531
0.863984 0.359791 0.038592
0.864919 0.351201 0.038653
0.865853 0.342612 0.038714
0.866788 0.334022 0.038775
0.867722 0.325432 0.038836
0.071581 0.510337 0.164244
0.113296 0.508333 0.154778
0.155010 0.506329 0.145311
0.196724 0.504324 0.135845
0.238438 0.502320 0.126378
0.280153 0.500316 0.116911
0.326520 0.499203 0.108138
0.373817 0.498268 0.099502
0.421115 0.497333 0.090867
0.468412 0.496399 0.082232
0.515710 0.495464 0.073597
0.555464 0.492615 0.067329
0.591448 0.488809 0.062244
0.627431 0.485003 0.057160
0.663415 0.481197 0.052075
0.699398 0.477391 0.046990
0.727656 0.472176 0.043748
0.748189 0.465551 0.042348
0.768722 0.458927 0.040947
0.789255 0.452302 0.039547
0.809788 0.445677 0.038147
0.826183 0.438508 0.037420
0.834300 0.430251 0.038039
0.842418 0.421994 0.038659
0.850535 0.413736 0.039278
0.858653 0.405479 0.039897
0.865611 0.397034 0.040456
0.866773 0.387651 0.040712
0.867935 0.378268 0.040967
0.869097 0.368886 0.041222
0.870259 0.359503 0.041478
0.871422 0.350120 0.041733
0.070272 0.537161 0.168869
0.108451 0.535512 0.159927
0.146630 0.533864 0.150985
0.184809 0.532215 0.142043
0.222988 0.530566 0.133101
0.261167 0.528918 0.124159
0.306746 0.528202 0.115253
0.353804 0.527672 0.106354
0.400863 0.527143 0.097456
0.447922 0.526613 0.088557
0.494981 0.526084 0.079658
0.535738 0.523536 0.072969
0.573344 0.519978 0.067385
0.610951 0.516421 0.061800
0.648557 0.512863 0.056216
0.686164 0.509305 0.050632
0.716152 0.504156 0.046982
0.738522 0.497415 0.045267
0.760893 0.490674 0.043552
0.783263 0.483933 0.041837
0.805633 0.477192 0.040122
0.823604 0.469774 0.039193
0.832777 0.461004 0.039837
0.841951 0.452233 0.040481
0.851124 0.443463 0.041125
0.860297 0.434692 0.041769
0.868172 0.425688 0.042381
0.869562 0.415512 0.042831
0.870952 0.405336 0.043281
0.872342 0.395160 0.043731
0.873731 0.384984 0.044180
0.875121 0.374808 0.044630
0.075251 0.557864 0.170938
0.110128 0.556497 0.162596
0.145006 0.555130 0.154254
0.179883 0.553763 0.145912
0.214761 0.552396 0.137570
0.249639 0.551028 0.129229
0.293714 0.550742 0.120417
0.339629 0.550672 0.111512
0.385544 0.550602 0.102606
0.431460 0.550532 0.093701
0.477375 0.550462 0.084795
0.518329 0.548494 0.077871
0.556802 0.545577 0.071937
0.595276 0.542661 0.066003
0.633749 0.539744 0.060069
0.672223 0.536827 0.054135
0.703474 0.532262 0.050153
0.727504 0.526047 0.048122
0.751534 0.519833 0.046091
0.775563 0.513619 0.044059
0.799593 0.507405 0.042028
0.819099 0.500395 0.040884
0.829559 0.491793 0.041513
0.840019 0.483192 0.042142
0.850478 0.474590 0.042771
0.860938 0.465989 0.043400
0.869969 0.457088 0.044046
0.871854 0.446691 0.044781
0.873740 0.436295 0.045516
0.875626 0.425898 0.046251
0.877511 0.415501 0.046985
0.879397 0.405104 0.047720
0.083374 0.575508 0.171730
0.115067 0.574385 0.164026
0.146760 0.573262 0.156322
0.178453 0.572139 0.148617
0.210146 0.571016 0.140913
0.241839 0.569893 0.133209
0.284054 0.570053 0.124605
0.328373 0.570469 0.115821
0.372692 0.570886 0.107037
0.417011 0.571302 0.098254
0.461330 0.571719 0.089470
0.502078 0.570471 0.082403
0.541041 0.568392 0.076195
0.580003 0.566312 0.069987
0.618966 0.564232 0.063779
0.657929 0.562153 0.057571
0.690210 0.558430 0.053292
0.715810 0.553064 0.050944
0.741410 0.547698 0.048596
0.767010 0.542333 0.046248
0.792610 0.536967 0.043900
0.813631 0.530693 0.042532
0.825493 0.522601 0.043127
0.837355 0.514510 0.043721
0.849216 0.506418 0.044315
0.861078 0.498327 0.044909
0.871382 0.489862 0.045582
0.873898 0.479530 0.046647
0.876414 0.469199 0.047712
0.878930 0.458868 0.048777
0.881446 0.448536 0.049842
0.883962 0.438205 0.050907
0.091498 0.593152 0.172523
0.120006 0.592273 0.165456
0.148515 0.591394 0.158389
0.177023 0.590515 0.151322
0.205532 0.589636 0.144256
0.234040 0.588757 0.137189
0.274394 0.589364 0.128793
0.317117 0.590267 0.120131
0.359839 0.591170 0.111469
0.402562 0.592073 0.102807
0.445285 0.592976 0.094145
0.485827 0.592449 0.086936
0.525279 0.591206 0.080453
0.564731 0.589963 0.073971
0.604183 0.588721 0.067488
0.643634 0.587478 0.061006
0.676945 0.584598 0.056432
0.704116 0.580081 0.053767
0.731287 0.575564 0.051102
0.758457 0.571046 0.048437
0.785628 0.566529 0.045772
0.808163 0.560990 0.044181
0.821427 0.553409 0.044741
0.834690 0.545828 0.045300
0.847954 0.538246 0.045859
0.861218 0.530665 0.046419
0.872796 0.522636 0.047117
0.875942 0.512370 0.048513
0.879088 0.502104 0.049908
0.882234 0.491838 0.051303
0.885380 0.481571 0.052698
0.888526 0.471305 0.054093
0.099622 0.610795 0.173315
0.124945 0.610161 0.166886
0.150269 0.609526 0.160456
0.175593 0.608891 0.154027
0.200917 0.608257 0.147598
0.226241 0.607622 0.141169
0.264733 0.608674 0.132981
0.305860 0.610064 0.124440
0.346987 0.611454 0.115900
0.388114 0.612843 0.107360
0.429240 0.614233 0.098820
0.469577 0.614426 0.091468
0.509517 0.614020 0.084711
0.549458 0.613615 0.077954
0.589399 0.613209 0.071198
0.629340 0.612804 0.064441
0.663681 0.610766 0.059571
0.692422 0.607098 0.056589
0.721163 0.603429 0.053607
0.749904 0.599760 0.050625
0.778645 0.596091 0.047643
0.802694 0.591288 0.045830
0.817360 0.584217 0.046355
0.832026 0.577145 0.046879
0.846692 0.570074 0.047404
0.861358 0.563003 0.047928
0.874210 0.555410 0.048653
0.877986 0.545209 0.050378
0.881762 0.535008 0.052103
0.885538 0.524807 0.053829
0.889315 0.514607 0.055554
0.893091 0.504406 0.057279
0.107745 0.628439 0.174107
0.129884 0.628049 0.168315
0.152024 0.627658 0.162524
0.174163 0.627268 0.156732
0.196302 0.626877 0.150941
0.218441 0.626486 0.145149
0.255073 0.627985 0.137168
0.294604 0.629861 0.128750
0.334134 0.631737 0.120331
0.373665 0.633614 0.111913
0.413196 0.635490 0.103494
0.453326 0.636403 0.096001
0.493756 0.636835 0.088970
0.534186 0.637266 0.081938
0.574616 0.637698 0.074907
0.615046 0.638129 0.067876
0.650417 0.636935 0.062711
0.680728 0.634114 0.059412
0.711039 0.631294 0.056113
0.741351 0.628474 0.052814
0.771662 0.625653 0.049515
0.797226 0.621586 0.047479
0.813294 0.615025 0.047969
0.829362 0.608463 0.048458
0.845430 0.601902 0.048948
0.861499 0.595340 0.049438
0.875623 0.588183 0.050188
0.880030 0.578048 0.052244
0.884436 0.567913 0.054299
0.888843 0.557777 0.056355
0.893249 0.547642 0.058410
0.897656 0.537507 0.060466
0.118480 0.642755 0.173498
0.137865 0.642497 0.168288
0.157249 0.642238 0.163079
0.176634 0.641980 0.157869
0.196019 0.641722 0.152660
0.215403 0.641463 0.147450
0.250008 0.643275 0.139773
0.287657 0.645501 0.131602
0.325305 0.647727 0.123432
0.362954 0.649953 0.115261
0.400603 0.652179 0.107090
0.440061 0.653726 0.099587
0.480425 0.654934 0.092419
0.520788 0.656141 0.085250
0.561151 0.657349 0.078081
0.601514 0.658556 0.070913
0.637455 0.658234 0.065544
0.668974 0.656383 0.061974
0.700493 0.654531 0.058405
0.732012 0.652679 0.054836
0.763531 0.650828 0.051266
0.790367 0.647681 0.049027
0.807836 0.641947 0.049447
0.825306 0.636212 0.049867
0.842775 0.630477 0.050287
0.860244 0.624743 0.050708
0.875671 0.618358 0.051456
0.880881 0.608720 0.053843
0.886091 0.599083 0.056229
0.891302 0.589446 0.058616
0.896512 0.579809 0.061003
0.901723 0.570172 0.063390
0.131826 0.653743 0.171487
0.148886 0.653505 0.166805
0.165946 0.653267 0.162122
0.183006 0.653028 0.157439
0.200066 0.652790 0.152756
0.217126 0.652552 0.148073
0.249537 0.654545 0.140795
0.285019 0.656984 0.132998
0.320500 0.659423 0.125201
0.355981 0.661862 0.117403
0.391462 0.664301 0.109606
0.429783 0.666396 0.102228
0.469524 0.668318 0.095059
0.509264 0.670240 0.087890
0.549005 0.672163 0.080721
0.588745 0.674085 0.073552
0.624797 0.674665 0.068071
0.657161 0.673902 0.064277
0.689524 0.673139 0.060484
0.721888 0.672376 0.056690
0.754252 0.671614 0.052897
0.782117 0.669575 0.050473
0.800987 0.664983 0.050789
0.819857 0.660392 0.051106
0.838726 0.655801 0.051422
0.857596 0.651209 0.051738
0.874352 0.645932 0.052455
0.880540 0.637226 0.055175
0.886728 0.628520 0.057894
0.892916 0.619814 0.060613
0.899104 0.611108 0.063333
0.905292 0.602402 0.066052
0.145173 0.664732 0.169477
0.159908 0.664514 0.165321
0.174644 0.664295 0.161164
0.189379 0.664077 0.157008
0.204114 0.663859 0.152852
0.218850 0.663641 0.148696
0.249067 0.665814 0.141817
0.282381 0.668467 0.134393
0.315694 0.671119 0.126969
0.349008 0.673771 0.119546
0.382322 0.676423 0.112122
0.419505 0.679065 0.104868
0.458623 0.681702 0.097699
0.497741 0.684340 0.090530
0.536858 0.686977 0.083360
0.575976 0.689614 0.076191
0.612139 0.691095 0.070597
0.645347 0.691421 0.066580
0.678556 0.691748 0.062562
0.711764 0.692074 0.058545
0.744972 0.692400 0.054527
0.773868 0.691468 0.051919
0.794138 0.688020 0.052132
0.814408 0.684572 0.052344
0.834678 0.681124 0.052556
0.854948 0.677676 0.052769
0.873034 0.673507 0.053454
0.880199 0.665732 0.056506
0.887365 0.657956 0.059558
0.894530 0.650181 0.062610
0.901696 0.642406 0.065662
0.908862 0.634631 0.068714
0.158519 0.675720 0.167467
0.170930 0.675522 0.163837
0.183341 0.675324 0.160207
0.195752 0.675126 0.156578
0.208162 0.674927 0.152948
0.220573 0.674729 0.149318
0.248597 0.677084 0.142838
0.279743 0.679949 0.135788
0.310889 0.682815 0.128738
0.342035 0.685680 0.121689
0.373181 0.688545 0.114639
0.409227 0.691735 0.107509
0.447722 0.695087 0.100339
0.486217 0.698439 0.093169
0.524712 0.701790 0.086000
0.563207 0.705142 0.078830
0.599481 0.707526 0.073124
0.633534 0.708941 0.068882
0.667587 0.710356 0.064641
0.701640 0.711771 0.060399
0.735693 0.713186 0.056157
0.765618 0.713361 0.053366
0.787288 0.711057 0.053474
0.808959 0.708752 0.053583
0.830629 0.706447 0.053691
0.852299 0.704143 0.053799
0.871715 0.701081 0.054454
0.879858 0.694237 0.057838
0.888002 0.687393 0.061223
0.896145 0.680549 0.064607
0.904288 0.673705 0.067992
0.912431 0.666861 0.071376
0.171865 0.686708 0.165456
0.181952 0.686530 0.162353
0.192038 0.686352 0.159250
0.202124 0.686174 0.156147
0.212210 0.685996 0.153044
0.222296 0.685818 0.149941
0.248126 0.688354 0.143860
0.277105 0.691432 0.137184
0.306084 0.694510 0.130507
0.335062 0.697589 0.123831
0.364041 0.700667 0.117155
0.398949 0.704404 0.110149
0.436821 0.708471 0.102979
0.474693 0.712538 0.095809
0.512566 0.716604 0.088639
0.550438 0.720671 0.081469
0.586823 0.723956 0.075651
0.621720 0.726460 0.071185
0.656618 0.728964 0.066719
0.691515 0.731468 0.062254
0.726413 0.733972 0.057788
0.757368 0.735254 0.054812
0.780439 0.734093 0.054817
0.803510 0.732932 0.054821
0.826580 0.731770 0.054826
0.849651 0.730609 0.054830
0.870397 0.728656 0.055453
0.879517 0.722743 0.059170
0.888638 0.716830 0.062887
0.897759 0.710917 0.066604
0.906880 0.705004 0.070321
0.916000 0.699091 0.074038
0.185357 0.696227 0.163095
0.193460 0.696041 0.160445
0.201564 0.695856 0.157796
0.209667 0.695670 0.155146
0.217771 0.695484 0.152496
0.225874 0.695298 0.149847
0.249601 0.697923 0.144171
0.276451 0.701111 0.137890
0.303302 0.704298 0.131609
0.330153 0.707485 0.125328
0.357004 0.710673 0.119047
0.390621 0.714812 0.112222
0.427620 0.719427 0.105126
0.464619 0.724042 0.098029
0.501619 0.728658 0.090933
0.538618 0.733273 0.083837
0.574846 0.737310 0.077970
0.610304 0.740770 0.073332
0.645762 0.744230 0.068694
0.681220 0.747690 0.064056
0.716677 0.751150 0.059419
0.748439 0.753445 0.056288
0.772808 0.753409 0.056174
0.797178 0.753374 0.056060
0.821547 0.753339 0.055945
0.845916 0.753304 0.055831
0.867918 0.752461 0.056400
0.878083 0.747582 0.060391
0.888247 0.742704 0.064382
0.898412 0.737825 0.068373
0.908576 0.732947 0.072364
0.918741 0.728068 0.076355
0.199137 0.702807 0.160032
0.205942 0.702558 0.157689
0.212747 0.702309 0.155347
0.219552 0.702060 0.153005
0.226356 0.701811 0.150662
0.233161 0.701562 0.148320
0.254964 0.704094 0.143060
0.279767 0.707182 0.137218
0.304570 0.710269 0.131375
0.329372 0.713357 0.125532
0.354175 0.716445 0.119689
0.386193 0.720695 0.113159
0.421819 0.725527 0.106285
0.457444 0.730358 0.099411
0.493070 0.735190 0.092536
0.528696 0.740021 0.085662
0.564233 0.744512 0.079872
0.599682 0.748661 0.075167
0.635131 0.752811 0.070461
0.670580 0.756961 0.065755
0.706029 0.761111 0.061050
0.738150 0.764229 0.057825
0.763615 0.765285 0.057562
0.789079 0.766341 0.057298
0.814544 0.767397 0.057035
0.840009 0.768454 0.056772
0.863119 0.768727 0.057244
0.874460 0.765090 0.061391
0.885801 0.761453 0.065538
0.897142 0.757815 0.069686
0.908482 0.754178 0.073833
0.919823 0.750541 0.077980
0.212918 0.709386 0.156969
0.218424 0.709074 0.154934
0.223930 0.708762 0.152899
0.229436 0.708450 0.150863
0.234942 0.708138 0.148828
0.240448 0.707826 0.146793
0.260328 0.710264 0.141950
0.283082 0.713252 0.136546
0.305837 0.716241 0.131141
0.328591 0.719229 0.125736
0.351346 0.722218 0.120332
0.381766 0.726579 0.114096
0.416018 0.731626 0.107444
0.450269 0.736674 0.100792
0.484521 0.741722 0.094140
0.518773 0.746769 0.087488
0.553619 0.751713 0.081775
0.589060 0.756552 0.077002
0.624500 0.761392 0.072228
0.659940 0.766232 0.067454
0.695381 0.771071 0.062681
0.727861 0.775014 0.059361
0.754421 0.777161 0.058949
0.780981 0.779309 0.058537
0.807541 0.781456 0.058125
0.834101 0.783604 0.057713
0.858321 0.784994 0.058087
0.870838 0.782598 0.062390
0.883354 0.780202 0.066694
0.895871 0.777806 0.070998
0.908388 0.775410 0.075302
0.920905 0.773014 0.079606
0.226699 0.715966 0.153906
0.230906 0.715590 0.152178
0.235113 0.715215 0.150450
0.239320 0.714840 0.148722
0.243527 0.714465 0.146994
0.247735 0.714089 0.145266
0.265691 0.716434 0.140840
0.286398 0.719323 0.135873
0.307104 0.722212 0.130907
0.327811 0.725101 0.125941
0.348517 0.727990 0.120974
0.377338 0.732462 0.115033
0.410216 0.737726 0.108603
0.443095 0.742990 0.102173
0.475973 0.748254 0.095743
0.508851 0.753517 0.089313
0.543006 0.758914 0.083678
0.578438 0.764444 0.078836
0.613869 0.769973 0.073995
0.649301 0.775503 0.069153
0.684732 0.781032 0.064312
0.717572 0.785798 0.060897
0.745227 0.789037 0.060337
0.772883 0.792276 0.059776
0.800538 0.795515 0.059215
0.828194 0.798754 0.058654
0.853522 0.801260 0.058930
0.867215 0.800105 0.063390
0.880908 0.798951 0.067850
0.894601 0.797796 0.072311
0.908294 0.796641 0.076771
0.921987 0.795487 0.081232
0.240480 0.722545 0.150843
0.243388 0.722107 0.149422
0.246297 0.721668 0.148001
0.249205 0.721230 0.146581
0.252113 0.720791 0.145160
0.255021 0.720353 0.143739
0.271055 0.722605 0.139729
0.289713 0.725394 0.135201
0.308371 0.728184 0.130673
0.327030 0.730973 0.126145
0.345688 0.733762 0.121617
0.372910 0.738346 0.115969
0.404415 0.743826 0.109762
0.435920 0.749306 0.103554
0.467424 0.754785 0.097347
0.498929 0.760265 0.091139
0.532392 0.766115 0.085580
0.567815 0.772335 0.080671
0.603238 0.778554 0.075762
0.638661 0.784773 0.070853
0.674084 0.790993 0.065943
0.707283 0.796583 0.062434
0.736034 0.800913 0.061724
0.764785 0.805243 0.061014
0.793535 0.809573 0.060304
0.822286 0.813904 0.059595
0.848723 0.817527 0.059773
0.863593 0.817613 0.064390
0.878462 0.817700 0.069007
0.893331 0.817786 0.073623
0.908200 0.817873 0.078240
0.923069 0.817960 0.082857
0.253197 0.728452 0.147934
0.255007 0.727982 0.146775
0.256817 0.727511 0.145616
0.258628 0.727041 0.144457
0.260438 0.726570 0.143297
0.262248 0.726100 0.142138
0.276492 0.728257 0.138523
0.293223 0.730940 0.134416
0.309954 0.733623 0.130309
0.326685 0.736306 0.126202
0.343416 0.738989 0.122095
0.369060 0.743639 0.116749
0.399162 0.749271 0.110783
0.429264 0.754904 0.104817
0.459365 0.760537 0.098851
0.489467 0.766170 0.092885
0.522169 0.772393 0.087427
0.557471 0.779205 0.082477
0.592773 0.786018 0.077528
0.628076 0.792830 0.072579
0.663378 0.799643 0.067629
0.696835 0.805961 0.064043
0.726601 0.811292 0.063182
0.756368 0.816623 0.062321
0.786135 0.821954 0.061461
0.815902 0.827285 0.060600
0.843382 0.831939 0.060670
0.859434 0.833208 0.065391
0.875486 0.834478 0.070113
0.891537 0.835747 0.074835
0.907589 0.837017 0.079557
0.923640 0.838287 0.084279
0.260597 0.730997 0.145798
0.262312 0.730650 0.144672
0.264027 0.730303 0.143545
0.265742 0.729956 0.142419
0.267457 0.729609 0.141292
0.269172 0.729263 0.140165
0.282298 0.731322 0.136835
0.297705 0.733863 0.133064
0.313112 0.736404 0.129293
0.328520 0.738945 0.125522
0.343927 0.741486 0.121751
0.368098 0.745980 0.116742
0.396651 0.751449 0.111114
0.425203 0.756919 0.105486
0.453756 0.762388 0.099858
0.482309 0.767858 0.094230
0.513896 0.774053 0.088991
0.548517 0.780975 0.084141
0.583138 0.787896 0.079291
0.617760 0.794818 0.074440
0.652381 0.801739 0.069590
0.685590 0.808313 0.066016
0.715975 0.814190 0.064994
