Assets/1__3DArt/KimSe/artstation_asset/LUTs_pasterls/CUBE/Candylandia 03.cube
# Enhanced with VOXCOLOR algorithms
LUT_3D_SIZE 8
DOMAIN_MIN 0.000000 0.000000 0.000000
DOMAIN_MAX 0.903226 0.903226 0.903226
0.172549 0.231373 0.227451
0.317148 0.192904 0.205904
0.436403 0.157506 0.185379
0.528065 0.128559 0.166722
0.591348 0.108217 0.150662
0.624101 0.097274 0.138612
0.637458 0.091374 0.130425
0.640718 0.087934 0.124738
0.149188 0.343488 0.281162
0.276379 0.297149 0.249677
0.399172 0.253777 0.221715
0.504941 0.214341 0.197242
0.584480 0.179744 0.176307
0.629502 0.152414 0.160166
0.649724 0.131970 0.148413
0.655349 0.116189 0.139438
0.138805 0.449688 0.335077
0.241656 0.403903 0.300611
0.358885 0.358890 0.268506
0.472452 0.314760 0.239183
0.567815 0.271977 0.213112
0.629643 0.233086 0.192082
0.661255 0.199759 0.175960
0.672946 0.170860 0.163022
0.137814 0.544892 0.385978
0.213755 0.505177 0.353537
0.318782 0.463697 0.320791
0.434043 0.420435 0.288923
0.542892 0.375734 0.259093
0.623928 0.331310 0.233682
0.670705 0.289402 0.213179
0.692120 0.250018 0.195980
0.142868 0.625190 0.431241
0.193096 0.594395 0.404000
0.281550 0.560270 0.374019
0.392677 0.522777 0.342791
0.510986 0.482105 0.311797
0.611629 0.438737 0.283597
0.676603 0.394438 0.259461
0.711291 0.349942 0.238194
0.150551 0.685049 0.467393
0.180680 0.663074 0.446593
0.250286 0.637888 0.422209
0.350860 0.609343 0.395204
0.471608 0.577397 0.366668
0.589394 0.541590 0.338620
0.675067 0.502804 0.312973
0.726964 0.461841 0.289204
0.157265 0.725984 0.493713
0.173806 0.711283 0.478879
0.224783 0.694168 0.460902
0.310001 0.674444 0.439864
0.425362 0.651955 0.416121
0.555136 0.625945 0.390753
0.662506 0.596684 0.366014
0.734943 0.564724 0.342181
0.162120 0.750464 0.510232
0.169635 0.742840 0.501252
0.202862 0.733374 0.489955
0.269419 0.721876 0.475610
0.372525 0.708185 0.457841
0.508583 0.691622 0.436635
0.638001 0.672055 0.414249
0.734307 0.649699 0.391960
0.155843 0.253058 0.304047
0.304364 0.213178 0.280773
0.428577 0.173939 0.257013
0.524637 0.140072 0.233761
0.590642 0.114899 0.211963
0.624059 0.100532 0.193424
0.637208 0.092591 0.179146
0.640295 0.087734 0.168602
0.140270 0.366353 0.353737
0.268265 0.316208 0.317156
0.392381 0.268765 0.284450
0.500174 0.225746 0.255522
0.582367 0.188502 0.230290
0.629687 0.159255 0.209549
0.651075 0.136935 0.192826
0.657136 0.119263 0.179042
0.135244 0.472585 0.403191
0.236711 0.422293 0.362092
0.353057 0.373240 0.324025
0.467129 0.326189 0.289644
0.564771 0.281894 0.259473
0.629744 0.242272 0.234893
0.663761 0.207871 0.215076
0.677021 0.177469 0.198273
0.137649 0.566816 0.449100
0.210958 0.522996 0.409832
0.313732 0.477866 0.370488
0.428296 0.432080 0.332832
0.538681 0.386321 0.298390
0.623198 0.341881 0.269611
0.673591 0.299836 0.246312
0.698073 0.259842 0.226467
0.144575 0.645263 0.488690
0.191799 0.611351 0.455345
0.277028 0.574355 0.418914
0.386207 0.534795 0.381549
0.504920 0.493196 0.345250
0.609039 0.450015 0.313119
0.678839 0.406262 0.286355
0.718271 0.362179 0.263397
0.152878 0.702332 0.517843
0.180294 0.678331 0.492308
0.246055 0.651344 0.462547
0.343420 0.621495 0.429986
0.463079 0.588922 0.396117
0.583814 0.553273 0.363493
0.675236 0.515147 0.334572
0.733360 0.475073 0.309109
0.159452 0.740094 0.536171
0.173838 0.724231 0.518148
0.220918 0.706215 0.496262
0.302103 0.685947 0.470929
0.414866 0.663328 0.442769
0.546355 0.637612 0.413013
0.659543 0.608852 0.384405
0.738900 0.577580 0.358089
0.163645 0.761861 0.545007
0.169798 0.753564 0.534128
0.199756 0.743632 0.520167
0.262189 0.731942 0.502752
0.361583 0.718357 0.481749
0.497496 0.702125 0.457028
0.631491 0.682802 0.430891
0.734056 0.660663 0.405505
0.141245 0.272560 0.386556
0.286690 0.231186 0.362267
0.414671 0.188937 0.337216
0.517291 0.151273 0.312081
0.589435 0.122218 0.287596
0.626307 0.104955 0.265419
0.640720 0.095289 0.247242
0.644132 0.089335 0.233356
0.133915 0.388835 0.434129
0.256746 0.338430 0.397334
0.381211 0.288844 0.363298
0.492714 0.242603 0.332086
0.580012 0.201753 0.303754
0.631517 0.169169 0.279044
0.655130 0.144120 0.257921
0.662216 0.124303 0.239888
0.134020 0.496401 0.480657
0.229856 0.445918 0.439034
0.344471 0.395141 0.399146
0.460045 0.345533 0.362001
0.561560 0.298417 0.328422
0.631027 0.256109 0.299935
0.668265 0.219362 0.276046
0.683630 0.186996 0.255282
0.139165 0.590525 0.522745
0.207416 0.546146 0.482251
0.307254 0.499509 0.440484
0.421512 0.451780 0.399555
0.534343 0.404053 0.361322
0.623319 0.357929 0.328607
0.677965 0.314591 0.301771
0.705908 0.273662 0.278984
0.147116 0.667660 0.557554
0.190385 0.632936 0.522444
0.271992 0.594654 0.483167
0.379291 0.553645 0.442093
0.498840 0.510709 0.401497
0.607070 0.466646 0.365027
0.682144 0.422697 0.334966
0.726542 0.379089 0.310293
0.155333 0.722475 0.580707
0.179962 0.697799 0.553394
0.241848 0.669926 0.520877
0.336062 0.639126 0.484632
0.454805 0.605683 0.446285
0.578780 0.569529 0.408761
0.676191 0.531641 0.376021
0.740630 0.492813 0.349205
0.161464 0.757833 0.592266
0.174034 0.741524 0.572707
0.217455 0.723017 0.548495
0.294747 0.702297 0.520057
0.404964 0.679333 0.488043
0.538212 0.653495 0.453621
0.657407 0.625003 0.420640
0.743887 0.594734 0.392053
0.165114 0.777571 0.594465
0.170266 0.768842 0.582072
0.197290 0.758541 0.566070
0.255785 0.746640 0.546206
0.351449 0.733071 0.522389
0.487126 0.717173 0.494212
0.626164 0.698387 0.464184
0.735923 0.676948 0.435622
0.130197 0.290289 0.468673
0.266983 0.247529 0.444172
0.396788 0.202956 0.419293
0.506456 0.162319 0.394304
0.586560 0.130013 0.369594
0.628895 0.110137 0.346392
0.645895 0.098915 0.326518
0.650234 0.092048 0.310803
0.130231 0.409868 0.515301
0.243161 0.360748 0.481124
0.366401 0.310328 0.448310
0.482077 0.261615 0.417041
0.576000 0.217190 0.387508
0.633376 0.180806 0.360464
0.660411 0.152685 0.336394
0.669279 0.130660 0.315328
0.134679 0.519273 0.559946
0.221434 0.470686 0.521652
0.333003 0.419894 0.483364
0.450268 0.368687 0.446215
0.556761 0.318770 0.411201
0.632140 0.273064 0.379986
0.673671 0.233288 0.352850
0.691858 0.198640 0.328866
0.141864 0.613938 0.599287
0.202974 0.571005 0.561618
0.298839 0.524651 0.521285
0.412685 0.476132 0.480319
0.528613 0.426702 0.440603
0.623158 0.378287 0.405087
0.682970 0.332877 0.375181
0.714945 0.290561 0.349816
0.150239 0.690522 0.630573
0.188633 0.656540 0.597319
0.265948 0.618481 0.558921
0.371103 0.577141 0.517489
0.491715 0.533348 0.475178
0.604758 0.488100 0.435716
0.685807 0.443334 0.402794
0.735572 0.399820 0.376667
0.157933 0.743962 0.649468
0.179582 0.719614 0.623126
0.237321 0.691823 0.590841
0.328144 0.660817 0.553768
0.445866 0.626889 0.513336
0.573300 0.590107 0.472346
0.677165 0.552085 0.436351
0.748247 0.514350 0.408575
0.163428 0.777826 0.656416
0.174325 0.761642 0.637089
0.214089 0.743140 0.612592
0.287316 0.722307 0.583104
0.394675 0.699133 0.549065
0.529486 0.673038 0.511216
0.655009 0.644601 0.474486
0.749111 0.615349 0.444095
0.166591 0.796304 0.654111
0.170944 0.787426 0.641053
0.195159 0.776971 0.624189
0.249591 0.764984 0.603199
0.341089 0.751468 0.577892
0.476058 0.735915 0.547440
0.620576 0.717844 0.514495
0.738701 0.697497 0.483529
0.123635 0.306472 0.544848
0.247641 0.262582 0.520942
0.376837 0.216244 0.497216
0.492653 0.173207 0.473712
0.581106 0.138033 0.450570
0.630086 0.115664 0.428537
0.650724 0.102949 0.409005
0.656596 0.095244 0.392901
0.129148 0.428571 0.591093
0.228803 0.380710 0.560662
0.348855 0.330188 0.530744
0.468092 0.279951 0.501450
0.569210 0.232700 0.472932
0.633758 0.192830 0.445798
0.665374 0.161748 0.420822
0.676818 0.137638 0.398411
0.136741 0.539685 0.634466
0.211929 0.493265 0.601382
0.318841 0.443518 0.567248
0.437231 0.391960 0.532911
0.549200 0.340209 0.499191
0.631754 0.291411 0.467522
0.678727 0.248490 0.438897
0.700515 0.211424 0.413116
0.145262 0.635317 0.671972
0.197647 0.594499 0.639674
0.288276 0.549718 0.604025
0.401109 0.501809 0.566487
0.520393 0.451754 0.528534
0.621542 0.401339 0.492652
0.687556 0.353513 0.461173
0.724222 0.309343 0.434190
0.153676 0.712212 0.701152
0.186417 0.679791 0.672507
0.258583 0.643211 0.638469
0.361004 0.602876 0.600452
0.482606 0.559320 0.560071
0.601080 0.513257 0.520381
0.688940 0.467288 0.486065
0.744595 0.423197 0.459057
0.160645 0.765354 0.717940
0.179076 0.741970 0.694923
0.232216 0.715149 0.665909
0.319134 0.684896 0.631445
0.435429 0.651327 0.592449
0.566388 0.614308 0.550932
0.677304 0.575951 0.513363
0.755542 0.538777 0.485164
0.165413 0.798703 0.722995
0.174647 0.783057 0.705628
0.210571 0.765064 0.683120
0.279301 0.744622 0.655228
0.383152 0.721649 0.621990
0.519066 0.695482 0.583333
0.651297 0.667034 0.544667
0.753761 0.638605 0.513318
0.168108 0.816739 0.719049
0.171738 0.808002 0.706505
0.193107 0.797684 0.690349
0.243103 0.785845 0.670093
0.329649 0.772525 0.645352
0.463082 0.757375 0.614808
0.613401 0.740151 0.580993
0.741187 0.721206 0.549220
0.122197 0.320395 0.607141
0.231041 0.275783 0.584464
0.356836 0.228197 0.562260
0.476449 0.183246 0.540666
0.571919 0.145554 0.519833
0.627401 0.120848 0.500258
0.652005 0.106720 0.482612
0.659761 0.098212 0.467482
0.130437 0.443612 0.653116
0.215532 0.396026 0.626272
0.330165 0.345462 0.599761
0.450931 0.294436 0.573588
0.558208 0.245430 0.547808
0.630163 0.203077 0.522811
0.666999 0.169727 0.499282
0.681550 0.143977 0.477690
0.139604 0.555848 0.695455
0.202498 0.510457 0.667656
0.302919 0.461753 0.638744
0.420644 0.410658 0.609132
0.537185 0.358360 0.579275
0.627301 0.307706 0.550075
0.680545 0.262378 0.522673
0.706544 0.223217 0.497388
0.148728 0.652583 0.731738
0.191947 0.613180 0.705540
0.275865 0.570135 0.676344
0.386133 0.523683 0.644923
0.507871 0.474300 0.612142
0.615934 0.423115 0.579529
0.689033 0.373416 0.549423
0.731010 0.327252 0.522756
0.156975 0.730518 0.759989
0.183825 0.699478 0.737266
0.249782 0.664764 0.709965
0.348182 0.626336 0.678759
0.469787 0.584310 0.644554
0.593696 0.538666 0.609132
0.689171 0.491888 0.576741
0.751327 0.446512 0.550198
0.163239 0.784446 0.776701
0.178380 0.762099 0.758492
0.226299 0.736694 0.735284
0.308314 0.708021 0.707060
0.422055 0.675970 0.674141
0.556018 0.639959 0.637327
0.674588 0.601826 0.602231
0.760729 0.564428 0.574889
0.167316 0.818326 0.782698
0.174886 0.803370 0.768711
0.206669 0.786244 0.750468
0.270117 0.766747 0.727380
0.369198 0.744709 0.699087
0.505089 0.719366 0.664662
0.644305 0.691589 0.628616
0.756208 0.663759 0.598491
0.169623 0.836871 0.780430
0.172529 0.828508 0.769884
0.190909 0.818643 0.756425
0.235829 0.807277 0.739434
0.316135 0.794445 0.718372
0.446476 0.779995 0.691666
0.602461 0.763996 0.661212
0.741233 0.746725 0.631922
0.123262 0.331458 0.653068
0.217713 0.286434 0.631989
0.338544 0.237974 0.611284
0.459605 0.191529 0.591324
0.560127 0.151757 0.572408
0.621071 0.125072 0.555016
0.649144 0.109751 0.539272
0.658550 0.100523 0.525417
0.132563 0.455159 0.699296
0.204610 0.407088 0.675390
0.312652 0.356069 0.651685
0.432702 0.304282 0.628236
0.544086 0.254014 0.605120
0.622395 0.210026 0.582661
0.664052 0.175188 0.561339
0.681451 0.148278 0.541531
0.142336 0.568081 0.740831
0.194433 0.522486 0.717180
0.287439 0.473888 0.692572
0.402463 0.422846 0.667231
0.521518 0.370254 0.641422
0.618103 0.318654 0.615672
0.677328 0.271861 0.590872
0.707322 0.231120 0.567457
0.151653 0.665702 0.776005
0.186775 0.626477 0.754711
0.263230 0.584061 0.731066
0.369189 0.538408 0.705485
0.491425 0.489712 0.678457
0.605264 0.438563 0.650765
0.685246 0.387876 0.624043
0.732391 0.339963 0.599206
0.159730 0.744693 0.803491
0.181223 0.714126 0.785762
0.240370 0.680375 0.764654
0.333367 0.643279 0.740469
0.453235 0.602770 0.713668
0.581410 0.558308 0.685063
0.684330 0.511517 0.657401
0.752943 0.464672 0.632843
0.165514 0.799735 0.820572
0.177531 0.777953 0.806702
0.219846 0.753505 0.789320
0.296004 0.726207 0.768225
0.405786 0.695919 0.743436
0.541532 0.661886 0.715035
0.667513 0.625023 0.686546
0.761710 0.587219 0.662221
0.169069 0.834620 0.828299
0.174992 0.820221 0.817751
0.202491 0.803868 0.804283
0.260105 0.785399 0.787305
0.353344 0.764692 0.766384
0.487876 0.741191 0.740478
0.633569 0.715410 0.712339
0.755292 0.688658 0.687141
0.170978 0.854057 0.828759
0.173153 0.846234 0.820932
0.188541 0.837007 0.811090
0.228095 0.826329 0.798714
0.301371 0.814251 0.783354
0.427200 0.800935 0.763813
0.587758 0.786767 0.741138
0.737593 0.771563 0.718368
0.124613 0.339970 0.684923
0.206595 0.294622 0.666093
0.321828 0.245641 0.647313
0.442800 0.198174 0.629142
0.547149 0.156790 0.611997
0.613085 0.128477 0.596257
0.644356 0.112149 0.581696
0.655107 0.102240 0.568520
0.134636 0.464237 0.733066
0.195629 0.415124 0.711479
0.296736 0.363312 0.690050
0.414628 0.310681 0.668852
0.528583 0.259339 0.647962
0.612343 0.214162 0.627606
0.658372 0.178261 0.608074
0.678236 0.150392 0.589804
0.144716 0.577671 0.774567
0.187753 0.530958 0.753756
0.273207 0.481659 0.732262
0.384265 0.430101 0.710165
0.504132 0.376984 0.687585
0.605916 0.324666 0.664775
0.670475 0.276774 0.642329
0.703940 0.234583 0.620760
0.154100 0.675858 0.808887
0.182358 0.635817 0.790908
0.251300 0.593009 0.771248
0.351909 0.547271 0.750091
0.472980 0.498652 0.727670
0.591131 0.447427 0.704285
0.677152 0.395896 0.680842
0.728768 0.346182 0.658037
0.162138 0.755561 0.835634
0.178855 0.724627 0.821307
0.231114 0.690881 0.804733
0.317940 0.654171 0.786011
0.434705 0.614381 0.765335
0.565724 0.570709 0.742940
0.675057 0.523811 0.720160
0.749232 0.475293 0.698166
0.167789 0.811571 0.852955
0.176742 0.789829 0.842128
0.213395 0.765707 0.829183
0.283359 0.739131 0.813929
0.388467 0.710027 0.796302
0.524918 0.677669 0.776167
0.657023 0.642038 0.755164
0.758118 0.603824 0.735326
0.171031 0.847408 0.861860
0.175203 0.833403 0.854051
0.198528 0.817594 0.844496
0.250477 0.799933 0.832867
0.337900 0.780419 0.818934
0.470416 0.758816 0.802132
0.620998 0.735315 0.783748
0.751107 0.710128 0.766134
0.172305 0.867346 0.863978
0.173739 0.860341 0.858834
0.186348 0.851904 0.852289
0.220886 0.842030 0.844213
0.287433 0.830840 0.834514
0.408202 0.818754 0.822813
0.571488 0.806450 0.809576
0.730751 0.793529 0.795845
