Assets/1__3DArt/KimSe/artstation_asset/LUTs_pasterls/CUBE/Candylandia 04.cube
# Enhanced with VOXCOLOR algorithms
LUT_3D_SIZE 5
DOMAIN_MIN 0.000000 0.000000 0.000000
DOMAIN_MAX 0.903226 0.903226 0.903226
0.152941 0.258824 0.188235
0.614269 0.281630 0.199161
0.880622 0.303339 0.220319
0.977971 0.314976 0.233111
0.991338 0.317470 0.232790
0.035705 0.478377 0.194112
0.407884 0.455869 0.193510
0.749212 0.445801 0.205295
0.934092 0.418986 0.214786
0.986326 0.383785 0.218930
0.023345 0.638155 0.229439
0.261751 0.616862 0.226279
0.601627 0.609174 0.231022
0.861378 0.587204 0.231431
0.970138 0.538330 0.225308
0.075289 0.736835 0.279352
0.202424 0.727015 0.275056
0.485270 0.735139 0.279766
0.772689 0.744457 0.280775
0.938219 0.727826 0.269696
0.155232 0.782684 0.316715
0.217655 0.781593 0.315016
0.416321 0.796202 0.322556
0.678426 0.823603 0.330922
0.883272 0.850217 0.332345
0.203174 0.372382 0.447301
0.603570 0.336546 0.446035
0.869105 0.329792 0.447067
0.974855 0.333204 0.441935
0.990613 0.335830 0.429237
0.072021 0.557392 0.397262
0.406348 0.490806 0.377069
0.732228 0.454238 0.372418
0.923768 0.424709 0.372525
0.982908 0.393436 0.368469
0.037873 0.681942 0.365932
0.253452 0.638027 0.346928
0.579880 0.611354 0.338679
0.845952 0.584658 0.333911
0.965153 0.539645 0.329037
0.072915 0.756265 0.354043
0.183353 0.738537 0.342198
0.454095 0.736480 0.340383
0.749803 0.739624 0.337437
0.931233 0.723154 0.329224
0.140026 0.788973 0.350268
0.192879 0.785995 0.345922
0.381156 0.797066 0.353084
0.649461 0.821651 0.362715
0.872063 0.846676 0.364108
0.264980 0.494350 0.701471
0.589493 0.409371 0.695814
0.851180 0.360674 0.686484
0.970218 0.349317 0.674377
0.990595 0.350949 0.658357
0.158762 0.654550 0.641454
0.423225 0.565460 0.619662
0.720804 0.492461 0.605463
0.916313 0.442640 0.595994
0.981907 0.408878 0.585435
0.106965 0.753658 0.580138
0.279178 0.696675 0.555309
0.572763 0.642886 0.536713
0.835071 0.595918 0.523640
0.962175 0.548290 0.518415
0.131567 0.804781 0.521630
0.209738 0.779436 0.502424
0.446202 0.759309 0.489740
0.733828 0.744220 0.478016
0.925459 0.721895 0.472473
0.180084 0.819218 0.469766
0.209686 0.811470 0.455836
0.367516 0.812646 0.454985
0.627142 0.826381 0.462773
0.863251 0.845097 0.466881
0.293945 0.584034 0.873537
0.567066 0.474026 0.870869
0.827446 0.387300 0.859865
0.963393 0.355433 0.850162
0.991052 0.353213 0.838974
0.260204 0.730331 0.830244
0.456384 0.637239 0.819677
0.716795 0.537981 0.808837
0.910103 0.463065 0.799532
0.981578 0.418865 0.789132
0.218380 0.818547 0.782531
0.342906 0.762251 0.766276
0.586408 0.691014 0.750562
0.829032 0.620017 0.737236
0.959533 0.559089 0.730703
0.241688 0.863304 0.727155
0.287389 0.836594 0.709254
0.471864 0.802135 0.692327
0.727836 0.764253 0.675649
0.920007 0.726033 0.667584
0.284103 0.873558 0.666349
0.290406 0.861942 0.645299
0.400634 0.850851 0.633034
0.624020 0.845302 0.632039
0.859306 0.847537 0.635287
0.295228 0.625858 0.946047
0.538696 0.517229 0.949180
0.800354 0.410083 0.941233
0.953447 0.359278 0.936883
0.989763 0.352925 0.934404
0.335677 0.769616 0.924137
0.485006 0.682268 0.923634
0.713498 0.573058 0.920302
0.902479 0.480643 0.917623
0.980211 0.424768 0.913991
0.324527 0.855094 0.903057
0.414562 0.805571 0.898078
0.611107 0.731715 0.892776
0.827751 0.647265 0.888663
0.956985 0.570859 0.886319
0.339824 0.899808 0.878063
0.370418 0.877745 0.869170
0.512805 0.842839 0.860412
0.732375 0.794594 0.852571
0.915597 0.739592 0.848820
0.377600 0.916699 0.847032
0.379609 0.908195 0.834124
0.456086 0.895140 0.822863
0.637861 0.877292 0.817175
0.858480 0.860106 0.818783
