Assets/1__3DArt/KimSe/artstation_asset/LUTs_pasterls/CUBE/Candylandia 02.cube
# Enhanced with VOXCOLOR algorithms
LUT_3D_SIZE 5
DOMAIN_MIN 0.000000 0.000000 0.000000
DOMAIN_MAX 0.903226 0.903226 0.903226
0.164706 0.219608 0.129412
0.582197 0.191052 0.079325
0.804860 0.188074 0.068569
0.876245 0.195971 0.071911
0.885247 0.202155 0.071791
0.172644 0.534015 0.192035
0.445191 0.450856 0.127540
0.708512 0.389157 0.090749
0.850497 0.330280 0.080904
0.886474 0.279664 0.080473
0.244611 0.715544 0.213099
0.380891 0.663690 0.168350
0.613254 0.614184 0.120511
0.811811 0.553929 0.096290
0.893588 0.476106 0.099370
0.350902 0.799084 0.204182
0.391483 0.782431 0.183309
0.551634 0.771833 0.143977
0.763569 0.757497 0.114757
0.898870 0.714494 0.122148
0.441576 0.831477 0.189128
0.447614 0.827530 0.180532
0.532770 0.834201 0.157993
0.707763 0.853303 0.135185
0.885774 0.865671 0.146877
0.181880 0.321720 0.446914
0.558606 0.269867 0.371370
0.793625 0.248040 0.311229
0.877290 0.243699 0.273192
0.888686 0.242650 0.250068
0.215688 0.587742 0.423050
0.454642 0.485519 0.342529
0.702828 0.414173 0.281147
0.846859 0.358470 0.246662
0.887056 0.309420 0.225723
0.300679 0.744786 0.387384
0.411634 0.679755 0.324328
0.619752 0.621885 0.262527
0.807863 0.564075 0.226571
0.892488 0.492250 0.220590
0.406641 0.819759 0.345654
0.430803 0.795992 0.304969
0.567269 0.777226 0.253491
0.760995 0.758395 0.215389
0.895734 0.717506 0.218315
0.484810 0.846959 0.306739
0.483000 0.840227 0.281516
0.552463 0.842072 0.247248
0.708388 0.855322 0.216040
0.880376 0.865134 0.218853
0.223591 0.477541 0.709078
0.534169 0.411241 0.636820
0.778015 0.367585 0.570552
0.879784 0.343530 0.523709
0.895536 0.329835 0.494645
0.279942 0.670472 0.678763
0.467114 0.579831 0.611969
0.697275 0.500405 0.544515
0.846590 0.435222 0.492905
0.892515 0.381525 0.456742
0.376598 0.789492 0.629065
0.456523 0.730623 0.573777
0.635058 0.668244 0.509932
0.809411 0.606005 0.459351
0.894696 0.538409 0.437980
0.481132 0.848907 0.572164
0.491006 0.824798 0.529695
0.600477 0.799592 0.475150
0.768280 0.772847 0.424788
0.894326 0.733667 0.414104
0.549623 0.869280 0.515933
0.541479 0.861745 0.482038
0.593952 0.858849 0.442772
0.724646 0.863514 0.406153
0.879061 0.867118 0.397215
0.285435 0.629268 0.849992
0.529449 0.572817 0.800232
0.764688 0.523269 0.753427
0.880581 0.487086 0.719699
0.902148 0.463695 0.698304
0.357940 0.749825 0.842027
0.494009 0.686061 0.802806
0.697601 0.618259 0.755068
0.847528 0.553390 0.711159
0.898628 0.496960 0.676462
0.460471 0.830824 0.813297
0.511439 0.789329 0.784590
0.656592 0.737775 0.743181
0.813410 0.679157 0.699641
0.897632 0.615582 0.669795
0.561501 0.875530 0.775364
0.560098 0.856848 0.751645
0.641190 0.833095 0.716777
0.779119 0.803390 0.674512
0.893200 0.764967 0.650298
0.621950 0.891783 0.733886
0.610684 0.885204 0.709150
0.646275 0.879630 0.681799
0.748283 0.876518 0.653819
0.879244 0.872391 0.636855
0.359911 0.729971 0.893858
0.543532 0.696529 0.866287
0.755016 0.662140 0.840420
0.877896 0.631262 0.821599
0.904958 0.608034 0.810003
0.440284 0.803134 0.895904
0.536108 0.766383 0.877841
0.706918 0.723942 0.853343
0.848393 0.676383 0.828703
0.901280 0.628829 0.806710
0.540645 0.857215 0.887638
0.571005 0.832184 0.878130
0.684205 0.800418 0.861318
0.819855 0.759564 0.840423
0.898991 0.709220 0.818735
0.634316 0.891339 0.875876
0.626171 0.878561 0.868988
0.683736 0.862932 0.858140
0.793739 0.841555 0.842916
0.893103 0.810935 0.826822
0.686265 0.905469 0.862314
0.675530 0.901111 0.853862
0.698062 0.896468 0.844795
0.773910 0.891424 0.836322
0.880808 0.884901 0.829068
