Assets/1__3DArt/KimSe/artstation_asset/LUTs_pasterls/CUBE/Candylandia 02 S.cube
# Enhanced with VOXCOLOR algorithms
LUT_3D_SIZE 5
DOMAIN_MIN 0.000000 0.000000 0.000000
DOMAIN_MAX 0.903226 0.903226 0.903226
0.164706 0.219608 0.129412
0.582197 0.191052 0.079325
0.804860 0.188074 0.068569
0.876245 0.195971 0.071911
0.885247 0.202155 0.071791
0.172613 0.534015 0.192025
0.423520 0.435378 0.119555
0.653496 0.358547 0.072009
0.796654 0.305620 0.059355
0.871905 0.274029 0.071652
0.243952 0.715544 0.212879
0.360071 0.641912 0.156945
0.556915 0.569248 0.095945
0.753221 0.516190 0.069837
0.877291 0.467225 0.088351
0.347555 0.799084 0.203066
0.381727 0.770720 0.175695
0.526025 0.745250 0.129077
0.735026 0.733081 0.099650
0.890787 0.708116 0.115230
0.438383 0.831477 0.188063
0.445090 0.826118 0.178448
0.528845 0.830256 0.154766
0.703443 0.849275 0.132035
0.884683 0.864520 0.144757
0.181880 0.321720 0.446914
0.552800 0.265809 0.370189
0.777148 0.234826 0.307886
0.860550 0.227931 0.269747
0.884292 0.237724 0.249143
0.215661 0.587735 0.423042
0.416839 0.456683 0.338071
0.616043 0.360129 0.276266
0.765233 0.309943 0.245633
0.871900 0.294254 0.229349
0.300293 0.744759 0.387287
0.379117 0.641508 0.321333
0.537707 0.549438 0.266072
0.721902 0.495776 0.239405
0.882316 0.464673 0.234106
0.404834 0.819714 0.345204
0.416322 0.773142 0.304116
0.526201 0.728509 0.261916
0.709739 0.703889 0.238231
0.895398 0.685608 0.242273
0.483118 0.846934 0.306318
0.479858 0.836298 0.281421
0.544013 0.832561 0.251375
0.696002 0.844198 0.229726
0.886469 0.861476 0.239716
0.223591 0.477541 0.709078
0.529264 0.407536 0.635368
0.764126 0.355632 0.566311
0.865677 0.329409 0.519209
0.891823 0.325457 0.493412
0.279857 0.670428 0.678737
0.436081 0.552257 0.603122
0.624898 0.446070 0.530810
0.777017 0.380910 0.483812
0.884239 0.357143 0.456599
0.376001 0.789329 0.628910
0.428433 0.695990 0.567393
0.563207 0.598609 0.506910
0.731342 0.529646 0.467774
0.894450 0.492281 0.449090
0.479019 0.848687 0.571680
0.476914 0.804324 0.528263
0.559789 0.752434 0.483858
0.714859 0.711045 0.454547
0.902477 0.685746 0.447608
0.547782 0.869184 0.515526
0.537879 0.858057 0.482107
0.583618 0.849618 0.448567
0.709089 0.853169 0.427757
0.892915 0.868218 0.432589
0.285435 0.629268 0.849992
0.527961 0.571603 0.799673
0.760427 0.519362 0.751735
0.876225 0.482530 0.717849
0.901004 0.462319 0.697787
0.357791 0.749740 0.841981
0.480752 0.671970 0.796024
0.664402 0.586818 0.741882
0.813456 0.515999 0.698684
0.898095 0.470656 0.671141
0.459599 0.830521 0.813072
0.498004 0.771815 0.778056
0.619329 0.695673 0.732381
0.769035 0.619659 0.692071
0.904748 0.560048 0.666354
0.558839 0.875167 0.774816
0.551651 0.846504 0.748846
0.616172 0.803571 0.715468
0.743566 0.753227 0.684473
0.906633 0.710819 0.667001
0.619740 0.891657 0.733473
0.607706 0.883260 0.708643
0.638526 0.873709 0.683557
0.736533 0.868345 0.665596
0.894398 0.871756 0.660248
0.359911 0.729971 0.893858
0.543413 0.696428 0.866237
0.754670 0.661810 0.840263
0.877540 0.630882 0.821425
0.904865 0.607922 0.809954
0.440222 0.803098 0.895886
0.534142 0.764022 0.876637
0.701429 0.717551 0.850649
0.842123 0.666452 0.825715
0.902500 0.617987 0.805362
0.540271 0.857092 0.887556
0.568590 0.829041 0.876758
0.676673 0.790359 0.858221
0.809599 0.739866 0.837048
0.903893 0.682712 0.817690
0.633149 0.891202 0.875706
0.623881 0.876560 0.868301
0.677338 0.854957 0.856814
0.783979 0.823066 0.843294
0.900910 0.783747 0.831793
0.685288 0.905429 0.862198
0.674314 0.900693 0.853755
0.695625 0.894640 0.844821
0.770397 0.887529 0.838240
0.886999 0.881107 0.834865
