Assets/1__3DArt/KimSe/artstation_asset/LUTs_pasterls/CUBE/Candylandia 01 S.cube
# Enhanced with VOXCOLOR algorithms
LUT_3D_SIZE 32
0.156863 0.219608 0.105882
0.225923 0.216395 0.094348
0.294982 0.213181 0.082815
0.364042 0.209968 0.071281
0.433101 0.206755 0.059747
0.502161 0.203542 0.048213
0.545418 0.201901 0.042602
0.583515 0.200575 0.038176
0.621612 0.199249 0.033749
0.659709 0.197923 0.029323
0.697806 0.196597 0.024896
0.722377 0.196581 0.023060
0.740184 0.197220 0.022519
0.757991 0.197860 0.021978
0.775799 0.198499 0.021437
0.793606 0.199138 0.020896
0.805838 0.199993 0.021002
0.812495 0.201063 0.021755
0.819151 0.202133 0.022508
0.825808 0.203203 0.023262
0.832464 0.204273 0.024015
0.837548 0.204959 0.024638
0.839488 0.204876 0.025000
0.841427 0.204794 0.025362
0.843366 0.204711 0.025725
0.845305 0.204629 0.026087
0.847052 0.204286 0.026297
0.847838 0.202645 0.025743
0.848623 0.201003 0.025190
0.849409 0.199361 0.024636
0.850194 0.197720 0.024083
0.850980 0.196078 0.023529
0.141329 0.255977 0.113747
0.207301 0.252374 0.102163
0.273274 0.248772 0.090578
0.339246 0.245169 0.078994
0.405219 0.241567 0.067409
0.471191 0.237964 0.055825
0.514779 0.235524 0.049611
0.553889 0.233317 0.044471
0.593000 0.231110 0.039331
0.632110 0.228903 0.034191
0.671221 0.226695 0.029051
0.697251 0.225418 0.026578
0.716741 0.224607 0.025438
0.736231 0.223795 0.024299
0.755722 0.222983 0.023160
0.775212 0.222171 0.022020
0.789071 0.221664 0.021713
0.797300 0.221461 0.022239
0.805528 0.221258 0.022764
0.813757 0.221056 0.023289
0.821985 0.220853 0.023815
0.828586 0.220494 0.024318
0.831932 0.219823 0.024778
0.835277 0.219152 0.025237
0.838622 0.218481 0.025696
0.841968 0.217810 0.026156
0.844997 0.216939 0.026486
0.846450 0.215066 0.026169
0.847902 0.213194 0.025853
0.849354 0.211321 0.025536
0.850807 0.209448 0.025219
0.852259 0.207576 0.024903
0.125794 0.292346 0.121612
0.188680 0.288354 0.109977
0.251565 0.284362 0.098342
0.314451 0.280370 0.086707
0.377336 0.276379 0.075072
0.440222 0.272387 0.063437
0.484139 0.269148 0.056620
0.524263 0.266059 0.050766
0.564387 0.262971 0.044912
0.604511 0.259882 0.039059
0.644635 0.256794 0.033205
0.672125 0.254256 0.030096
0.693298 0.251993 0.028358
0.714471 0.249729 0.026620
0.735644 0.247466 0.024883
0.756818 0.245203 0.023145
0.772304 0.243334 0.022425
0.782105 0.241859 0.022723
0.791906 0.240384 0.023020
0.801706 0.238909 0.023317
0.811507 0.237434 0.023615
0.819624 0.236030 0.023999
0.824376 0.234771 0.024555
0.829127 0.233511 0.025111
0.833879 0.232251 0.025668
0.838630 0.230991 0.026224
0.842943 0.229591 0.026675
0.845062 0.227488 0.026595
0.847181 0.225384 0.026515
0.849300 0.223281 0.026436
0.851419 0.221177 0.026356
0.853538 0.219074 0.026277
0.110260 0.328715 0.129477
0.170058 0.324334 0.117791
0.229857 0.319953 0.106106
0.289655 0.315572 0.094420
0.349454 0.311190 0.082734
0.409252 0.306809 0.071049
0.453500 0.302771 0.063628
0.494637 0.298801 0.057061
0.535775 0.294832 0.050494
0.576912 0.290862 0.043927
0.618049 0.286892 0.037359
0.646999 0.283093 0.033613
0.669855 0.279379 0.031277
0.692711 0.275664 0.028942
0.715567 0.271950 0.026606
0.738423 0.268236 0.024270
0.755538 0.265005 0.023137
0.766910 0.262257 0.023206
0.778283 0.259510 0.023276
0.789655 0.256762 0.023345
0.801028 0.254014 0.023415
0.810662 0.251566 0.023679
0.816820 0.249718 0.024333
0.822977 0.247870 0.024986
0.829135 0.246021 0.025639
0.835293 0.244173 0.026293
0.840888 0.242243 0.026863
0.843674 0.239909 0.027021
0.846460 0.237575 0.027178
0.849246 0.235240 0.027336
0.852031 0.232906 0.027493
0.854817 0.230572 0.027650
0.094725 0.365084 0.137342
0.151437 0.360313 0.125606
0.208148 0.355543 0.113869
0.264860 0.350773 0.102133
0.321571 0.346002 0.090397
0.378283 0.341232 0.078660
0.422860 0.336395 0.070637
0.465011 0.331544 0.063356
0.507162 0.326693 0.056075
0.549313 0.321842 0.048795
0.591464 0.316991 0.041514
0.621874 0.311930 0.037131
0.646412 0.306765 0.034197
0.670951 0.301599 0.031263
0.695490 0.296434 0.028329
0.720029 0.291268 0.025395
0.738771 0.286675 0.023849
0.751715 0.282655 0.023690
0.764660 0.278635 0.023532
0.777604 0.274615 0.023373
0.790549 0.270595 0.023215
0.801700 0.267102 0.023360
0.809264 0.264665 0.024110
0.816828 0.262228 0.024860
0.824391 0.259791 0.025611
0.831955 0.257354 0.026361
0.838834 0.254896 0.027052
0.842286 0.252330 0.027447
0.845739 0.249765 0.027841
0.849191 0.247200 0.028235
0.852643 0.244635 0.028630
0.856096 0.242070 0.029024
0.079191 0.401453 0.145207
0.132815 0.396293 0.133420
0.186440 0.391133 0.121633
0.240064 0.385974 0.109846
0.293689 0.380814 0.098059
0.347313 0.375655 0.086272
0.392221 0.370018 0.077646
0.435385 0.364286 0.069651
0.478550 0.358554 0.061657
0.521714 0.352821 0.053662
0.564878 0.347089 0.045668
0.596748 0.340767 0.040648
0.622969 0.334151 0.037116
0.649191 0.327534 0.033584
0.675413 0.320917 0.030052
0.701635 0.314301 0.026520
0.722004 0.308346 0.024560
0.736520 0.303053 0.024174
0.751037 0.297761 0.023788
0.765554 0.292468 0.023401
0.780070 0.287175 0.023015
0.792738 0.282638 0.023040
0.801708 0.279613 0.023888
0.810678 0.276587 0.024735
0.819648 0.273561 0.025582
0.828618 0.270535 0.026430
0.836779 0.267548 0.027241
0.840899 0.264752 0.027873
0.845018 0.261956 0.028504
0.849137 0.259160 0.029135
0.853256 0.256364 0.029767
0.857375 0.253568 0.030398
0.075501 0.429872 0.150367
0.125578 0.424750 0.138944
0.175655 0.419628 0.127521
0.225731 0.414506 0.116098
0.275808 0.409384 0.104676
0.325884 0.404262 0.093253
0.369934 0.398478 0.084345
0.412777 0.392562 0.075940
0.455621 0.386646 0.067535
0.498464 0.380730 0.059130
0.541308 0.374813 0.050725
0.573979 0.368245 0.045208
0.601564 0.361351 0.041136
0.629149 0.354456 0.037063
0.656734 0.347562 0.032990
0.684319 0.340667 0.028918
0.706268 0.334455 0.026544
0.722582 0.328926 0.025869
0.738896 0.323396 0.025194
0.755210 0.317866 0.024519
0.771523 0.312336 0.023844
0.785868 0.307585 0.023702
0.796276 0.304391 0.024625
0.806683 0.301197 0.025549
0.817091 0.298003 0.026472
0.827499 0.294809 0.027396
0.836966 0.291628 0.028322
0.841730 0.288514 0.029265
0.846494 0.285400 0.030208
0.851258 0.282285 0.031151
0.856023 0.279171 0.032094
0.860787 0.276057 0.033037
0.074180 0.456701 0.154986
0.120617 0.451702 0.144010
0.167054 0.446703 0.133034
0.213491 0.441704 0.122058
0.259927 0.436705 0.111083
0.306364 0.431706 0.100107
0.349317 0.425906 0.090982
0.391573 0.419945 0.082227
0.433829 0.413984 0.073472
0.476084 0.408023 0.064717
0.518340 0.402063 0.055963
0.551682 0.395451 0.049977
0.580566 0.388513 0.045375
0.609451 0.381576 0.040774
0.638335 0.374638 0.036172
0.667219 0.367701 0.031571
0.690739 0.361452 0.028782
0.708895 0.355893 0.027806
0.727051 0.350333 0.026831
0.745207 0.344773 0.025855
0.763363 0.339214 0.024879
0.779417 0.334414 0.024560
0.791269 0.331136 0.025555
0.803120 0.327857 0.026550
0.814971 0.324579 0.027545
0.826823 0.321300 0.028541
0.837600 0.317993 0.029581
0.843005 0.314544 0.030851
0.848410 0.311094 0.032120
0.853815 0.307644 0.033390
0.859221 0.304194 0.034659
0.864626 0.300745 0.035928
0.072859 0.483530 0.159604
0.115656 0.478654 0.149076
0.158453 0.473778 0.138547
0.201250 0.468902 0.128018
0.244047 0.464027 0.117490
0.286844 0.459151 0.106961
0.328700 0.453334 0.097619
0.370368 0.447328 0.088514
0.412036 0.441323 0.079410
0.453705 0.435317 0.070305
0.495373 0.429312 0.061200
0.529385 0.422656 0.054745
0.559568 0.415676 0.049615
0.589752 0.408696 0.044484
0.619936 0.401715 0.039354
0.650120 0.394735 0.034224
0.675210 0.388450 0.031020
0.695208 0.382860 0.029744
0.715206 0.377270 0.028467
0.735204 0.371681 0.027190
0.755202 0.366091 0.025914
0.772966 0.361243 0.025418
0.786261 0.357881 0.026485
0.799557 0.354518 0.027552
0.812852 0.351155 0.028619
0.826147 0.347792 0.029686
0.838234 0.344359 0.030841
0.844280 0.340574 0.032437
0.850326 0.336788 0.034032
0.856372 0.333003 0.035628
0.862419 0.329218 0.037224
0.868465 0.325432 0.038820
0.071538 0.510359 0.164223
0.110695 0.505606 0.154141
0.149852 0.500853 0.144060
0.189010 0.496101 0.133978
0.228167 0.491348 0.123897
0.267324 0.486595 0.113815
0.308084 0.480761 0.104256
0.349164 0.474711 0.094801
0.390244 0.468661 0.085347
0.431325 0.462611 0.075892
0.472405 0.456561 0.066438
0.507087 0.449862 0.059513
0.538571 0.442839 0.053854
0.570054 0.435815 0.048195
0.601537 0.428792 0.042536
0.633020 0.421768 0.036877
0.659681 0.415447 0.033258
0.681522 0.409827 0.031681
0.703362 0.404207 0.030103
0.725202 0.398588 0.028526
0.747042 0.392968 0.026948
0.766515 0.388072 0.026276
0.781254 0.384625 0.027415
0.795993 0.381178 0.028553
0.810732 0.377731 0.029692
0.825471 0.374284 0.030831
0.838868 0.370725 0.032100
0.845555 0.366604 0.034022
0.852242 0.362483 0.035945
0.858929 0.358362 0.037867
0.865616 0.354241 0.039789
0.872304 0.350120 0.041712
0.070217 0.537188 0.168841
0.105735 0.532558 0.159207
0.141252 0.527929 0.149573
0.176769 0.523299 0.139938
0.212286 0.518669 0.130304
0.247803 0.514040 0.120669
0.287467 0.508189 0.110893
0.327960 0.502094 0.101089
0.368452 0.496000 0.091284
0.408945 0.489905 0.081480
0.449438 0.483810 0.071675
0.484790 0.477068 0.064282
0.517573 0.470001 0.058094
0.550355 0.462935 0.051906
0.583138 0.455869 0.045718
0.615920 0.448802 0.039530
0.644152 0.442444 0.035497
0.667835 0.436794 0.033618
0.691517 0.431145 0.031740
0.715199 0.425495 0.029862
0.738882 0.419845 0.027983
0.760064 0.414901 0.027134
0.776247 0.411370 0.028345
0.792430 0.407839 0.029555
0.808613 0.404307 0.030765
0.824795 0.400776 0.031976
0.839503 0.397090 0.033359
0.846830 0.392634 0.035608
0.854158 0.388177 0.037857
0.861486 0.383721 0.040106
0.868814 0.379264 0.042354
0.876142 0.374808 0.044603
0.075123 0.557928 0.170875
0.107411 0.553546 0.161806
0.139699 0.549165 0.152738
0.171988 0.544783 0.143670
0.204276 0.540402 0.134602
0.236564 0.536020 0.125534
0.274779 0.530504 0.115817
0.314180 0.524761 0.105971
0.353581 0.519018 0.096124
0.392982 0.513275 0.086278
0.432383 0.507532 0.076432
0.467917 0.501262 0.068794
0.501517 0.494728 0.062260
0.535118 0.488195 0.055726
0.568718 0.481661 0.049191
0.602319 0.475128 0.042657
0.631745 0.469294 0.038306
0.656998 0.464160 0.036139
0.682250 0.459026 0.033971
0.707502 0.453891 0.031803
0.732755 0.448757 0.029635
0.755404 0.444251 0.028595
0.772847 0.441003 0.029811
0.790290 0.437755 0.031027
0.807734 0.434507 0.032243
0.825177 0.431259 0.033459
0.841029 0.427795 0.034898
0.848925 0.423257 0.037449
0.856821 0.418719 0.040001
0.864716 0.414181 0.042553
0.872612 0.409642 0.045105
0.880508 0.405104 0.047657
0.083143 0.575624 0.171615
0.112407 0.571553 0.163172
0.141671 0.567481 0.154730
0.170936 0.563410 0.146288
0.200200 0.559339 0.137845
0.229464 0.555268 0.129403
0.266056 0.550262 0.119884
0.304113 0.545069 0.110150
0.342170 0.539875 0.100416
0.380227 0.534682 0.090682
0.418284 0.529489 0.080948
0.453755 0.523949 0.073177
0.487933 0.518237 0.066389
0.522111 0.512525 0.059600
0.556289 0.506812 0.052811
0.590467 0.501100 0.046022
0.620899 0.496071 0.041402
0.647585 0.491725 0.038950
0.674272 0.487379 0.036498
0.700958 0.483033 0.034046
0.727645 0.478686 0.031595
0.751640 0.474862 0.030356
0.770251 0.472081 0.031545
0.788863 0.469300 0.032734
0.807475 0.466518 0.033922
0.826087 0.463737 0.035111
0.843001 0.460670 0.036576
0.851428 0.456177 0.039419
0.859856 0.451684 0.042262
0.868283 0.447191 0.045105
0.876710 0.442698 0.047948
0.885137 0.438205 0.050791
0.091162 0.593319 0.172355
0.117403 0.589559 0.164539
0.143643 0.585798 0.156722
0.169884 0.582038 0.148906
0.196124 0.578277 0.141089
0.222365 0.574517 0.133272
0.257333 0.570020 0.123951
0.294046 0.565377 0.114329
0.330759 0.560733 0.104708
0.367473 0.556089 0.095086
0.404186 0.551446 0.085464
0.439594 0.546637 0.077561
0.474349 0.541746 0.070518
0.509104 0.536855 0.063474
0.543860 0.531963 0.056431
0.578615 0.527072 0.049387
0.610053 0.522848 0.044498
0.638173 0.519290 0.041762
0.666294 0.515732 0.039026
0.694414 0.512174 0.036290
0.722535 0.508616 0.033554
0.747875 0.505472 0.032118
0.767656 0.503158 0.033279
0.787436 0.500844 0.034441
0.807216 0.498530 0.035602
0.826997 0.496216 0.036763
0.844974 0.493546 0.038254
0.853932 0.489098 0.041388
0.862891 0.484650 0.044522
0.871850 0.480201 0.047657
0.880808 0.475753 0.050791
0.889767 0.471305 0.053925
0.099182 0.611015 0.173096
0.122399 0.607565 0.165905
0.145615 0.604115 0.158714
0.168832 0.600665 0.151523
0.192049 0.597215 0.144333
0.215266 0.593765 0.137142
0.248610 0.589778 0.128019
0.283979 0.585685 0.118509
0.319349 0.581591 0.108999
0.354718 0.577497 0.099489
0.390088 0.573403 0.089980
0.425433 0.569325 0.081945
0.460765 0.565255 0.074647
0.496098 0.561185 0.067349
0.531430 0.557114 0.060050
0.566763 0.553044 0.052752
0.599206 0.549624 0.047594
0.628761 0.546855 0.044574
0.658316 0.544085 0.041554
0.687870 0.541315 0.038534
0.717425 0.538545 0.035514
0.744111 0.536083 0.033879
0.765060 0.534236 0.035013
0.786009 0.532388 0.036147
0.806958 0.530541 0.037282
0.827907 0.528694 0.038416
0.846946 0.526421 0.039932
0.856436 0.522018 0.043357
0.865926 0.517615 0.046783
0.875416 0.513212 0.050208
0.884906 0.508809 0.053634
0.894396 0.504406 0.057060
0.107201 0.628710 0.173836
0.127394 0.625571 0.167271
0.147587 0.622431 0.160706
0.167780 0.619292 0.154141
0.187973 0.616153 0.147576
0.208166 0.613013 0.141011
0.239886 0.609537 0.132086
0.273912 0.605992 0.122688
0.307938 0.602448 0.113291
0.341964 0.598904 0.103893
0.375989 0.595360 0.094496
0.411271 0.592013 0.086328
0.447181 0.588764 0.078776
0.483091 0.585514 0.071223
0.519001 0.582265 0.063670
0.554911 0.579016 0.056117
0.588360 0.576401 0.050689
0.619349 0.574419 0.047386
0.650337 0.572438 0.044082
0.681326 0.570456 0.040778
0.712315 0.568475 0.037474
0.740346 0.566693 0.035641
0.762464 0.565313 0.036747
0.784582 0.563933 0.037854
0.806699 0.562553 0.038961
0.828817 0.561172 0.040068
0.848918 0.559296 0.041610
0.858940 0.554938 0.045327
0.868961 0.550580 0.049043
0.878983 0.546222 0.052760
0.889004 0.541865 0.056477
0.899025 0.537507 0.060194
0.117736 0.643127 0.173126
0.135379 0.640277 0.167166
0.153022 0.637427 0.161206
0.170665 0.634577 0.155246
0.188308 0.631727 0.149286
0.205951 0.628877 0.143326
0.236008 0.625951 0.134734
0.268548 0.623011 0.125615
0.301088 0.620070 0.116496
0.333628 0.617129 0.107377
0.366168 0.614188 0.098259
0.401065 0.611639 0.090115
0.437141 0.609286 0.082460
0.473217 0.606932 0.074804
0.509293 0.604579 0.067149
0.545369 0.602226 0.059493
0.579442 0.600499 0.053891
0.611513 0.599399 0.050343
0.643584 0.598299 0.046795
0.675655 0.597199 0.043247
0.707726 0.596100 0.039699
0.736815 0.595104 0.037674
0.759943 0.594318 0.038695
0.783071 0.593533 0.039716
0.806198 0.592747 0.040737
0.829326 0.591961 0.041758
0.850358 0.590624 0.043267
0.860910 0.586534 0.047217
0.871462 0.582443 0.051167
0.882013 0.578353 0.055117
0.892565 0.574262 0.059067
0.903117 0.570172 0.063018
0.130785 0.654264 0.170967
0.146352 0.651682 0.165591
0.161919 0.649101 0.160215
0.177486 0.646520 0.154839
0.193053 0.643938 0.149463
0.208620 0.641357 0.144087
0.236975 0.639023 0.135963
0.267887 0.636739 0.127289
0.298799 0.634455 0.118615
0.329711 0.632171 0.109942
0.360623 0.629887 0.101268
0.394814 0.628204 0.093306
0.430645 0.626821 0.085699
0.466476 0.625438 0.078093
0.502306 0.624056 0.070486
0.538137 0.622673 0.062880
0.572453 0.621919 0.057200
0.605254 0.621794 0.053447
0.638055 0.621670 0.049695
0.670856 0.621545 0.045942
0.703657 0.621420 0.042189
0.733518 0.621315 0.039979
0.757497 0.621252 0.040856
0.781476 0.621188 0.041732
0.805456 0.621124 0.042609
0.829435 0.621060 0.043485
0.851265 0.620406 0.044903
0.862346 0.616805 0.049029
0.873427 0.613204 0.053154
0.884509 0.609603 0.057280
0.895590 0.606002 0.061405
0.906671 0.602402 0.065531
0.143834 0.665401 0.168808
0.157325 0.663088 0.164016
0.170816 0.660775 0.159224
0.184307 0.658462 0.154431
0.197798 0.656149 0.149639
0.211289 0.653836 0.144847
0.237942 0.652095 0.137191
0.267226 0.650467 0.128963
0.296510 0.648840 0.120735
0.325794 0.647213 0.112506
0.355079 0.645585 0.104278
0.388564 0.644768 0.096497
0.424149 0.644356 0.088939
0.459734 0.643944 0.081381
0.495320 0.643532 0.073824
0.530905 0.643120 0.066266
0.565463 0.643339 0.060509
0.598994 0.644190 0.056551
0.632526 0.645040 0.052594
0.666057 0.645890 0.048636
0.699589 0.646740 0.044679
0.730220 0.647527 0.042284
0.755051 0.648185 0.043017
0.779882 0.648843 0.043749
0.804713 0.649501 0.044481
0.829544 0.650159 0.045213
0.852171 0.650188 0.046540
0.863782 0.647077 0.050841
0.875393 0.643966 0.055142
0.887004 0.640854 0.059442
0.898615 0.637743 0.063743
0.910226 0.634631 0.068044
0.156883 0.676538 0.166649
0.168298 0.674494 0.162441
0.179713 0.672449 0.158232
0.191128 0.670405 0.154024
0.202543 0.668360 0.149816
0.213959 0.666316 0.145608
0.238908 0.665166 0.138420
0.266565 0.664196 0.130637
0.294221 0.663225 0.122854
0.321878 0.662255 0.115070
0.349534 0.661284 0.107287
0.382313 0.661333 0.099687
0.417653 0.661892 0.092179
0.452993 0.662450 0.084670
0.488333 0.663009 0.077162
0.523673 0.663567 0.069653
0.558474 0.664759 0.063818
0.592735 0.666585 0.059655
0.626997 0.668410 0.055493
0.661259 0.670235 0.051331
0.695520 0.672061 0.047169
0.726922 0.673738 0.044590
0.752605 0.675118 0.045177
0.778287 0.676498 0.045765
0.803970 0.677878 0.046353
0.829653 0.679257 0.046941
0.853078 0.679970 0.048176
0.865219 0.677348 0.052653
0.877359 0.674727 0.057129
0.889499 0.672105 0.061605
0.901640 0.669483 0.066081
0.913780 0.666861 0.070557
0.169932 0.687675 0.164489
0.179271 0.685899 0.160865
0.188610 0.684123 0.157241
0.197949 0.682347 0.153617
0.207288 0.680571 0.149992
0.216628 0.678795 0.146368
0.239875 0.678238 0.139649
0.265904 0.677924 0.132311
0.291932 0.677610 0.124973
0.317961 0.677297 0.117635
0.343990 0.676983 0.110297
0.376062 0.677898 0.102878
0.411157 0.679427 0.095418
0.446252 0.680956 0.087959
0.481346 0.682485 0.080499
0.516441 0.684014 0.073040
0.551484 0.686179 0.067126
0.586476 0.688980 0.062759
0.621468 0.691780 0.058392
0.656460 0.694581 0.054025
0.691452 0.697381 0.049658
0.723624 0.699949 0.046895
0.750159 0.702051 0.047338
0.776693 0.704153 0.047781
0.803227 0.706254 0.048225
0.829761 0.708356 0.048668
0.853985 0.709752 0.049813
0.866655 0.707620 0.054464
0.879325 0.705488 0.059116
0.891995 0.703355 0.063767
0.904665 0.701223 0.068419
0.917334 0.699091 0.073071
0.183126 0.697343 0.161980
0.190703 0.695796 0.158871
0.198280 0.694250 0.155762
0.205857 0.692704 0.152653
0.213434 0.691157 0.149544
0.221011 0.689611 0.146435
0.242611 0.689554 0.140197
0.267016 0.689794 0.133333
0.291421 0.690034 0.126468
0.315826 0.690274 0.119604
0.340231 0.690515 0.112740
0.371432 0.692165 0.105561
0.406031 0.694521 0.098224
0.440631 0.696876 0.090887
0.475230 0.699232 0.083550
0.509830 0.701587 0.076214
0.544864 0.704595 0.070282
0.580333 0.708256 0.065755
0.615802 0.711916 0.061228
0.651272 0.715577 0.056700
0.686741 0.719237 0.052173
0.719491 0.722610 0.049248
0.746805 0.725408 0.049525
0.774118 0.728206 0.049802
0.801432 0.731003 0.050080
0.828745 0.733801 0.050357
0.853718 0.735872 0.051384
0.866984 0.734311 0.056155
0.880251 0.732751 0.060926
0.893517 0.731190 0.065697
0.906784 0.729629 0.070468
0.920050 0.728068 0.075238
0.196609 0.704071 0.158768
0.203052 0.702676 0.156038
0.209495 0.701282 0.153308
0.215937 0.699887 0.150577
0.222380 0.698493 0.147847
0.228823 0.697099 0.145116
0.248887 0.697357 0.139383
0.271676 0.697946 0.133050
0.294465 0.698535 0.126717
0.317254 0.699123 0.120383
0.340042 0.699712 0.114050
0.370042 0.701838 0.107228
0.403647 0.704731 0.100162
0.437251 0.707624 0.093095
0.470856 0.710518 0.086029
0.504461 0.713411 0.078963
0.538983 0.717003 0.073130
0.574424 0.721293 0.068532
0.609864 0.725584 0.063934
0.645305 0.729874 0.059336
0.680745 0.734164 0.054738
0.713688 0.738171 0.051696
0.741636 0.741613 0.051764
0.769583 0.745054 0.051833
0.797531 0.748496 0.051901
0.825479 0.751938 0.051970
0.851102 0.754668 0.052824
0.865099 0.753843 0.057602
0.879097 0.753017 0.062380
0.893095 0.752192 0.067159
0.907092 0.751366 0.071937
0.921090 0.750541 0.076716
0.210093 0.710799 0.155557
0.215401 0.709556 0.153205
0.220710 0.708314 0.150853
0.226018 0.707071 0.148501
0.231326 0.705829 0.146149
0.236635 0.704586 0.143797
0.255163 0.705160 0.138570
0.276336 0.706098 0.132767
0.297509 0.707035 0.126965
0.318681 0.707973 0.121162
0.339854 0.708910 0.115360
0.368652 0.711510 0.108895
0.401262 0.714941 0.102099
0.433872 0.718373 0.095303
0.466482 0.721804 0.088507
0.499092 0.725236 0.081711
0.533102 0.729411 0.075979
0.568514 0.734331 0.071310
0.603926 0.739251 0.066641
0.639337 0.744171 0.061972
0.674749 0.749091 0.057303
0.707884 0.753733 0.054143
0.736466 0.757818 0.054003
0.765048 0.761903 0.053863
0.793630 0.765989 0.053723
0.822213 0.770074 0.053583
0.848486 0.773464 0.054263
0.863214 0.773374 0.059049
0.877943 0.773284 0.063835
0.892672 0.773194 0.068621
0.907400 0.773104 0.073407
0.922129 0.773014 0.078193
0.223577 0.717526 0.152346
0.227751 0.716436 0.150372
0.231925 0.715345 0.148399
0.236099 0.714255 0.146425
0.240272 0.713164 0.144452
0.244446 0.712074 0.142478
0.261439 0.712964 0.137756
0.280996 0.714250 0.132484
0.300553 0.715536 0.127213
0.320109 0.716822 0.121941
0.339666 0.718108 0.116670
0.367262 0.721183 0.110562
0.398877 0.725152 0.104037
0.430492 0.729121 0.097511
0.462107 0.733090 0.090986
0.493723 0.737060 0.084460
0.527222 0.741819 0.078828
0.562604 0.747369 0.074088
0.597987 0.752918 0.069348
0.633370 0.758468 0.064608
0.668753 0.764018 0.059868
0.702080 0.769294 0.056591
0.731297 0.774023 0.056242
0.760513 0.778752 0.055893
0.789730 0.783482 0.055544
0.818946 0.788211 0.055195
0.845870 0.792259 0.055703
0.861330 0.792905 0.060497
0.876789 0.793550 0.065290
0.892249 0.794196 0.070084
0.907709 0.794841 0.074877
0.923169 0.795487 0.079671
0.237061 0.724254 0.149135
0.240100 0.723316 0.147540
0.243140 0.722377 0.145944
0.246179 0.721439 0.144349
0.249219 0.720500 0.142754
0.252258 0.719562 0.141159
0.267715 0.720767 0.136942
0.285656 0.722402 0.132202
0.303596 0.724036 0.127461
0.321537 0.725671 0.122721
0.339478 0.727306 0.117980
0.365871 0.730855 0.112230
0.396492 0.735362 0.105975
0.427112 0.739870 0.099719
0.457733 0.744377 0.093464
0.488353 0.748884 0.087209
0.521341 0.754227 0.081676
0.556695 0.760406 0.076865
0.592049 0.766586 0.072054
0.627403 0.772765 0.067243
0.662757 0.778945 0.062432
0.696277 0.784855 0.059039
0.726128 0.790228 0.058481
0.755978 0.795601 0.057924
0.785829 0.800974 0.057366
0.815680 0.806347 0.056808
0.843254 0.811055 0.057143
0.859445 0.812436 0.061944
0.875635 0.813817 0.066745
0.891826 0.815198 0.071546
0.908017 0.816579 0.076347
0.924208 0.817960 0.081148
0.249649 0.730226 0.146162
0.251718 0.729445 0.144891
0.253788 0.728664 0.143621
0.255858 0.727883 0.142350
0.257927 0.727102 0.141079
0.259997 0.726321 0.139808
0.273996 0.727796 0.136065
0.290381 0.729723 0.131827
0.306766 0.731650 0.127589
0.323150 0.733576 0.123352
0.339535 0.735503 0.119114
0.364698 0.739446 0.113719
0.394250 0.744396 0.107746
0.423801 0.749347 0.101773
0.453353 0.754298 0.095799
0.482905 0.759249 0.089826
0.515290 0.765087 0.084411
0.550510 0.771813 0.079555
0.585729 0.778538 0.074698
0.620949 0.785263 0.069841
0.656168 0.791988 0.064985
0.689801 0.798465 0.061493
0.720260 0.804444 0.060731
0.750720 0.810423 0.059969
0.781179 0.816402 0.059207
0.811638 0.822381 0.058445
0.839850 0.827716 0.058606
0.856821 0.829830 0.063386
0.873793 0.831944 0.068166
0.890765 0.834058 0.072945
0.907736 0.836172 0.077725
0.924708 0.838287 0.082505
0.257758 0.732416 0.144381
0.259681 0.731821 0.143165
0.261604 0.731225 0.141949
0.263526 0.730630 0.140733
0.265449 0.730035 0.139517
0.267372 0.729440 0.138301
0.280301 0.730954 0.134869
0.295431 0.732889 0.130993
0.310562 0.734825 0.127118
0.325692 0.736761 0.123242
0.340823 0.738697 0.119366
0.364608 0.742625 0.114319
0.392721 0.747549 0.108685
0.420833 0.752473 0.103051
0.448946 0.757397 0.097417
0.477059 0.762321 0.091783
0.508393 0.768209 0.086579
0.542948 0.775060 0.081803
0.577503 0.781912 0.077026
0.612058 0.788764 0.072250
0.646613 0.795616 0.067474
0.679963 0.802315 0.063976
0.710902 0.808711 0.063033
