Assets/1__3DArt/KimSe/artstation_asset/LUTs_pasterls/CUBE/Candylandia 02 S.cube
# Enhanced with VOXCOLOR algorithms
LUT_3D_SIZE 8
DOMAIN_MIN 0.000000 0.000000 0.000000
DOMAIN_MAX 0.903226 0.903226 0.903226
0.164706 0.219608 0.129412
0.426583 0.199697 0.095043
0.625416 0.189505 0.076219
0.761986 0.186886 0.068789
0.840756 0.189611 0.068738
0.870687 0.194772 0.071413
0.881372 0.199017 0.072375
0.885247 0.202155 0.071791
0.160463 0.415824 0.170229
0.349463 0.364042 0.126803
0.522033 0.323351 0.094710
0.661785 0.290948 0.073721
0.759107 0.264919 0.063103
0.814727 0.247047 0.061981
0.851314 0.236025 0.065212
0.875323 0.227234 0.069570
0.179916 0.567266 0.197420
0.305264 0.509068 0.155171
0.444964 0.456518 0.116543
0.577836 0.409681 0.085604
0.688648 0.369068 0.065420
0.769886 0.338842 0.059777
0.830443 0.316847 0.064400
0.871620 0.295563 0.073141
0.218318 0.676985 0.211313
0.291692 0.627852 0.176636
0.397149 0.577977 0.137829
0.516481 0.530667 0.102004
0.634611 0.488801 0.075149
0.737829 0.456904 0.065191
0.818799 0.430651 0.070104
0.873834 0.400998 0.081950
0.270874 0.749570 0.213073
0.305440 0.716307 0.188936
0.379406 0.679214 0.155521
0.481363 0.642991 0.120631
0.599832 0.611319 0.091309
0.718549 0.587513 0.077993
0.815264 0.565034 0.081967
0.880932 0.534534 0.095157
0.332439 0.790426 0.205222
0.343123 0.771672 0.191050
0.391660 0.750901 0.166917
0.474069 0.731801 0.138624
0.584101 0.717026 0.111931
0.708297 0.708003 0.097008
0.815137 0.697048 0.098717
0.889319 0.675646 0.111194
0.391252 0.815721 0.195434
0.389661 0.806125 0.188107
0.418956 0.797193 0.172814
0.481142 0.791334 0.152637
0.575253 0.790148 0.131178
0.695130 0.794220 0.116462
0.807894 0.796225 0.115964
0.891425 0.788674 0.127503
0.438383 0.831477 0.188063
0.434736 0.827737 0.184449
0.451318 0.825831 0.175749
0.494484 0.827476 0.162777
0.568080 0.833879 0.147132
0.675792 0.846178 0.134129
0.790733 0.858702 0.132693
0.884683 0.864520 0.144757
0.171360 0.269159 0.312599
0.416294 0.240304 0.270797
0.608429 0.220432 0.235662
0.743961 0.208513 0.208220
0.824043 0.203515 0.188734
0.857622 0.205267 0.176451
0.874264 0.210908 0.167391
0.883421 0.216738 0.159998
0.176742 0.450393 0.315805
0.348847 0.385072 0.266083
0.506929 0.332722 0.225139
0.637139 0.292459 0.194295
0.731592 0.263498 0.173954
0.792301 0.247553 0.163561
0.838395 0.240950 0.157197
0.872548 0.237735 0.151085
0.203170 0.590728 0.313224
0.313102 0.517393 0.265276
0.436055 0.452530 0.223154
0.555600 0.398439 0.189962
0.660024 0.356779 0.167663
0.744568 0.330770 0.157618
0.815296 0.314955 0.153823
0.870305 0.301418 0.150780
0.246247 0.693127 0.304944
0.306524 0.629618 0.264600
0.396227 0.567780 0.225317
0.501344 0.513122 0.191892
0.610235 0.469724 0.167956
0.713233 0.441503 0.157324
0.803182 0.421420 0.155550
0.874624 0.400471 0.156226
0.301415 0.761798 0.291475
0.325568 0.716675 0.261225
0.386195 0.668782 0.227996
0.474528 0.624744 0.197071
0.581678 0.589459 0.172885
0.696214 0.566496 0.161284
0.799696 0.548229 0.160680
0.883132 0.525801 0.164794
0.363008 0.801122 0.274181
0.366038 0.774261 0.253439
0.404084 0.745060 0.228095
0.474447 0.718548 0.202312
0.572581 0.698377 0.179995
0.689680 0.686807 0.167678
0.800489 0.676751 0.167173
0.891489 0.660687 0.173605
0.419104 0.825093 0.257150
0.412490 0.811028 0.243319
0.434337 0.796885 0.225052
0.487086 0.785719 0.204875
0.570721 0.779690 0.185558
0.682563 0.780140 0.173096
0.796344 0.781009 0.172187
0.892859 0.775905 0.180377
0.461093 0.839262 0.242275
0.454608 0.833665 0.233036
0.466773 0.829363 0.220295
0.503788 0.828263 0.205032
0.569759 0.831806 0.188805
0.670161 0.841707 0.176383
0.783513 0.853505 0.174826
0.884702 0.860900 0.185119
0.186560 0.342507 0.491034
0.406344 0.305644 0.445949
0.590758 0.276572 0.402185
0.728269 0.255367 0.363467
0.813814 0.242068 0.332395
0.852518 0.238433 0.310728
0.873163 0.241878 0.295359
0.885058 0.246850 0.283734
0.200789 0.501973 0.476596
0.351800 0.432230 0.425945
0.497635 0.372358 0.379278
0.623054 0.324211 0.340048
0.718567 0.289125 0.310483
0.783924 0.270370 0.291763
0.835272 0.263663 0.278451
0.874795 0.262054 0.266083
0.234080 0.626294 0.457552
0.327294 0.549279 0.408648
0.436768 0.477935 0.363070
0.547576 0.417269 0.324860
0.648782 0.370966 0.296739
0.735343 0.343440 0.280441
0.811133 0.328722 0.269966
0.874048 0.318745 0.259778
0.281814 0.717849 0.434778
0.329557 0.650285 0.392249
0.406552 0.582590 0.350906
0.500998 0.522191 0.315342
0.602929 0.474613 0.288895
0.704268 0.444737 0.274423
0.798121 0.425789 0.266939
0.879550 0.409444 0.260624
0.339282 0.780056 0.409236
0.354526 0.730725 0.375325
0.404188 0.677443 0.340439
0.481291 0.627895 0.309056
0.578650 0.587854 0.284724
0.687771 0.561806 0.271500
0.793432 0.543513 0.266680
0.888116 0.525545 0.264855
0.400258 0.816116 0.382281
0.397292 0.785942 0.356860
0.426581 0.752238 0.329255
0.486437 0.720515 0.303050
0.573601 0.694928 0.281397
0.682540 0.678634 0.269101
0.793443 0.666754 0.266284
0.895312 0.653581 0.268504
0.453508 0.837717 0.356485
0.443163 0.821683 0.337445
0.458665 0.804527 0.315951
0.502787 0.789442 0.294487
0.576256 0.778832 0.275542
0.678985 0.774732 0.264047
0.790760 0.773211 0.262630
0.895784 0.769456 0.268312
0.491519 0.849881 0.332626
0.482714 0.843358 0.318020
0.490801 0.837506 0.301161
0.521784 0.834273 0.283412
0.579932 0.835241 0.266492
0.672021 0.842678 0.255009
0.781633 0.853574 0.254048
0.887429 0.862365 0.263075
0.209348 0.430342 0.646297
0.400630 0.388814 0.602334
0.576180 0.353294 0.557110
0.716353 0.324800 0.515206
0.809160 0.304218 0.480055
0.853621 0.294396 0.454573
0.876584 0.293025 0.436527
0.889108 0.294197 0.423068
0.231684 0.563731 0.628857
0.360582 0.496973 0.582006
0.496035 0.434969 0.534391
0.619560 0.381796 0.491054
0.718368 0.340695 0.455722
0.787505 0.316719 0.431407
0.840183 0.306335 0.413986
0.880531 0.302428 0.398757
0.271319 0.668878 0.604854
0.348418 0.597012 0.559709
0.447400 0.525743 0.513642
0.552903 0.461900 0.471913
0.653061 0.410795 0.438419
0.740214 0.378502 0.416333
0.816219 0.360600 0.401019
0.881034 0.349658 0.387102
0.323277 0.747343 0.576162
0.360045 0.684057 0.535920
0.427309 0.617055 0.494322
0.514125 0.554535 0.456413
0.610945 0.502848 0.426016
0.709236 0.468072 0.406570
0.802111 0.445832 0.394177
0.886808 0.429406 0.383625
0.382598 0.801546 0.544515
0.390855 0.754605 0.511027
0.432010 0.701575 0.475768
0.500202 0.650016 0.443075
0.589227 0.605827 0.416398
0.691869 0.574249 0.399536
0.795311 0.552099 0.390336
0.894407 0.534316 0.384261
0.442521 0.833439 0.511641
0.435321 0.804230 0.485068
0.457681 0.770019 0.456543
0.508646 0.735884 0.429426
0.585872 0.705850 0.406608
0.685885 0.683595 0.392206
0.793265 0.667400 0.386125
0.899762 0.654046 0.384618
0.492881 0.852258 0.479719
0.480140 0.836526 0.458289
0.490502 0.818571 0.435076
0.526954 0.801225 0.412569
0.590771 0.786771 0.393127
0.683693 0.777630 0.381017
0.790658 0.772420 0.377802
0.899184 0.768259 0.380507
0.527785 0.862405 0.449245
0.517408 0.855834 0.431131
0.521968 0.849286 0.411582
0.547233 0.844560 0.392258
0.597545 0.843230 0.374995
0.680567 0.847903 0.364142
0.784296 0.857086 0.363010
0.891146 0.866158 0.369857
0.238883 0.523674 0.764989
0.402135 0.482471 0.726350
0.567468 0.444902 0.685849
0.708942 0.412624 0.647682
0.808720 0.387072 0.615058
0.858853 0.371420 0.590848
0.882875 0.363792 0.573421
0.894525 0.359175 0.560246
0.268507 0.629142 0.753794
0.376757 0.571091 0.714636
0.503179 0.513052 0.671685
0.625957 0.459854 0.630277
0.728726 0.415550 0.594598
0.800460 0.386098 0.568616
0.851099 0.369647 0.549917
0.888238 0.360067 0.534393
0.313576 0.713707 0.733870
0.376613 0.653281 0.696780
0.467651 0.588858 0.655158
0.570112 0.527255 0.614548
0.670419 0.474083 0.579349
0.756700 0.436182 0.553843
0.828579 0.411954 0.535645
0.889543 0.395737 0.520334
0.368934 0.778092 0.707673
0.396999 0.725314 0.674506
0.457296 0.665531 0.636886
0.538956 0.606005 0.599838
0.632070 0.552675 0.567418
0.726061 0.511928 0.543809
0.813482 0.482990 0.527402
0.894764 0.461810 0.514269
0.429508 0.823692 0.677424
0.432944 0.784408 0.649265
0.468023 0.737130 0.617229
0.529493 0.687937 0.585335
0.611562 0.641842 0.556941
0.706901 0.603965 0.536008
0.804077 0.574956 0.522264
0.900702 0.552974 0.512664
0.488080 0.851231 0.645046
0.478415 0.826514 0.621761
0.495699 0.795620 0.595444
0.539445 0.762303 0.569036
0.607878 0.729756 0.545137
0.698529 0.701424 0.527473
0.799114 0.678973 0.517036
0.903921 0.662160 0.511541
0.535590 0.867404 0.612651
0.521750 0.853864 0.592599
0.528232 0.837219 0.570502
0.558106 0.819470 0.548546
0.613000 0.802390 0.528786
0.695799 0.788277 0.514778
0.795423 0.778236 0.508083
0.902120 0.771547 0.506703
0.567978 0.875874 0.580811
0.556915 0.870003 0.562229
0.558667 0.863572 0.542586
0.578715 0.858016 0.523539
0.621388 0.854695 0.506794
0.694851 0.856184 0.496026
0.790634 0.862399 0.493180
0.894287 0.869942 0.496201
0.275759 0.609546 0.835601
0.414010 0.574616 0.805286
0.566743 0.540741 0.773524
0.705487 0.509701 0.743538
0.809317 0.483088 0.717777
0.864289 0.463923 0.698370
0.889179 0.451161 0.684008
0.899849 0.441350 0.672857
0.311073 0.689027 0.832442
0.401941 0.643945 0.803534
0.519579 0.596410 0.770378
0.640440 0.550100 0.737143
0.745739 0.508295 0.707218
0.818541 0.476112 0.684073
0.864846 0.453626 0.666779
0.895835 0.436998 0.652658
0.359813 0.754322 0.820827
0.411995 0.709102 0.794819
0.496868 0.658184 0.763239
0.597016 0.606179 0.730373
0.697359 0.557136 0.699804
0.781293 0.516464 0.675422
0.845545 0.485310 0.656966
0.897365 0.461132 0.641876
0.416998 0.805487 0.802973
0.439268 0.766810 0.780620
0.495053 0.720380 0.752536
0.573375 0.670668 0.722493
0.663697 0.621573 0.693727
0.752407 0.577656 0.669980
0.830438 0.541232 0.651910
0.901438 0.511946 0.637651
0.477711 0.843069 0.780905
0.478747 0.814553 0.762269
0.510258 0.778056 0.738609
0.567247 0.736898 0.712771
0.643914 0.694020 0.687309
0.731614 0.652596 0.665544
0.818787 0.616135 0.649175
0.905460 0.586565 0.637246
0.534547 0.866826 0.756350
0.524205 0.848706 0.740504
0.538483 0.824585 0.720927
0.577068 0.796167 0.699521
0.638368 0.765074 0.678104
0.719832 0.733164 0.659485
0.810540 0.704290 0.645987
0.906565 0.681302 0.637312
0.579375 0.881108 0.731061
0.565659 0.870864 0.716388
0.569743 0.857440 0.699444
0.594565 0.841640 0.681581
0.641831 0.824311 0.664148
0.714773 0.806751 0.649569
0.804605 0.791585 0.639860
0.903162 0.780275 0.634641
0.609564 0.888715 0.705407
0.598772 0.883952 0.690450
0.598730 0.878381 0.674596
0.614488 0.872810 0.659044
0.650187 0.868096 0.645000
0.714008 0.866143 0.634950
0.799720 0.867829 0.630006
0.894644 0.871373 0.628705
0.317207 0.677961 0.873586
0.433084 0.651558 0.851351
0.571026 0.624529 0.828122
0.703012 0.598232 0.806164
0.807421 0.574003 0.787202
0.866202 0.554550 0.772731
0.892701 0.539844 0.761801
0.903414 0.527781 0.753246
0.356563 0.736877 0.874507
0.432300 0.704769 0.855025
0.539728 0.669910 0.832070
0.655626 0.634165 0.808372
0.760535 0.599373 0.786190
0.833401 0.568819 0.767911
0.875805 0.543799 0.753413
0.900812 0.522932 0.741378
0.407249 0.786664 0.869121
0.450380 0.755494 0.853076
0.528497 0.719552 0.832326
0.624595 0.680806 0.809525
0.723188 0.641147 0.786970
0.804209 0.603307 0.767246
0.860751 0.569571 0.751022
0.901953 0.540309 0.737344
0.464704 0.827005 0.859048
0.482529 0.800912 0.846404
0.533984 0.768848 0.828881
0.608584 0.732412 0.808664
0.695688 0.693114 0.787723
0.779208 0.652554 0.768425
0.847221 0.613798 0.752177
0.904632 0.579312 0.738672
0.524388 0.857928 0.845814
0.523962 0.838831 0.835921
0.552670 0.813865 0.821818
0.605940 0.783825 0.804989
0.678050 0.749511 0.786864
0.758899 0.711304 0.769391
0.835006 0.672857 0.754619
0.906884 0.638392 0.742918
0.579058 0.878649 0.830912
0.568630 0.866229 0.822329
0.580892 0.849494 0.810782
0.615670 0.828446 0.797108
0.671429 0.803212 0.782203
0.744937 0.773515 0.767581
0.824502 0.742903 0.755489
0.906176 0.715782 0.746657
0.621302 0.891678 0.815481
0.608080 0.884275 0.806815
0.610665 0.874554 0.796473
0.631781 0.862349 0.785011
0.673019 0.847634 0.773054
0.737290 0.830340 0.761862
0.816081 0.812895 0.753120
0.901124 0.797907 0.747181
0.648945 0.898869 0.799177
0.638944 0.895153 0.789569
0.637940 0.890797 0.779390
0.650457 0.885977 0.769282
0.680297 0.880979 0.759914
0.735202 0.876694 0.752722
0.809791 0.874178 0.748245
0.891644 0.873054 0.745378
0.359911 0.729971 0.893858
0.454625 0.711024 0.878242
0.576775 0.691481 0.862173
0.700097 0.671698 0.847042
0.803355 0.652231 0.833907
0.865392 0.634923 0.823731
0.893817 0.620472 0.815933
0.904865 0.607922 0.809954
0.402439 0.773936 0.896533
0.463818 0.752025 0.884218
0.559432 0.728478 0.869461
0.667712 0.703479 0.853862
0.769765 0.677444 0.838763
0.842266 0.651767 0.825556
0.882248 0.628103 0.814373
0.902731 0.606751 0.804759
0.454064 0.812010 0.895107
0.488471 0.791315 0.886156
0.558186 0.767917 0.873836
0.647735 0.741876 0.859616
0.742337 0.713427 0.844786
0.820402 0.683094 0.830711
0.871058 0.652859 0.818006
0.902713 0.624302 0.806517
0.510867 0.843844 0.890684
0.524195 0.826744 0.884595
0.570023 0.806368 0.875107
0.639171 0.782586 0.863329
0.721705 0.755371 0.850275
0.800563 0.724278 0.837034
0.860119 0.691236 0.824556
0.903521 0.658890 0.813066
0.568877 0.869282 0.884348
0.566675 0.856634 0.880173
0.591859 0.840954 0.873268
0.640767 0.821814 0.864265
0.708210 0.798859 0.853799
0.783400 0.770874 0.842617
0.849342 0.739551 0.831880
0.903909 0.708141 0.822163
0.621307 0.887321 0.877439
0.610374 0.878693 0.873720
0.620437 0.868021 0.868308
0.651735 0.854698 0.861472
0.702951 0.838197 0.853533
0.770202 0.817200 0.845002
0.838757 0.793051 0.837010
0.901808 0.768643 0.830204
0.661081 0.899072 0.870465
0.648018 0.893668 0.866320
0.649219 0.887213 0.861301
0.667375 0.879262 0.855610
0.704001 0.869456 0.849496
0.761325 0.857069 0.843466
0.828826 0.843017 0.838261
0.895972 0.828929 0.834033
0.685288 0.905429 0.862198
0.676274 0.902846 0.857534
0.674679 0.899929 0.852436
0.684664 0.896553 0.847295
0.709747 0.892687 0.842523
0.756964 0.888537 0.838989
0.820471 0.884680 0.836807
0.886999 0.881107 0.834865
