Assets/1__3DArt/KimSe/artstation_asset/LUTs_pasterls/CUBE/Candylandia 01.cube
# Enhanced with VOXCOLOR algorithms
LUT_3D_SIZE 8
DOMAIN_MIN 0.000000 0.000000 0.000000
DOMAIN_MAX 0.903226 0.903226 0.903226
0.156863 0.219608 0.105882
0.433101 0.206755 0.059747
0.621612 0.199249 0.033749
0.740184 0.197220 0.022519
0.805838 0.199993 0.021002
0.832464 0.204273 0.024015
0.843366 0.204711 0.025725
0.848623 0.201003 0.025190
0.094725 0.365084 0.137342
0.328248 0.351751 0.091380
0.526489 0.341557 0.058417
0.678760 0.330466 0.038018
0.779452 0.315807 0.029014
0.827240 0.297639 0.029094
0.847170 0.278316 0.030735
0.854622 0.257912 0.030537
0.072891 0.483514 0.159620
0.253889 0.474073 0.119655
0.441366 0.467524 0.084279
0.609551 0.457640 0.057104
0.739161 0.440196 0.040514
0.813943 0.414162 0.036172
0.849947 0.384010 0.037431
0.864919 0.351201 0.038653
0.083374 0.575508 0.171730
0.210146 0.571016 0.140913
0.372692 0.570886 0.107037
0.541041 0.568392 0.076195
0.690210 0.558430 0.053292
0.792610 0.536967 0.043900
0.849216 0.506418 0.044315
0.876414 0.469199 0.047712
0.118480 0.642755 0.173498
0.196019 0.641722 0.152660
0.325305 0.647727 0.123432
0.480425 0.654934 0.092419
0.637455 0.658234 0.065544
0.763531 0.650828 0.051266
0.842775 0.630477 0.050287
0.886091 0.599083 0.056229
0.171865 0.686708 0.165456
0.212210 0.685996 0.153044
0.306084 0.694510 0.130507
0.436821 0.708471 0.102979
0.586823 0.723956 0.075651
0.726413 0.733972 0.057788
0.826580 0.731770 0.054826
0.888638 0.716830 0.062887
0.226699 0.715966 0.153906
0.243527 0.714465 0.146994
0.307104 0.722212 0.130907
0.410216 0.737726 0.108603
0.543006 0.758914 0.083678
0.684732 0.781032 0.064312
0.800538 0.795515 0.059215
0.880908 0.798951 0.067850
0.267997 0.733542 0.143662
0.274477 0.732649 0.139287
0.316271 0.739185 0.128278
0.394139 0.753627 0.111446
0.505622 0.775714 0.090555
0.641384 0.803836 0.071551
0.767357 0.829935 0.064437
0.864236 0.848325 0.071832
0.162511 0.242093 0.283031
0.427209 0.228366 0.224672
0.614628 0.220194 0.181016
0.737028 0.217345 0.151011
0.807077 0.218923 0.132869
0.835995 0.221733 0.123333
0.847202 0.220894 0.115457
0.851308 0.216247 0.107766
0.112039 0.389902 0.280938
0.334690 0.364622 0.223792
0.525975 0.346804 0.178041
0.675314 0.332894 0.145078
0.776722 0.319946 0.125076
0.827120 0.305568 0.116448
0.848885 0.288706 0.110621
0.857083 0.269525 0.103387
0.097247 0.507819 0.273969
0.267650 0.483454 0.224112
0.445365 0.466563 0.179381
0.606986 0.452140 0.143915
0.734586 0.436131 0.120445
0.811244 0.414990 0.110836
0.849641 0.388601 0.107438
0.866570 0.358065 0.103471
0.111590 0.597639 0.261968
0.227987 0.579999 0.222565
0.379790 0.569687 0.181712
0.539810 0.561586 0.145409
0.684915 0.551264 0.118444
0.787968 0.533290 0.106416
0.847015 0.506070 0.104819
0.876952 0.471181 0.105605
0.148458 0.661979 0.245133
0.216095 0.651539 0.216880
0.334558 0.649192 0.182330
0.480487 0.650623 0.147688
0.631861 0.651626 0.118528
0.757302 0.645266 0.103219
0.838848 0.626761 0.102046
0.885432 0.596949 0.107774
0.201428 0.702695 0.224105
0.233135 0.696154 0.205360
0.316844 0.698745 0.178653
0.438177 0.707774 0.148670
0.581421 0.720094 0.120168
0.719164 0.729213 0.102021
0.821288 0.727241 0.099332
0.886812 0.712729 0.108089
0.253837 0.728773 0.202890
0.264216 0.723987 0.190752
0.319143 0.727893 0.171308
0.413371 0.739692 0.147301
0.538822 0.757849 0.122007
0.677427 0.778244 0.102921
0.794357 0.792010 0.097894
0.877855 0.795095 0.106544
0.292000 0.743901 0.184421
0.294504 0.741257 0.176158
0.329661 0.745417 0.162428
0.399715 0.757194 0.144213
0.503699 0.776662 0.123234
0.634973 0.802779 0.104824
0.760722 0.827722 0.097600
0.859831 0.845444 0.103993
0.190039 0.289863 0.454511
0.431007 0.272341 0.394928
0.611515 0.261909 0.345152
0.735932 0.257386 0.306189
0.810562 0.257172 0.278024
0.842400 0.257820 0.259066
0.854439 0.254915 0.243459
0.858150 0.248643 0.229908
0.149309 0.433191 0.439905
0.350185 0.400887 0.382315
0.529558 0.377085 0.331851
0.674476 0.359196 0.291331
0.776572 0.344765 0.262239
0.829827 0.330885 0.244418
0.853647 0.314637 0.230502
0.862932 0.295711 0.216316
0.140345 0.546273 0.418798
0.292267 0.513625 0.367622
0.456007 0.488742 0.318854
0.609005 0.468522 0.277280
0.733500 0.450113 0.246314
0.811437 0.430004 0.228830
0.851971 0.405559 0.218383
0.870818 0.376697 0.208223
0.157336 0.631146 0.392293
0.258984 0.605615 0.350025
0.396735 0.586876 0.305315
0.545769 0.571905 0.264115
0.684540 0.557755 0.231309
0.786584 0.539830 0.213018
0.847112 0.514536 0.205986
0.879276 0.481912 0.202513
0.194260 0.690611 0.361564
0.250658 0.673930 0.329019
0.356196 0.664074 0.290530
0.490259 0.658486 0.251815
0.632985 0.654364 0.218135
0.755078 0.646205 0.197922
0.837055 0.628411 0.192809
0.885764 0.600421 0.196628
0.244538 0.726624 0.327938
0.268054 0.716068 0.304233
0.340763 0.713046 0.273578
0.450714 0.716033 0.240140
0.584301 0.722920 0.208229
0.716878 0.728631 0.186228
0.818233 0.725538 0.180285
0.885397 0.711402 0.188372
0.292486 0.748469 0.295195
0.297340 0.741411 0.277996
0.343528 0.741566 0.254731
0.427679 0.748798 0.227925
0.543500 0.762218 0.200522
0.675756 0.778722 0.179132
0.790729 0.790144 0.171467
0.875136 0.792206 0.179004
0.326149 0.760328 0.265812
0.325071 0.756339 0.252549
0.353616 0.758066 0.234994
0.415213 0.766603 0.214372
0.510186 0.782349 0.192416
0.634406 0.804874 0.173862
0.757096 0.827120 0.165874
0.856260 0.843091 0.170999
0.232457 0.355485 0.603771
0.443746 0.333896 0.550874
0.613201 0.320976 0.504056
0.737283 0.314614 0.464791
0.815756 0.312503 0.433688
0.850817 0.310870 0.410229
0.864165 0.305661 0.390472
0.868070 0.297409 0.373618
0.201091 0.488196 0.591305
0.374617 0.452859 0.540605
0.538568 0.425417 0.492674
0.677088 0.404198 0.450857
0.778957 0.387411 0.417336
0.834863 0.372540 0.393161
0.860792 0.355927 0.373244
0.871353 0.336700 0.354124
0.197568 0.592634 0.568679
0.326914 0.556780 0.522703
0.473719 0.527028 0.475791
0.615965 0.502000 0.432762
0.735831 0.480189 0.397311
0.814173 0.459222 0.373085
0.856458 0.435557 0.356013
0.877089 0.407915 0.340474
0.216608 0.670457 0.537971
0.301315 0.641397 0.498355
0.422709 0.617006 0.454546
0.558439 0.596087 0.411955
0.688678 0.577218 0.375212
0.788066 0.557533 0.350560
0.849144 0.533061 0.337050
0.883036 0.502442 0.328778
0.252660 0.724097 0.501194
0.297384 0.704157 0.468744
0.388539 0.688683 0.429968
0.508533 0.676620 0.389727
0.639974 0.666542 0.352667
0.756289 0.654956 0.326707
0.837078 0.636822 0.315606
0.886944 0.610495 0.315881
0.299024 0.755190 0.460144
0.314972 0.742411 0.434670
0.376097 0.734816 0.402599
0.472980 0.731849 0.367334
0.594325 0.732394 0.332507
0.718805 0.733106 0.305423
0.817099 0.727699 0.293740
0.884410 0.713589 0.298997
0.341384 0.772792 0.419084
0.341568 0.764471 0.398872
0.378956 0.761383 0.373328
0.451930 0.763883 0.344598
0.555984 0.771661 0.315125
0.678982 0.782733 0.290155
0.789374 0.790420 0.277510
0.872831 0.790717 0.281777
0.369695 0.781348 0.380778
0.365496 0.776496 0.363351
0.387484 0.775978 0.342623
0.439993 0.781046 0.319978
0.524461 0.792342 0.297084
0.639210 0.809995 0.277886
0.756301 0.828160 0.268105
0.853551 0.841338 0.270790
0.283685 0.431635 0.718884
0.464373 0.407741 0.677483
0.620092 0.393198 0.639974
0.741153 0.385416 0.607342
0.822001 0.381730 0.580021
0.860271 0.378196 0.557804
0.875328 0.370972 0.538424
0.879881 0.360788 0.521566
0.262213 0.548544 0.716888
0.407327 0.513369 0.677225
0.553727 0.485090 0.637722
0.683628 0.462532 0.601129
0.783673 0.444344 0.569411
0.841616 0.428500 0.543964
0.869537 0.411359 0.522056
0.881433 0.391732 0.501401
0.264248 0.641177 0.702164
0.370273 0.605853 0.665770
0.498469 0.574808 0.626408
0.627973 0.547625 0.587920
0.741410 0.523661 0.553437
0.819035 0.501649 0.526441
0.862552 0.478288 0.505434
0.884729 0.451664 0.486797
0.285194 0.710491 0.677004
0.352792 0.681412 0.644840
0.456617 0.654798 0.607400
0.577218 0.630507 0.568789
0.696914 0.608134 0.532709
0.792028 0.586383 0.504522
0.852726 0.562065 0.485677
0.887828 0.533164 0.473148
0.320103 0.758190 0.643615
0.353626 0.737691 0.616123
0.429709 0.719225 0.582056
0.534043 0.702647 0.544923
0.652026 0.687498 0.508269
0.760436 0.672069 0.478476
0.838623 0.652829 0.461200
0.888799 0.627792 0.456656
0.362284 0.785142 0.603544
0.371524 0.771833 0.580563
0.420861 0.761262 0.551176
0.503432 0.753445 0.517709
0.610403 0.747986 0.482781
0.724280 0.743092 0.451751
0.817610 0.734506 0.433359
0.883846 0.719926 0.433362
0.398845 0.799380 0.561202
0.395199 0.790762 0.541334
0.423863 0.785281 0.516568
0.484788 0.783512 0.488410
0.575222 0.785532 0.458559
0.686427 0.790352 0.430316
0.790036 0.793285 0.411360
0.870991 0.791108 0.409809
0.421594 0.805320 0.519743
0.414815 0.800131 0.500577
0.430398 0.797782 0.478807
0.473290 0.799496 0.455774
0.545875 0.806025 0.432908
0.648935 0.817918 0.413061
0.758166 0.830872 0.400543
0.851706 0.840319 0.399169
0.338930 0.508576 0.789837
0.491685 0.485570 0.760481
0.632005 0.471248 0.734336
0.746981 0.463159 0.711645
0.827928 0.458785 0.692357
0.868877 0.454385 0.675987
0.885874 0.446301 0.661039
0.891531 0.435244 0.647480
0.327035 0.605990 0.797931
0.446913 0.574128 0.769800
0.575282 0.548248 0.741548
0.694380 0.527279 0.714716
0.790284 0.510011 0.690428
0.848957 0.494649 0.669529
0.878429 0.477951 0.650715
0.891583 0.458809 0.632860
0.334353 0.684601 0.794365
0.420133 0.652994 0.768941
0.530003 0.624561 0.740700
0.645378 0.599038 0.711939
0.750323 0.575995 0.684605
0.825540 0.554603 0.660997
0.869383 0.532278 0.641089
0.892624 0.507264 0.623288
0.357147 0.744630 0.780834
0.410319 0.718539 0.758734
0.497301 0.693583 0.731907
0.602024 0.669835 0.702796
0.709455 0.647199 0.673709
0.798419 0.625081 0.648099
0.857478 0.601422 0.628338
0.892990 0.574491 0.613966
0.391221 0.786938 0.758992
0.415769 0.768320 0.740117
0.477716 0.750111 0.715514
0.566060 0.732400 0.687175
0.669143 0.715097 0.657240
0.767631 0.697403 0.629615
0.841642 0.677382 0.609853
0.891066 0.653567 0.600743
0.430134 0.811416 0.729587
0.434407 0.799178 0.713193
0.472873 0.787856 0.691274
0.540973 0.777580 0.664996
0.632253 0.768246 0.635783
0.733358 0.758943 0.606456
0.819844 0.747370 0.584661
0.883704 0.732071 0.578130
0.462250 0.824269 0.696180
0.456017 0.816305 0.680788
0.476707 0.809773 0.661186
0.525444 0.805155 0.638090
0.601009 0.802628 0.612313
0.698164 0.801769 0.585034
0.792848 0.799863 0.562444
0.869716 0.794824 0.553844
0.480808 0.829421 0.661636
0.472341 0.824529 0.645011
0.482116 0.821146 0.626272
0.515274 0.820238 0.606402
0.574877 0.822469 0.586367
0.664070 0.828515 0.567735
0.763062 0.835688 0.553334
0.850837 0.840686 0.546990
0.392626 0.575284 0.830819
0.521148 0.555133 0.810592
0.645949 0.542527 0.793362
0.753007 0.535299 0.778879
0.832166 0.531233 0.766736
0.874894 0.527044 0.756149
0.893606 0.519421 0.745926
0.900465 0.508932 0.736219
0.388664 0.654018 0.843155
0.487855 0.627108 0.824057
0.599424 0.605338 0.805240
0.706940 0.587669 0.787390
0.797065 0.572968 0.770976
0.855139 0.559574 0.756246
0.885535 0.544663 0.742435
0.899682 0.527322 0.729103
0.400214 0.718987 0.846897
0.470121 0.692480 0.830305
0.563721 0.668525 0.811807
0.665225 0.646821 0.792628
0.760707 0.626949 0.773812
0.832186 0.608140 0.756526
0.875440 0.588298 0.740973
0.899112 0.566039 0.726610
0.424393 0.770000 0.843092
0.466774 0.748043 0.829429
0.539344 0.726657 0.812360
0.629303 0.705902 0.793214
0.724314 0.685715 0.773264
0.806076 0.665642 0.754285
0.862409 0.644235 0.738003
0.897373 0.620238 0.724783
0.457788 0.807357 0.832794
0.476078 0.791508 0.821703
0.526320 0.775368 0.806490
0.600336 0.759045 0.788182
0.689094 0.742533 0.767908
0.777012 0.725306 0.747561
0.845694 0.706253 0.730734
0.893163 0.684478 0.719983
0.494534 0.830335 0.816326
0.495728 0.819768 0.806712
0.525440 0.809190 0.793181
0.580829 0.798693 0.776203
0.657359 0.788238 0.756409
0.745328 0.777239 0.734882
0.823791 0.764511 0.716350
0.883942 0.749302 0.706515
0.524052 0.843223 0.796086
0.516592 0.836315 0.786485
0.531034 0.829843 0.773903
0.569125 0.824085 0.758526
0.630717 0.819160 0.740604
0.713456 0.814834 0.720211
0.797939 0.809723 0.701039
0.869272 0.802686 0.689605
0.540277 0.849018 0.773895
0.531524 0.844895 0.762637
0.537030 0.841372 0.749830
0.561718 0.839048 0.735989
0.608967 0.838374 0.721621
0.683695 0.839911 0.707442
0.770905 0.842267 0.694968
0.851174 0.843411 0.686547
0.441172 0.629170 0.855163
0.549289 0.612263 0.841578
0.659483 0.602114 0.830859
0.758037 0.596652 0.822412
0.834455 0.593816 0.815579
0.878399 0.590679 0.809349
0.898484 0.584280 0.802754
0.906202 0.574921 0.796089
0.444790 0.692931 0.868457
0.526761 0.670814 0.855964
0.623083 0.653403 0.844119
0.719216 0.639575 0.833101
0.802953 0.628165 0.822971
0.859685 0.617559 0.813588
0.890517 0.605208 0.804377
0.905277 0.590276 0.795204
0.460005 0.746269 0.875919
0.516885 0.724530 0.865685
0.596188 0.705198 0.854342
0.684826 0.687858 0.842518
0.770908 0.672013 0.830735
0.838107 0.656837 0.819465
0.880196 0.640415 0.808733
0.903737 0.621572 0.798334
0.485031 0.789112 0.878265
0.518731 0.770972 0.870567
0.579054 0.753408 0.860625
0.655958 0.736408 0.849190
0.739444 0.719861 0.836960
0.813950 0.703286 0.824733
0.866981 0.685377 0.813313
0.900571 0.665119 0.802935
0.517465 0.821680 0.876227
0.530885 0.808346 0.870620
0.571564 0.794694 0.862342
0.633468 0.780811 0.851965
0.709630 0.766687 0.840091
0.787595 0.751865 0.827523
0.850456 0.735445 0.815927
0.894854 0.716788 0.806535
0.552390 0.843101 0.870115
0.551370 0.834008 0.865463
0.574270 0.824694 0.858438
0.619375 0.815204 0.849236
0.683486 0.805496 0.838142
0.759571 0.795107 0.825544
0.829635 0.783276 0.813607
0.884727 0.769604 0.804920
0.579962 0.856019 0.861166
0.572064 0.850104 0.856386
0.582063 0.844244 0.849866
0.611915 0.838549 0.841593
0.662060 0.833054 0.831619
0.731909 0.827568 0.819902
0.805848 0.821424 0.808174
0.870238 0.814128 0.799294
0.593919 0.862320 0.849814
0.586342 0.859235 0.844248
0.589547 0.856232 0.837585
0.608036 0.853587 0.830033
0.645187 0.851532 0.821834
0.706684 0.850428 0.813381
0.781665 0.849830 0.805440
0.853263 0.848880 0.798781
