Assets/1__3DArt/KimSe/artstation_asset/LUTs_pasterls/CUBE/Candylandia 02.cube
# Enhanced with VOXCOLOR algorithms
LUT_3D_SIZE 32
0.164706 0.219608 0.129412
0.230175 0.214630 0.120820
0.295645 0.209652 0.112228
0.361114 0.204674 0.103635
0.426583 0.199697 0.095043
0.492052 0.194719 0.086451
0.538979 0.192600 0.082431
0.582197 0.191052 0.079325
0.625416 0.189505 0.076219
0.668634 0.187958 0.073113
0.711852 0.186411 0.070007
0.740549 0.186291 0.068899
0.761986 0.186886 0.068789
0.783423 0.187480 0.068679
0.804860 0.188074 0.068569
0.826297 0.188669 0.068459
0.840756 0.189611 0.068738
0.848239 0.190901 0.069407
0.855721 0.192191 0.070076
0.863204 0.193482 0.070744
0.870687 0.194772 0.071413
0.876245 0.195971 0.071911
0.877954 0.196986 0.072065
0.879663 0.198002 0.072220
0.881372 0.199017 0.072375
0.883081 0.200033 0.072530
0.884562 0.200977 0.072592
0.884905 0.201566 0.072191
0.885247 0.202155 0.071791
0.885590 0.202744 0.071390
0.885932 0.203333 0.070989
0.886275 0.203922 0.070588
0.163645 0.268662 0.139616
0.224962 0.261976 0.130596
0.286280 0.255291 0.121576
0.347597 0.248605 0.112556
0.408914 0.241920 0.103535
0.470231 0.235234 0.094515
0.516896 0.231647 0.089865
0.560629 0.228681 0.086090
0.604363 0.225714 0.082314
0.648097 0.222747 0.078538
0.691831 0.219781 0.074763
0.721885 0.218085 0.073107
0.745100 0.217024 0.072511
0.768314 0.215964 0.071915
0.791529 0.214904 0.071319
0.814744 0.213843 0.070723
0.830792 0.213139 0.070666
0.839673 0.212791 0.071148
0.848555 0.212443 0.071630
0.857437 0.212095 0.072112
0.866318 0.211747 0.072594
0.873013 0.211421 0.072964
0.875335 0.211140 0.073108
0.877657 0.210858 0.073252
0.879979 0.210576 0.073397
0.882301 0.210295 0.073541
0.884312 0.209999 0.073583
0.884765 0.209635 0.073118
0.885219 0.209270 0.072653
0.885673 0.208905 0.072188
0.886127 0.208541 0.071723
0.886580 0.208176 0.071258
0.162584 0.317716 0.149821
0.219749 0.309323 0.140372
0.276915 0.300929 0.130924
0.334080 0.292536 0.121476
0.391245 0.284143 0.112028
0.448410 0.275749 0.102579
0.494812 0.270695 0.097300
0.539061 0.266309 0.092854
0.583311 0.261923 0.088409
0.627560 0.257537 0.083963
0.671810 0.253150 0.079518
0.703221 0.249878 0.077315
0.728213 0.247163 0.076233
0.753206 0.244448 0.075151
0.778198 0.241733 0.074069
0.803191 0.239018 0.072987
0.820827 0.236667 0.072593
0.831108 0.234681 0.072889
0.841389 0.232695 0.073184
0.851669 0.230709 0.073480
0.861950 0.228723 0.073776
0.869782 0.226872 0.074017
0.872717 0.225293 0.074151
0.875652 0.223715 0.074284
0.878587 0.222136 0.074418
0.881522 0.220557 0.074552
0.884061 0.219021 0.074575
0.884626 0.217703 0.074046
0.885191 0.216385 0.073516
0.885756 0.215067 0.072987
0.886321 0.213749 0.072458
0.886885 0.212430 0.071929
0.161523 0.366770 0.160025
0.214537 0.356669 0.150148
0.267550 0.346568 0.140272
0.320563 0.336467 0.130396
0.373576 0.326366 0.120520
0.426589 0.316265 0.110643
0.472729 0.309743 0.104734
0.517494 0.303937 0.099619
0.562258 0.298132 0.094504
0.607023 0.292326 0.089388
0.651788 0.286520 0.084273
0.684557 0.281672 0.081522
0.711327 0.277302 0.079954
0.738097 0.272932 0.078386
0.764868 0.268562 0.076819
0.791638 0.264192 0.075251
0.810863 0.260195 0.074521
0.822543 0.256571 0.074630
0.834222 0.252947 0.074739
0.845902 0.249322 0.074848
0.857582 0.245698 0.074957
0.866551 0.242323 0.075070
0.870098 0.239447 0.075193
0.873646 0.236571 0.075316
0.877194 0.233695 0.075439
0.880742 0.230819 0.075562
0.883811 0.228043 0.075566
0.884487 0.225772 0.074973
0.885163 0.223500 0.074379
0.885839 0.221228 0.073786
0.886515 0.218956 0.073192
0.887191 0.216685 0.072599
0.160463 0.415824 0.170229
0.209324 0.404015 0.159925
0.258185 0.392207 0.149620
0.307046 0.380398 0.139316
0.355907 0.368589 0.129012
0.404768 0.356780 0.118707
0.450645 0.348791 0.112169
0.495926 0.341566 0.106384
0.541206 0.334341 0.100599
0.586487 0.327115 0.094813
0.631767 0.319890 0.089028
0.665893 0.313465 0.085730
0.694441 0.307440 0.083676
0.722989 0.301416 0.081622
0.751537 0.295391 0.079568
0.780085 0.289366 0.077514
0.800899 0.283723 0.076449
0.813977 0.278461 0.076371
0.827056 0.273198 0.076293
0.840135 0.267936 0.076216
0.853213 0.262674 0.076138
0.863319 0.257774 0.076124
0.867480 0.253601 0.076236
0.871641 0.249427 0.076348
0.875802 0.245254 0.076461
0.879962 0.241081 0.076573
0.883561 0.237065 0.076557
0.884348 0.233840 0.075900
0.885135 0.230615 0.075242
0.885922 0.227389 0.074584
0.886709 0.224164 0.073927
0.887496 0.220939 0.073269
0.159402 0.464878 0.180433
0.204111 0.451362 0.169701
0.248820 0.437845 0.158969
0.293529 0.424329 0.148236
0.338238 0.410812 0.137504
0.382947 0.397296 0.126772
0.428562 0.387839 0.119604
0.474358 0.379194 0.113149
0.520154 0.370549 0.106694
0.565950 0.361905 0.100238
0.611746 0.353260 0.093783
0.647229 0.345259 0.089938
0.677554 0.337579 0.087398
0.707880 0.329900 0.084858
0.738206 0.322220 0.082318
0.768532 0.314541 0.079778
0.790934 0.307251 0.078376
0.805412 0.300350 0.078112
0.819889 0.293450 0.077848
0.834367 0.286550 0.077583
0.848845 0.279649 0.077319
0.860088 0.273225 0.077177
0.864862 0.267755 0.077279
0.869635 0.262284 0.077380
0.874409 0.256813 0.077482
0.879183 0.251343 0.077584
0.883310 0.246087 0.077549
0.884209 0.241908 0.076827
0.885107 0.237730 0.076105
0.886005 0.233551 0.075383
0.886903 0.229372 0.074661
0.887801 0.225193 0.073939
0.165325 0.500764 0.186634
0.206294 0.487374 0.176215
0.247264 0.473984 0.165795
0.288233 0.460594 0.155375
0.329202 0.447204 0.144955
0.370172 0.433814 0.134535
0.414336 0.424130 0.127120
0.459139 0.415188 0.120305
0.503942 0.406246 0.113491
0.548745 0.397304 0.106676
0.593548 0.388362 0.099862
0.629394 0.379873 0.095556
0.660762 0.371610 0.092504
0.692129 0.363348 0.089452
0.723497 0.355085 0.086401
0.754864 0.346822 0.083349
0.778577 0.338824 0.081543
0.794635 0.331091 0.080983
0.810693 0.323358 0.080423
0.826751 0.315625 0.079863
0.842808 0.307891 0.079303
0.855435 0.300564 0.078967
0.861198 0.294048 0.079078
0.866961 0.287531 0.079189
0.872725 0.281015 0.079301
0.878488 0.274499 0.079412
0.883478 0.268174 0.079402
0.884602 0.262806 0.078785
0.885726 0.257437 0.078169
0.886850 0.252069 0.077553
0.887973 0.246701 0.076936
0.889097 0.241332 0.076320
0.172644 0.534015 0.192035
0.209957 0.521118 0.182076
0.247269 0.508222 0.172116
0.284582 0.495326 0.162157
0.321894 0.482429 0.152197
0.359206 0.469533 0.142238
0.401682 0.459871 0.134652
0.445191 0.450856 0.127540
0.488699 0.441841 0.120428
0.532207 0.432825 0.113316
0.575716 0.423810 0.106205
0.611726 0.415051 0.101455
0.643988 0.406420 0.097886
0.676250 0.397788 0.094318
0.708512 0.389157 0.090749
0.740773 0.380525 0.087181
0.765741 0.372007 0.084958
0.783416 0.363602 0.084080
0.801090 0.355197 0.083203
0.818764 0.346792 0.082325
0.836438 0.338387 0.081448
0.850497 0.330280 0.080904
0.857326 0.322768 0.081029
0.864154 0.315257 0.081154
0.870982 0.307745 0.081279
0.877810 0.300234 0.081403
0.883729 0.292873 0.081428
0.885102 0.286269 0.080950
0.886474 0.279664 0.080473
0.887847 0.273059 0.079996
0.889219 0.266454 0.079519
0.890591 0.259849 0.079042
0.179964 0.567266 0.197436
0.213619 0.554863 0.187937
0.247275 0.542460 0.178438
0.280930 0.530057 0.168939
0.314586 0.517654 0.159440
0.348241 0.505251 0.149941
0.389028 0.495611 0.142184
0.431242 0.486523 0.134775
0.473456 0.477435 0.127366
0.515669 0.468347 0.119957
0.557883 0.459259 0.112548
0.594058 0.450229 0.107354
0.627214 0.441229 0.103269
0.660371 0.432229 0.099183
0.693527 0.423229 0.095098
0.726683 0.414228 0.091013
0.752906 0.405190 0.088372
0.772197 0.396113 0.087177
0.791487 0.387036 0.085982
0.810778 0.377959 0.084787
0.830068 0.368883 0.083592
0.845560 0.359996 0.082842
0.853453 0.351489 0.082980
0.861346 0.342982 0.083118
0.869240 0.334476 0.083256
0.877133 0.325969 0.083394
0.883981 0.317573 0.083453
0.885602 0.309732 0.083115
0.887223 0.301890 0.082778
0.888844 0.294049 0.082440
0.890465 0.286207 0.082102
0.892086 0.278366 0.081764
0.187284 0.600518 0.202836
0.217282 0.588608 0.193798
0.247280 0.576699 0.184759
0.277279 0.564789 0.175721
0.307277 0.552880 0.166683
0.337276 0.540970 0.157644
0.376374 0.531351 0.149716
0.417294 0.522190 0.142010
0.458213 0.513029 0.134303
0.499132 0.503868 0.126597
0.540051 0.494707 0.118891
0.576390 0.485408 0.113254
0.610441 0.476039 0.108651
0.644491 0.466669 0.104049
0.678541 0.457300 0.099447
0.712592 0.447931 0.094844
0.740070 0.438372 0.091787
0.760977 0.428624 0.090275
0.781884 0.418875 0.088762
0.802791 0.409127 0.087250
0.823698 0.399378 0.085737
0.840623 0.389712 0.084779
0.849581 0.380210 0.084931
0.858539 0.370708 0.085082
0.867497 0.361206 0.085234
0.876455 0.351704 0.085386
0.884232 0.342273 0.085479
0.886101 0.333194 0.085280
0.887971 0.324116 0.085082
0.889841 0.315038 0.084883
0.891710 0.305960 0.084685
0.893580 0.296882 0.084486
0.194603 0.633769 0.208237
0.220945 0.622353 0.199659
0.247286 0.610937 0.191081
0.273627 0.599521 0.182503
0.299969 0.588105 0.173925
0.326310 0.576689 0.165347
0.363721 0.567091 0.157248
0.403345 0.557858 0.149244
0.442969 0.548624 0.141241
0.482594 0.539390 0.133237
0.522218 0.530156 0.125234
0.558722 0.520586 0.119153
0.593667 0.510848 0.114034
0.628612 0.501110 0.108915
0.663556 0.491372 0.103796
0.698501 0.481634 0.098676
0.727235 0.471555 0.095202
0.749758 0.461135 0.093372
0.772282 0.450714 0.091542
0.794805 0.440294 0.089712
0.817328 0.429874 0.087882
0.835685 0.419428 0.086717
0.845708 0.408931 0.086882
0.855731 0.398433 0.087047
0.865754 0.387936 0.087212
0.875777 0.377439 0.087377
0.884483 0.366972 0.087505
0.886601 0.356657 0.087445
0.888719 0.346343 0.087386
0.890838 0.336028 0.087327
0.892956 0.325713 0.087268
0.895074 0.315399 0.087209
0.205692 0.657706 0.210594
0.229005 0.647108 0.202615
0.252318 0.636511 0.194636
0.275631 0.625913 0.186658
0.298944 0.615315 0.178679
0.322257 0.604718 0.170700
0.357650 0.595622 0.162698
0.395458 0.586827 0.154691
0.433267 0.578032 0.146684
0.471075 0.569237 0.138678
0.508884 0.560442 0.130671
0.544911 0.551235 0.124369
0.580049 0.541821 0.118920
0.615186 0.532407 0.113470
0.650323 0.522994 0.108021
0.685461 0.513580 0.102571
0.714954 0.503716 0.098790
0.738804 0.493401 0.096677
0.762654 0.483087 0.094564
0.786504 0.472772 0.092451
0.810354 0.462457 0.090338
0.829998 0.451987 0.088986
0.841229 0.441207 0.089156
0.852460 0.430427 0.089327
0.863691 0.419647 0.089497
0.874922 0.408866 0.089668
0.884706 0.398045 0.089840
0.887257 0.387022 0.090017
0.889809 0.375998 0.090194
0.892360 0.364974 0.090371
0.894911 0.353950 0.090548
0.897463 0.342926 0.090725
0.218665 0.676985 0.211429
0.239264 0.667369 0.204119
0.259863 0.657752 0.196808
0.280462 0.648135 0.189498
0.301061 0.638518 0.182188
0.321660 0.628902 0.174878
0.354870 0.620548 0.167107
0.390602 0.612448 0.159244
0.426334 0.604348 0.151381
0.462066 0.596247 0.143518
0.497798 0.588147 0.135655
0.533029 0.579619 0.129243
0.568008 0.570876 0.123557
0.602987 0.562133 0.117871
0.637967 0.553391 0.112184
0.672946 0.544648 0.106498
0.702952 0.535366 0.102465
0.727983 0.525546 0.100086
0.753015 0.515725 0.097707
0.778046 0.505905 0.095328
0.803078 0.496084 0.092949
0.823936 0.485968 0.091420
0.836446 0.475261 0.091592
0.848956 0.464554 0.091765
0.861466 0.453847 0.091937
0.873976 0.443140 0.092109
0.884914 0.432306 0.092329
0.887991 0.420837 0.092791
0.891068 0.409367 0.093252
0.894145 0.397898 0.093714
0.897222 0.386428 0.094176
0.900299 0.374959 0.094637
0.231638 0.696265 0.212264
0.249523 0.687629 0.205622
0.267408 0.678993 0.198981
0.285293 0.670357 0.192339
0.303178 0.661721 0.185697
0.321064 0.653085 0.179055
0.352091 0.645475 0.171516
0.385746 0.638069 0.163797
0.419402 0.630663 0.156078
0.453057 0.623258 0.148359
0.486713 0.615852 0.140640
0.521146 0.608002 0.134118
0.555967 0.599931 0.128195
0.590789 0.591859 0.122271
0.625610 0.583787 0.116348
0.660432 0.575716 0.110425
0.690949 0.567017 0.106140
0.717162 0.557690 0.103495
0.743375 0.548364 0.100851
0.769588 0.539037 0.098206
0.795801 0.529711 0.095561
0.817873 0.519949 0.093855
0.831663 0.509315 0.094029
0.845452 0.498681 0.094202
0.859242 0.488047 0.094376
0.873031 0.477414 0.094549
0.885123 0.466566 0.094818
0.888725 0.454652 0.095565
0.892328 0.442737 0.096311
0.895930 0.430822 0.097057
0.899533 0.418907 0.097804
0.903135 0.406992 0.098550
0.244611 0.715544 0.213099
0.259782 0.707889 0.207126
0.274953 0.700234 0.201153
0.290124 0.692579 0.195179
0.305296 0.684924 0.189206
0.320467 0.677269 0.183233
0.349311 0.670401 0.175925
0.380891 0.663690 0.168350
0.412470 0.656979 0.160775
0.444049 0.650268 0.153199
0.475628 0.643557 0.145624
0.509263 0.636386 0.138992
0.543927 0.628986 0.132832
0.578590 0.621585 0.126672
0.613254 0.614184 0.120511
0.647917 0.606784 0.114351
0.678946 0.598667 0.109815
0.706341 0.589835 0.106905
0.733736 0.581002 0.103994
0.761130 0.572170 0.101083
0.788525 0.563338 0.098172
0.811811 0.553929 0.096290
0.826880 0.543369 0.096465
0.841949 0.532808 0.096640
0.857017 0.522248 0.096815
0.872086 0.511687 0.096990
0.885332 0.500827 0.097308
0.889460 0.488466 0.098339
0.893588 0.476106 0.099370
0.897716 0.463746 0.100401
0.901844 0.451385 0.101432
0.905972 0.439025 0.102463
0.257584 0.734823 0.213934
0.270041 0.728149 0.208630
0.282498 0.721475 0.203325
0.294956 0.714801 0.198020
0.307413 0.708127 0.192715
0.319870 0.701453 0.187411
0.346532 0.695327 0.180334
0.376035 0.689311 0.172903
0.405537 0.683294 0.165471
0.435040 0.677278 0.158040
0.464543 0.671262 0.150609
0.497380 0.664770 0.143867
0.531886 0.658040 0.137470
0.566392 0.651311 0.131072
0.600897 0.644581 0.124675
0.635403 0.637851 0.118278
0.666944 0.630317 0.113491
0.695520 0.621979 0.110314
0.724096 0.613641 0.107137
0.752672 0.605303 0.103960
0.781249 0.596965 0.100784
0.805749 0.587910 0.098725
0.822097 0.577423 0.098901
0.838445 0.566936 0.099078
0.854793 0.556448 0.099254
0.871141 0.545961 0.099431
0.885540 0.535087 0.099797
0.890194 0.522281 0.101113
0.894847 0.509475 0.102429
0.899501 0.496669 0.103744
0.904154 0.483864 0.105060
0.908808 0.471058 0.106376
0.271989 0.749570 0.213445
0.282226 0.743725 0.208734
0.292463 0.737880 0.204022
0.302700 0.732035 0.199311
0.312938 0.726190 0.194600
0.323175 0.720345 0.189888
0.347701 0.714951 0.183135
0.375085 0.709647 0.175974
0.402470 0.704343 0.168812
0.429854 0.699039 0.161651
0.457238 0.693735 0.154490
0.488967 0.688022 0.147784
0.522869 0.682105 0.141307
0.556770 0.676188 0.134830
0.590672 0.670270 0.128353
0.624573 0.664353 0.121876
0.656214 0.657624 0.116952
0.685593 0.650083 0.113583
0.714972 0.642542 0.110213
0.744352 0.635001 0.106844
0.773731 0.627461 0.103474
0.799184 0.619118 0.101284
0.816785 0.609174 0.101452
0.834386 0.599229 0.101620
0.851988 0.589284 0.101788
0.869589 0.579339 0.101956
0.885147 0.568936 0.102367
0.890494 0.556243 0.103987
0.895840 0.543549 0.105608
0.901186 0.530855 0.107229
0.906532 0.518162 0.108850
0.911879 0.505468 0.110470
0.287827 0.759784 0.211631
0.296337 0.754616 0.207438
0.304848 0.749449 0.203245
0.313359 0.744282 0.199052
0.321870 0.739114 0.194859
0.330381 0.733947 0.190666
0.352819 0.729273 0.184329
0.378043 0.724699 0.177563
0.403266 0.720124 0.170798
0.428490 0.715550 0.164032
0.453714 0.710976 0.157266
0.484023 0.706142 0.150745
0.516874 0.701179 0.144345
0.549726 0.696215 0.137945
0.582577 0.691252 0.131545
0.615428 0.686289 0.125145
0.646756 0.680587 0.120201
0.676560 0.674147 0.116711
0.706364 0.667706 0.113222
0.736168 0.661266 0.109733
0.765972 0.654825 0.106244
0.792118 0.647554 0.103968
0.810945 0.638621 0.104117
0.829773 0.629688 0.104267
0.848601 0.620755 0.104417
0.867429 0.611822 0.104567
0.884153 0.602374 0.105016
0.890360 0.590351 0.106962
0.896566 0.578327 0.108908
0.902772 0.566303 0.110855
0.908978 0.554280 0.112801
0.915184 0.542256 0.114747
0.303664 0.769998 0.209818
0.310449 0.765508 0.206143
0.317233 0.761018 0.202468
0.324018 0.756528 0.198793
0.330802 0.752038 0.195118
0.337587 0.747548 0.191443
0.357937 0.743596 0.185522
0.381000 0.739751 0.179153
0.404063 0.735906 0.172783
0.427127 0.732061 0.166413
0.450190 0.728216 0.160043
0.479079 0.724262 0.153705
0.510880 0.720252 0.147382
0.542681 0.716243 0.141060
0.574482 0.712234 0.134737
0.606284 0.708224 0.128415
0.637299 0.703550 0.123449
0.667527 0.698210 0.119840
0.697756 0.692870 0.116231
0.727985 0.687530 0.112622
0.758213 0.682190 0.109013
0.785051 0.675990 0.106651
0.805106 0.668069 0.106783
0.825160 0.660148 0.106914
0.845215 0.652226 0.107046
0.865270 0.644305 0.107177
0.883159 0.635812 0.107665
0.890225 0.624459 0.109937
0.897291 0.613105 0.112209
0.904358 0.601751 0.114480
0.911424 0.590398 0.116752
0.918490 0.579044 0.119024
0.319502 0.780212 0.208004
0.324560 0.776399 0.204847
0.329618 0.772587 0.201691
0.334676 0.768774 0.198534
0.339734 0.764962 0.195377
0.344793 0.761149 0.192220
0.363055 0.757918 0.186716
0.383958 0.754803 0.180742
0.404860 0.751687 0.174768
0.425763 0.748572 0.168794
0.446666 0.745457 0.162820
0.474134 0.742381 0.156665
0.504885 0.739326 0.150420
0.535637 0.736271 0.144175
0.566388 0.733215 0.137929
0.597139 0.730160 0.131684
0.627841 0.726513 0.126697
0.658495 0.722273 0.122969
0.689148 0.718034 0.119240
0.719801 0.713795 0.115511
0.750455 0.709555 0.111783
0.777984 0.704426 0.109335
0.799266 0.697516 0.109448
0.820547 0.690607 0.109561
0.841829 0.683698 0.109674
0.863110 0.676788 0.109788
0.882165 0.669250 0.110315
0.890091 0.658566 0.112912
0.898017 0.647883 0.115509
0.905943 0.637199 0.118106
0.913869 0.626516 0.120703
0.921795 0.615832 0.123300
0.335340 0.790426 0.206190
0.338671 0.787291 0.203552
0.342003 0.784156 0.200913
0.345335 0.781021 0.198275
0.348667 0.777886 0.195636
0.351999 0.774751 0.192998
0.368173 0.772240 0.187910
0.386915 0.769854 0.182332
0.405657 0.767469 0.176753
0.424400 0.765083 0.171175
0.443142 0.762697 0.165597
0.469190 0.760501 0.159626
0.498891 0.758400 0.153458
0.528592 0.756299 0.147290
0.558293 0.754197 0.141122
0.587994 0.752096 0.134954
0.618384 0.749476 0.129945
0.649462 0.746337 0.126097
0.680540 0.743198 0.122249
0.711618 0.740059 0.118401
0.742696 0.736920 0.114552
0.770917 0.732862 0.112018
0.793426 0.726964 0.112113
0.815934 0.721067 0.112208
0.838442 0.715169 0.112303
0.860950 0.709271 0.112398
0.881171 0.702688 0.112964
0.889957 0.692674 0.115887
0.898743 0.682661 0.118809
0.907529 0.672647 0.121732
0.916315 0.662634 0.124654
0.925100 0.652621 0.127577
0.350902 0.799084 0.204182
0.352823 0.796493 0.201979
0.354744 0.793902 0.199775
0.356666 0.791311 0.197572
0.358587 0.788719 0.195368
0.360509 0.786128 0.193164
0.374763 0.784212 0.188484
0.391483 0.782431 0.183309
0.408203 0.780650 0.178134
0.424924 0.778868 0.172959
0.441644 0.777087 0.167784
0.466203 0.775646 0.162044
0.494680 0.774375 0.156022
0.523157 0.773104 0.150000
0.551634 0.771833 0.143977
0.580111 0.770562 0.137955
0.609963 0.768879 0.132988
0.641191 0.766783 0.129076
0.672419 0.764688 0.125164
0.703647 0.762592 0.121251
0.734875 0.760497 0.117339
0.763569 0.757497 0.114757
0.787195 0.752689 0.114835
0.810821 0.747881 0.114913
0.834447 0.743073 0.114991
0.858073 0.738265 0.115069
0.879385 0.732738 0.115674
0.889127 0.723616 0.118911
0.898870 0.714494 0.122148
0.908613 0.705372 0.125385
0.918355 0.696250 0.128621
0.928098 0.687127 0.131858
0.365912 0.804629 0.201787
0.367055 0.802315 0.199851
0.368198 0.800001 0.197916
0.369341 0.797687 0.195980
0.370484 0.795373 0.194044
0.371627 0.793059 0.192108
0.384297 0.791484 0.187821
0.399273 0.790057 0.183064
0.414248 0.788630 0.178307
0.429224 0.787203 0.173549
0.444200 0.785775 0.168792
0.467129 0.784841 0.163380
0.494034 0.784153 0.157640
0.520939 0.783465 0.151900
0.547844 0.782777 0.146160
0.574750 0.782089 0.140421
0.603617 0.781162 0.135619
0.634445 0.779995 0.131754
0.665273 0.778829 0.127890
0.696102 0.777662 0.124025
0.726930 0.776496 0.120160
0.755657 0.774531 0.117606
0.780182 0.770968 0.117670
0.804708 0.767406 0.117734
0.829233 0.763844 0.117799
0.853758 0.760281 0.117863
0.876012 0.756014 0.118505
0.886905 0.748226 0.122034
0.897799 0.740437 0.125563
0.908693 0.732649 0.129092
0.919586 0.724860 0.132620
0.930480 0.717072 0.136149
0.380923 0.810175 0.199391
0.381288 0.808138 0.197724
0.381652 0.806101 0.196056
0.382016 0.804064 0.194388
0.382380 0.802027 0.192720
0.382745 0.799990 0.191053
0.393831 0.798756 0.187158
0.407062 0.797683 0.182819
0.420293 0.796610 0.178479
0.433524 0.795537 0.174139
0.446755 0.794464 0.169799
0.468055 0.794036 0.164715
0.493388 0.793931 0.159258
0.518722 0.793826 0.153801
0.544055 0.793721 0.148343
0.569389 0.793616 0.142886
0.597270 0.793445 0.138249
0.627699 0.793207 0.134432
0.658127 0.792970 0.130616
0.688556 0.792733 0.126799
0.718985 0.792495 0.122982
0.747745 0.791565 0.120454
0.773170 0.789248 0.120505
0.798595 0.786931 0.120555
0.824019 0.784614 0.120606
0.849444 0.782297 0.120657
0.872639 0.779290 0.121336
0.884683 0.772835 0.125157
0.896728 0.766381 0.128978
0.908773 0.759926 0.132798
0.920817 0.753471 0.136619
0.932862 0.747016 0.140440
0.395934 0.815721 0.196996
0.395520 0.813961 0.195596
0.395106 0.812201 0.194196
0.394691 0.810441 0.192797
0.394277 0.808681 0.191397
0.393863 0.806920 0.189997
0.403366 0.806028 0.186495
0.414852 0.805309 0.182573
0.426338 0.804590 0.178651
0.437824 0.803871 0.174729
0.449311 0.803152 0.170807
0.468981 0.803231 0.166050
0.492742 0.803709 0.160875
0.516504 0.804187 0.155701
0.540266 0.804665 0.150526
0.564028 0.805143 0.145352
0.590923 0.805728 0.140880
0.620952 0.806420 0.137111
0.650981 0.807111 0.133342
0.681010 0.807803 0.129572
0.711039 0.808495 0.125803
0.739833 0.808599 0.123303
0.766157 0.807527 0.123340
0.792482 0.806456 0.123377
0.818806 0.805384 0.123413
0.845130 0.804313 0.123450
0.869266 0.802566 0.124167
0.882461 0.797445 0.128280
0.895657 0.792324 0.132392
0.908853 0.787203 0.136505
0.922048 0.782082 0.140618
0.935244 0.776961 0.144731
0.410945 0.821267 0.194600
0.409752 0.819783 0.193468
0.408559 0.818300 0.192337
0.407367 0.816817 0.191205
0.406174 0.815334 0.190073
0.404981 0.813851 0.188941
0.412900 0.813300 0.185832
0.422641 0.812935 0.182328
0.432383 0.812570 0.178823
0.442124 0.812205 0.175319
0.451866 0.811840 0.171814
0.469907 0.812426 0.167385
0.492097 0.813487 0.162493
0.514287 0.814548 0.157601
0.536477 0.815609 0.152709
0.558667 0.816670 0.147818
0.584577 0.818011 0.143511
0.614206 0.819632 0.139789
0.643836 0.821253 0.136068
0.673465 0.822873 0.132346
0.703094 0.824494 0.128624
0.731922 0.825633 0.126151
0.759145 0.825807 0.126174
0.786368 0.825981 0.126198
0.813592 0.826155 0.126221
0.840815 0.826329 0.126244
0.865893 0.825842 0.126998
0.880239 0.822055 0.131403
0.894586 0.818268 0.135807
0.908933 0.814480 0.140212
0.923279 0.810693 0.144617
0.937626 0.806905 0.149022
0.424848 0.826318 0.192337
0.423064 0.825100 0.191438
0.421281 0.823882 0.190539
0.419497 0.822664 0.189640
0.417713 0.821446 0.188742
0.415930 0.820228 0.187843
0.422415 0.819979 0.185106
0.430555 0.819924 0.182001
0.438694 0.819869 0.178896
0.446833 0.819814 0.175791
0.454972 0.819759 0.172686
0.471429 0.820780 0.168587
0.492045 0.822339 0.163989
0.512661 0.823898 0.159392
0.533277 0.825457 0.154795
0.553893 0.827017 0.150198
0.578759 0.829018 0.146073
0.607875 0.831462 0.142422
0.636991 0.833905 0.138770
0.666108 0.836349 0.135118
0.695224 0.838793 0.131466
0.723977 0.840864 0.129037
0.752005 0.842193 0.129053
0.780033 0.843521 0.129070
0.808061 0.844850 0.129086
0.836089 0.846178 0.129102
0.862033 0.846868 0.129898
0.877559 0.844369 0.134592
0.893084 0.841870 0.139286
0.908610 0.839371 0.143980
0.924136 0.836872 0.148674
0.939661 0.834373 0.153368
0.433212 0.828898 0.190732
0.431776 0.827885 0.189892
0.430340 0.826872 0.189052
0.428904 0.825859 0.188212
0.427469 0.824847 0.187372
0.426033 0.823834 0.186532
0.431835 0.823693 0.184062
0.439084 0.823727 0.181267
0.446334 0.823761 0.178471
0.453584 0.823795 0.175675
0.460833 0.823829 0.172880
0.475936 0.824929 0.169120
0.494965 0.826562 0.164878
0.513994 0.828196 0.160636
0.533023 0.829829 0.156394
0.552053 0.831463 0.152152
0.575585 0.833647 0.148295
0.603621 0.836381 0.144824
0.631656 0.839116 0.141353
0.659692 0.841850 0.137882
0.687727 0.844585 0.134411
0.715870 0.847084 0.132111
0.744228 0.849111 0.132153
