Assets/1__3DArt/KimSe/artstation_asset/LUTs_pasterls/CUBE/Candylandia 02 S.cube
# Enhanced with VOXCOLOR algorithms
LUT_3D_SIZE 32
0.164706 0.219608 0.129412
0.230175 0.214630 0.120820
0.295645 0.209652 0.112228
0.361114 0.204674 0.103635
0.426583 0.199697 0.095043
0.492052 0.194719 0.086451
0.538979 0.192600 0.082431
0.582197 0.191052 0.079325
0.625416 0.189505 0.076219
0.668634 0.187958 0.073113
0.711852 0.186411 0.070007
0.740549 0.186291 0.068899
0.761986 0.186886 0.068789
0.783423 0.187480 0.068679
0.804860 0.188074 0.068569
0.826297 0.188669 0.068459
0.840756 0.189611 0.068738
0.848239 0.190901 0.069407
0.855721 0.192191 0.070076
0.863204 0.193482 0.070744
0.870687 0.194772 0.071413
0.876245 0.195971 0.071911
0.877954 0.196986 0.072065
0.879663 0.198002 0.072220
0.881372 0.199017 0.072375
0.883081 0.200033 0.072530
0.884562 0.200977 0.072592
0.884905 0.201566 0.072191
0.885247 0.202155 0.071791
0.885590 0.202744 0.071390
0.885932 0.203333 0.070989
0.886275 0.203922 0.070588
0.163645 0.268662 0.139616
0.224560 0.261692 0.130458
0.285474 0.254722 0.121300
0.346389 0.247753 0.112141
0.407303 0.240783 0.102983
0.468218 0.233813 0.093825
0.514017 0.229803 0.088929
0.556793 0.226385 0.084885
0.599570 0.222967 0.080842
0.642346 0.219548 0.076798
0.685123 0.216130 0.072755
0.714403 0.214155 0.070853
0.736936 0.212901 0.070022
0.759468 0.211647 0.069191
0.782001 0.210393 0.068360
0.804534 0.209140 0.067529
0.820344 0.208438 0.067330
0.829432 0.208289 0.067761
0.838520 0.208139 0.068192
0.847608 0.207990 0.068624
0.856697 0.207841 0.069055
0.863866 0.207794 0.069467
0.867196 0.207952 0.069839
0.870527 0.208111 0.070212
0.873857 0.208269 0.070584
0.877188 0.208428 0.070957
0.880179 0.208549 0.071265
0.881473 0.208487 0.071250
0.882766 0.208425 0.071235
0.884060 0.208363 0.071221
0.885354 0.208300 0.071206
0.886647 0.208238 0.071191
0.162584 0.317716 0.149821
0.218944 0.308754 0.140096
0.275304 0.299793 0.130372
0.331663 0.290831 0.120647
0.388023 0.281869 0.110923
0.444383 0.272907 0.101199
0.489055 0.267006 0.095427
0.531390 0.261717 0.090446
0.573724 0.256428 0.085464
0.616059 0.251139 0.080483
0.658394 0.245850 0.075502
0.688258 0.242019 0.072807
0.711886 0.238917 0.071255
0.735514 0.235815 0.069703
0.759142 0.232712 0.068151
0.782770 0.229610 0.066600
0.799931 0.227265 0.065921
0.810625 0.225676 0.066115
0.821319 0.224087 0.066309
0.832013 0.222498 0.066503
0.842707 0.220909 0.066697
0.851487 0.219617 0.067023
0.856439 0.218918 0.067613
0.861391 0.218220 0.068204
0.866343 0.217521 0.068794
0.871295 0.216823 0.069384
0.875796 0.216122 0.069937
0.878041 0.215408 0.070309
0.880285 0.214695 0.070680
0.882530 0.213981 0.071052
0.884775 0.213268 0.071423
0.887019 0.212554 0.071795
0.161523 0.366770 0.160025
0.213328 0.355816 0.149734
0.265133 0.344863 0.139444
0.316938 0.333909 0.129154
0.368743 0.322955 0.118863
0.420548 0.312002 0.108573
0.464093 0.304209 0.101925
0.505986 0.297049 0.096006
0.547879 0.289889 0.090087
0.589772 0.282729 0.084168
0.631665 0.275569 0.078249
0.662112 0.269883 0.074761
0.686836 0.264932 0.072488
0.711560 0.259982 0.070215
0.736283 0.255031 0.067943
0.761007 0.250081 0.065670
0.779519 0.246092 0.064512
0.791818 0.243063 0.064469
0.804118 0.240035 0.064426
0.816417 0.237006 0.064382
0.828717 0.233978 0.064339
0.839108 0.231440 0.064580
0.845681 0.229885 0.065388
0.852255 0.228329 0.066195
0.858828 0.226773 0.067003
0.865402 0.225218 0.067811
0.871413 0.223694 0.068610
0.874609 0.222329 0.069367
0.877804 0.220964 0.070125
0.881000 0.219600 0.070883
0.884196 0.218235 0.071640
0.887392 0.216870 0.072398
0.160463 0.415824 0.170229
0.207713 0.402879 0.159373
0.254963 0.389933 0.148516
0.302213 0.376987 0.137660
0.349463 0.364042 0.126803
0.396713 0.351096 0.115947
0.439131 0.341413 0.108423
0.480582 0.332382 0.101566
0.522033 0.323351 0.094710
0.563484 0.314320 0.087853
0.604936 0.305289 0.080996
0.635966 0.297746 0.076715
0.661785 0.290948 0.073721
0.687605 0.284149 0.070727
0.713425 0.277350 0.067734
0.739244 0.270552 0.064740
0.759107 0.264919 0.063103
0.773012 0.260451 0.062823
0.786917 0.255983 0.062542
0.800822 0.251515 0.062262
0.814727 0.247047 0.061981
0.826729 0.243264 0.062136
0.834924 0.240851 0.063162
0.843119 0.238438 0.064187
0.851314 0.236025 0.065212
0.859509 0.233613 0.066237
0.867030 0.231266 0.067282
0.871177 0.229250 0.068426
0.875323 0.227234 0.069570
0.879470 0.225218 0.070714
0.883617 0.223202 0.071857
0.887764 0.221187 0.073001
0.159402 0.464878 0.180433
0.202097 0.449941 0.169011
0.244792 0.435003 0.157588
0.287488 0.420065 0.146166
0.330183 0.405128 0.134743
0.372878 0.390190 0.123321
0.414169 0.378616 0.114921
0.455178 0.367714 0.107127
0.496188 0.356812 0.099332
0.537197 0.345910 0.091538
0.578207 0.335009 0.083743
0.609820 0.325610 0.078669
0.636735 0.316963 0.074954
0.663651 0.308316 0.071240
0.690566 0.299670 0.067525
0.717481 0.291023 0.063810
0.738694 0.283745 0.061694
0.754205 0.277838 0.061177
0.769716 0.271930 0.060659
0.785226 0.266023 0.060141
0.800737 0.260115 0.059623
0.814349 0.255087 0.059693
0.824166 0.251817 0.060936
0.833983 0.248547 0.062178
0.843800 0.245278 0.063421
0.853616 0.242008 0.064664
0.862647 0.238838 0.065955
0.867744 0.236171 0.067485
0.872842 0.233504 0.069015
0.877940 0.230837 0.070545
0.883038 0.228170 0.072075
0.888136 0.225503 0.073604
0.165311 0.500764 0.186630
0.204129 0.485706 0.175394
0.242948 0.470648 0.164158
0.281767 0.455590 0.152922
0.320585 0.440532 0.141686
0.359404 0.425474 0.130449
0.398876 0.413291 0.121624
0.438479 0.401683 0.113281
0.478081 0.390074 0.104938
0.517684 0.378466 0.096595
0.557286 0.366857 0.088252
0.588878 0.356710 0.082575
0.616465 0.347294 0.078232
0.644051 0.337877 0.073888
0.671638 0.328461 0.069544
0.699225 0.319045 0.065200
0.721573 0.311055 0.062624
0.738684 0.304493 0.061816
0.755795 0.297931 0.061008
0.772906 0.291370 0.060199
0.790017 0.284808 0.059391
0.805181 0.279131 0.059317
0.816450 0.275226 0.060711
0.827718 0.271321 0.062105
0.838987 0.267416 0.063499
0.850256 0.263511 0.064892
0.860612 0.259659 0.066370
0.866401 0.256077 0.068267
0.872191 0.252494 0.070163
0.877981 0.248912 0.072059
0.883770 0.245329 0.073956
0.889560 0.241747 0.075852
0.172613 0.534015 0.192025
0.207691 0.519211 0.181126
0.242769 0.504408 0.170227
0.277847 0.489604 0.159328
0.312924 0.474800 0.148428
0.348002 0.459996 0.137529
0.385517 0.447461 0.128368
0.423520 0.435378 0.119555
0.461523 0.423296 0.110741
0.499525 0.411214 0.101927
0.537528 0.399132 0.093114
0.568978 0.388458 0.086873
0.597151 0.378487 0.081918
0.625323 0.368517 0.076963
0.653496 0.358547 0.072009
0.681669 0.348577 0.067054
0.705111 0.340062 0.064022
0.723821 0.333003 0.062912
0.742531 0.325943 0.061803
0.761242 0.318884 0.060693
0.779952 0.311825 0.059584
0.796654 0.305620 0.059355
0.809341 0.301124 0.060886
0.822028 0.296627 0.062418
0.834715 0.292131 0.063949
0.847402 0.287635 0.065481
0.859046 0.283130 0.067134
0.865476 0.278579 0.069393
0.871905 0.274029 0.071652
0.878335 0.269478 0.073911
0.884765 0.264927 0.076170
0.891194 0.260376 0.078429
0.179916 0.567266 0.197420
0.211253 0.552717 0.186858
0.242590 0.538167 0.176296
0.273927 0.523618 0.165734
0.305264 0.509068 0.155171
0.336600 0.494519 0.144609
0.372159 0.481630 0.135112
0.408562 0.469074 0.125828
0.444964 0.456518 0.116543
0.481367 0.443962 0.107259
0.517770 0.431406 0.097975
0.549077 0.420205 0.091170
0.577836 0.409681 0.085604
0.606595 0.399157 0.080039
0.635355 0.388633 0.074473
0.664114 0.378109 0.068908
0.688648 0.369068 0.065420
0.708958 0.361512 0.064009
0.729267 0.353955 0.062598
0.749577 0.346398 0.061187
0.769886 0.338842 0.059777
0.788128 0.332108 0.059392
0.802233 0.327021 0.061062
0.816338 0.321934 0.062731
0.830443 0.316847 0.064400
0.844548 0.311760 0.066069
0.857481 0.306601 0.067897
0.864550 0.301082 0.070519
0.871620 0.295563 0.073141
0.878689 0.290044 0.075763
0.885759 0.284525 0.078384
0.892829 0.279006 0.081006
0.187219 0.600518 0.202815
0.214815 0.586222 0.192590
0.242411 0.571927 0.182365
0.270007 0.557631 0.172139
0.297603 0.543336 0.161914
0.325198 0.529041 0.151689
0.358800 0.515800 0.141856
0.393603 0.502770 0.132101
0.428406 0.489741 0.122346
0.463209 0.476711 0.112591
0.498012 0.463681 0.102836
0.529176 0.451953 0.095467
0.558522 0.440875 0.089291
0.587867 0.429797 0.083114
0.617213 0.418719 0.076938
0.646558 0.407641 0.070762
0.672186 0.398075 0.066817
0.694095 0.390021 0.065105
0.716003 0.381967 0.063393
0.737912 0.373913 0.061681
0.759821 0.365859 0.059969
0.779601 0.358597 0.059430
0.795125 0.352919 0.061237
0.810648 0.347240 0.063044
0.826171 0.341562 0.064851
0.841694 0.335884 0.066658
0.855915 0.330071 0.068661
0.863625 0.323584 0.071645
0.871334 0.317097 0.074630
0.879044 0.310610 0.077614
0.886753 0.304123 0.080599
0.894463 0.297636 0.083583
0.194522 0.633769 0.208210
0.218377 0.619728 0.198322
0.242232 0.605687 0.188434
0.266087 0.591645 0.178545
0.289942 0.577604 0.168657
0.313797 0.563563 0.158769
0.345442 0.549970 0.148600
0.378644 0.536466 0.138374
0.411847 0.522963 0.128149
0.445050 0.509459 0.117923
0.478253 0.495956 0.107697
0.509275 0.483700 0.099764
0.539207 0.472068 0.092977
0.569139 0.460437 0.086190
0.599071 0.448805 0.079403
0.629003 0.437173 0.072615
0.655723 0.427082 0.068215
0.679231 0.418530 0.066202
0.702739 0.409979 0.064189
0.726248 0.401427 0.062175
0.749756 0.392876 0.060162
0.771075 0.385085 0.059468
0.788016 0.378816 0.061412
0.804958 0.372547 0.063357
0.821899 0.366278 0.065302
0.838841 0.360009 0.067246
0.854350 0.353542 0.069424
0.862699 0.346087 0.072772
0.871049 0.338631 0.076119
0.879398 0.331176 0.079466
0.887748 0.323721 0.082813
0.896097 0.316265 0.086160
0.205501 0.657706 0.210530
0.226403 0.644419 0.201197
0.247305 0.631131 0.191864
0.268207 0.617844 0.182531
0.289109 0.604557 0.173198
0.310012 0.591270 0.163864
0.339719 0.578043 0.153742
0.371188 0.564828 0.143462
0.402656 0.551613 0.133181
0.434125 0.538398 0.122901
0.465594 0.525183 0.112621
0.496151 0.513165 0.104447
0.526254 0.501747 0.097325
0.556356 0.490328 0.090204
0.586459 0.478909 0.083082
0.616561 0.467490 0.075961
0.643986 0.457570 0.071268
0.668732 0.449151 0.069004
0.693479 0.440731 0.066740
0.718225 0.432311 0.064476
0.742972 0.423891 0.062212
0.765503 0.416147 0.061364
0.783604 0.409754 0.063347
0.801704 0.403362 0.065330
0.819805 0.396970 0.067313
0.837905 0.390578 0.069296
0.854460 0.383915 0.071548
0.863283 0.375900 0.075149
0.872106 0.367885 0.078749
0.880929 0.359870 0.082349
0.889752 0.351855 0.085949
0.898576 0.343840 0.089550
0.218318 0.676985 0.211313
0.236661 0.664702 0.202644
0.255005 0.652419 0.193975
0.273348 0.640136 0.185306
0.291692 0.627852 0.176636
0.310035 0.615569 0.167967
0.337815 0.603068 0.158083
0.367482 0.590523 0.147956
0.397149 0.577977 0.137829
0.426816 0.565432 0.127702
0.456483 0.552887 0.117576
0.486416 0.541490 0.109322
0.516481 0.530667 0.102004
0.546546 0.519845 0.094687
0.576611 0.509022 0.087370
0.606676 0.498199 0.080052
0.634611 0.488801 0.075149
0.660415 0.480827 0.072659
0.686220 0.472852 0.070170
0.712025 0.464878 0.067680
0.737829 0.456904 0.065191
0.761409 0.449494 0.064188
0.780539 0.443213 0.066160
0.799669 0.436932 0.068132
0.818799 0.430651 0.070104
0.837929 0.424369 0.072076
0.855407 0.417740 0.074352
0.864621 0.409369 0.078151
0.873834 0.400998 0.081950
0.883048 0.392628 0.085748
0.892262 0.384257 0.089547
0.901476 0.375886 0.093346
0.231135 0.696265 0.212096
0.246920 0.684985 0.204091
0.262705 0.673706 0.196086
0.278489 0.662427 0.188080
0.294274 0.651148 0.180075
0.310059 0.639869 0.172070
0.335911 0.628093 0.162424
0.363776 0.616217 0.152451
0.391642 0.604342 0.142477
0.419508 0.592466 0.132504
0.447373 0.580591 0.122530
0.476680 0.569815 0.114197
0.506708 0.559588 0.106684
0.536735 0.549361 0.099170
0.566763 0.539135 0.091657
0.596790 0.528908 0.084144
0.625236 0.520031 0.079030
0.652098 0.512503 0.076315
0.678961 0.504974 0.073600
0.705824 0.497446 0.070884
0.732687 0.489918 0.068169
0.757315 0.482842 0.067013
0.777475 0.476672 0.068974
0.797634 0.470501 0.070934
0.817794 0.464331 0.072895
0.837953 0.458161 0.074856
0.856354 0.451564 0.077156
0.865958 0.442838 0.081153
0.875563 0.434112 0.085150
0.885168 0.425386 0.089148
0.894772 0.416659 0.093145
0.904377 0.407933 0.097142
0.243952 0.715544 0.212879
0.257178 0.705269 0.205538
0.270404 0.694994 0.198197
0.283630 0.684719 0.190855
0.296856 0.674443 0.183514
0.310082 0.664168 0.176173
0.334007 0.653118 0.166765
0.360071 0.641912 0.156945
0.386135 0.630706 0.147125
0.412199 0.619500 0.137305
0.438263 0.608295 0.127485
0.466944 0.598139 0.119072
0.496935 0.588509 0.111363
0.526925 0.578878 0.103654
0.556915 0.569248 0.095945
0.586905 0.559617 0.088235
0.615861 0.551261 0.082910
0.643781 0.544179 0.079970
0.671702 0.537096 0.077029
0.699623 0.530014 0.074089
0.727544 0.522931 0.071148
0.753221 0.516190 0.069837
0.774410 0.510130 0.071787
0.795599 0.504071 0.073737
0.816788 0.498011 0.075686
0.837977 0.491952 0.077636
0.857301 0.485389 0.079960
0.867296 0.476307 0.084156
0.877291 0.467225 0.088351
0.887287 0.458143 0.092547
0.897282 0.449062 0.096742
0.907277 0.439980 0.100938
0.256769 0.734823 0.213662
0.267437 0.725552 0.206985
0.278104 0.716281 0.200308
0.288771 0.707010 0.193630
0.299438 0.697739 0.186953
0.310106 0.688468 0.180275
0.332102 0.678143 0.171107
0.356365 0.667607 0.161440
0.380628 0.657071 0.151773
0.404890 0.646534 0.142106
0.429153 0.635998 0.132439
0.457209 0.626464 0.123947
0.487162 0.617429 0.116042
0.517114 0.608395 0.108137
0.547067 0.599361 0.100232
0.577020 0.590327 0.092327
0.606486 0.582491 0.086791
0.635464 0.575855 0.083625
0.664443 0.569218 0.080459
0.693422 0.562581 0.077293
0.722401 0.555945 0.074127
0.749127 0.549538 0.072662
0.771346 0.543589 0.074601
0.793564 0.537641 0.076539
0.815783 0.531692 0.078478
0.838001 0.525743 0.080416
0.858248 0.519213 0.082764
0.868634 0.509776 0.087158
0.879020 0.500339 0.091552
0.889406 0.490901 0.095946
0.899792 0.481464 0.100340
0.910178 0.472027 0.104734
0.270874 0.749570 0.213073
0.279515 0.741254 0.207039
0.288157 0.732939 0.201004
0.296798 0.724623 0.194970
0.305440 0.716307 0.188936
0.314081 0.707992 0.182902
0.334311 0.698549 0.174139
0.356858 0.688881 0.164830
0.379406 0.679214 0.155521
0.401953 0.669546 0.146213
0.424500 0.659878 0.136904
0.451755 0.651190 0.128533
0.481363 0.642991 0.120631
0.510971 0.634792 0.112729
0.540580 0.626593 0.104827
0.570188 0.618395 0.096925
0.599832 0.611319 0.091309
0.629511 0.605368 0.087980
0.659190 0.599416 0.084651
0.688869 0.593465 0.081322
0.718549 0.587513 0.077993
0.746028 0.581694 0.076393
0.769106 0.576141 0.078251
0.792185 0.570587 0.080109
0.815264 0.565034 0.081967
0.838343 0.559480 0.083825
0.859372 0.553290 0.086126
0.870152 0.543912 0.090641
0.880932 0.534534 0.095157
0.891713 0.525157 0.099672
0.902493 0.515779 0.104188
0.913273 0.506401 0.108703
0.286265 0.759784 0.211110
0.293414 0.752375 0.205699
0.300563 0.744966 0.200287
0.307712 0.737557 0.194876
0.314860 0.730148 0.189465
0.322009 0.722740 0.184053
0.340633 0.714337 0.175863
0.361551 0.705736 0.167117
0.382469 0.697136 0.158370
0.403388 0.688535 0.149624
0.424306 0.679934 0.140878
0.450583 0.672318 0.132829
0.479540 0.665194 0.125129
0.508496 0.658070 0.117429
0.537453 0.650946 0.109729
0.566410 0.643822 0.102029
0.595899 0.637746 0.096465
0.625921 0.632718 0.093035
0.655942 0.627691 0.089606
0.685964 0.622663 0.086176
0.715986 0.617636 0.082747
0.743923 0.612659 0.081030
0.767693 0.607785 0.082738
0.791463 0.602911 0.084446
0.815232 0.598037 0.086154
0.839002 0.593163 0.087863
0.860673 0.587618 0.090046
0.871851 0.578715 0.094606
0.883029 0.569812 0.099166
0.894207 0.560909 0.103726
0.905385 0.552006 0.108286
0.916563 0.543104 0.112846
0.301656 0.769998 0.209148
0.307313 0.763496 0.204359
0.312969 0.756994 0.199570
0.318625 0.750492 0.194782
0.324281 0.743990 0.189993
0.329937 0.737488 0.185205
0.346954 0.730126 0.177587
0.366244 0.722592 0.169403
0.385533 0.715057 0.161219
0.404822 0.707523 0.153035
0.424111 0.699989 0.144852
0.449411 0.693445 0.137125
0.477716 0.687396 0.129627
0.506021 0.681347 0.122130
0.534326 0.675298 0.114632
0.562631 0.669249 0.107134
0.591966 0.664172 0.101620
0.622330 0.660069 0.098090
0.652694 0.655965 0.094560
0.683059 0.651862 0.091031
0.713423 0.647758 0.087501
0.741819 0.643624 0.085667
0.766280 0.639430 0.087225
0.790740 0.635235 0.088784
0.815200 0.631041 0.090342
0.839661 0.626846 0.091900
0.861974 0.621946 0.093966
0.873550 0.613518 0.098571
0.885125 0.605090 0.103176
0.896701 0.596662 0.107780
0.908277 0.588234 0.112385
0.919853 0.579806 0.116989
0.317048 0.780212 0.207185
0.321211 0.774617 0.203019
0.325375 0.769021 0.198853
0.329538 0.763426 0.194687
0.333702 0.757831 0.190522
0.337865 0.752236 0.186356
0.353276 0.745914 0.179310
0.370936 0.739447 0.171689
0.388596 0.732979 0.164068
0.406256 0.726512 0.156447
0.423917 0.720045 0.148826
0.448239 0.714573 0.141421
0.475893 0.709599 0.134126
0.503546 0.704625 0.126830
0.531200 0.699650 0.119534
0.558853 0.694676 0.112239
0.588033 0.690599 0.106776
0.618740 0.687419 0.103145
0.649447 0.684240 0.099515
0.680153 0.681060 0.095885
0.710860 0.677881 0.092255
0.739715 0.674589 0.090304
0.764866 0.671074 0.091712
0.790017 0.667559 0.093121
0.815169 0.664044 0.094529
0.840320 0.660529 0.095938
0.863275 0.656275 0.097887
0.875248 0.648321 0.102536
0.887222 0.640368 0.107185
0.899196 0.632415 0.111834
0.911169 0.624462 0.116483
0.923143 0.616508 0.121132
0.332439 0.790426 0.205222
0.335110 0.785737 0.201679
0.337781 0.781049 0.198136
0.340452 0.776360 0.194593
0.343123 0.771672 0.191050
0.345793 0.766984 0.187507
0.359598 0.761702 0.181034
0.375629 0.756302 0.173976
0.391660 0.750901 0.166917
0.407691 0.745501 0.159858
0.423722 0.740101 0.152800
0.447067 0.735701 0.145718
0.474069 0.731801 0.138624
0.501071 0.727902 0.131530
0.528073 0.724003 0.124437
0.555075 0.720103 0.117343
0.584101 0.717026 0.111931
0.615150 0.714770 0.108201
0.646199 0.712514 0.104470
0.677248 0.710259 0.100739
0.708297 0.708003 0.097008
0.737610 0.705554 0.094941
0.763453 0.702719 0.096200
0.789295 0.699883 0.097458
0.815137 0.697048 0.098717
0.840979 0.694212 0.099976
0.864576 0.690603 0.101807
0.876947 0.683124 0.106500
0.889319 0.675646 0.111194
0.901690 0.668168 0.115888
0.914061 0.660689 0.120581
0.926433 0.653211 0.125275
0.347555 0.799084 0.203066
0.349024 0.795168 0.200068
0.350492 0.791253 0.197069
0.351960 0.787337 0.194071
0.353429 0.783422 0.191073
0.354897 0.779507 0.188074
0.367226 0.775157 0.182175
0.381727 0.770720 0.175695
0.396228 0.766284 0.169216
0.410728 0.761847 0.162736
0.425229 0.757410 0.156257
0.447511 0.753989 0.149548
0.473682 0.751076 0.142724
0.499854 0.748163 0.135901
0.526025 0.745250 0.129077
0.552197 0.742337 0.122254
0.580856 0.740194 0.116949
0.612003 0.738820 0.113163
0.643149 0.737446 0.109378
0.674296 0.736072 0.105592
0.705443 0.734699 0.101806
0.735026 0.733081 0.099650
0.761482 0.730977 0.100751
0.787937 0.728872 0.101853
0.814393 0.726768 0.102954
0.840849 0.724663 0.104056
0.865041 0.721771 0.105763
0.877914 0.714943 0.110497
0.890787 0.708116 0.115230
0.903660 0.701288 0.119964
0.916533 0.694460 0.124698
0.929406 0.687632 0.129432
0.362121 0.804629 0.200522
0.362967 0.801219 0.197913
0.363814 0.797810 0.195303
0.364660 0.794400 0.192694
0.365506 0.790990 0.190084
0.366352 0.787580 0.187475
0.377467 0.783945 0.182150
0.390635 0.780266 0.176283
0.403804 0.776587 0.170415
0.416972 0.772907 0.164548
0.430140 0.769228 0.158680
0.451185 0.766599 0.152446
0.476169 0.764495 0.146028
0.501152 0.762392 0.139611
0.526136 0.760288 0.133193
0.551120 0.758185 0.126776
0.578988 0.756845 0.121692
0.609743 0.756269 0.117942
0.640497 0.755692 0.114192
0.671251 0.755116 0.110442
0.702005 0.754539 0.106692
0.731480 0.753731 0.104501
0.758396 0.752461 0.105431
0.785311 0.751191 0.106361
0.812227 0.749920 0.107291
0.839143 0.748650 0.108221
0.863836 0.746620 0.109790
0.877418 0.740794 0.114556
0.891000 0.734969 0.119321
0.904581 0.729143 0.124087
0.918163 0.723317 0.128853
0.931745 0.717491 0.133618
0.376687 0.810175 0.197978
0.376911 0.807271 0.195757
0.377135 0.804366 0.193537
0.377359 0.801462 0.191316
0.377583 0.798558 0.189095
0.377808 0.795653 0.186875
0.387708 0.792734 0.182125
0.399544 0.789812 0.176870
0.411380 0.786890 0.171614
0.423215 0.783967 0.166359
0.435051 0.781045 0.161103
0.454860 0.779208 0.155344
0.478656 0.777915 0.149332
0.502451 0.776621 0.143321
0.526247 0.775327 0.137309
0.550042 0.774033 0.131298
0.577121 0.773496 0.126435
0.607482 0.773717 0.122720
0.637844 0.773938 0.119006
0.668206 0.774159 0.115292
0.698568 0.774380 0.111577
0.727934 0.774382 0.109353
0.755310 0.773945 0.110111
0.782685 0.773509 0.110870
0.810061 0.773073 0.111628
0.837436 0.772637 0.112386
0.862631 0.771469 0.113817
0.876922 0.766645 0.118614
0.891212 0.761822 0.123412
0.905503 0.756998 0.128209
0.919794 0.752174 0.133007
0.934084 0.747350 0.137804
0.391252 0.815721 0.195434
0.390854 0.813322 0.193602
0.390457 0.810923 0.191770
0.390059 0.808524 0.189939
0.389661 0.806125 0.188107
0.389263 0.803726 0.186275
0.397949 0.801522 0.182100
0.408453 0.799357 0.177457
0.418956 0.797193 0.172814
0.429459 0.795028 0.168170
0.439962 0.792863 0.163527
0.458535 0.791818 0.158242
0.481142 0.791334 0.152637
0.503750 0.790849 0.147031
0.526357 0.790365 0.141426
0.548965 0.789881 0.135820
0.575253 0.790148 0.131178
0.605222 0.791166 0.127499
0.635192 0.792184 0.123820
0.665161 0.793202 0.120141
0.695130 0.794220 0.116462
0.724388 0.795032 0.114205
0.752224 0.795430 0.114792
0.780059 0.795828 0.115378
0.807894 0.796225 0.115964
0.835730 0.796623 0.116551
0.861426 0.796318 0.117844
0.876425 0.792496 0.122673
0.891425 0.788674 0.127503
0.906424 0.784853 0.132332
0.921424 0.781031 0.137161
0.936423 0.777209 0.141990
0.405818 0.821267 0.192890
0.404798 0.819373 0.191447
0.403778 0.817480 0.190004
0.402758 0.815586 0.188561
0.401738 0.813693 0.187118
0.400718 0.811800 0.185675
0.408190 0.810311 0.182075
0.417361 0.808903 0.178044
0.426532 0.807496 0.174013
0.435702 0.806088 0.169982
0.444873 0.804680 0.165950
0.462209 0.804428 0.161140
0.483629 0.804753 0.155941
0.505048 0.805078 0.150741
0.526468 0.805403 0.145542
0.547887 0.805729 0.140342
0.573385 0.806799 0.135921
0.602962 0.808614 0.132278
0.632539 0.810430 0.128634
0.662116 0.812245 0.124991
0.691693 0.814061 0.121348
0.720842 0.815682 0.119057
0.749138 0.816914 0.119472
0.777433 0.818146 0.119887
0.805728 0.819378 0.120301
0.834023 0.820610 0.120716
0.860221 0.821167 0.121872
0.875929 0.818347 0.126732
0.891638 0.815527 0.131593
0.907346 0.812708 0.136454
0.923054 0.809888 0.141315
0.938763 0.807068 0.146176
0.419527 0.826318 0.190562
0.418037 0.824887 0.189459
0.416547 0.823456 0.188357
0.415057 0.822025 0.187255
0.413567 0.820595 0.186152
0.412077 0.819164 0.185050
0.418428 0.818309 0.181985
0.426347 0.817570 0.178527
0.434266 0.816831 0.175069
0.442185 0.816092 0.171611
0.450104 0.815353 0.168153
0.466197 0.815793 0.163804
0.486377 0.816823 0.159008
0.506556 0.817853 0.154213
0.526736 0.818883 0.149417
0.546915 0.819913 0.144622
0.571541 0.821691 0.140432
0.600612 0.824216 0.136846
0.629683 0.826742 0.133260
0.658754 0.829268 0.129675
0.687825 0.831793 0.126089
0.716776 0.834151 0.123788
0.745487 0.836171 0.124055
0.774198 0.838192 0.124323
0.802908 0.840213 0.124590
0.831619 0.842233 0.124858
0.858292 0.843612 0.125902
0.874779 0.841782 0.130827
0.891266 0.839952 0.135753
0.907753 0.838122 0.140678
0.924240 0.836292 0.145603
0.940727 0.834462 0.150529
0.428955 0.828898 0.189312
0.427754 0.827715 0.188309
0.426553 0.826532 0.187306
0.425352 0.825349 0.186303
0.424151 0.824166 0.185301
0.422950 0.822983 0.184298
0.428645 0.822358 0.181565
0.435718 0.821844 0.178487
0.442792 0.821331 0.175409
0.449865 0.820818 0.172331
0.456939 0.820304 0.169253
0.471750 0.820940 0.165293
0.490430 0.822150 0.160893
0.509110 0.823360 0.156492
0.527790 0.824570 0.152092
0.546470 0.825780 0.147691
0.569810 0.827785 0.143782
0.597810 0.830585 0.140364
0.625809 0.833385 0.136946
0.653809 0.836185 0.133527
0.681809 0.838986 0.130109
0.710109 0.841713 0.127911
0.739013 0.844294 0.128155
