Assets/1__3DArt/KimSe/artstation_asset/LUTs_pasterls/CUBE/Candylandia 01.cube
# Enhanced with VOXCOLOR algorithms
LUT_3D_SIZE 5
DOMAIN_MIN 0.000000 0.000000 0.000000
DOMAIN_MAX 0.903226 0.903226 0.903226
0.156863 0.219608 0.105882
0.583515 0.200575 0.038176
0.775799 0.198499 0.021437
0.837548 0.204959 0.024638
0.848623 0.201003 0.025190
0.074201 0.456690 0.154996
0.413843 0.439459 0.085798
0.693130 0.417866 0.043793
0.831339 0.375976 0.033873
0.861902 0.324134 0.036339
0.099622 0.610795 0.173315
0.305860 0.610064 0.124440
0.589399 0.613209 0.071198
0.802694 0.591288 0.045830
0.881762 0.535008 0.052103
0.185357 0.696227 0.163095
0.276451 0.701111 0.137890
0.501619 0.728658 0.090933
0.748439 0.753445 0.056288
0.888247 0.742704 0.064382
0.267997 0.733542 0.143662
0.302187 0.736786 0.131713
0.448146 0.764239 0.100866
0.674346 0.810664 0.067989
0.864236 0.848325 0.071832
0.180904 0.275318 0.412224
0.572910 0.251092 0.313610
0.775757 0.245405 0.250806
0.846337 0.246839 0.217459
0.856012 0.238779 0.195299
0.126852 0.509650 0.384800
0.427242 0.457907 0.293568
0.688640 0.424777 0.226666
0.830345 0.391385 0.195019
0.867061 0.346508 0.178886
0.161631 0.653723 0.341913
0.332813 0.624205 0.274724
0.588105 0.610040 0.208023
0.795563 0.588870 0.172552
0.882540 0.539236 0.172578
0.244971 0.727727 0.289784
0.309260 0.718007 0.249145
0.504422 0.730420 0.194666
0.738059 0.747411 0.155601
0.884736 0.736457 0.163080
0.316567 0.755596 0.241281
0.335859 0.753037 0.217491
0.456946 0.771559 0.181946
0.665259 0.809871 0.149382
0.857067 0.843625 0.150660
0.257784 0.393503 0.664482
0.579018 0.359199 0.585059
0.782069 0.348016 0.523587
0.862529 0.342872 0.480656
0.873987 0.328307 0.449166
0.228202 0.595313 0.644302
0.462304 0.534312 0.569156
0.695783 0.489206 0.499078
0.837133 0.451894 0.450365
0.879549 0.409402 0.417388
0.267765 0.717762 0.592568
0.393734 0.676619 0.530806
0.607433 0.644364 0.460931
0.797252 0.613469 0.409721
0.887065 0.568055 0.394011
0.340893 0.776342 0.522653
0.380192 0.758643 0.477826
0.535574 0.753309 0.418657
0.739842 0.753432 0.366459
0.882314 0.738446 0.360269
0.395122 0.793325 0.450051
0.401125 0.786773 0.415597
0.493148 0.794126 0.375032
0.671378 0.817542 0.340011
0.852559 0.840729 0.333590
0.352587 0.526788 0.804578
0.602069 0.492741 0.759963
0.791654 0.479816 0.725154
0.878744 0.471586 0.698112
0.894172 0.453781 0.675241
0.347448 0.677566 0.814891
0.517759 0.624795 0.772048
0.714239 0.582576 0.726633
0.848023 0.546661 0.687263
0.894239 0.507590 0.655614
0.391296 0.774008 0.793696
0.476409 0.736516 0.758550
0.642559 0.700523 0.711814
0.805531 0.664935 0.666758
0.893290 0.622907 0.640919
0.455601 0.822108 0.750115
0.474811 0.804039 0.721705
0.586645 0.788450 0.679168
0.750791 0.773962 0.630700
0.881098 0.752934 0.607078
0.495637 0.834996 0.694146
0.491473 0.827436 0.665374
0.552337 0.825634 0.632359
0.690781 0.832534 0.600757
0.850741 0.841014 0.583119
0.441172 0.629170 0.855163
0.631721 0.603956 0.833244
0.798565 0.595256 0.818952
0.886999 0.589568 0.807755
0.906202 0.574921 0.796089
0.455007 0.734007 0.874654
0.578818 0.696738 0.855082
0.737485 0.667595 0.834481
0.857441 0.642032 0.815142
0.904185 0.612107 0.797138
0.501070 0.806192 0.877537
0.559187 0.778761 0.864414
0.684447 0.751615 0.844953
0.818198 0.723835 0.823456
0.898028 0.690872 0.805107
0.560386 0.847606 0.868303
0.568371 0.833247 0.858925
0.645949 0.818429 0.842748
0.771031 0.802396 0.821609
0.881759 0.781978 0.804115
0.593919 0.862320 0.849814
0.587636 0.856974 0.839363
0.624873 0.852492 0.825952
0.723407 0.850202 0.811319
0.853263 0.848880 0.798781
