Assets/1__3DArt/KimSe/artstation_asset/LUTs_pasterls/CUBE/Candylandia 03.cube
# Enhanced with VOXCOLOR algorithms
LUT_3D_SIZE 32
0.172549 0.231373 0.227451
0.208699 0.221756 0.222064
0.244849 0.212139 0.216677
0.280998 0.202521 0.211290
0.317148 0.192904 0.205904
0.353298 0.183287 0.200517
0.381993 0.174573 0.195431
0.409198 0.166039 0.190405
0.436403 0.157506 0.185379
0.463607 0.148972 0.180353
0.490812 0.140439 0.175327
0.511154 0.133980 0.170880
0.528065 0.128559 0.166722
0.544976 0.123138 0.162563
0.561887 0.117717 0.158405
0.578798 0.112296 0.154247
0.591348 0.108217 0.150662
0.599536 0.105481 0.147649
0.607725 0.102745 0.144637
0.615913 0.100010 0.141625
0.624101 0.097274 0.138612
0.630350 0.095042 0.135986
0.632719 0.093820 0.134132
0.635089 0.092597 0.132278
0.637458 0.091374 0.130425
0.639827 0.090151 0.128571
0.641719 0.089040 0.126850
0.641218 0.088487 0.125794
0.640718 0.087934 0.124738
0.640217 0.087381 0.123681
0.639717 0.086828 0.122625
0.639216 0.086275 0.121569
0.166709 0.259402 0.240879
0.201771 0.249293 0.234871
0.236832 0.239184 0.228863
0.271894 0.229074 0.222855
0.306956 0.218965 0.216847
0.342018 0.208856 0.210839
0.371165 0.199643 0.205316
0.399130 0.190608 0.199889
0.427095 0.181573 0.194463
0.455060 0.172539 0.189037
0.483025 0.163504 0.183610
0.504321 0.156297 0.178822
0.522284 0.150004 0.174352
0.540247 0.143711 0.169882
0.558210 0.137418 0.165412
0.576172 0.131125 0.160942
0.589631 0.126099 0.157073
0.598586 0.122339 0.153805
0.607541 0.118579 0.150537
0.616496 0.114819 0.147269
0.625451 0.111059 0.144001
0.632332 0.107849 0.141132
0.635063 0.105740 0.139062
0.637794 0.103632 0.136992
0.640524 0.101523 0.134922
0.643255 0.099414 0.132852
0.645442 0.097452 0.130918
0.644909 0.096225 0.129665
0.644375 0.094998 0.128413
0.643842 0.093770 0.127160
0.643309 0.092543 0.125908
0.642775 0.091316 0.124655
0.160869 0.287430 0.254307
0.194842 0.276829 0.247678
0.228816 0.266229 0.241049
0.262790 0.255628 0.234419
0.296764 0.245027 0.227790
0.330737 0.234426 0.221161
0.360337 0.224712 0.215201
0.389062 0.215177 0.209374
0.417787 0.205641 0.203547
0.446512 0.196106 0.197720
0.475237 0.186570 0.191893
0.497489 0.178615 0.186763
0.516503 0.171450 0.181982
0.535517 0.164285 0.177200
0.554532 0.157120 0.172419
0.573546 0.149955 0.167637
0.587914 0.143981 0.163485
0.597636 0.139196 0.159961
0.607358 0.134412 0.156437
0.617080 0.129628 0.152913
0.626802 0.124844 0.149389
0.634314 0.120656 0.146278
0.637406 0.117661 0.143992
0.640499 0.114667 0.141705
0.643591 0.111672 0.139419
0.646683 0.108677 0.137132
0.649166 0.105864 0.134986
0.648600 0.103963 0.133537
0.648033 0.102061 0.132088
0.647467 0.100160 0.130639
0.646901 0.098258 0.129190
0.646335 0.096357 0.127741
0.155029 0.315459 0.267734
0.187914 0.304366 0.260484
0.220800 0.293274 0.253234
0.253686 0.282181 0.245984
0.286571 0.271088 0.238734
0.319457 0.259995 0.231484
0.349509 0.249782 0.225086
0.378994 0.239746 0.218859
0.408479 0.229709 0.212631
0.437965 0.219672 0.206404
0.467450 0.209636 0.200176
0.490656 0.200932 0.194705
0.510722 0.192895 0.189612
0.530788 0.184859 0.184519
0.550854 0.176822 0.179426
0.570920 0.168785 0.174332
0.586197 0.161862 0.169896
0.596686 0.156054 0.166116
0.607175 0.150246 0.162337
0.617663 0.144437 0.158557
0.628152 0.138629 0.154778
0.636296 0.133463 0.151424
0.639750 0.129582 0.148921
0.643204 0.125702 0.146419
0.646657 0.121821 0.143916
0.650111 0.117940 0.141413
0.652889 0.114277 0.139053
0.652290 0.111701 0.137408
0.651691 0.109125 0.135763
0.651092 0.106549 0.134118
0.650493 0.103973 0.132473
0.649894 0.101397 0.130827
0.149188 0.343488 0.281162
0.180986 0.331903 0.273291
0.212784 0.320318 0.265420
0.244581 0.308734 0.257548
0.276379 0.297149 0.249677
0.308176 0.285564 0.241806
0.338681 0.274852 0.234971
0.368926 0.264315 0.228343
0.399172 0.253777 0.221715
0.429417 0.243239 0.215087
0.459663 0.232701 0.208459
0.483823 0.223250 0.202647
0.504941 0.214341 0.197242
0.526058 0.205432 0.191837
0.547176 0.196524 0.186432
0.568294 0.187615 0.181027
0.584480 0.179744 0.176307
0.595736 0.172912 0.172272
0.606991 0.166079 0.168237
0.618247 0.159247 0.164202
0.629502 0.152414 0.160166
0.638278 0.146270 0.156570
0.642093 0.141503 0.153851
0.645908 0.136737 0.151132
0.649724 0.131970 0.148413
0.653539 0.127203 0.145694
0.656613 0.122689 0.143121
0.655981 0.119439 0.141280
0.655349 0.116189 0.139438
0.654717 0.112938 0.137597
0.654085 0.109688 0.135755
0.653453 0.106438 0.133914
0.143348 0.371517 0.294590
0.174058 0.359440 0.286098
0.204767 0.347363 0.277605
0.235477 0.335287 0.269113
0.266186 0.323210 0.260621
0.296896 0.311134 0.252128
0.327852 0.299922 0.244856
0.358858 0.288883 0.237828
0.389864 0.277845 0.230799
0.420870 0.266806 0.223771
0.451875 0.255767 0.216743
0.476990 0.245567 0.210589
0.499159 0.235787 0.204872
0.521329 0.226006 0.199156
0.543498 0.216225 0.193439
0.565667 0.206445 0.187722
0.582763 0.197626 0.182719
0.594786 0.189769 0.178428
0.606808 0.181913 0.174137
0.618830 0.174056 0.169846
0.630853 0.166199 0.165555
0.640260 0.159077 0.161716
0.644437 0.153424 0.158781
0.648613 0.147771 0.155845
0.652790 0.142119 0.152910
0.656967 0.136466 0.149975
0.660337 0.131101 0.147189
0.659672 0.127177 0.145151
0.659007 0.123252 0.143113
0.658342 0.119328 0.141075
0.657678 0.115403 0.139038
0.657013 0.111479 0.137000
0.141325 0.397806 0.308078
0.170437 0.385857 0.299476
0.199549 0.373908 0.290874
0.228661 0.361959 0.282272
0.257773 0.350010 0.273670
0.286884 0.338061 0.265068
0.317596 0.326788 0.257553
0.348626 0.315650 0.250256
0.379657 0.304513 0.242958
0.410688 0.293376 0.235661
0.441719 0.282238 0.228363
0.467487 0.271730 0.221903
0.490624 0.261537 0.215861
0.513761 0.251344 0.209819
0.536898 0.241151 0.203778
0.560035 0.230957 0.197736
0.578165 0.221598 0.192412
0.591288 0.213072 0.187807
0.604410 0.204546 0.183201
0.617533 0.196020 0.178596
0.630656 0.187493 0.173991
0.641028 0.179655 0.169850
0.645899 0.173192 0.166640
0.650770 0.166729 0.163429
0.655641 0.160266 0.160219
0.660512 0.153803 0.157008
0.664491 0.147622 0.153953
0.664014 0.142854 0.151677
0.663537 0.138085 0.149401
0.663060 0.133317 0.147125
0.662583 0.128549 0.144849
0.662106 0.123780 0.142573
0.140065 0.423747 0.321577
0.167477 0.412049 0.312968
0.194890 0.400352 0.304359
0.222302 0.388654 0.295750
0.249714 0.376957 0.287140
0.277127 0.365259 0.278531
0.307453 0.354013 0.270813
0.338362 0.342857 0.263272
0.369271 0.331702 0.255732
0.400180 0.320546 0.248192
0.431089 0.309390 0.240652
0.457451 0.298662 0.233892
0.481538 0.288148 0.227522
0.505626 0.277635 0.221152
0.529714 0.267121 0.214782
0.553801 0.256607 0.208413
0.572990 0.246788 0.202762
0.587280 0.237663 0.197831
0.601570 0.228539 0.192899
0.615860 0.219414 0.187968
0.630149 0.210290 0.183036
0.641553 0.201787 0.178583
0.647185 0.194529 0.175085
0.652816 0.187271 0.171587
0.658448 0.180013 0.168090
0.664080 0.172754 0.164592
0.668732 0.165765 0.161257
0.668487 0.160119 0.158734
0.668242 0.154473 0.156212
0.667997 0.148826 0.153689
0.667752 0.143180 0.151167
0.667507 0.137534 0.148645
0.138805 0.449688 0.335077
0.164518 0.438242 0.326460
0.190231 0.426796 0.317844
0.215943 0.415350 0.309227
0.241656 0.403903 0.300611
0.267369 0.392457 0.291994
0.297310 0.381238 0.284072
0.328097 0.370064 0.276289
0.358885 0.358890 0.268506
0.389672 0.347716 0.260723
0.420459 0.336542 0.252940
0.447414 0.325594 0.245881
0.472452 0.314760 0.239183
0.497491 0.303925 0.232485
0.522529 0.293091 0.225787
0.547568 0.282256 0.219090
0.567815 0.271977 0.213112
0.583272 0.262254 0.207854
0.598729 0.252532 0.202597
0.614186 0.242809 0.197339
0.629643 0.233086 0.192082
0.642078 0.223919 0.187315
0.648471 0.215866 0.183530
0.654863 0.207813 0.179745
0.661255 0.199759 0.175960
0.667648 0.191706 0.172176
0.672972 0.183907 0.168560
0.672959 0.177384 0.165791
0.672946 0.170860 0.163022
0.672934 0.164336 0.160254
0.672921 0.157812 0.157485
0.672908 0.151288 0.154716
0.137545 0.475630 0.348577
0.161558 0.464435 0.339953
0.185571 0.453240 0.331329
0.209585 0.442045 0.322705
0.233598 0.430850 0.314081
0.257611 0.419656 0.305457
0.287168 0.408463 0.297332
0.317833 0.397271 0.289306
0.348498 0.386079 0.281280
0.379164 0.374886 0.273254
0.409829 0.363694 0.265229
0.437377 0.352527 0.257870
0.463366 0.341371 0.250844
0.489355 0.330216 0.243818
0.515345 0.319061 0.236792
0.541334 0.307905 0.229767
0.562641 0.297167 0.223462
0.579265 0.286846 0.217878
0.595888 0.276524 0.212294
0.612512 0.266203 0.206711
0.629136 0.255882 0.201127
0.642603 0.246052 0.196047
0.649756 0.237203 0.191975
0.656909 0.228354 0.187903
0.664062 0.219506 0.183831
0.671216 0.210657 0.179759
0.677213 0.202050 0.175864
0.677432 0.194648 0.172848
0.677651 0.187247 0.169833
0.677870 0.179845 0.166818
0.678089 0.172443 0.163802
0.678308 0.165042 0.160787
0.136285 0.501571 0.362076
0.158599 0.490627 0.353445
0.180912 0.479684 0.344814
0.203226 0.468741 0.336183
0.225539 0.457797 0.327551
0.247853 0.446854 0.318920
0.277025 0.435688 0.310591
0.307568 0.424477 0.302323
0.338112 0.413267 0.294054
0.368655 0.402057 0.285786
0.399199 0.390846 0.277517
0.427340 0.379459 0.269858
0.454280 0.367983 0.262505
0.481220 0.356507 0.255151
0.508160 0.345031 0.247797
0.535100 0.333555 0.240444
0.557466 0.322357 0.233812
0.575257 0.311437 0.227902
0.593048 0.300517 0.221992
0.610839 0.289598 0.216082
0.628630 0.278678 0.210172
0.643128 0.268184 0.204779
0.651042 0.258540 0.200420
0.658956 0.248896 0.196061
0.666870 0.239253 0.191702
0.674784 0.229609 0.187343
0.681454 0.220193 0.183167
0.681905 0.211913 0.179905
0.682356 0.203634 0.176644
0.682807 0.195354 0.173382
0.683258 0.187075 0.170120
0.683709 0.178795 0.166858
0.136645 0.524088 0.374337
0.157287 0.513600 0.365912
0.177929 0.503113 0.357488
0.198572 0.492626 0.349064
0.219214 0.482138 0.340640
0.239856 0.471651 0.332215
0.268298 0.460778 0.323897
0.298300 0.449827 0.315600
0.328302 0.438877 0.307303
0.358304 0.427926 0.299007
0.388306 0.416976 0.290710
0.416731 0.405710 0.282928
0.444368 0.394286 0.275404
0.472004 0.382862 0.267880
0.499641 0.371438 0.260356
0.527277 0.360015 0.252832
0.550601 0.348746 0.245994
0.569613 0.337632 0.239842
0.588625 0.326518 0.233690
0.607636 0.315404 0.227537
0.626648 0.304290 0.221385
0.642286 0.293519 0.215742
0.651179 0.283433 0.211117
0.660072 0.273347 0.206492
0.668965 0.263262 0.201867
0.677858 0.253176 0.197242
0.685418 0.243286 0.192800
0.686310 0.234375 0.189270
0.687202 0.225465 0.185740
0.688095 0.216554 0.182210
0.688987 0.207644 0.178680
0.689879 0.198733 0.175150
0.137814 0.544892 0.385978
0.156800 0.534963 0.377868
0.175785 0.525034 0.369757
0.194770 0.515106 0.361647
0.213755 0.505177 0.353537
0.232740 0.495248 0.345426
0.260280 0.484800 0.337226
0.289531 0.474248 0.329008
0.318782 0.463697 0.320791
0.348032 0.453145 0.312573
0.377283 0.442594 0.304355
0.405837 0.431620 0.296539
0.434043 0.420435 0.288923
0.462248 0.409250 0.281308
0.490454 0.398065 0.273692
0.518659 0.386880 0.266077
0.542892 0.375734 0.259093
0.563151 0.364628 0.252740
0.583410 0.353522 0.246387
0.603669 0.342416 0.240034
0.623928 0.331310 0.233682
0.640761 0.320456 0.227820
0.650742 0.310104 0.222940
0.660724 0.299753 0.218059
0.670705 0.289402 0.213179
0.680687 0.279050 0.208299
0.689244 0.268854 0.203598
0.690682 0.259436 0.199789
0.692120 0.250018 0.195980
0.693558 0.240600 0.192171
0.694996 0.231182 0.188362
0.696434 0.221764 0.184553
0.138984 0.565697 0.397619
0.156312 0.556326 0.389823
0.173640 0.546956 0.382026
0.190968 0.537585 0.374230
0.208296 0.528215 0.366434
0.225624 0.518844 0.358637
0.252262 0.508822 0.350555
0.280761 0.498670 0.342416
0.309261 0.488517 0.334278
0.337760 0.478365 0.326139
0.366260 0.468212 0.318000
0.394943 0.457530 0.310149
0.423717 0.446584 0.302442
0.452492 0.435638 0.294735
0.481267 0.424691 0.287029
0.510042 0.413745 0.279322
0.535182 0.402723 0.272192
0.556689 0.391625 0.265638
0.578195 0.380527 0.259085
0.599702 0.369428 0.252531
0.621208 0.358330 0.245978
0.639236 0.347393 0.239897
0.650305 0.336776 0.234762
0.661375 0.326159 0.229627
0.672445 0.315542 0.224491
0.683515 0.304925 0.219356
0.693070 0.294423 0.214395
0.695054 0.284497 0.210307
0.697038 0.274571 0.206219
0.699021 0.264645 0.202131
0.701005 0.254720 0.198043
0.702989 0.244794 0.193955
0.140154 0.586501 0.409260
0.155824 0.577689 0.401778
0.171495 0.568877 0.394295
0.187166 0.560065 0.386813
0.202837 0.551253 0.379331
0.218508 0.542441 0.371848
0.244243 0.532844 0.363884
0.271991 0.523091 0.355825
0.299740 0.513337 0.347765
0.327488 0.503584 0.339705
0.355236 0.493830 0.331645
0.384048 0.483441 0.323759
0.413392 0.472733 0.315961
0.442736 0.462025 0.308163
0.472080 0.451318 0.300365
0.501424 0.440610 0.292567
0.527473 0.429711 0.285290
0.550227 0.418621 0.278536
0.572980 0.407531 0.271782
0.595734 0.396441 0.265028
0.618488 0.385350 0.258274
0.637710 0.374329 0.251975
0.649868 0.363447 0.246584
0.662027 0.352564 0.241194
0.674185 0.341682 0.235803
0.686343 0.330799 0.230413
0.696897 0.319991 0.225193
0.699426 0.309558 0.220826
0.701955 0.299124 0.216459
0.704485 0.288691 0.212092
0.707014 0.278257 0.207725
0.709544 0.267824 0.203357
0.141323 0.607306 0.420901
0.155337 0.599052 0.413733
0.169351 0.590799 0.406564
0.183364 0.582545 0.399396
0.197378 0.574291 0.392228
0.211392 0.566038 0.385059
0.236225 0.556867 0.377214
0.263222 0.547512 0.369233
0.290219 0.538158 0.361252
0.317216 0.528803 0.353271
0.344213 0.519449 0.345290
0.373154 0.509351 0.337370
0.403067 0.498882 0.329480
0.432980 0.488413 0.321590
0.462893 0.477944 0.313701
0.492806 0.467475 0.305811
0.519763 0.456700 0.298389
0.543765 0.445617 0.291435
0.567766 0.434535 0.284480
0.591767 0.423453 0.277526
0.615768 0.412371 0.270571
0.636185 0.401266 0.264053
0.649431 0.390118 0.258407
0.662678 0.378970 0.252761
0.675925 0.367822 0.247115
0.689171 0.356674 0.241470
0.700723 0.345560 0.235991
0.703798 0.334619 0.231344
0.706873 0.323678 0.226698
0.709948 0.312736 0.222052
0.713023 0.301795 0.217406
0.716099 0.290854 0.212760
0.142868 0.625190 0.431241
0.155425 0.617492 0.424431
0.167982 0.609793 0.417621
0.180539 0.602094 0.410810
0.193096 0.594395 0.404000
0.205653 0.586697 0.397190
0.229453 0.578018 0.389574
0.255502 0.569144 0.381796
0.281550 0.560270 0.374019
0.307599 0.551396 0.366241
0.333647 0.542522 0.358464
0.362469 0.532849 0.350639
0.392677 0.522777 0.342791
0.422885 0.512706 0.334943
0.453094 0.502634 0.327095
0.483302 0.492562 0.319247
0.510986 0.482105 0.311797
0.536147 0.471263 0.304747
0.561308 0.460421 0.297697
0.586468 0.449579 0.290647
0.611629 0.438737 0.283597
0.633223 0.427802 0.276953
0.647683 0.416681 0.271122
0.662143 0.405559 0.265292
0.676603 0.394438 0.259461
0.691063 0.383316 0.253630
0.703742 0.372194 0.247957
0.707516 0.361068 0.243076
0.711291 0.349942 0.238194
0.715066 0.338815 0.233313
0.718840 0.327689 0.228432
0.722615 0.316563 0.223550
0.144789 0.640155 0.440279
0.156090 0.633008 0.433871
0.167391 0.625860 0.427464
0.178692 0.618713 0.421056
0.189992 0.611565 0.414649
0.201293 0.604418 0.408241
0.223929 0.596299 0.400965
0.248832 0.587987 0.393516
0.273734 0.579675 0.386066
0.298637 0.571362 0.378617
0.323540 0.563050 0.371167
0.351994 0.553935 0.363568
0.382223 0.544419 0.355894
0.412452 0.534903 0.348220
0.442682 0.525387 0.340546
0.472911 0.515871 0.332872
0.501142 0.505928 0.325515
0.527374 0.495559 0.318475
0.553606 0.485189 0.311434
0.579838 0.474820 0.304393
0.606070 0.464451 0.297353
0.628824 0.453937 0.290677
0.644622 0.443134 0.284731
0.660421 0.432332 0.278785
0.676219 0.421529 0.272839
0.692017 0.410727 0.266893
0.705953 0.399893 0.261092
0.710581 0.388905 0.256019
0.715209 0.377916 0.250947
0.719837 0.366928 0.245874
0.724465 0.355940 0.240801
0.729093 0.344951 0.235728
0.146709 0.655120 0.449317
0.156754 0.648524 0.443312
0.166799 0.641927 0.437307
0.176844 0.635331 0.431302
0.186888 0.628735 0.425297
0.196933 0.622138 0.419292
0.218405 0.614580 0.412357
0.242162 0.606830 0.405235
0.265918 0.599079 0.398114
0.289675 0.591328 0.390992
0.313432 0.583578 0.383871
0.341518 0.575021 0.376497
0.371769 0.566060 0.368998
0.402019 0.557100 0.361498
0.432270 0.548140 0.353998
0.462520 0.539180 0.346498
0.491297 0.529751 0.339233
0.518601 0.519854 0.332202
0.545904 0.509957 0.325171
0.573208 0.500061 0.318140
0.600511 0.490164 0.311109
0.624426 0.480071 0.304401
0.641562 0.469588 0.298340
0.658699 0.459104 0.292278
0.675835 0.448621 0.286217
0.692971 0.438137 0.280156
0.708165 0.427593 0.274227
0.713646 0.416742 0.268963
0.719128 0.405891 0.263699
0.724609 0.395041 0.258435
0.730090 0.384190 0.253171
0.735571 0.373339 0.247907
0.148630 0.670085 0.458355
0.157419 0.664040 0.452752
0.166207 0.657995 0.447150
0.174996 0.651950 0.441548
0.183784 0.645904 0.435945
0.192573 0.639859 0.430343
0.212880 0.632861 0.423748
0.235491 0.625672 0.416955
0.258102 0.618484 0.410161
0.280714 0.611295 0.403368
0.303325 0.604106 0.396575
0.331043 0.596106 0.389426
0.361314 0.587702 0.382101
0.391586 0.579297 0.374775
0.421858 0.570893 0.367450
0.452129 0.562488 0.360124
0.481453 0.553574 0.352950
0.509828 0.544150 0.345929
0.538203 0.534726 0.338907
0.566578 0.525301 0.331886
0.594953 0.515877 0.324864
0.620027 0.506206 0.318124
0.638502 0.496042 0.311948
0.656976 0.485877 0.305772
0.675451 0.475713 0.299595
0.693926 0.465548 0.293419
0.710377 0.455292 0.287363
0.716711 0.444579 0.281907
0.723046 0.433866 0.276452
0.729380 0.423153 0.270996
0.735715 0.412440 0.265540
0.742049 0.401727 0.260085
0.150551 0.685049 0.467393
0.158083 0.679556 0.462193
0.165616 0.674062 0.456993
0.173148 0.668568 0.451793
0.180680 0.663074 0.446593
0.188213 0.657580 0.441394
0.207356 0.651142 0.435139
0.228821 0.644515 0.428674
0.250286 0.637888 0.422209
0.271752 0.631261 0.415743
0.293217 0.624634 0.409278
0.320567 0.617192 0.402355
0.350860 0.609343 0.395204
0.381153 0.601495 0.388053
0.411446 0.593646 0.380901
0.441739 0.585797 0.373750
0.471608 0.577397 0.366668
0.501055 0.568445 0.359656
0.530501 0.559494 0.352644
0.559947 0.550542 0.345632
0.589394 0.541590 0.338620
0.615629 0.532341 0.331848
0.635442 0.522495 0.325557
0.655254 0.512650 0.319265
0.675067 0.502804 0.312973
0.694880 0.492959 0.306682
0.712588 0.482992 0.300498
0.719776 0.472416 0.294851
0.726964 0.461841 0.289204
0.734152 0.451266 0.283557
0.741340 0.440691 0.277910
0.748527 0.430116 0.272263
0.152374 0.698122 0.475448
0.158813 0.693141 0.470638
0.165252 0.688159 0.465829
0.171692 0.683178 0.461020
0.178131 0.678197 0.456211
0.184570 0.673216 0.451402
0.202526 0.667319 0.445514
0.222786 0.661239 0.439410
0.243047 0.655159 0.433306
0.263307 0.649079 0.427203
0.283567 0.642999 0.421099
0.310393 0.636119 0.414452
0.340502 0.628838 0.407532
0.370610 0.621558 0.400612
0.400719 0.614278 0.393693
0.430828 0.606998 0.386773
0.461077 0.599146 0.379844
0.491466 0.590723 0.372905
0.521855 0.582300 0.365965
0.552244 0.573877 0.359026
0.582633 0.565454 0.352087
0.609961 0.556699 0.345345
0.631167 0.547282 0.338998
0.652374 0.537865 0.332651
0.673581 0.528447 0.326304
0.694787 0.519030 0.319958
0.713817 0.509469 0.313706
0.721965 0.499192 0.307929
0.730113 0.488914 0.302153
0.738260 0.478637 0.296377
0.746408 0.468360 0.290600
0.754556 0.458082 0.284824
0.154004 0.707409 0.481536
0.159676 0.702863 0.477094
0.165347 0.698317 0.472652
0.171018 0.693771 0.468209
0.176689 0.689226 0.463767
0.182360 0.684680 0.459325
0.199086 0.679287 0.453855
0.218022 0.673724 0.448180
0.236959 0.668162 0.442505
0.255895 0.662600 0.436830
0.274832 0.657037 0.431155
0.300820 0.650726 0.424882
0.330335 0.644040 0.418309
0.359849 0.637355 0.411737
0.389363 0.630669 0.405165
0.418878 0.623984 0.398593
0.449172 0.616749 0.391936
0.480246 0.608966 0.385196
0.511320 0.601183 0.378456
0.542393 0.593401 0.371716
0.573467 0.585618 0.364976
0.601754 0.577505 0.358388
0.624466 0.568734 0.352106
0.647177 0.559963 0.345823
0.669889 0.551193 0.339541
0.692601 0.542422 0.333259
0.713081 0.533503 0.327060
0.722402 0.523844 0.321278
0.731723 0.514184 0.315496
0.741044 0.504525 0.309713
0.750365 0.494866 0.303931
0.759686 0.485207 0.298149
0.155634 0.716697 0.487625
0.160538 0.712586 0.483549
0.165441 0.708475 0.479474
0.170344 0.704365 0.475398
0.175247 0.700254 0.471323
0.180151 0.696143 0.467247
0.195645 0.691254 0.462196
0.213258 0.686210 0.456950
0.230871 0.681165 0.451703
0.248484 0.676120 0.446457
0.266097 0.671076 0.441211
0.291248 0.665334 0.435312
0.320168 0.659242 0.429087
0.349088 0.653151 0.422862
0.378008 0.647060 0.416637
0.406927 0.640969 0.410412
0.437267 0.634352 0.404029
0.469026 0.627210 0.397488
0.500784 0.620067 0.390947
0.532543 0.612924 0.384405
0.564302 0.605781 0.377864
0.593547 0.598311 0.371431
0.617764 0.590187 0.365213
0.641981 0.582062 0.358995
0.666198 0.573938 0.352778
0.690415 0.565814 0.346560
0.712345 0.557536 0.340414
0.722839 0.548495 0.334626
0.733333 0.539454 0.328838
0.743827 0.530413 0.323050
0.754321 0.521372 0.317262
0.764816 0.512331 0.311475
0.157265 0.725984 0.493713
0.161400 0.722309 0.490005
0.165535 0.718633 0.486296
0.169671 0.714958 0.482587
0.173806 0.711283 0.478879
0.177941 0.707607 0.475170
0.192205 0.703222 0.470537
0.208494 0.698695 0.465719
0.224783 0.694168 0.460902
0.241073 0.689641 0.456084
0.257362 0.685114 0.451266
0.281676 0.679941 0.445742
0.310001 0.674444 0.439864
0.338326 0.668948 0.433986
0.366652 0.663451 0.428109
0.394977 0.657955 0.422231
0.425362 0.651955 0.416121
0.457805 0.645453 0.409779
0.490249 0.638950 0.403437
0.522693 0.632448 0.397095
0.555136 0.625945 0.390753
0.585339 0.619117 0.384474
0.611062 0.611639 0.378321
0.636784 0.604161 0.372167
0.662506 0.596684 0.366014
0.688228 0.589206 0.359861
0.711608 0.581570 0.353768
0.723276 0.573147 0.347974
0.734943 0.564724 0.342181
0.746610 0.556301 0.336387
0.758278 0.547878 0.330594
0.769945 0.539455 0.324800
0.158895 0.735271 0.499802
0.162262 0.732031 0.496460
0.165629 0.728791 0.493118
0.168997 0.725551 0.489777
0.172364 0.722311 0.486435
0.175732 0.719071 0.483093
0.188764 0.715190 0.478878
0.203730 0.711181 0.474489
0.218696 0.707172 0.470100
0.233661 0.703162 0.465711
0.248627 0.699153 0.461322
0.272103 0.694548 0.456172
0.299834 0.689646 0.450642
0.327565 0.684745 0.445111
0.355296 0.679843 0.439581
0.383027 0.674941 0.434050
0.413457 0.669558 0.428214
0.446585 0.663696 0.422071
0.479714 0.657833 0.415928
0.512842 0.651971 0.409785
0.545971 0.646109 0.403642
0.577132 0.639923 0.397517
0.604360 0.633092 0.391428
0.631587 0.626260 0.385340
0.658815 0.619429 0.379251
0.686042 0.612598 0.373162
0.710872 0.605604 0.367121
0.723712 0.597799 0.361322
0.736553 0.589994 0.355523
0.749394 0.582189 0.349724
0.762234 0.574384 0.343925
0.775075 0.566579 0.338125
0.160397 0.743584 0.505288
0.163059 0.740782 0.502313
0.165721 0.737979 0.499337
0.168383 0.735177 0.496362
0.171045 0.732374 0.493387
0.173708 0.729571 0.490411
0.185517 0.726188 0.486618
0.199156 0.722689 0.482660
0.212795 0.719190 0.478703
0.226434 0.715690 0.474746
0.240073 0.712191 0.470789
0.262641 0.708142 0.466023
0.289674 0.703820 0.460853
0.316707 0.699497 0.455682
0.343739 0.695174 0.450512
0.370772 0.690851 0.445342
0.401150 0.686070 0.439794
0.434874 0.680833 0.433869
0.468597 0.675595 0.427944
0.502321 0.670358 0.422019
0.536044 0.665120 0.416094
0.568111 0.659563 0.410142
0.596866 0.653366 0.404137
0.625620 0.647170 0.398131
0.654374 0.640974 0.392125
0.683128 0.634777 0.386119
0.709438 0.628414 0.380151
0.723529 0.621220 0.374370
0.737619 0.614025 0.368589
0.751709 0.606831 0.362809
0.765799 0.599636 0.357028
0.779890 0.592441 0.351247
0.161259 0.747024 0.507760
0.163529 0.744670 0.505150
0.165799 0.742316 0.502540
0.168070 0.739961 0.499930
0.170340 0.737607 0.497319
0.172611 0.735253 0.494709
0.183236 0.732337 0.491349
0.195532 0.729310 0.487839
0.207828 0.726282 0.484329
0.220125 0.723254 0.480819
0.232421 0.720226 0.477309
0.253730 0.716669 0.472976
0.279547 0.712848 0.468231
0.305363 0.709026 0.463487
0.331179 0.705205 0.458742
0.356995 0.701383 0.453997
0.386838 0.697128 0.448818
0.420707 0.692439 0.443205
0.454576 0.687749 0.437591
0.488444 0.683060 0.431978
0.522313 0.678371 0.426365
0.555022 0.673372 0.420679
0.585411 0.667753 0.414848
