Assets/1__3DArt/KimSe/artstation_asset/LUTs_pasterls/CUBE/Candylandia 04.cube
# Enhanced with VOXCOLOR algorithms
LUT_3D_SIZE 32
0.152941 0.258824 0.188235
0.224476 0.261969 0.189254
0.296012 0.265115 0.190272
0.367547 0.268260 0.191291
0.439083 0.271405 0.192310
0.510618 0.274551 0.193328
0.564235 0.278055 0.196072
0.614269 0.281630 0.199161
0.664302 0.285205 0.202250
0.714335 0.288781 0.205339
0.764368 0.292356 0.208428
0.799151 0.295328 0.211433
0.826308 0.297998 0.214395
0.853465 0.300669 0.217357
0.880622 0.303339 0.220319
0.907779 0.306009 0.223281
0.926751 0.308067 0.225565
0.937538 0.309512 0.227172
0.948325 0.310958 0.228778
0.959112 0.312404 0.230385
0.969899 0.313849 0.231991
0.977971 0.314976 0.233111
0.980614 0.315466 0.233256
0.983257 0.315955 0.233402
0.985900 0.316445 0.233547
0.988543 0.316934 0.233693
0.990792 0.317352 0.233735
0.991065 0.317411 0.233263
0.991338 0.317470 0.232790
0.991611 0.317529 0.232318
0.991884 0.317588 0.231845
0.992157 0.317647 0.231373
0.132393 0.291834 0.188090
0.201411 0.293631 0.188797
0.270430 0.295429 0.189505
0.339448 0.297226 0.190213
0.408467 0.299023 0.190921
0.477485 0.300820 0.191629
0.531913 0.303488 0.194126
0.583424 0.306330 0.196981
0.634934 0.309172 0.199837
0.686444 0.312014 0.202692
0.737954 0.314855 0.205547
0.774731 0.316996 0.208380
0.804141 0.318786 0.211203
0.833551 0.320576 0.214025
0.862961 0.322365 0.216847
0.892372 0.324155 0.219669
0.913314 0.325273 0.221892
0.925788 0.325719 0.223516
0.938262 0.326164 0.225140
0.950736 0.326610 0.226763
0.963210 0.327056 0.228387
0.972697 0.327224 0.229572
0.976210 0.326838 0.229879
0.979723 0.326451 0.230186
0.983236 0.326065 0.230493
0.986749 0.325678 0.230800
0.989772 0.325257 0.231012
0.990345 0.324661 0.230743
0.990919 0.324066 0.230475
0.991492 0.323471 0.230206
0.992066 0.322875 0.229938
0.992639 0.322280 0.229670
0.111845 0.324845 0.187944
0.178346 0.325293 0.188341
0.244848 0.325742 0.188738
0.311349 0.326191 0.189135
0.377850 0.326640 0.189532
0.444352 0.327089 0.189929
0.499591 0.328921 0.192180
0.552578 0.331029 0.194802
0.605566 0.333138 0.197423
0.658553 0.335246 0.200044
0.711540 0.337355 0.202666
0.750311 0.338664 0.205328
0.781975 0.339573 0.208010
0.813638 0.340483 0.210693
0.845301 0.341392 0.213375
0.876965 0.342301 0.216057
0.899877 0.342479 0.218219
0.914038 0.341925 0.219860
0.928200 0.341370 0.221501
0.942361 0.340816 0.223142
0.956522 0.340262 0.224783
0.967424 0.339472 0.226033
0.971806 0.338209 0.226502
0.976189 0.336947 0.226971
0.980572 0.335685 0.227439
0.984954 0.334422 0.227908
0.988752 0.333162 0.228288
0.989626 0.331912 0.228224
0.990500 0.330662 0.228159
0.991374 0.329412 0.228095
0.992247 0.328162 0.228031
0.993121 0.326913 0.227966
0.091297 0.357855 0.187799
0.155281 0.356955 0.187885
0.219266 0.356056 0.187971
0.283250 0.355157 0.188058
0.347234 0.354258 0.188144
0.411219 0.353358 0.188230
0.467269 0.354354 0.190234
0.521733 0.355729 0.192622
0.576197 0.357104 0.195009
0.630661 0.358479 0.197397
0.685126 0.359854 0.199785
0.725891 0.360332 0.202276
0.759808 0.360361 0.204818
0.793725 0.360390 0.207361
0.827641 0.360419 0.209903
0.861558 0.360448 0.212446
0.886441 0.359685 0.214546
0.902289 0.358131 0.216204
0.918137 0.356577 0.217863
0.933986 0.355023 0.219521
0.949834 0.353468 0.221179
0.962150 0.351720 0.222495
0.967403 0.349581 0.223125
0.972655 0.347443 0.223755
0.977907 0.345305 0.224385
0.983160 0.343166 0.225016
0.987732 0.341067 0.225564
0.988907 0.339163 0.225704
0.990081 0.337258 0.225844
0.991255 0.335354 0.225983
0.992429 0.333450 0.226123
0.993603 0.331545 0.226263
0.070749 0.390865 0.187654
0.132216 0.388618 0.187429
0.193683 0.386370 0.187204
0.255151 0.384122 0.186980
0.316618 0.381875 0.186755
0.378085 0.379627 0.186531
0.434947 0.379787 0.188288
0.490888 0.380429 0.190442
0.546829 0.381070 0.192596
0.602770 0.381712 0.194750
0.658711 0.382353 0.196903
0.701472 0.381999 0.199223
0.737641 0.381148 0.201626
0.773811 0.380297 0.204029
0.809981 0.379445 0.206431
0.846151 0.378594 0.208834
0.873004 0.376891 0.210873
0.890539 0.374337 0.212549
0.908075 0.371783 0.214224
0.925610 0.369229 0.215900
0.943146 0.366675 0.217575
0.956877 0.363967 0.218956
0.962999 0.360953 0.219748
0.969121 0.357939 0.220540
0.975243 0.354925 0.221332
0.981365 0.351910 0.222123
0.986713 0.348972 0.222841
0.988187 0.346413 0.223184
0.989662 0.343854 0.223528
0.991136 0.341296 0.223872
0.992611 0.338737 0.224216
0.994086 0.336178 0.224559
0.050201 0.423875 0.187508
0.109151 0.420280 0.186973
0.168101 0.416684 0.186437
0.227052 0.413088 0.185902
0.286002 0.409492 0.185367
0.344952 0.405897 0.184831
0.402625 0.405221 0.186342
0.460043 0.405129 0.188262
0.517461 0.405037 0.190182
0.574879 0.404945 0.192102
0.632297 0.404853 0.194022
0.677052 0.403667 0.196171
0.715475 0.401935 0.198434
0.753898 0.400204 0.200696
0.792321 0.398472 0.202959
0.830744 0.396740 0.205222
0.859567 0.394097 0.207200
0.878790 0.390543 0.208893
0.898012 0.386989 0.210586
0.917235 0.383435 0.212278
0.936457 0.379881 0.213971
0.951603 0.376215 0.215418
0.958595 0.372325 0.216371
0.965587 0.368435 0.217324
0.972579 0.364544 0.218278
0.979571 0.360654 0.219231
0.985693 0.356877 0.220117
0.987468 0.353664 0.220665
0.989243 0.350450 0.221213
0.991018 0.347237 0.221760
0.992793 0.344024 0.222308
0.994568 0.340811 0.222856
0.041744 0.451650 0.190497
0.097267 0.447688 0.189874
0.152791 0.443726 0.189251
0.208315 0.439764 0.188628
0.263838 0.435802 0.188005
0.319362 0.431840 0.187382
0.376304 0.430843 0.188719
0.433530 0.430438 0.190449
0.490756 0.430033 0.192179
0.547982 0.429628 0.193909
0.605208 0.429223 0.195639
0.650981 0.427747 0.197577
0.691028 0.425736 0.199620
0.731074 0.423725 0.201663
0.771121 0.421715 0.203706
0.811167 0.419704 0.205748
0.841761 0.416722 0.207521
0.862901 0.412769 0.209023
0.884041 0.408816 0.210525
0.905181 0.404863 0.212027
0.926321 0.400910 0.213530
0.943164 0.396770 0.214809
0.951413 0.392255 0.215643
0.959663 0.387740 0.216477
0.967912 0.383225 0.217311
0.976161 0.378710 0.218145
0.983408 0.374275 0.218926
0.985644 0.370239 0.219445
0.987879 0.366202 0.219964
0.990114 0.362166 0.220484
0.992350 0.358129 0.221003
0.994585 0.354093 0.221522
0.035705 0.478377 0.194112
0.087620 0.474245 0.193446
0.139535 0.470114 0.192780
0.191450 0.465982 0.192114
0.243365 0.461851 0.191448
0.295281 0.457719 0.190782
0.351183 0.456503 0.191962
0.407884 0.455869 0.193510
0.464584 0.455235 0.195058
0.521284 0.454602 0.196607
0.577985 0.453968 0.198155
0.624581 0.452310 0.199876
0.666125 0.450140 0.201682
0.707668 0.447970 0.203489
0.749212 0.445801 0.205295
0.790756 0.443631 0.207102
0.823080 0.440430 0.208640
0.846184 0.436198 0.209910
0.869287 0.431967 0.211180
0.892391 0.427735 0.212450
0.915495 0.423503 0.213720
0.934092 0.418986 0.214786
0.943676 0.413896 0.215445
0.953261 0.408807 0.216103
0.962845 0.403718 0.216762
0.972429 0.398629 0.217420
0.980871 0.393572 0.218042
0.983598 0.388679 0.218486
0.986326 0.383785 0.218930
0.989054 0.378892 0.219374
0.991781 0.373998 0.219818
0.994509 0.369105 0.220261
0.029666 0.505104 0.197727
0.077972 0.500803 0.197018
0.126279 0.496501 0.196309
0.174586 0.492200 0.195601
0.222892 0.487899 0.194892
0.271199 0.483598 0.194183
0.326062 0.482162 0.195204
0.382237 0.481300 0.196571
0.438412 0.480438 0.197938
0.494586 0.479575 0.199304
0.550761 0.478713 0.200671
0.598180 0.476873 0.202174
0.641221 0.474544 0.203744
0.684263 0.472215 0.205315
0.727304 0.469886 0.206885
0.770345 0.467558 0.208456
0.804400 0.464138 0.209760
0.829467 0.459628 0.210798
0.854534 0.455117 0.211835
0.879601 0.450607 0.212873
0.904669 0.446096 0.213911
0.925020 0.441201 0.214764
0.935939 0.435538 0.215247
0.946859 0.429874 0.215729
0.957778 0.424211 0.216212
0.968697 0.418547 0.216695
0.978333 0.412869 0.217159
0.981553 0.407119 0.217527
0.984773 0.401368 0.217896
0.987993 0.395617 0.218264
0.991213 0.389867 0.218632
0.994433 0.384116 0.219001
0.023627 0.531831 0.201342
0.068325 0.527360 0.200590
0.113023 0.522889 0.199839
0.157721 0.518418 0.199087
0.202420 0.513948 0.198335
0.247118 0.509477 0.197584
0.300942 0.507822 0.198446
0.356590 0.506731 0.199632
0.412239 0.505640 0.200817
0.467888 0.504549 0.202002
0.523537 0.503457 0.203188
0.571779 0.501435 0.204472
0.616318 0.498948 0.205806
0.660857 0.496460 0.207141
0.705395 0.493972 0.208475
0.749934 0.491485 0.209809
0.785719 0.487846 0.210879
0.812750 0.483057 0.211685
0.839781 0.478268 0.212491
0.866812 0.473479 0.213296
0.893843 0.468689 0.214102
0.915948 0.463417 0.214741
0.928202 0.457179 0.215048
0.940457 0.450941 0.215356
0.952711 0.444703 0.215663
0.964965 0.438466 0.215970
0.975796 0.432166 0.216275
0.979508 0.425558 0.216568
0.983220 0.418951 0.216861
0.986933 0.412343 0.217154
0.990645 0.405736 0.217447
0.994357 0.399128 0.217741
0.017588 0.558558 0.204957
0.058678 0.553917 0.204162
0.099767 0.549277 0.203368
0.140857 0.544637 0.202573
0.181947 0.539996 0.201779
0.223036 0.535356 0.200984
0.275821 0.533482 0.201688
0.330944 0.532162 0.202692
0.386067 0.530842 0.203696
0.441190 0.529522 0.204700
0.496314 0.528202 0.205704
0.545379 0.525998 0.206771
0.591415 0.523351 0.207869
0.637451 0.520705 0.208967
0.683487 0.518058 0.210065
0.729523 0.515412 0.211163
0.767038 0.511555 0.211999
0.796033 0.506487 0.212572
0.825028 0.501419 0.213146
0.854022 0.496351 0.213719
0.883017 0.491283 0.214293
0.906876 0.485633 0.214719
0.920465 0.478821 0.214850
0.934054 0.472009 0.214982
0.947644 0.465196 0.215113
0.961233 0.458384 0.215245
0.973258 0.451463 0.215391
0.977463 0.443998 0.215609
0.981667 0.436534 0.215827
0.985872 0.429069 0.216044
0.990077 0.421605 0.216262
0.994281 0.414140 0.216480
0.016988 0.580319 0.210394
0.054841 0.575784 0.209577
0.092695 0.571248 0.208760
0.130549 0.566712 0.207943
0.168403 0.562176 0.207126
0.206256 0.557641 0.206309
0.257476 0.555800 0.206920
0.311369 0.554498 0.207816
0.365262 0.553196 0.208711
0.419155 0.551894 0.209607
0.473047 0.550592 0.210503
0.522215 0.548528 0.211439
0.569019 0.546084 0.212396
0.615824 0.543639 0.213352
0.662628 0.541194 0.214309
0.709433 0.538749 0.215265
0.748154 0.535099 0.215941
0.778793 0.530245 0.216335
0.809431 0.525391 0.216729
0.840069 0.520536 0.217124
0.870708 0.515682 0.217518
0.896130 0.510159 0.217751
0.911118 0.503300 0.217663
0.926107 0.496440 0.217575
0.941095 0.489581 0.217487
0.956084 0.482721 0.217399
0.969387 0.475684 0.217321
0.974267 0.467761 0.217295
0.979148 0.459838 0.217268
0.984028 0.451914 0.217242
0.988908 0.443991 0.217216
0.993788 0.436067 0.217189
0.019107 0.599598 0.216742
0.053911 0.595304 0.215913
0.088715 0.591010 0.215084
0.123519 0.586716 0.214255
0.158323 0.582423 0.213426
0.193127 0.578129 0.212596
0.242519 0.576446 0.213145
0.294830 0.575286 0.213970
0.347140 0.574126 0.214795
0.399450 0.572966 0.215619
0.451760 0.571805 0.216444
0.500669 0.570043 0.217294
0.547878 0.567980 0.218156
0.595086 0.565917 0.219018
0.642294 0.563854 0.219880
0.689503 0.561791 0.220742
0.729168 0.558562 0.221294
0.761290 0.554168 0.221536
0.793413 0.549773 0.221777
0.825535 0.545379 0.222019
0.857657 0.540985 0.222260
0.884546 0.535841 0.222311
0.900966 0.529198 0.221981
0.917386 0.522554 0.221652
0.933806 0.515911 0.221322
0.950226 0.509268 0.220992
0.964850 0.502368 0.220658
0.970497 0.494185 0.220303
0.976144 0.486002 0.219948
0.981791 0.477819 0.219593
0.987438 0.469636 0.219238
0.993085 0.461453 0.218884
0.021226 0.618877 0.223091
0.052980 0.614825 0.222249
0.084734 0.610773 0.221408
0.116489 0.606721 0.220566
0.148243 0.602669 0.219725
0.179998 0.598617 0.218883
0.227563 0.597093 0.219371
0.278290 0.596074 0.220125
0.329018 0.595056 0.220878
0.379745 0.594037 0.221631
0.430473 0.593018 0.222385
0.479124 0.591558 0.223148
0.526736 0.589876 0.223916
0.574348 0.588195 0.224684
0.621961 0.586514 0.225451
0.669573 0.584832 0.226219
0.710182 0.582024 0.226647
0.743788 0.578090 0.226736
0.777395 0.574156 0.226825
0.811001 0.570222 0.226914
0.844607 0.566287 0.227003
0.872962 0.561522 0.226871
0.890813 0.555095 0.226300
0.908665 0.548668 0.225728
0.926516 0.542241 0.225157
0.944368 0.535814 0.224585
0.960313 0.529051 0.223995
0.966727 0.520608 0.223311
0.973141 0.512166 0.222628
0.979555 0.503723 0.221945
0.985969 0.495281 0.221261
0.992383 0.486838 0.220578
0.023345 0.638155 0.229439
0.052049 0.634345 0.228585
0.080754 0.630535 0.227731
0.109459 0.626725 0.226878
0.138164 0.622915 0.226024
0.166868 0.619105 0.225171
0.212606 0.617739 0.225597
0.261751 0.616862 0.226279
0.310896 0.615985 0.226961
0.360041 0.615108 0.227644
0.409186 0.614231 0.228326
0.457578 0.613072 0.229002
0.505594 0.611773 0.229676
0.553610 0.610473 0.230349
0.601627 0.609174 0.231022
0.649643 0.607874 0.231696
0.691196 0.605487 0.232001
0.726286 0.602013 0.231937
0.761377 0.598539 0.231873
0.796467 0.595064 0.231809
0.831557 0.591590 0.231745
0.861378 0.587204 0.231431
0.880661 0.580993 0.230618
0.899944 0.574782 0.229805
0.919227 0.568571 0.228991
0.938510 0.562361 0.228178
0.955776 0.555735 0.227332
0.962957 0.547032 0.226320
0.970138 0.538330 0.225308
0.977319 0.529628 0.224296
0.984500 0.520925 0.223284
0.991681 0.512223 0.222272
0.025464 0.657434 0.235787
0.051119 0.653866 0.234921
0.076774 0.650298 0.234055
0.102429 0.646730 0.233189
0.128084 0.643161 0.232324
0.153739 0.639593 0.231458
0.197650 0.638386 0.231823
0.245212 0.637650 0.232434
0.292774 0.636915 0.233045
0.340336 0.636180 0.233656
0.387898 0.635444 0.234267
0.436032 0.634587 0.234856
0.484453 0.633669 0.235436
0.532873 0.632751 0.236015
0.581293 0.631833 0.236594
0.629713 0.630916 0.237173
0.672210 0.628950 0.237354
0.708784 0.625935 0.237137
0.745358 0.622921 0.236921
0.781933 0.619907 0.236704
0.818507 0.616893 0.236487
0.849794 0.612885 0.235991
0.870509 0.606891 0.234936
0.891223 0.600896 0.233881
0.911938 0.594902 0.232826
0.932652 0.588907 0.231771
0.951239 0.582418 0.230669
0.959187 0.573456 0.229328
0.967135 0.564494 0.227988
0.975083 0.555532 0.226647
0.983030 0.546570 0.225306
0.990978 0.537608 0.223966
0.030830 0.673564 0.242663
0.053837 0.670245 0.241776
0.076845 0.666926 0.240890
0.099852 0.663607 0.240003
0.122860 0.660288 0.239117
0.145867 0.656970 0.238230
0.187820 0.655950 0.238558
0.233563 0.655390 0.239129
0.279305 0.654830 0.239700
0.325048 0.654270 0.240270
0.370790 0.653710 0.240841
0.418243 0.653197 0.241402
0.466552 0.652708 0.241957
0.514861 0.652218 0.242512
0.563170 0.651729 0.243068
0.611478 0.651240 0.243623
0.654461 0.649794 0.243768
0.692116 0.647393 0.243501
0.729772 0.644991 0.243235
0.767427 0.642589 0.242968
0.805083 0.640188 0.242702
0.837535 0.636769 0.242129
0.859578 0.631316 0.240941
0.881621 0.625863 0.239754
0.903665 0.620410 0.238566
0.925708 0.614957 0.237379
0.945549 0.608953 0.236123
0.954379 0.600194 0.234523
0.963209 0.591435 0.232923
0.972039 0.582676 0.231323
0.980868 0.573917 0.229723
0.989698 0.565158 0.228123
0.039444 0.686546 0.250066
0.060206 0.683483 0.249150
0.080968 0.680421 0.248235
0.101729 0.677358 0.247319
0.122491 0.674296 0.246404
0.143253 0.671234 0.245488
0.183118 0.670431 0.245803
0.226804 0.670080 0.246364
0.270489 0.669730 0.246926
0.314175 0.669379 0.247487
0.357861 0.669028 0.248049
0.404211 0.668902 0.248637
0.451893 0.668888 0.249240
0.499575 0.668874 0.249843
0.547257 0.668861 0.250445
0.594939 0.668847 0.251048
0.637948 0.668022 0.251243
0.676282 0.666385 0.251029
0.714617 0.664748 0.250816
0.752951 0.663111 0.250602
0.791286 0.661475 0.250389
0.824599 0.658855 0.249843
0.847868 0.654269 0.248633
0.871138 0.649683 0.247422
0.894407 0.645097 0.246212
0.917677 0.640512 0.245001
0.938706 0.635341 0.243694
0.948533 0.627247 0.241904
0.958360 0.619153 0.240114
0.968187 0.611059 0.238324
0.978014 0.602965 0.236533
0.987841 0.594871 0.234743
0.048058 0.699527 0.257470
0.066574 0.696721 0.256525
0.085090 0.693915 0.255580
0.103606 0.691110 0.254635
0.122122 0.688304 0.253690
0.140639 0.685498 0.252746
0.178415 0.684912 0.253048
0.220045 0.684771 0.253600
0.261674 0.684630 0.254152
0.303303 0.684488 0.254704
0.344932 0.684347 0.255256
0.390178 0.684607 0.255873
0.437234 0.685069 0.256523
0.484289 0.685531 0.257173
0.531345 0.685992 0.257823
0.578400 0.686454 0.258472
0.621435 0.686249 0.258717
0.660448 0.685377 0.258557
0.699462 0.684505 0.258397
0.738475 0.683633 0.258237
0.777489 0.682762 0.258076
0.811663 0.680941 0.257558
0.836159 0.677222 0.256325
0.860655 0.673503 0.255091
0.885150 0.669785 0.253857
0.909646 0.666066 0.252624
0.931863 0.661729 0.251266
0.942687 0.654300 0.249285
0.953511 0.646871 0.247305
0.964336 0.639442 0.245324
0.975160 0.632013 0.243344
0.985984 0.624584 0.241363
0.056672 0.712509 0.264873
0.072943 0.709960 0.263899
0.089213 0.707410 0.262925
0.105483 0.704861 0.261951
0.121754 0.702311 0.260977
0.138024 0.699762 0.260003
0.173713 0.699394 0.260293
0.213285 0.699462 0.260836
0.252858 0.699530 0.261378
0.292430 0.699597 0.261921
0.332002 0.699665 0.262464
0.376146 0.700313 0.263109
0.422575 0.701250 0.263806
0.469003 0.702187 0.264503
0.515432 0.703124 0.265200
0.561861 0.704061 0.265897
0.604922 0.704476 0.266192
0.644614 0.704369 0.266085
0.684307 0.704262 0.265978
0.723999 0.704155 0.265871
0.763692 0.704049 0.265763
0.798728 0.703027 0.265273
0.824449 0.700175 0.264016
0.850171 0.697323 0.262760
0.875893 0.694472 0.261503
0.901615 0.691620 0.260246
0.925020 0.688116 0.258837
0.936841 0.681352 0.256667
0.948663 0.674589 0.254496
0.960484 0.667825 0.252325
0.972305 0.661061 0.250154
0.984126 0.654297 0.247983
0.065286 0.725491 0.272276
0.079311 0.723198 0.271273
0.093336 0.720905 0.270270
0.107360 0.718612 0.269267
0.121385 0.716319 0.268264
0.135410 0.714026 0.267261
0.169010 0.713875 0.267538
0.206526 0.714152 0.268071
0.244042 0.714429 0.268605
0.281558 0.714707 0.269138
0.319073 0.714984 0.269671
0.362113 0.716018 0.270345
0.407915 0.717430 0.271089
0.453718 0.718843 0.271833
0.499520 0.720255 0.272577
0.545322 0.721667 0.273322
0.588409 0.722703 0.273667
0.628780 0.723361 0.273613
0.669152 0.724019 0.273559
0.709523 0.724678 0.273505
0.749895 0.725336 0.273451
0.785792 0.725113 0.272988
0.812740 0.723128 0.271708
0.839688 0.721144 0.270428
0.866636 0.719159 0.269149
0.893584 0.717174 0.267869
0.918177 0.714504 0.266409
0.930996 0.708405 0.264048
0.943814 0.702306 0.261687
0.956632 0.696208 0.259326
0.969451 0.690109 0.256965
0.982269 0.684010 0.254604
0.075289 0.736835 0.279352
0.087321 0.734774 0.278333
0.099353 0.732714 0.277313
0.111386 0.730653 0.276294
0.123418 0.728592 0.275275
0.135450 0.726532 0.274256
0.166986 0.726564 0.274527
0.202424 0.727015 0.275056
0.237861 0.727466 0.275586
0.273298 0.727917 0.276115
0.308736 0.728368 0.276644
0.350498 0.729722 0.277356
0.395422 0.731527 0.278160
0.440346 0.733333 0.278963
0.485270 0.735139 0.279766
0.530194 0.736944 0.280569
0.573045 0.738522 0.280991
0.613823 0.739872 0.281032
0.654600 0.741221 0.281072
0.695378 0.742571 0.281112
0.736156 0.743921 0.281153
0.772689 0.744457 0.280775
0.800733 0.743365 0.279562
0.828776 0.742273 0.278349
0.856820 0.741181 0.277136
0.884863 0.740089 0.275923
0.910540 0.738306 0.274511
0.924379 0.733066 0.272103
0.938219 0.727826 0.269696
0.952059 0.722586 0.267289
0.965898 0.717347 0.264882
0.979738 0.712107 0.262474
0.088070 0.744906 0.285771
0.098615 0.743028 0.284762
0.109161 0.741151 0.283753
0.119707 0.739274 0.282744
0.130253 0.737397 0.281735
0.140799 0.735520 0.280726
0.170320 0.735669 0.281004
0.203635 0.736222 0.281540
0.236951 0.736776 0.282076
0.270266 0.737329 0.282612
0.303582 0.737883 0.283148
0.343716 0.739424 0.283918
0.387259 0.741458 0.284804
0.430802 0.743493 0.285691
0.474345 0.745527 0.286577
0.517888 0.747562 0.287464
0.559979 0.749526 0.288015
0.600618 0.751420 0.288233
0.641256 0.753314 0.288450
0.681895 0.755208 0.288667
0.722533 0.757101 0.288885
0.759252 0.758315 0.288707
0.788130 0.758167 0.287741
0.817008 0.758020 0.286774
0.845886 0.757872 0.285807
0.874764 0.757724 0.284840
0.901314 0.756936 0.283674
0.916223 0.752943 0.281509
0.931132 0.748949 0.279343
0.946041 0.744956 0.277178
0.960950 0.740963 0.275012
0.975860 0.736970 0.272847
0.100850 0.752976 0.292190
0.109909 0.751283 0.291191
0.118969 0.749589 0.290192
0.128029 0.747896 0.289193
0.137088 0.746202 0.288194
0.146148 0.744509 0.287195
0.173653 0.744773 0.287481
0.204846 0.745430 0.288024
0.236040 0.746086 0.288567
0.267234 0.746742 0.289110
0.298428 0.747398 0.289652
0.336934 0.749126 0.290480
0.379096 0.751389 0.291449
0.421258 0.753652 0.292419
0.463421 0.755916 0.293388
0.505583 0.758179 0.294358
0.546914 0.760530 0.295040
0.587413 0.762968 0.295434
0.627912 0.765406 0.295828
0.668411 0.767844 0.296222
0.708910 0.770282 0.296617
0.745814 0.772173 0.296639
0.775526 0.772970 0.295919
0.805239 0.773767 0.295199
0.834951 0.774563 0.294478
0.864664 0.775360 0.293758
0.892087 0.775566 0.292837
0.908066 0.772820 0.290914
0.924045 0.770073 0.288990
0.940024 0.767326 0.287066
0.956002 0.764580 0.285143
0.971981 0.761833 0.283219
0.113630 0.761046 0.298609
0.121204 0.759537 0.297620
0.128777 0.758027 0.296632
0.136350 0.756517 0.295643
0.143923 0.755007 0.294654
0.151497 0.753497 0.293665
0.176986 0.753878 0.293958
0.206058 0.754637 0.294508
0.235130 0.755396 0.295057
0.264202 0.756154 0.295607
0.293274 0.756913 0.296157
0.330152 0.758827 0.297041
0.370933 0.761320 0.298094
0.411715 0.763812 0.299147
0.452496 0.766304 0.300199
0.493277 0.768796 0.301252
0.533848 0.771533 0.302064
0.574208 0.774516 0.302635
0.614568 0.777498 0.303206
0.654928 0.780481 0.303777
0.695288 0.783463 0.304349
0.732377 0.786031 0.304571
0.762923 0.787773 0.304098
0.793470 0.789514 0.303624
0.824017 0.791255 0.303150
0.854564 0.792996 0.302676
0.882861 0.794196 0.302000
0.899909 0.792696 0.300319
0.916958 0.791196 0.298637
0.934006 0.789696 0.296955
0.951054 0.788196 0.295273
0.968103 0.786696 0.293591
0.126411 0.769117 0.305029
0.132498 0.767791 0.304050
0.138585 0.766464 0.303071
0.144672 0.765138 0.302092
0.150759 0.763812 0.301113
0.156846 0.762486 0.300134
0.180319 0.762983 0.300435
0.207269 0.763844 0.300991
0.234219 0.764705 0.301548
0.261170 0.765567 0.302104
0.288120 0.766428 0.302661
0.323370 0.768529 0.303603
0.362771 0.771250 0.304739
0.402171 0.773971 0.305875
0.441571 0.776692 0.307011
0.480972 0.779413 0.308146
0.520782 0.782537 0.309088
0.561003 0.786064 0.309836
0.601224 0.789590 0.310584
0.641444 0.793117 0.311333
0.681665 0.796644 0.312081
0.718939 0.799890 0.312504
0.750320 0.802575 0.312276
0.781702 0.805260 0.312048
0.813083 0.807946 0.311821
0.844464 0.810631 0.311593
0.873635 0.812827 0.311164
0.891753 0.812573 0.309724
0.909870 0.812320 0.308284
0.927988 0.812066 0.306844
0.946106 0.811813 0.305403
0.964224 0.811560 0.303963
0.138459 0.776368 0.310865
0.143275 0.775238 0.309924
0.148092 0.774107 0.308983
0.152908 0.772976 0.308042
0.157725 0.771846 0.307101
0.162542 0.770715 0.306160
0.184097 0.771329 0.306482
0.209000 0.772292 0.307058
0.233902 0.773255 0.307633
0.258805 0.774218 0.308208
0.283708 0.775181 0.308784
0.317321 0.777444 0.309788
0.355289 0.780357 0.311007
0.393257 0.783271 0.312226
0.431226 0.786184 0.313446
0.469194 0.789098 0.314665
0.508171 0.792552 0.315733
0.548156 0.796547 0.316651
0.588142 0.800542 0.317569
0.628128 0.804537 0.318487
0.668113 0.808532 0.319405
0.705486 0.812374 0.320022
0.737633 0.815911 0.320038
0.769780 0.819448 0.320053
0.801927 0.822985 0.320069
0.834075 0.826522 0.320085
0.864057 0.829624 0.319902
0.883215 0.830554 0.318728
0.902373 0.831484 0.317555
0.921531 0.832414 0.316382
0.940689 0.833344 0.315208
0.959847 0.834274 0.314035
0.146845 0.779526 0.313790
0.151471 0.778650 0.313025
0.156097 0.777774 0.312260
0.160722 0.776898 0.311494
0.165348 0.776023 0.310729
0.169974 0.775147 0.309964
0.190100 0.775883 0.310382
0.213327 0.776943 0.311037
0.236554 0.778002 0.311692
0.259781 0.779061 0.312347
0.283008 0.780120 0.313001
0.314936 0.782422 0.314089
0.351215 0.785346 0.315393
0.387494 0.788270 0.316697
0.423774 0.791193 0.318001
0.460053 0.794117 0.319305
0.497828 0.797621 0.320482
0.537101 0.801705 0.321534
0.576373 0.805789 0.322586
0.615645 0.809874 0.323638
0.654918 0.813958 0.324690
0.691956 0.817989 0.325472
0.724526 0.821913 0.325715
