Assets/1__3DArt/KimSe/artstation_asset/LUTs_pasterls/CUBE/Candylandia 04 S.cube
# Enhanced with VOXCOLOR algorithms
LUT_3D_SIZE 8
DOMAIN_MIN 0.000000 0.000000 0.000000
DOMAIN_MAX 0.903226 0.903226 0.903226
0.152941 0.258824 0.188235
0.439083 0.271405 0.192310
0.664302 0.285205 0.202250
0.826308 0.297998 0.214395
0.926751 0.308067 0.225565
0.969899 0.313849 0.231991
0.985900 0.316445 0.233547
0.991338 0.317470 0.232790
0.070749 0.390865 0.187654
0.309196 0.376431 0.181960
0.523875 0.366092 0.178643
0.697211 0.356192 0.177076
0.819126 0.344839 0.177226
0.890340 0.335534 0.181841
0.938626 0.332769 0.193286
0.973513 0.333811 0.209697
0.029650 0.505112 0.197694
0.212261 0.478833 0.186256
0.404716 0.455794 0.173564
0.581021 0.433875 0.161733
0.723147 0.412441 0.153285
0.824012 0.396505 0.155008
0.901229 0.389384 0.170461
0.959609 0.385749 0.195332
0.018991 0.599656 0.216510
0.147933 0.572188 0.202707
0.313195 0.546319 0.185332
0.486135 0.522209 0.168155
0.644533 0.500607 0.155075
0.772438 0.485773 0.154314
0.873425 0.477508 0.169191
0.949072 0.468925 0.194207
0.030459 0.673749 0.241919
0.115216 0.651583 0.228501
0.253282 0.630706 0.211477
0.417962 0.612667 0.194677
0.586384 0.598800 0.181860
0.735291 0.591512 0.180154
0.853695 0.586707 0.191300
0.940694 0.576524 0.209418
0.064320 0.725974 0.270343
0.117185 0.711342 0.259680
0.229587 0.699637 0.247914
0.380071 0.692246 0.237278
0.548315 0.690054 0.229880
0.707921 0.693778 0.229647
0.836313 0.697236 0.236182
0.930231 0.692596 0.244433
0.112069 0.761827 0.295486
0.141939 0.753360 0.288361
0.229206 0.749232 0.282836
0.359224 0.750248 0.279394
0.516428 0.756767 0.278411
0.676585 0.768925 0.280705
0.810372 0.781066 0.284764
0.911045 0.786657 0.287508
0.154168 0.783216 0.314585
0.172343 0.780108 0.311327
0.237874 0.781429 0.310958
0.344391 0.787622 0.313029
0.483123 0.798850 0.316963
0.636813 0.815467 0.321687
0.773762 0.833743 0.325553
0.881813 0.848956 0.327506
0.177316 0.320549 0.332416
0.439034 0.309566 0.332069
0.650598 0.304744 0.333269
0.805985 0.303420 0.334735
0.904169 0.303850 0.335521
0.950078 0.307150 0.335169
0.973356 0.314465 0.334702
0.986152 0.322275 0.333922
0.089305 0.441296 0.311105
0.308885 0.402266 0.297638
0.505561 0.371348 0.286359
0.665632 0.346765 0.277485
0.781770 0.327745 0.271528
0.856668 0.318299 0.271261
0.914866 0.320578 0.278619
0.962423 0.330236 0.291925
0.041351 0.542688 0.297963
0.210798 0.494800 0.278913
0.386498 0.452860 0.260840
0.548383 0.417471 0.245521
0.682811 0.389586 0.234816
0.785663 0.374023 0.233388
0.872233 0.371242 0.243286
0.945558 0.375934 0.261880
0.024043 0.625008 0.293192
0.144738 0.580982 0.273586
0.296967 0.539822 0.253614
0.457166 0.504283 0.235956
0.607115 0.476697 0.223175
0.734451 0.461254 0.220355
0.842914 0.455702 0.228951
0.934123 0.453888 0.245780
0.029787 0.689108 0.296363
0.109781 0.655905 0.279146
0.238601 0.623928 0.261334
0.393015 0.596671 0.245410
0.553151 0.576755 0.233639
0.699561 0.566923 0.230065
0.823752 0.562537 0.234985
0.926293 0.556953 0.245045
0.058210 0.734465 0.306056
0.108084 0.713582 0.292986
0.213816 0.694799 0.280746
0.356433 0.680666 0.270498
0.517910 0.672916 0.263224
0.675339 0.672747 0.260590
0.809217 0.674554 0.261537
0.918200 0.671973 0.263418
0.100928 0.765575 0.316882
0.128752 0.754357 0.308413
0.211209 0.746624 0.302480
0.335778 0.743806 0.298945
0.488816 0.746752 0.297503
0.648890 0.755930 0.297463
0.788712 0.766243 0.296900
0.902910 0.772168 0.294679
0.140919 0.784231 0.325596
0.157855 0.780478 0.321776
0.220072 0.780551 0.321226
0.323057 0.785298 0.323316
0.459681 0.795231 0.327197
0.614981 0.811105 0.330940
0.758091 0.829401 0.332231
0.877015 0.845419 0.331074
0.213400 0.390834 0.487028
0.443429 0.359212 0.483772
0.640036 0.335703 0.479038
0.791099 0.319663 0.473284
0.890537 0.310762 0.467109
0.940072 0.311377 0.462001
0.967517 0.320451 0.459543
0.983853 0.331377 0.458066
0.126442 0.501716 0.454785
0.319820 0.446391 0.437468
0.499052 0.398242 0.420690
0.649953 0.359080 0.405857
0.764192 0.330655 0.394395
0.842359 0.318262 0.389639
0.905225 0.321549 0.393213
0.958084 0.334440 0.403063
0.072050 0.592125 0.426501
0.222784 0.531476 0.403457
0.382937 0.474864 0.381255
0.534503 0.426423 0.362089
0.664899 0.389619 0.347981
0.769253 0.370483 0.342914
0.859776 0.367617 0.347979
0.939645 0.375034 0.360882
0.046346 0.663424 0.403431
0.155003 0.609736 0.380293
0.294938 0.556958 0.357807
0.445351 0.510506 0.338398
0.589871 0.474658 0.324176
0.716648 0.454715 0.318746
0.828127 0.447757 0.322395
0.927027 0.447873 0.332783
0.045535 0.717309 0.386264
0.117517 0.677363 0.366357
0.236466 0.636849 0.347335
0.381811 0.600883 0.331073
0.535685 0.573354 0.319121
0.680102 0.558005 0.313856
0.806937 0.550863 0.314707
0.918480 0.546365 0.319550
0.069256 0.753948 0.375280
0.112632 0.729017 0.360330
0.209498 0.704541 0.347340
0.343510 0.683957 0.337038
0.498742 0.669756 0.329878
0.654349 0.663952 0.326304
0.791708 0.662296 0.324842
0.910974 0.659875 0.324138
0.106177 0.778003 0.367602
0.128765 0.764769 0.357613
0.203434 0.753765 0.350817
0.320414 0.746964 0.347042
0.468308 0.745711 0.345825
0.628122 0.751080 0.345800
0.772995 0.758972 0.344537
0.898056 0.764767 0.341683
0.140747 0.791627 0.361068
0.153610 0.786966 0.355443
0.209465 0.785393 0.353583
0.306340 0.788255 0.355190
0.439265 0.796531 0.359574
0.596024 0.811704 0.364610
0.745654 0.830571 0.366887
0.875234 0.848065 0.366191
0.249861 0.461372 0.635063
0.448174 0.413551 0.630838
0.631123 0.373103 0.623096
0.780245 0.342952 0.613609
0.883791 0.325123 0.604003
0.937834 0.322399 0.596472
0.967173 0.330323 0.592398
0.984105 0.340882 0.589704
0.174227 0.564032 0.599867
0.339337 0.499908 0.582597
0.502925 0.439112 0.563782
0.648062 0.387378 0.545872
0.763353 0.349334 0.531109
0.844398 0.331764 0.523249
0.907548 0.332192 0.523515
0.959457 0.343176 0.529446
0.118107 0.645676 0.564773
0.247676 0.580225 0.541733
0.393656 0.514352 0.518178
0.537869 0.455323 0.496852
0.666760 0.409052 0.480163
0.771957 0.383308 0.471993
0.861670 0.376091 0.472872
0.940663 0.380771 0.480300
0.085859 0.708150 0.531086
0.180180 0.651562 0.507546
0.308161 0.592063 0.484176
0.450470 0.536996 0.463491
0.591278 0.492268 0.447593
0.717002 0.464719 0.439553
0.827332 0.452283 0.439115
0.926711 0.449423 0.444065
0.079622 0.753519 0.499789
0.141232 0.711569 0.479198
0.249316 0.666131 0.459564
0.385649 0.623209 0.442638
0.533860 0.587566 0.429782
0.675892 0.564143 0.422734
0.802135 0.550920 0.420624
0.916411 0.543657 0.421803
0.100235 0.782246 0.471852
0.134619 0.755885 0.456049
0.220431 0.727722 0.442308
0.344220 0.701578 0.431402
0.492221 0.680427 0.423763
0.645040 0.667182 0.419511
0.783319 0.659816 0.417102
0.907848 0.655038 0.415668
0.132064 0.799299 0.447007
0.147263 0.785030 0.435617
0.211381 0.771338 0.427426
0.317890 0.760495 0.422675
0.458032 0.754217 0.421187
0.615587 0.754314 0.421752
0.763314 0.758291 0.421611
0.895593 0.762537 0.420288
0.159946 0.807375 0.424941
0.166808 0.801674 0.416657
0.213398 0.798073 0.412310
0.300752 0.798322 0.412306
0.426543 0.803840 0.416489
0.582216 0.816962 0.423306
0.736668 0.835195 0.428360
0.874781 0.853216 0.430247
0.278011 0.525135 0.762696
0.449934 0.466578 0.759536
0.622329 0.412414 0.751551
0.771725 0.369763 0.741536
0.881458 0.343450 0.731771
0.940840 0.336414 0.724168
0.970724 0.340625 0.719148
0.986321 0.347883 0.715021
0.225376 0.621362 0.730523
0.364389 0.554930 0.716837
0.515023 0.486846 0.699915
0.657080 0.425976 0.682739
0.775462 0.379339 0.667921
0.859070 0.354988 0.659019
0.919172 0.349150 0.656656
0.965265 0.353727 0.658321
0.175270 0.696630 0.696482
0.283909 0.633145 0.677408
0.417242 0.564073 0.656252
0.556057 0.498474 0.635943
0.684942 0.443849 0.619027
0.790259 0.409479 0.609159
0.875257 0.394122 0.606556
0.947223 0.391126 0.608625
0.141144 0.753074 0.661064
0.220312 0.699769 0.640689
0.336498 0.639166 0.619219
0.471376 0.579199 0.599195
0.609100 0.526533 0.582748
0.732932 0.489285 0.572731
0.838443 0.467688 0.568852
0.931984 0.457219 0.568946
0.132017 0.792927 0.624727
0.181997 0.753706 0.606059
0.278214 0.707660 0.587325
0.404851 0.660620 0.570351
0.546925 0.617524 0.556580
0.685508 0.584214 0.547703
0.808003 0.561778 0.543081
0.919179 0.547850 0.541253
0.151466 0.816531 0.587897
0.175629 0.791512 0.572692
0.248638 0.762162 0.558622
0.360239 0.732003 0.546789
0.499039 0.704032 0.537924
0.647129 0.681844 0.532518
0.783402 0.666396 0.529356
0.908099 0.656372 0.527572
0.180056 0.828617 0.551854
0.186947 0.814461 0.539557
0.238396 0.798961 0.529642
0.331405 0.784282 0.522998
0.460215 0.772260 0.520039
0.612166 0.765354 0.520422
0.759585 0.763304 0.521485
0.894676 0.763833 0.522047
0.201992 0.832307 0.518129
0.202017 0.825629 0.506908
0.237041 0.819778 0.499172
0.311268 0.816640 0.496195
0.425356 0.817890 0.498608
0.575526 0.826594 0.506156
0.731324 0.841548 0.514064
0.874191 0.857759 0.519218
0.291545 0.573551 0.854045
0.445315 0.510781 0.853291
0.610892 0.448050 0.847076
0.761969 0.395844 0.838772
0.878621 0.361460 0.830959
0.944047 0.348868 0.825014
0.974756 0.348005 0.820222
0.988938 0.350763 0.815512
0.270708 0.665539 0.828077
0.389466 0.602255 0.820365
0.530608 0.532970 0.808866
0.671505 0.467788 0.796298
0.793961 0.414826 0.784969
0.880075 0.382974 0.777510
0.935641 0.368613 0.773810
0.973398 0.363959 0.771901
0.236351 0.736929 0.800907
0.327323 0.680543 0.788976
0.450075 0.614737 0.774326
0.584690 0.548203 0.759299
0.714091 0.488436 0.745944
0.818955 0.445139 0.736993
0.896796 0.419053 0.732427
0.957486 0.404743 0.730195
0.207774 0.790268 0.772050
0.273329 0.745069 0.758278
0.378448 0.689521 0.742583
0.506071 0.630219 0.726967
0.640469 0.573093 0.713146
0.761406 0.526214 0.703358
0.859221 0.492961 0.697531
0.941624 0.471014 0.694025
0.199078 0.828045 0.741128
0.238658 0.795581 0.727442
0.323226 0.754057 0.712625
0.439649 0.707666 0.698236
0.574546 0.660327 0.685569
0.708132 0.617487 0.676187
0.823798 0.583698 0.670021
0.926127 0.559395 0.666015
0.218354 0.850684 0.707439
0.233989 0.829659 0.695066
0.294546 0.802565 0.682562
0.393035 0.771631 0.671102
0.520606 0.739046 0.661598
0.661321 0.708044 0.655020
0.792082 0.682630 0.650946
0.911188 0.664119 0.648560
0.246681 0.862197 0.672002
0.247034 0.849570 0.660392
0.286065 0.834033 0.649812
0.363974 0.816958 0.641487
0.477989 0.799724 0.636276
0.619828 0.784687 0.634917
0.762363 0.774086 0.635702
0.894383 0.767759 0.636957
0.266881 0.865431 0.636918
0.261697 0.858434 0.624163
0.285201 0.850935 0.613698
0.344072 0.844346 0.607253
0.441703 0.840086 0.606046
0.579816 0.841192 0.611349
0.730690 0.848388 0.619483
0.871803 0.858467 0.626288
0.295238 0.605764 0.911937
0.435818 0.543508 0.913614
0.596158 0.476733 0.909453
0.748526 0.417794 0.902984
0.871064 0.375780 0.896930
0.942663 0.357242 0.892853
0.975732 0.352192 0.889453
0.989994 0.351751 0.885745
0.304552 0.695621 0.892265
0.407954 0.637272 0.889931
0.541304 0.569795 0.883999
0.680878 0.503188 0.876625
0.806653 0.445775 0.869617
0.895714 0.407344 0.864792
0.948617 0.385500 0.861522
0.979911 0.372926 0.858381
0.290368 0.765045 0.872818
0.367221 0.716079 0.867575
0.480508 0.655802 0.859989
0.610606 0.591450 0.851541
0.739760 0.529611 0.843537
0.844557 0.479637 0.837623
0.916743 0.444286 0.833512
0.967049 0.419620 0.829844
0.272142 0.816819 0.852677
0.326660 0.779606 0.845571
0.421623 0.731140 0.836822
0.541808 0.675884 0.827586
0.672246 0.618253 0.818882
0.790469 0.565130 0.812038
0.881291 0.522136 0.807017
0.951758 0.489123 0.802810
0.265197 0.853697 0.831074
0.297317 0.828036 0.823024
0.371954 0.793086 0.813834
0.478820 0.750890 0.804430
0.606437 0.703742 0.795626
0.735022 0.655466 0.788495
0.843563 0.612490 0.783274
0.934411 0.577633 0.779361
0.282019 0.876826 0.806944
0.292891 0.860174 0.798567
0.344067 0.837358 0.789637
0.431461 0.808970 0.780944
0.548617 0.775916 0.773178
0.681807 0.739920 0.767324
0.805755 0.706324 0.763629
0.915278 0.678629 0.761561
0.309791 0.890201 0.780505
0.307284 0.879783 0.771396
0.337544 0.866038 0.762449
0.403073 0.849201 0.754623
0.503452 0.829750 0.748714
0.634354 0.808883 0.745905
0.769502 0.790118 0.745775
0.893646 0.775479 0.746977
0.330830 0.895969 0.753011
0.324364 0.889860 0.741771
0.340356 0.882473 0.731541
0.386692 0.874289 0.723760
0.468532 0.865975 0.719623
0.592130 0.859418 0.721067
0.733691 0.856777 0.726498
0.867464 0.857667 0.732495
0.295228 0.625858 0.946047
0.424747 0.567025 0.950016
0.580022 0.499236 0.947936
0.732756 0.435782 0.943285
0.860002 0.387093 0.938873
0.937678 0.363167 0.936906
0.974214 0.355198 0.935829
0.989636 0.352774 0.934292
0.328648 0.715572 0.933144
0.419289 0.661924 0.934490
0.545015 0.596752 0.932678
0.682096 0.529554 0.929350
0.809821 0.468644 0.925920
0.902331 0.425116 0.923889
0.955411 0.398157 0.922388
0.983524 0.380298 0.920154
0.334159 0.784767 0.921249
0.398940 0.741226 0.920431
0.502808 0.685526 0.917999
0.627288 0.623522 0.914750
0.754933 0.560934 0.911421
0.860456 0.506985 0.909023
0.930343 0.465879 0.907101
0.973715 0.434105 0.904568
0.327798 0.836000 0.909300
0.372820 0.804233 0.906760
0.457927 0.761449 0.903328
0.570163 0.710396 0.899504
0.695947 0.654226 0.895761
0.812464 0.598805 0.892846
0.899254 0.550559 0.890637
0.959893 0.509756 0.888309
0.323242 0.872020 0.896445
0.349623 0.851056 0.892580
0.415530 0.821679 0.888160
0.513556 0.784377 0.883591
0.634352 0.740179 0.879264
0.759295 0.691428 0.875868
0.862697 0.644345 0.873632
0.941906 0.601842 0.872064
0.335064 0.894770 0.881844
0.343357 0.881344 0.876949
0.387685 0.862723 0.871768
0.466547 0.838394 0.866677
0.575660 0.808267 0.862050
0.703505 0.772542 0.858643
0.821592 0.735621 0.856936
0.919180 0.700953 0.856677
0.358421 0.909029 0.865323
0.355167 0.900565 0.859390
0.380017 0.889356 0.853386
0.437205 0.874818 0.847844
0.528060 0.856653 0.843266
0.651087 0.834637 0.840625
0.779259 0.811549 0.840280
0.892388 0.790024 0.841779
0.377024 0.916601 0.847019
0.371811 0.912070 0.839720
0.384199 0.906208 0.832383
0.422658 0.898725 0.825981
0.493382 0.889539 0.821388
0.605505 0.878941 0.820163
0.737957 0.868996 0.822325
0.862255 0.861429 0.826495
