Assets/1__3DArt/KimSe/artstation_asset/LUTs_pasterls/CUBE/Candylandia 01 S.cube
# Enhanced with VOXCOLOR algorithms
LUT_3D_SIZE 8
DOMAIN_MIN 0.000000 0.000000 0.000000
DOMAIN_MAX 0.903226 0.903226 0.903226
0.156863 0.219608 0.105882
0.433101 0.206755 0.059747
0.621612 0.199249 0.033749
0.740184 0.197220 0.022519
0.805838 0.199993 0.021002
0.832464 0.204273 0.024015
0.843366 0.204711 0.025725
0.848623 0.201003 0.025190
0.094725 0.365084 0.137342
0.321571 0.346002 0.090397
0.507162 0.326693 0.056075
0.646412 0.306765 0.034197
0.738771 0.286675 0.023849
0.790549 0.270595 0.023215
0.824391 0.259791 0.025611
0.845739 0.249765 0.027841
0.072859 0.483530 0.159604
0.244047 0.464027 0.117490
0.412036 0.441323 0.079410
0.559568 0.415676 0.049615
0.675210 0.388450 0.031020
0.755202 0.366091 0.025914
0.812852 0.351155 0.028619
0.850326 0.336788 0.034032
0.083143 0.575624 0.171615
0.200200 0.559339 0.137845
0.342170 0.539875 0.100416
0.487933 0.518237 0.066389
0.620899 0.496071 0.041402
0.727645 0.478686 0.031595
0.807475 0.466518 0.033922
0.859856 0.451684 0.042262
0.117736 0.643127 0.173126
0.188308 0.631727 0.149286
0.301088 0.620070 0.116496
0.437141 0.609286 0.082460
0.579442 0.600499 0.053891
0.707726 0.596100 0.039699
0.806198 0.592747 0.040737
0.871462 0.582443 0.051167
0.169932 0.687675 0.164489
0.207288 0.680571 0.149992
0.291932 0.677610 0.124973
0.411157 0.679427 0.095418
0.551484 0.686179 0.067126
0.691452 0.697381 0.049658
0.803227 0.706254 0.048225
0.879325 0.705488 0.059116
0.223577 0.717526 0.152346
0.240272 0.713164 0.144452
0.300553 0.715536 0.127213
0.398877 0.725152 0.104037
0.527222 0.741819 0.078828
0.668753 0.764018 0.059868
0.789730 0.783482 0.055544
0.876789 0.793550 0.065290
0.265868 0.734606 0.142599
0.272971 0.732968 0.137955
0.314358 0.738001 0.126646
0.391192 0.750702 0.109624
0.501495 0.771330 0.088746
0.637058 0.799243 0.069964
0.764383 0.826604 0.063085
0.863220 0.846805 0.070664
0.162511 0.242093 0.283031
0.425805 0.227400 0.224727
0.609755 0.216429 0.181328
0.728121 0.209852 0.151751
0.795075 0.207878 0.134125
0.824682 0.210077 0.124848
0.840159 0.212759 0.116629
0.848546 0.212681 0.108323
0.112039 0.389902 0.280938
0.323122 0.355526 0.224672
0.494694 0.324295 0.181291
0.624747 0.297224 0.151276
0.714800 0.275414 0.133931
0.772294 0.262347 0.126298
0.815675 0.256898 0.119457
0.846351 0.253853 0.109792
0.097223 0.507828 0.273961
0.252732 0.468443 0.225427
0.403488 0.430270 0.184865
0.537655 0.395528 0.154823
0.647709 0.366376 0.136464
0.732364 0.347620 0.128969
0.801041 0.338114 0.124066
0.852404 0.331366 0.116640
0.111430 0.597709 0.261915
0.214583 0.562750 0.223955
0.339789 0.527758 0.188391
0.470976 0.495863 0.159387
0.595504 0.469744 0.139801
0.703793 0.453567 0.131520
0.793979 0.444680 0.128691
0.863349 0.436054 0.125698
0.147952 0.662209 0.244964
0.207069 0.636483 0.218022
0.305154 0.611505 0.188946
0.426906 0.590280 0.162422
0.558547 0.575052 0.142229
0.684708 0.568059 0.132747
0.791801 0.564567 0.131765
0.875752 0.557727 0.134120
0.200124 0.703298 0.223669
0.228357 0.687188 0.205951
0.300672 0.674600 0.183747
0.406763 0.667474 0.161007
0.535652 0.666907 0.141390
0.670999 0.672930 0.130803
0.789370 0.678899 0.131012
0.883710 0.678635 0.138130
0.251741 0.729747 0.202188
0.261600 0.720689 0.190717
0.312014 0.717263 0.174167
0.399162 0.720780 0.155243
0.516980 0.731716 0.136892
0.653137 0.749256 0.125345
0.778583 0.765753 0.125525
0.880784 0.775175 0.135342
0.290572 0.744566 0.183942
0.293449 0.740830 0.175968
0.327710 0.742875 0.163500
0.395803 0.752148 0.147773
0.497273 0.769375 0.130648
0.627465 0.794767 0.117540
0.756810 0.821202 0.115639
0.865458 0.841924 0.125462
0.190039 0.289863 0.454511
0.428992 0.270891 0.394892
0.604546 0.256294 0.345178
0.723214 0.246253 0.306458
0.793447 0.240812 0.278735
0.826276 0.240600 0.260201
0.844398 0.242904 0.244499
0.854210 0.243379 0.230459
0.149305 0.433188 0.439904
0.336977 0.390240 0.382817
0.494313 0.351044 0.334765
0.617830 0.317907 0.297782
0.707431 0.292760 0.272501
0.768625 0.279302 0.257138
0.816861 0.275246 0.243063
0.852620 0.274790 0.226161
0.140308 0.546267 0.418790
0.275666 0.496513 0.368916
0.410225 0.448358 0.325439
0.533717 0.405917 0.291393
0.639426 0.372531 0.268334
0.725879 0.353003 0.255565
0.799868 0.344555 0.244570
0.859459 0.340702 0.229877
0.157167 0.631165 0.392259
0.244379 0.586152 0.352016
0.353847 0.540984 0.315007
0.472219 0.500566 0.284911
0.588849 0.468740 0.264088
0.695834 0.449850 0.253479
0.790681 0.440283 0.246419
0.870686 0.433659 0.237215
0.193785 0.690714 0.361475
0.241055 0.656898 0.331327
0.325094 0.622906 0.301674
0.433321 0.593077 0.276234
0.554303 0.570630 0.257793
0.675897 0.558348 0.249052
0.786439 0.551811 0.246264
0.882488 0.545419 0.244211
0.243398 0.726948 0.327737
0.263142 0.705615 0.306152
0.323661 0.686211 0.283250
0.416836 0.671545 0.262339
0.533869 0.663459 0.246270
0.662395 0.662791 0.239259
0.782884 0.664222 0.240596
0.889335 0.662977 0.245664
0.290705 0.749024 0.294887
0.294787 0.737132 0.279062
0.335875 0.729287 0.260930
0.411787 0.727354 0.243279
0.518282 0.732363 0.228833
0.646892 0.744365 0.222815
0.773190 0.757127 0.227002
0.885905 0.765487 0.237399
0.324946 0.760712 0.265605
0.324094 0.755483 0.252922
0.351458 0.754926 0.237680
0.410574 0.760888 0.221794
0.502332 0.774555 0.207492
0.625282 0.797133 0.200262
0.754182 0.822584 0.204363
0.870350 0.843988 0.217365
0.232457 0.355485 0.603771
0.441799 0.332432 0.550725
0.606481 0.315334 0.503657
0.725027 0.303456 0.464251
0.799267 0.296149 0.433265
0.835279 0.293704 0.410254
0.854481 0.293709 0.390806
0.864266 0.292178 0.373886
0.201078 0.488188 0.591301
0.362465 0.442513 0.539830
0.506068 0.400050 0.492512
0.624678 0.363746 0.452637
0.714680 0.335984 0.422138
0.777594 0.320603 0.401109
0.826443 0.314952 0.382778
0.863082 0.313173 0.362951
0.197491 0.592599 0.568659
0.311579 0.540378 0.522300
0.431532 0.488376 0.478427
0.546408 0.441741 0.441092
0.648442 0.404584 0.412905
0.733998 0.382066 0.394709
0.807915 0.371265 0.379529
0.869824 0.365966 0.361909
0.216349 0.670404 0.537919
0.287672 0.622888 0.498817
0.382996 0.573562 0.460825
0.490181 0.528166 0.428076
0.599269 0.491207 0.403435
0.702292 0.467498 0.388639
0.796291 0.454054 0.377985
0.880144 0.445432 0.365945
0.252035 0.724065 0.501094
0.288176 0.687981 0.470092
0.359350 0.649865 0.439187
0.455002 0.614527 0.412115
0.565354 0.585658 0.391690
0.680085 0.566626 0.380634
0.789019 0.554610 0.375324
0.890167 0.545593 0.370674
0.297677 0.755286 0.459975
0.309983 0.732348 0.436259
0.359550 0.709319 0.411903
0.440215 0.689256 0.390228
0.545053 0.674358 0.373986
0.664710 0.666189 0.366933
0.782937 0.661603 0.367387
0.895009 0.657539 0.370427
0.339380 0.773054 0.418866
0.338763 0.760158 0.399962
0.371157 0.749504 0.379920
0.435875 0.743142 0.361832
0.530327 0.742421 0.348495
0.649345 0.748176 0.344685
0.772812 0.756170 0.350191
0.890727 0.762401 0.359834
0.368359 0.781546 0.380639
0.364342 0.775512 0.363822
0.385098 0.772895 0.345758
0.435021 0.775751 0.329011
0.516155 0.785596 0.316195
0.629902 0.804512 0.312947
0.755429 0.827877 0.321043
0.875436 0.848920 0.335539
0.283685 0.431635 0.718884
0.463008 0.406665 0.677290
0.615367 0.389053 0.639359
0.732519 0.377230 0.606318
0.810362 0.369754 0.578816
0.849277 0.365669 0.556926
0.868461 0.362292 0.538080
0.877177 0.357006 0.521520
0.262188 0.548526 0.716879
0.398248 0.505051 0.675377
0.529097 0.464344 0.634450
0.643471 0.429007 0.597537
0.733844 0.401115 0.567031
0.796637 0.383888 0.544355
0.842516 0.374722 0.525277
0.876171 0.368507 0.506254
0.264107 0.641101 0.702123
0.358544 0.592698 0.663573
0.465861 0.543181 0.623838
0.573585 0.497362 0.587273
0.672126 0.459140 0.557069
0.754390 0.433378 0.535536
0.823442 0.417935 0.518361
0.881874 0.407578 0.500974
0.284782 0.710348 0.676909
0.342008 0.666621 0.643222
0.425241 0.619393 0.607580
0.522749 0.573902 0.574337
0.624527 0.534388 0.546816
0.721247 0.505552 0.527927
0.809322 0.486040 0.514301
0.890165 0.471977 0.501383
0.319199 0.758008 0.643449
0.345894 0.724783 0.615597
0.405871 0.687672 0.585684
0.490100 0.650896 0.557540
0.589950 0.617854 0.534229
0.695792 0.591977 0.519124
0.798354 0.572791 0.510268
0.897481 0.558345 0.503507
0.360500 0.785041 0.603297
0.366792 0.763753 0.580882
0.406582 0.740460 0.556644
0.475392 0.717752 0.533916
0.567874 0.697657 0.515518
0.676850 0.682036 0.505262
0.788643 0.670345 0.502204
0.899702 0.661537 0.502192
0.396301 0.799438 0.560913
0.392087 0.787226 0.541757
0.416556 0.775510 0.521174
0.470294 0.766079 0.502305
0.552145 0.760269 0.487938
0.659709 0.759395 0.482521
0.776679 0.761522 0.485502
0.894000 0.764122 0.491972
0.419920 0.805400 0.519566
0.413366 0.799285 0.500823
0.427899 0.795273 0.481306
0.468498 0.795339 0.463851
0.538137 0.801087 0.451185
0.640694 0.815126 0.448728
0.759547 0.834495 0.456774
0.878572 0.853162 0.469314
0.338930 0.508576 0.789837
0.491030 0.485032 0.760350
0.629720 0.469167 0.733892
0.742786 0.459047 0.710864
0.822248 0.452774 0.691362
0.863486 0.448120 0.675146
0.882497 0.441991 0.660597
0.890197 0.433379 0.647343
0.326999 0.605965 0.797919
0.441729 0.569040 0.768077
0.560884 0.535154 0.737876
0.670498 0.505630 0.709672
0.760123 0.481445 0.685204
0.821206 0.464161 0.665853
0.861693 0.451332 0.649482
0.889385 0.439523 0.633900
0.334160 0.684491 0.794307
0.413172 0.644860 0.766555
0.510243 0.604203 0.736266
0.611741 0.565526 0.706735
0.706496 0.531294 0.680554
0.783552 0.504630 0.660149
0.843892 0.484291 0.643782
0.893371 0.467073 0.628663
0.356616 0.744414 0.780702
0.403592 0.709355 0.756493
0.477603 0.670610 0.728656
0.567142 0.631479 0.700647
0.661945 0.594717 0.675298
0.750533 0.563442 0.655647
0.828145 0.537857 0.640901
0.898833 0.516479 0.628396
0.390115 0.786641 0.758769
0.410501 0.760274 0.738634
0.462004 0.729516 0.714714
0.536694 0.696875 0.690099
0.626678 0.664474 0.667450
0.722048 0.634505 0.650109
0.813612 0.608450 0.638389
0.902891 0.586898 0.630010
0.428062 0.811178 0.729271
0.430583 0.794110 0.712567
0.462700 0.774170 0.692662
0.521159 0.752743 0.672185
0.601752 0.731008 0.653500
0.698563 0.710120 0.640053
0.799569 0.691590 0.632698
0.902038 0.676615 0.629207
0.459379 0.824199 0.695827
0.452972 0.814068 0.680569
0.470879 0.803290 0.663072
0.514494 0.792913 0.645768
0.583681 0.783799 0.630895
0.678040 0.777012 0.622112
0.784311 0.772599 0.619979
0.893903 0.769859 0.621457
0.478937 0.829430 0.661424
0.470745 0.823986 0.644977
0.479844 0.819497 0.627556
0.511359 0.817436 0.611477
0.568811 0.819098 0.598968
0.657903 0.826865 0.594370
0.765729 0.839440 0.597867
0.876859 0.852493 0.604581
0.392626 0.575284 0.830819
0.520913 0.554934 0.810535
0.645123 0.541756 0.793164
0.751485 0.533774 0.778522
0.830097 0.529003 0.766267
0.872924 0.524727 0.755735
0.892369 0.517837 0.745692
0.899976 0.508251 0.736138
0.388633 0.653998 0.843145
0.485601 0.624793 0.823124
0.593016 0.599175 0.803103
0.696114 0.577189 0.784249
0.783126 0.558696 0.767415
0.842021 0.543561 0.753276
0.877603 0.529432 0.740776
0.899388 0.514511 0.728942
0.400050 0.718893 0.846848
0.466967 0.688719 0.828922
0.554576 0.658674 0.808898
0.649275 0.629857 0.788664
0.739345 0.603110 0.769765
0.811017 0.579355 0.753782
0.862562 0.557554 0.740310
0.901495 0.536397 0.728119
0.423942 0.769812 0.842982
0.463542 0.743752 0.828020
0.529847 0.715338 0.809750
0.612043 0.685860 0.790250
0.700031 0.656383 0.771324
0.780601 0.627833 0.755102
0.846893 0.600652 0.742072
0.903958 0.575181 0.731190
0.456847 0.807095 0.832610
0.473259 0.787709 0.820635
0.518287 0.765038 0.805033
0.585018 0.739902 0.787673
0.666210 0.713009 0.770279
0.751438 0.684707 0.755238
0.830355 0.656680 0.743937
0.904676 0.631062 0.735674
0.492769 0.830107 0.816075
0.493219 0.817343 0.806125
0.519680 0.802183 0.793060
0.569739 0.784879 0.778392
0.639943 0.765672 0.763601
0.724875 0.744475 0.751090
0.812762 0.723128 0.742631
0.900571 0.704087 0.737630
0.521605 0.843122 0.795813
0.514171 0.835231 0.786200
0.527212 0.826452 0.774398
0.562451 0.817079 0.761745
0.620278 0.807378 0.749578
0.701292 0.797640 0.740314
0.793983 0.788678 0.735311
0.889518 0.781159 0.733358
0.538682 0.848998 0.773734
0.530130 0.844625 0.762546
0.535317 0.840484 0.750315
0.559097 0.837373 0.738383
0.605098 0.836042 0.728101
0.679881 0.838020 0.722229
0.773368 0.843077 0.721294
0.870534 0.848948 0.722405
0.441172 0.629170 0.855163
0.549248 0.612228 0.841566
0.659340 0.601974 0.830813
0.757770 0.596376 0.822327
0.834090 0.593411 0.815464
0.878049 0.590260 0.809243
0.898264 0.583998 0.802690
0.906115 0.574802 0.796065
0.444775 0.692921 0.868452
0.526179 0.670181 0.855669
0.621363 0.651618 0.843397
0.716219 0.636392 0.831977
0.798969 0.623606 0.821614
0.855796 0.612056 0.812345
0.888160 0.599391 0.803560
0.905558 0.584629 0.794981
0.459922 0.746221 0.875895
0.516011 0.723469 0.865216
0.593565 0.702201 0.853257
0.680068 0.682318 0.840899
0.764259 0.663630 0.828874
0.831189 0.645707 0.817913
0.876005 0.627171 0.807985
0.905544 0.607246 0.798701
0.484801 0.789017 0.878210
0.517738 0.769736 0.870058
0.576135 0.749847 0.859530
0.650448 0.729527 0.847693
0.731335 0.708870 0.835506
0.805003 0.687597 0.824111
0.861655 0.665366 0.814158
0.904714 0.642337 0.805433
0.516982 0.821544 0.876136
0.529853 0.807229 0.870206
0.568839 0.791342 0.861577
0.628175 0.773940 0.851193
0.701425 0.755035 0.839980
0.778030 0.734129 0.829256
0.845048 0.711692 0.820326
0.901791 0.688934 0.813284
0.551478 0.842979 0.869993
0.550174 0.833279 0.865235
0.571955 0.822348 0.858197
0.615111 0.810042 0.849537
0.676756 0.796217 0.839979
0.751523 0.780265 0.830821
0.825883 0.762852 0.823691
0.894390 0.745416 0.818851
0.578694 0.855957 0.861037
0.570678 0.849771 0.856309
0.580162 0.843073 0.849988
0.608978 0.835838 0.842555
0.657704 0.828039 0.834586
0.726944 0.819499 0.827319
0.804876 0.810583 0.822123
0.881211 0.801850 0.818898
0.593092 0.862303 0.849739
0.585486 0.859148 0.844244
0.588556 0.855911 0.837764
0.606724 0.852892 0.830845
0.643434 0.850401 0.824096
0.705051 0.849129 0.818871
0.783013 0.849197 0.815848
0.862679 0.849798 0.813843
