Assets/1__3DArt/KimSe/artstation_asset/LUTs_pasterls/CUBE/Candylandia 03.cube
# Enhanced with VOXCOLOR algorithms
LUT_3D_SIZE 5
DOMAIN_MIN 0.000000 0.000000 0.000000
DOMAIN_MAX 0.903226 0.903226 0.903226
0.172549 0.231373 0.227451
0.409198 0.166039 0.190405
0.561887 0.117717 0.158405
0.630350 0.095042 0.135986
0.640718 0.087934 0.124738
0.140065 0.423747 0.321577
0.338362 0.342857 0.263272
0.529714 0.267121 0.214782
0.641553 0.201787 0.178583
0.668242 0.154473 0.156212
0.140154 0.586501 0.409260
0.271991 0.523091 0.355825
0.472080 0.451318 0.300365
0.637710 0.374329 0.251975
0.701955 0.299124 0.216459
0.152374 0.698122 0.475448
0.222786 0.661239 0.439410
0.400719 0.614278 0.393693
0.609961 0.556699 0.345345
0.730113 0.488914 0.302153
0.162120 0.750464 0.510232
0.191908 0.735930 0.493018
0.318619 0.715236 0.466971
0.541933 0.687180 0.431215
0.734307 0.649699 0.391960
0.144677 0.267909 0.365321
0.389019 0.195791 0.322600
0.557126 0.133586 0.279093
0.632261 0.100314 0.240675
0.642734 0.088749 0.215017
0.133522 0.464427 0.448635
0.325723 0.374338 0.377512
0.521855 0.290046 0.316857
0.644007 0.219070 0.268959
0.676106 0.166127 0.233806
0.142466 0.624695 0.522018
0.264241 0.553442 0.453746
0.461706 0.475685 0.382841
0.637194 0.396896 0.322277
0.714491 0.321449 0.279388
0.156580 0.729031 0.568709
0.217574 0.688102 0.521348
0.385726 0.638233 0.461065
0.600990 0.580188 0.398180
0.741261 0.515153 0.347678
0.164752 0.773200 0.580589
0.188608 0.757052 0.557228
0.302804 0.735880 0.522382
0.523779 0.708650 0.476185
0.735238 0.672328 0.426387
0.126550 0.298542 0.507752
0.354480 0.221289 0.465265
0.544677 0.150039 0.422818
0.638497 0.108557 0.382821
0.653643 0.093662 0.352389
0.133794 0.503302 0.587425
0.303368 0.417128 0.525632
0.508115 0.327070 0.465478
0.648352 0.245532 0.411190
0.690230 0.184249 0.366591
0.147840 0.664942 0.652516
0.252774 0.596609 0.591615
0.447709 0.517531 0.521250
0.637303 0.434106 0.454068
0.730625 0.355516 0.404245
0.160910 0.766157 0.687632
0.212232 0.726115 0.643083
0.369845 0.675995 0.580986
0.591647 0.616718 0.509631
0.753769 0.553757 0.453399
0.167349 0.806543 0.686834
0.186507 0.790076 0.661823
0.287732 0.768792 0.624243
0.504718 0.742489 0.572461
0.740119 0.709222 0.515160
0.122087 0.323589 0.621078
0.318786 0.243252 0.582323
0.523707 0.165511 0.545534
0.637470 0.116814 0.511926
0.660114 0.098888 0.484462
0.137868 0.532506 0.699012
0.276158 0.449294 0.651761
0.484135 0.358462 0.602953
0.645172 0.270572 0.554593
0.700884 0.202177 0.510784
0.153793 0.697300 0.759954
0.237488 0.633729 0.717104
0.425116 0.558936 0.664123
0.630096 0.475063 0.607027
0.743134 0.391652 0.558160
0.165164 0.800368 0.793044
0.205735 0.763383 0.761978
0.349023 0.717139 0.715718
0.575103 0.660619 0.656166
0.762459 0.598311 0.603128
0.169985 0.841610 0.794470
0.184400 0.826209 0.775256
0.269672 0.806166 0.746184
0.477201 0.781784 0.703680
0.740876 0.753037 0.652972
0.124613 0.339970 0.684923
0.289597 0.258260 0.652003
0.497718 0.176549 0.620469
0.626102 0.122597 0.592440
0.655107 0.102240 0.568520
0.142190 0.550428 0.764876
0.252192 0.464883 0.727238
0.453002 0.372635 0.688491
0.628650 0.282187 0.649328
0.697249 0.209825 0.612025
0.158290 0.717402 0.822934
0.221957 0.653461 0.793382
0.394284 0.580361 0.757898
0.608066 0.498107 0.718234
0.739827 0.410779 0.678313
0.168961 0.823556 0.856444
0.198363 0.787814 0.837610
0.323159 0.744901 0.811800
0.547614 0.694117 0.778781
0.758750 0.633735 0.743981
0.172305 0.867346 0.863978
0.182045 0.854161 0.854069
0.250286 0.836499 0.839507
0.442646 0.815711 0.819734
0.730751 0.793529 0.795845
