Assets/1__3DArt/KimSe/artstation_asset/LUTs_pasterls/CUBE/Candylandia 04.cube
# Enhanced with VOXCOLOR algorithms
LUT_3D_SIZE 8
DOMAIN_MIN 0.000000 0.000000 0.000000
DOMAIN_MAX 0.903226 0.903226 0.903226
0.152941 0.258824 0.188235
0.439083 0.271405 0.192310
0.664302 0.285205 0.202250
0.826308 0.297998 0.214395
0.926751 0.308067 0.225565
0.969899 0.313849 0.231991
0.985900 0.316445 0.233547
0.991338 0.317470 0.232790
0.070749 0.390865 0.187654
0.316618 0.381875 0.186755
0.546829 0.381070 0.192596
0.737641 0.381148 0.201626
0.873004 0.376891 0.210873
0.943146 0.366675 0.217575
0.975243 0.354925 0.221332
0.989662 0.343854 0.223528
0.029666 0.505104 0.197727
0.222892 0.487899 0.194892
0.438412 0.480438 0.197938
0.641221 0.474544 0.203744
0.804400 0.464138 0.209760
0.904669 0.446096 0.213911
0.957778 0.424211 0.216212
0.984773 0.401368 0.217896
0.019107 0.599598 0.216742
0.158323 0.582423 0.213426
0.347140 0.574126 0.214795
0.547878 0.567980 0.218156
0.729168 0.558562 0.221294
0.857657 0.540985 0.222260
0.933806 0.515911 0.221322
0.976144 0.486002 0.219948
0.030830 0.673564 0.242663
0.122860 0.660288 0.239117
0.279305 0.654830 0.239700
0.466552 0.652708 0.241957
0.654461 0.649794 0.243768
0.805083 0.640188 0.242702
0.903665 0.620410 0.238566
0.963209 0.591435 0.232923
0.065286 0.725491 0.272276
0.121385 0.716319 0.268264
0.244042 0.714429 0.268605
0.407915 0.717430 0.271089
0.588409 0.722703 0.273667
0.749895 0.725336 0.273451
0.866636 0.719159 0.269149
0.943814 0.702306 0.261687
0.113630 0.761046 0.298609
0.143923 0.755007 0.294654
0.235130 0.755396 0.295057
0.370933 0.761320 0.298094
0.533848 0.771533 0.302064
0.695288 0.783463 0.304349
0.824017 0.791255 0.303150
0.916958 0.791196 0.298637
0.155232 0.782684 0.316715
0.172971 0.780199 0.314357
0.239206 0.782749 0.315750
0.347141 0.790335 0.319778
0.487486 0.802690 0.325232
0.641722 0.819384 0.329975
0.777405 0.836539 0.332334
0.883272 0.850217 0.332345
0.177316 0.320549 0.332416
0.440973 0.310998 0.333024
0.657562 0.310276 0.336905
0.819047 0.314372 0.341859
0.922281 0.319917 0.345864
0.967816 0.324020 0.345902
0.984883 0.326198 0.342098
0.990881 0.327404 0.337130
0.089305 0.441296 0.311105
0.321269 0.411908 0.303182
0.542206 0.396208 0.301900
0.728787 0.387417 0.304602
0.864657 0.380123 0.308865
0.937751 0.370828 0.311795
0.972063 0.360328 0.311883
0.987975 0.350248 0.310042
0.041362 0.542685 0.297980
0.225756 0.509653 0.287419
0.433181 0.489477 0.283393
0.631129 0.475609 0.283567
0.794014 0.462656 0.285851
0.897273 0.446160 0.288130
0.953153 0.426152 0.288847
0.982317 0.404769 0.287996
0.024120 0.624982 0.293312
0.157099 0.597389 0.283322
0.339392 0.579741 0.278600
0.535937 0.567126 0.277158
0.716945 0.555159 0.277273
0.848508 0.538540 0.277382
0.927969 0.515156 0.276510
0.973179 0.486794 0.274503
0.030034 0.689020 0.296748
0.116954 0.670022 0.288406
0.267879 0.658641 0.284575
0.451595 0.651788 0.283205
0.639502 0.646278 0.282525
0.793681 0.636535 0.280754
0.896476 0.617704 0.277338
0.959810 0.589968 0.272559
0.058850 0.734232 0.307058
0.110817 0.722234 0.300219
0.228540 0.717026 0.298125
0.389184 0.716988 0.298570
0.569878 0.720087 0.299549
0.735616 0.721871 0.298518
0.857740 0.715777 0.294442
0.939828 0.699475 0.287987
0.101959 0.765195 0.318497
0.129551 0.757950 0.313263
0.216757 0.756715 0.312811
0.349742 0.760996 0.315303
0.512839 0.769860 0.318921
0.678629 0.781006 0.320874
0.813332 0.788467 0.319385
0.911993 0.788319 0.315053
0.141622 0.783971 0.326697
0.157936 0.781238 0.323939
0.221129 0.783165 0.325287
0.326497 0.790003 0.329606
0.466405 0.801679 0.335600
0.623924 0.817908 0.340765
0.765055 0.834702 0.342908
0.876717 0.847977 0.342509
0.213400 0.390834 0.487028
0.446190 0.361273 0.485215
0.649902 0.343657 0.484503
0.809561 0.335419 0.483968
0.916090 0.333903 0.482595
0.965076 0.335739 0.478061
0.983786 0.337467 0.470622
0.990540 0.338846 0.462878
0.126444 0.501718 0.454785
0.333655 0.457892 0.443567
0.539837 0.427288 0.437415
0.720169 0.406269 0.434773
0.856383 0.391514 0.434058
0.932938 0.380032 0.432864
0.969711 0.369480 0.429372
0.987035 0.359909 0.424172
0.072065 0.592135 0.426513
0.238649 0.548837 0.411854
0.432741 0.516316 0.402692
0.623189 0.491392 0.397673
0.784771 0.471101 0.395469
0.891019 0.452265 0.394540
0.949728 0.432460 0.392846
0.980850 0.412052 0.389662
0.046419 0.663434 0.403494
0.167280 0.628754 0.389076
0.338572 0.601548 0.379253
0.527816 0.579662 0.372888
0.706720 0.560843 0.368946
0.840816 0.541518 0.366638
0.923420 0.518254 0.364757
0.971176 0.491167 0.362346
0.045751 0.717296 0.386443
0.123764 0.693717 0.374058
0.265259 0.675511 0.365675
0.442035 0.661427 0.359889
0.627487 0.649825 0.355504
0.784093 0.636901 0.351631
0.890570 0.617668 0.348138
0.957187 0.591107 0.345029
0.069791 0.753857 0.375719
0.114307 0.739190 0.365893
0.223250 0.729570 0.360420
0.377026 0.724417 0.357507
0.555052 0.722643 0.355519
0.723439 0.721115 0.352476
0.850067 0.713815 0.348185
0.936381 0.697930 0.344123
0.107023 0.777821 0.368294
0.128871 0.769199 0.360973
0.208347 0.765384 0.358321
0.334877 0.766458 0.358827
0.495227 0.772021 0.360889
0.663746 0.780508 0.361741
0.803630 0.786442 0.359831
0.907395 0.785869 0.356949
0.141320 0.791496 0.361537
0.153413 0.788027 0.356804
0.210270 0.788484 0.356436
0.309949 0.793479 0.359699
0.447024 0.803261 0.365523
0.606850 0.817928 0.371292
0.753318 0.833649 0.373970
0.870566 0.846322 0.374272
0.249861 0.461372 0.635063
0.450814 0.415545 0.632299
0.640530 0.380804 0.628614
0.797823 0.358222 0.624381
0.908092 0.347579 0.619601
0.961599 0.346093 0.612638
0.982647 0.346919 0.603549
0.990471 0.348186 0.594547
0.174232 0.564039 0.599870
0.351834 0.511026 0.588625
0.540068 0.466985 0.580160
0.712376 0.432570 0.574025
0.848300 0.407692 0.569549
0.928514 0.391465 0.565095
0.967970 0.379380 0.558962
0.986692 0.369501 0.551495
0.118135 0.645713 0.564794
0.261771 0.596963 0.549594
0.438558 0.553946 0.537991
0.618658 0.517264 0.529534
0.777161 0.487003 0.523667
0.885785 0.462742 0.519608
0.947188 0.441157 0.515534
0.980079 0.420639 0.510481
0.085966 0.708217 0.531138
0.190822 0.669856 0.515220
0.347123 0.634514 0.502495
0.525458 0.602782 0.492582
0.699445 0.574786 0.485111
0.834639 0.549744 0.480056
0.919853 0.524483 0.476605
0.969803 0.497523 0.473754
0.079897 0.753599 0.499886
0.146334 0.727277 0.485339
0.274698 0.702874 0.473650
0.440535 0.680833 0.464108
0.619900 0.661125 0.456136
0.776631 0.642344 0.449656
0.885729 0.620687 0.445330
0.955036 0.594227 0.443687
0.100860 0.782271 0.472016
0.135724 0.765691 0.460014
0.232376 0.751581 0.451312
0.375096 0.740315 0.444754
0.546231 0.731790 0.439252
0.714160 0.724570 0.433452
0.843664 0.714164 0.428205
0.933289 0.697689 0.426422
0.133019 0.799231 0.447218
0.147188 0.789369 0.437700
0.215590 0.782491 0.432125
0.331443 0.779216 0.429594
0.484551 0.779720 0.428964
0.652293 0.783421 0.427728
0.795478 0.786054 0.424721
0.903268 0.784034 0.423210
0.160588 0.807309 0.425075
0.166598 0.802752 0.417380
0.214043 0.801013 0.413921
0.304161 0.803042 0.414654
0.434254 0.809442 0.419001
0.593197 0.820855 0.424678
0.743418 0.834089 0.427896
0.865337 0.845316 0.429304
0.278011 0.525135 0.762696
0.451757 0.467976 0.760606
0.628839 0.417834 0.755597
0.783900 0.380534 0.749438
0.898299 0.359319 0.743214
0.957311 0.353176 0.736015
0.981442 0.352362 0.727300
0.990726 0.353046 0.718552
0.225385 0.621379 0.730531
0.373573 0.563705 0.721898
0.542804 0.508913 0.713701
0.705743 0.461847 0.706426
0.840469 0.425810 0.700224
0.924267 0.402909 0.694241
0.966592 0.387788 0.687027
0.986766 0.376576 0.678691
0.175321 0.696707 0.696520
0.294359 0.646509 0.683981
0.451296 0.595963 0.672982
0.618350 0.548804 0.663698
0.771538 0.507881 0.656154
0.881446 0.476019 0.650180
0.945232 0.450601 0.644501
0.979723 0.428490 0.638305
0.141314 0.753225 0.661141
0.228277 0.714445 0.646925
0.366417 0.673612 0.634252
0.530191 0.633317 0.623247
0.695855 0.595637 0.614004
0.830035 0.562702 0.606966
0.917008 0.533113 0.601963
0.968762 0.504524 0.598524
0.132420 0.793135 0.624834
0.185906 0.766330 0.610738
0.298055 0.737577 0.598024
0.448885 0.708414 0.586563
0.617866 0.680044 0.576286
0.771565 0.653371 0.567610
0.881783 0.626955 0.561969
0.953089 0.598790 0.560872
0.152327 0.816699 0.587987
0.176641 0.799414 0.575384
0.258259 0.781644 0.564571
0.385775 0.764340 0.555077
0.545087 0.748153 0.546400
0.708402 0.733260 0.537740
0.838553 0.717574 0.530833
0.930374 0.698841 0.530082
0.181335 0.828668 0.551890
0.187151 0.817993 0.540740
0.241946 0.808096 0.532238
0.342947 0.799902 0.526196
0.483484 0.794032 0.522062
0.645601 0.790895 0.517851
0.789324 0.788150 0.512875
0.899662 0.783129 0.511646
0.202845 0.832301 0.518134
0.202028 0.826524 0.507218
0.237654 0.822135 0.499840
0.314234 0.820267 0.496751
0.432173 0.821791 0.498051
0.585356 0.827946 0.502309
0.736451 0.836769 0.505463
0.861458 0.845141 0.507746
0.291545 0.573551 0.854045
0.446176 0.511450 0.853821
0.613985 0.450665 0.849092
0.767774 0.401055 0.842718
0.886672 0.369152 0.836677
0.951929 0.356991 0.830927
0.979872 0.353669 0.824270
0.991035 0.353243 0.817256
0.270720 0.665563 0.828088
0.394655 0.607495 0.823568
0.546679 0.546345 0.817714
0.700114 0.489742 0.811622
0.832805 0.443523 0.806015
0.919795 0.412991 0.800737
0.965124 0.393558 0.794510
0.986909 0.379906 0.787149
0.236422 0.737041 0.800962
0.333430 0.688718 0.793275
0.470503 0.634770 0.785574
0.622879 0.580544 0.778324
0.768436 0.530572 0.771847
0.877953 0.490423 0.766303
0.943529 0.459505 0.760833
0.979439 0.434101 0.754851
0.207999 0.790495 0.772159
0.278205 0.754170 0.762422
0.397037 0.711602 0.752948
0.543496 0.666064 0.744048
0.697241 0.620565 0.735991
0.827453 0.579254 0.729264
0.914775 0.543430 0.723998
0.967751 0.511039 0.720215
0.199600 0.828375 0.741279
0.241350 0.803495 0.730538
0.336195 0.773523 0.719988
0.468987 0.740098 0.709799
0.623203 0.704830 0.700148
0.769758 0.669930 0.691495
0.878819 0.636825 0.685336
0.951082 0.604536 0.683607
0.219445 0.851009 0.707564
0.235118 0.834687 0.696767
0.301370 0.815414 0.686393
0.411013 0.794020 0.676429
0.553789 0.771312 0.666780
0.707364 0.748279 0.657029
0.834986 0.725493 0.649012
0.927409 0.702159 0.647263
0.248285 0.862406 0.672048
0.247738 0.851893 0.661060
0.288915 0.840162 0.651232
0.372523 0.827930 0.642843
0.495409 0.815846 0.635824
0.645794 0.804788 0.628967
0.785941 0.794687 0.622027
0.896581 0.784429 0.619340
0.267946 0.865516 0.636921
0.262050 0.859063 0.624295
0.285870 0.852532 0.613919
0.346417 0.846814 0.606997
0.446975 0.842720 0.604178
0.587582 0.841734 0.605298
0.734485 0.843671 0.607143
0.859632 0.846801 0.609196
0.295238 0.605764 0.911937
0.436123 0.543748 0.913808
0.597261 0.477676 0.910196
0.750602 0.419676 0.904440
0.873949 0.378563 0.899043
0.945489 0.360178 0.895035
0.977563 0.354231 0.890940
0.990742 0.352640 0.886382
0.304562 0.695641 0.892276
0.410198 0.639609 0.891405
0.548413 0.575884 0.888146
0.693755 0.513346 0.883902
0.824470 0.459283 0.879747
0.914410 0.421865 0.876224
0.962924 0.398168 0.872182
0.986572 0.381836 0.867019
0.290430 0.765140 0.872865
0.369971 0.719821 0.869621
0.489935 0.665284 0.865506
0.628677 0.607272 0.861111
0.766224 0.551020 0.856914
0.874486 0.503947 0.853338
0.941539 0.467685 0.849663
0.978849 0.438471 0.845215
0.272346 0.817019 0.852771
0.328998 0.783852 0.847592
0.430594 0.741881 0.842080
0.560393 0.694169 0.836579
0.701440 0.643844 0.831394
0.826193 0.595970 0.826968
0.912905 0.554180 0.823267
0.966607 0.517179 0.820124
0.265685 0.854003 0.831208
0.298825 0.831808 0.824559
0.378639 0.802811 0.817657
0.494287 0.768123 0.810746
0.633024 0.729113 0.804052
0.770559 0.688168 0.797970
0.876884 0.648807 0.793364
0.949082 0.611361 0.791354
0.283059 0.877168 0.807062
0.293866 0.862675 0.799398
0.347982 0.844000 0.791589
0.441621 0.821386 0.783770
0.567876 0.795279 0.776023
0.709887 0.766460 0.768274
0.832968 0.737215 0.761728
0.924525 0.708277 0.759200
0.311337 0.890485 0.780563
0.308184 0.881057 0.771690
0.339469 0.869377 0.763074
0.408226 0.855570 0.755059
0.514014 0.839887 0.747790
0.650777 0.822836 0.740886
0.784836 0.805856 0.734433
0.893845 0.789467 0.731056
0.331861 0.896113 0.753026
0.324889 0.890270 0.741807
0.340961 0.883426 0.731565
0.388247 0.875851 0.723365
0.471913 0.867918 0.717975
0.597318 0.860605 0.716185
0.736467 0.855152 0.716480
0.859110 0.851672 0.717931
0.295228 0.625858 0.946047
0.424798 0.567066 0.950051
0.580209 0.499399 0.948069
0.733109 0.436108 0.943547
0.860495 0.387576 0.939253
0.938161 0.363676 0.937297
0.974525 0.355547 0.936093
0.989763 0.352925 0.934404
0.328653 0.715582 0.933149
0.419865 0.662545 0.934893
0.546910 0.598435 0.933847
0.685633 0.532451 0.931450
0.814872 0.472624 0.928915
0.907865 0.429603 0.927397
0.959859 0.402369 0.925880
0.985644 0.383632 0.923313
0.334191 0.784815 0.921273
0.399699 0.742266 0.921020
0.505511 0.688323 0.919663
0.632679 0.628457 0.917749
0.763182 0.568022 0.915780
0.870356 0.515676 0.914412
0.939047 0.475034 0.913023
0.977903 0.442321 0.910670
0.327907 0.836104 0.909348
0.373537 0.805457 0.907361
0.460691 0.764769 0.904989
0.576131 0.716480 0.902498
0.705785 0.663419 0.900148
0.825301 0.610939 0.898397
0.911280 0.564384 0.897018
0.965457 0.523088 0.895375
0.323508 0.872184 0.896514
0.350195 0.852198 0.893037
0.417796 0.824834 0.889397
0.518939 0.790465 0.885786
0.644015 0.749949 0.882399
0.773008 0.705283 0.879624
0.876167 0.661159 0.877723
0.947497 0.618918 0.876727
0.335640 0.894966 0.881909
0.343886 0.882187 0.877159
0.389195 0.865031 0.872335
0.470367 0.843061 0.867570
0.583103 0.816181 0.862985
0.714914 0.784431 0.858796
0.833005 0.750680 0.855587
0.922420 0.716766 0.854337
0.359284 0.909210 0.865360
0.355751 0.901103 0.859393
0.380885 0.890662 0.853431
0.439250 0.877400 0.847735
0.532274 0.861045 0.842500
0.657934 0.841241 0.837898
0.785786 0.819738 0.834266
0.891802 0.798254 0.832750
0.377600 0.916699 0.847032
0.372170 0.912299 0.839668
0.384530 0.906657 0.832272
0.423319 0.899464 0.825638
0.494783 0.890570 0.820433
0.607764 0.879958 0.817638
0.739263 0.869214 0.817197
0.858480 0.860106 0.818783
