Assets/1__3DArt/KimSe/artstation_asset/LUTs_pasterls/CUBE/Candylandia 04 S.cube
# Enhanced with VOXCOLOR algorithms
LUT_3D_SIZE 5
DOMAIN_MIN 0.000000 0.000000 0.000000
DOMAIN_MAX 0.903226 0.903226 0.903226
0.152941 0.258824 0.188235
0.614269 0.281630 0.199161
0.880622 0.303339 0.220319
0.977971 0.314976 0.233111
0.991338 0.317470 0.232790
0.035694 0.478382 0.194091
0.382327 0.437326 0.175647
0.680478 0.402055 0.159382
0.860258 0.374333 0.161205
0.962681 0.369100 0.198025
0.023125 0.638265 0.228999
0.238070 0.595400 0.202445
0.533741 0.558728 0.172759
0.785060 0.536506 0.166641
0.945032 0.522119 0.200398
0.074174 0.737393 0.277121
0.193282 0.716988 0.259507
0.456277 0.709785 0.244466
0.737915 0.718122 0.242772
0.926743 0.719413 0.253993
0.154168 0.783216 0.314585
0.216617 0.780643 0.310753
0.412689 0.792851 0.314940
0.673561 0.819787 0.322782
0.881813 0.848956 0.327506
0.203174 0.372382 0.447301
0.596167 0.330678 0.442050
0.847230 0.310623 0.434332
0.951516 0.310285 0.427042
0.984131 0.328660 0.424661
0.072012 0.557387 0.397253
0.366552 0.458442 0.359833
0.627877 0.383841 0.330430
0.809789 0.348876 0.320868
0.944064 0.360009 0.341346
0.037743 0.681952 0.365802
0.225412 0.602904 0.329356
0.489561 0.536747 0.299601
0.732759 0.503296 0.288397
0.923819 0.497247 0.300853
0.072297 0.756403 0.353420
0.175864 0.720760 0.331442
0.415759 0.695341 0.316952
0.689695 0.689341 0.310636
0.909830 0.689499 0.307940
0.139444 0.789121 0.349682
0.192449 0.783535 0.343201
0.375451 0.790863 0.347080
0.638725 0.815212 0.354517
0.875369 0.846767 0.354164
0.264980 0.494350 0.701471
0.583297 0.404324 0.692112
0.832933 0.344123 0.674693
0.950781 0.329416 0.660621
0.985184 0.344677 0.654136
0.158733 0.654507 0.641432
0.391731 0.536906 0.604510
0.635524 0.430404 0.569049
0.819480 0.373346 0.550667
0.947847 0.372962 0.556513
0.106740 0.753525 0.580055
0.257549 0.665834 0.543007
0.497511 0.576661 0.510672
0.732838 0.518031 0.493194
0.923136 0.497797 0.492737
0.130726 0.804704 0.521510
0.204235 0.763734 0.497087
0.412268 0.722018 0.480387
0.673767 0.694202 0.472549
0.905044 0.682525 0.469370
0.179338 0.819256 0.469707
0.209409 0.809291 0.454899
0.362193 0.807999 0.453742
0.616652 0.824786 0.464911
0.874614 0.855761 0.473440
0.293945 0.584034 0.873537
0.565223 0.472479 0.869655
0.821967 0.382177 0.855976
0.957539 0.349266 0.845637
0.989436 0.351294 0.837609
0.260151 0.730246 0.830202
0.442982 0.623891 0.811755
0.678054 0.507301 0.788959
0.862670 0.426091 0.773490
0.963920 0.395045 0.768107
0.218016 0.818249 0.782392
0.332628 0.747097 0.759747
0.547896 0.654732 0.735506
0.770511 0.570284 0.717833
0.936030 0.517799 0.709183
0.240428 0.862964 0.727037
0.283877 0.828582 0.707022
0.451665 0.780202 0.689098
0.688138 0.729072 0.677964
0.907891 0.692538 0.674018
0.283009 0.873453 0.666346
0.289893 0.860776 0.645170
0.397098 0.848415 0.634068
0.616840 0.845589 0.639576
0.871011 0.858493 0.652969
0.295228 0.625858 0.946047
0.538552 0.517105 0.949079
0.799919 0.409669 0.940904
0.952983 0.358781 0.936503
0.989636 0.352774 0.934292
0.335654 0.769581 0.924119
0.482989 0.680182 0.922347
0.707083 0.567600 0.916766
0.893531 0.472817 0.912407
0.976548 0.417947 0.908613
0.324350 0.854958 0.902997
0.412651 0.802912 0.896891
0.603247 0.723803 0.889529
0.813759 0.633227 0.883670
0.951238 0.555297 0.880125
0.339173 0.899609 0.878002
0.369382 0.876069 0.868839
0.507739 0.837127 0.859827
0.721194 0.782657 0.853609
0.913092 0.724727 0.852879
0.377024 0.916601 0.847019
0.379290 0.907810 0.834221
0.455062 0.894233 0.823444
0.635569 0.876357 0.820195
0.862255 0.861429 0.826495
