Assets/1__3DArt/KimSe/artstation_asset/LUTs_pasterls/CUBE/Cotton Candy 04.cube
# Enhanced with VOXCOLOR algorithms
LUT_3D_SIZE 32
0.054902 0.058824 0.082353
0.100587 0.064558 0.077988
0.146272 0.070293 0.073624
0.191956 0.076027 0.069259
0.237641 0.081762 0.064894
0.283326 0.087496 0.060529
0.332957 0.093809 0.055475
0.383378 0.100238 0.050282
0.433798 0.106667 0.045090
0.484219 0.113096 0.039897
0.534639 0.119525 0.034705
0.575460 0.125522 0.031097
0.611481 0.131303 0.028282
0.647501 0.137085 0.025467
0.683522 0.142866 0.022652
0.719543 0.148647 0.019837
0.746754 0.153634 0.018235
0.765157 0.157825 0.017848
0.783559 0.162016 0.017461
0.801961 0.166208 0.017074
0.820364 0.170399 0.016687
0.834695 0.173970 0.016693
0.840882 0.176299 0.017486
0.847070 0.178629 0.018278
0.853258 0.180959 0.019070
0.859446 0.183289 0.019863
0.864795 0.185327 0.020620
0.865954 0.185909 0.021202
0.867112 0.186490 0.021784
0.868271 0.187072 0.022365
0.869429 0.187653 0.022947
0.870588 0.188235 0.023529
0.054920 0.085328 0.090499
0.099261 0.090558 0.085877
0.143602 0.095789 0.081256
0.187943 0.101019 0.076634
0.232284 0.106250 0.072012
0.276625 0.111480 0.067390
0.325764 0.117324 0.062002
0.375862 0.123289 0.056461
0.425961 0.129255 0.050919
0.476059 0.135221 0.045378
0.526158 0.141187 0.039837
0.567217 0.146738 0.035887
0.603755 0.152081 0.032733
0.640294 0.157425 0.029580
0.676832 0.162768 0.026426
0.713371 0.168112 0.023272
0.741221 0.172703 0.021397
0.760383 0.176543 0.020801
0.779544 0.180384 0.020205
0.798706 0.184224 0.019609
0.817868 0.188064 0.019014
0.832873 0.191315 0.018863
0.839564 0.193389 0.019604
0.846256 0.195463 0.020346
0.852948 0.197538 0.021087
0.859640 0.199612 0.021828
0.865434 0.201397 0.022552
0.866738 0.201740 0.023191
0.868043 0.202082 0.023829
0.869347 0.202425 0.024468
0.870652 0.202768 0.025106
0.871956 0.203110 0.025745
0.054939 0.111832 0.098646
0.097936 0.116558 0.093767
0.140933 0.121285 0.088888
0.183930 0.126011 0.084009
0.226927 0.130738 0.079130
0.269924 0.135464 0.074251
0.318571 0.140838 0.068529
0.368347 0.146340 0.062639
0.418124 0.151843 0.056749
0.467900 0.157346 0.050859
0.517677 0.162849 0.044969
0.558973 0.167954 0.040677
0.596030 0.172859 0.037185
0.633086 0.177765 0.033692
0.670143 0.182670 0.030200
0.707199 0.187576 0.026707
0.735688 0.191773 0.024559
0.755609 0.195262 0.023754
0.775529 0.198751 0.022949
0.795450 0.202240 0.022145
0.815371 0.205729 0.021340
0.831050 0.208661 0.021034
0.838246 0.210479 0.021723
0.845442 0.212298 0.022413
0.852638 0.214116 0.023103
0.859834 0.215935 0.023793
0.866072 0.217467 0.024484
0.867522 0.217571 0.025179
0.868973 0.217675 0.025875
0.870423 0.217778 0.026570
0.871874 0.217882 0.027265
0.873324 0.217986 0.027960
0.054957 0.138336 0.106792
0.096610 0.142558 0.101656
0.138263 0.146781 0.096520
0.179917 0.151003 0.091384
0.221570 0.155226 0.086248
0.263223 0.159448 0.081112
0.311377 0.164352 0.075057
0.360832 0.169392 0.068818
0.410286 0.174431 0.062579
0.459741 0.179471 0.056340
0.509196 0.184511 0.050101
0.550730 0.189169 0.045467
0.588304 0.193637 0.041636
0.625879 0.198105 0.037805
0.663453 0.202572 0.033974
0.701027 0.207040 0.030143
0.730154 0.210843 0.027721
0.750835 0.213981 0.026707
0.771515 0.217118 0.025694
0.792195 0.220256 0.024680
0.812875 0.223394 0.023667
0.829228 0.226007 0.023204
0.836928 0.227570 0.023842
0.844628 0.229132 0.024481
0.852328 0.230695 0.025120
0.860028 0.232258 0.025758
0.866710 0.233537 0.026416
0.868307 0.233402 0.027168
0.869903 0.233267 0.027920
0.871500 0.233132 0.028672
0.873096 0.232996 0.029424
0.874693 0.232861 0.030176
0.054976 0.164840 0.114938
0.095285 0.168558 0.109545
0.135594 0.172277 0.104152
0.175903 0.175995 0.098759
0.216213 0.179714 0.093366
0.256522 0.183432 0.087973
0.304184 0.187866 0.081584
0.353317 0.192443 0.074996
0.402449 0.197019 0.068408
0.451582 0.201596 0.061820
0.500714 0.206173 0.055232
0.542487 0.210385 0.050257
0.580579 0.214415 0.046087
0.618671 0.218445 0.041918
0.656763 0.222475 0.037748
0.694855 0.226504 0.033578
0.724621 0.229912 0.030882
0.746061 0.232699 0.029660
0.767500 0.235486 0.028438
0.788939 0.238272 0.027215
0.810379 0.241059 0.025993
0.827406 0.243353 0.025374
0.835610 0.244660 0.025961
0.843814 0.245967 0.026549
0.852018 0.247274 0.027136
0.860222 0.248581 0.027724
0.867349 0.249608 0.028348
0.869091 0.249233 0.029157
0.870834 0.248859 0.029966
0.872576 0.248485 0.030774
0.874318 0.248111 0.031583
0.876061 0.247736 0.032392
0.054994 0.191344 0.123084
0.093959 0.194558 0.117434
0.132925 0.197773 0.111784
0.171890 0.200987 0.106134
0.210856 0.204201 0.100484
0.249821 0.207416 0.094833
0.296991 0.211380 0.088111
0.345801 0.215494 0.081174
0.394612 0.219607 0.074238
0.443423 0.223721 0.067301
0.492233 0.227835 0.060364
0.534243 0.231601 0.055047
0.572853 0.235193 0.050538
0.611463 0.238785 0.046030
0.650073 0.242377 0.041522
0.688683 0.245969 0.037014
0.719088 0.248982 0.034044
0.741287 0.251418 0.032613
0.763485 0.253853 0.031182
0.785684 0.256289 0.029751
0.807883 0.258724 0.028320
0.825584 0.260698 0.027544
0.834292 0.261750 0.028080
0.843000 0.262801 0.028616
0.851708 0.263852 0.029153
0.860416 0.264904 0.029689
0.867987 0.265678 0.030280
0.869876 0.265065 0.031145
0.871764 0.264451 0.032011
0.873652 0.263838 0.032877
0.875541 0.263225 0.033742
0.877429 0.262612 0.034608
0.056626 0.225255 0.133782
0.094268 0.228037 0.127908
0.131910 0.230820 0.122035
0.169552 0.233603 0.116161
0.207194 0.236386 0.110287
0.244837 0.239168 0.104414
0.291337 0.242733 0.097311
0.339609 0.246455 0.089963
0.387881 0.250176 0.082615
0.436153 0.253898 0.075267
0.484425 0.257619 0.067919
0.526531 0.261007 0.062155
0.565554 0.264228 0.057184
0.604577 0.267449 0.052212
0.643600 0.270670 0.047240
0.682623 0.273891 0.042268
0.713641 0.276552 0.038911
0.736655 0.278651 0.037170
0.759668 0.280751 0.035428
0.782682 0.282850 0.033686
0.805696 0.284949 0.031944
0.824147 0.286605 0.030941
0.833475 0.287373 0.031416
0.842803 0.288142 0.031891
0.852130 0.288910 0.032366
0.861458 0.289678 0.032841
0.869582 0.290178 0.033398
0.871687 0.289334 0.034361
0.873792 0.288491 0.035323
0.875897 0.287648 0.036286
0.878002 0.286804 0.037249
0.880107 0.285961 0.038212
0.058580 0.260647 0.144990
0.094903 0.263012 0.138900
0.131226 0.265378 0.132809
0.167549 0.267744 0.126719
0.203873 0.270109 0.120628
0.240196 0.272475 0.114538
0.285991 0.275655 0.107046
0.333682 0.278998 0.099274
0.381372 0.282341 0.091503
0.429062 0.285685 0.083731
0.476752 0.289028 0.075959
0.518925 0.292051 0.069728
0.558340 0.294915 0.064268
0.597755 0.297779 0.058807
0.637170 0.300642 0.053347
0.676585 0.303506 0.047887
0.708212 0.305821 0.044120
0.732052 0.307587 0.042047
0.755891 0.309354 0.039974
0.779731 0.311120 0.037901
0.803570 0.312887 0.035828
0.822787 0.314224 0.034583
0.832758 0.314704 0.034995
0.842728 0.315184 0.035407
0.852699 0.315663 0.035819
0.862670 0.316143 0.036231
0.871368 0.316364 0.036753
0.873704 0.315292 0.037821
0.876040 0.314220 0.038889
0.878376 0.313148 0.039957
0.880712 0.312076 0.041025
0.883048 0.311004 0.042093
0.060534 0.296039 0.156199
0.095538 0.297987 0.149891
0.130542 0.299936 0.143584
0.165546 0.301884 0.137277
0.200551 0.303833 0.130970
0.235555 0.305781 0.124662
0.280646 0.308576 0.116781
0.327754 0.311541 0.108586
0.374862 0.314506 0.100390
0.421971 0.317471 0.092194
0.469079 0.320436 0.083998
0.511320 0.323095 0.077301
0.551126 0.325602 0.071352
0.590933 0.328108 0.065403
0.630740 0.330614 0.059454
0.670547 0.333120 0.053505
0.702783 0.335090 0.049328
0.727449 0.336524 0.046924
0.752114 0.337957 0.044520
0.776780 0.339391 0.042116
0.801445 0.340824 0.039712
0.821427 0.341843 0.038226
0.832040 0.342034 0.038575
0.842654 0.342225 0.038924
0.853268 0.342416 0.039273
0.863881 0.342607 0.039622
0.873154 0.342550 0.040108
0.875721 0.341249 0.041281
0.878288 0.339949 0.042455
0.880855 0.338649 0.043628
0.883422 0.337348 0.044801
0.885989 0.336048 0.045974
0.062488 0.331431 0.167407
0.096173 0.332962 0.160883
0.129859 0.334494 0.154359
0.163544 0.336025 0.147835
0.197229 0.337556 0.141311
0.230914 0.339087 0.134787
0.275300 0.341498 0.126516
0.321826 0.344085 0.117897
0.368353 0.346671 0.109277
0.414879 0.349258 0.100658
0.461406 0.351845 0.092038
0.503714 0.354140 0.084873
0.543913 0.356288 0.078436
0.584111 0.358437 0.071998
0.624310 0.360586 0.065561
0.664509 0.362735 0.059123
0.697354 0.364360 0.054537
0.722846 0.365460 0.051802
0.748337 0.366561 0.049067
0.773829 0.367661 0.046331
0.799320 0.368762 0.043596
0.820067 0.369463 0.041868
0.831323 0.369365 0.042154
0.842580 0.369267 0.042440
0.853836 0.369170 0.042726
0.865093 0.369072 0.043012
0.874940 0.368736 0.043463
0.877737 0.367207 0.044742
0.880535 0.365678 0.046020
0.883333 0.364149 0.047299
0.886131 0.362620 0.048577
0.888929 0.361092 0.049856
0.064443 0.366824 0.178615
0.096809 0.367938 0.171874
0.129175 0.369052 0.165133
0.161541 0.370165 0.158392
0.193907 0.371279 0.151652
0.226273 0.372393 0.144911
0.269954 0.374419 0.136251
0.315899 0.376628 0.127208
0.361843 0.378836 0.118164
0.407788 0.381045 0.109121
0.453733 0.383253 0.100078
0.496108 0.385184 0.092446
0.536699 0.386975 0.085520
0.577289 0.388767 0.078594
0.617880 0.390558 0.071668
0.658471 0.392349 0.064742
0.691925 0.393629 0.059745
0.718243 0.394396 0.056679
0.744560 0.395164 0.053613
0.770877 0.395931 0.050546
0.797195 0.396699 0.047480
0.818706 0.397082 0.045510
0.830606 0.396695 0.045733
0.842505 0.396309 0.045956
0.854405 0.395923 0.046179
0.866304 0.395537 0.046402
0.876725 0.394922 0.046818
0.879754 0.393164 0.048202
0.882783 0.391407 0.049586
0.885812 0.389650 0.050970
0.888841 0.387892 0.052353
0.891870 0.386135 0.053737
0.070246 0.401804 0.189708
0.101158 0.402593 0.182831
0.132069 0.403381 0.175954
0.162981 0.404170 0.169076
0.193892 0.404959 0.162199
0.224804 0.405747 0.155322
0.267529 0.407529 0.146367
0.312616 0.409508 0.136996
0.357704 0.411488 0.127626
0.402791 0.413468 0.118255
0.447879 0.415448 0.108885
0.490070 0.417192 0.100847
0.530814 0.418817 0.093477
0.571558 0.420443 0.086106
0.612302 0.422069 0.078736
0.653046 0.423694 0.071365
0.686943 0.424813 0.065974
0.713992 0.425425 0.062561
0.741042 0.426036 0.059149
0.768092 0.426648 0.055736
0.795142 0.427260 0.052324
0.817367 0.427483 0.050094
0.829944 0.426931 0.050229
0.842520 0.426378 0.050365
0.855097 0.425825 0.050500
0.867673 0.425273 0.050636
0.878707 0.424496 0.051003
0.882024 0.422596 0.052528
0.885342 0.420696 0.054053
0.888660 0.418796 0.055578
0.891978 0.416896 0.057103
0.895295 0.414996 0.058629
0.077975 0.436578 0.200744
0.107364 0.437087 0.193771
0.136753 0.437597 0.186797
0.166143 0.438106 0.179823
0.195532 0.438616 0.172850
0.224921 0.439125 0.165876
0.266563 0.440732 0.156672
0.310656 0.442558 0.147023
0.354749 0.444384 0.137374
0.398841 0.446210 0.127724
0.442934 0.448036 0.118075
0.484817 0.449682 0.109663
0.525594 0.451237 0.101870
0.566372 0.452793 0.094077
0.607150 0.454349 0.086284
0.647927 0.455905 0.078491
0.682184 0.456955 0.072711
0.709919 0.457499 0.068945
0.737654 0.458044 0.065179
0.765390 0.458588 0.061413
0.793125 0.459132 0.057647
0.816039 0.459276 0.055149
0.829309 0.458618 0.055184
0.842580 0.457960 0.055220
0.855850 0.457303 0.055256
0.869121 0.456645 0.055292
0.880785 0.455764 0.055602
0.884421 0.453764 0.057287
0.888057 0.451765 0.058971
0.891692 0.449765 0.060656
0.895328 0.447766 0.062340
0.898963 0.445766 0.064025
0.085704 0.471352 0.211780
0.113570 0.471582 0.204710
0.141437 0.471813 0.197640
0.169304 0.472043 0.190570
0.197171 0.472273 0.183500
0.225038 0.472503 0.176430
0.265598 0.473935 0.166978
0.308696 0.475607 0.157050
0.351794 0.477279 0.147122
0.394892 0.478951 0.137194
0.437990 0.480623 0.127266
0.479563 0.482172 0.118479
0.520375 0.483657 0.110264
0.561186 0.485143 0.102048
0.601997 0.486629 0.093833
0.642809 0.488115 0.085617
0.677425 0.489097 0.079449
0.705846 0.489574 0.075330
0.734266 0.490051 0.071210
0.762687 0.490528 0.067091
0.791108 0.491005 0.062971
0.814710 0.491069 0.060203
0.828674 0.490306 0.060139
0.842639 0.489543 0.060075
0.856604 0.488780 0.060011
0.870568 0.488017 0.059947
0.882864 0.487032 0.060201
0.886818 0.484933 0.062045
0.890771 0.482833 0.063889
0.894724 0.480734 0.065733
0.898678 0.478635 0.067577
0.902631 0.476536 0.069421
0.093432 0.506127 0.222816
0.119777 0.506077 0.215650
0.146121 0.506028 0.208483
0.172466 0.505979 0.201317
0.198811 0.505930 0.194151
0.225155 0.505880 0.186984
0.264632 0.507138 0.177284
0.306735 0.508656 0.167077
0.348839 0.510174 0.156870
0.390942 0.511693 0.146663
0.433045 0.513211 0.136456
0.474310 0.514661 0.127295
0.515155 0.516077 0.118657
0.556000 0.517494 0.110019
0.596845 0.518910 0.101381
0.637690 0.520326 0.092743
0.672666 0.521239 0.086187
0.701772 0.521648 0.081714
0.730878 0.522058 0.077241
0.759985 0.522468 0.072768
0.789091 0.522877 0.068294
0.813381 0.522861 0.065258
0.828040 0.521993 0.065094
0.842698 0.521125 0.064930
0.857357 0.520257 0.064767
0.872016 0.519389 0.064603
0.884943 0.518300 0.064801
0.889214 0.516101 0.066804
0.893485 0.513902 0.068807
0.897757 0.511704 0.070811
0.902028 0.509505 0.072814
0.906299 0.507306 0.074818
0.101161 0.540901 0.233852
0.125983 0.540572 0.226589
0.150805 0.540244 0.219327
0.175628 0.539915 0.212064
0.200450 0.539587 0.204801
0.225272 0.539258 0.197538
0.263667 0.540341 0.187590
0.304775 0.541705 0.177104
0.345884 0.543070 0.166618
0.386992 0.544434 0.156132
0.428101 0.545799 0.145646
0.469056 0.547151 0.136111
0.509935 0.548497 0.127050
0.550814 0.549844 0.117990
0.591693 0.551190 0.108929
0.632571 0.552536 0.099869
0.667907 0.553380 0.092925
0.697699 0.553723 0.088098
0.727490 0.554065 0.083272
0.757282 0.554408 0.078445
0.787074 0.554750 0.073618
0.812053 0.554654 0.070312
0.827405 0.553681 0.070049
0.842758 0.552708 0.069786
0.858111 0.551735 0.069522
0.873463 0.550762 0.069259
0.887022 0.549568 0.069400
0.891611 0.547269 0.071563
0.896200 0.544971 0.073726
0.900789 0.542673 0.075888
0.905378 0.540374 0.078051
0.909967 0.538076 0.080214
0.112596 0.571817 0.243530
0.135839 0.571307 0.236266
0.159082 0.570797 0.229003
0.182325 0.570288 0.221739
0.205569 0.569778 0.214475
0.228812 0.569268 0.207211
0.265934 0.570271 0.197147
0.305832 0.571576 0.186523
0.345730 0.572881 0.175899
0.385628 0.574187 0.165275
0.425526 0.575492 0.154651
0.465918 0.576856 0.144863
0.506556 0.578249 0.135494
0.547194 0.579642 0.126124
0.587833 0.581035 0.116754
0.628471 0.582428 0.107384
0.663934 0.583330 0.100132
0.694222 0.583740 0.094996
0.724510 0.584150 0.089860
0.754798 0.584560 0.084724
0.785086 0.584971 0.079589
0.810612 0.584927 0.076041
0.826614 0.583977 0.075671
0.842616 0.583026 0.075301
0.858618 0.582076 0.074930
0.874620 0.581125 0.074560
0.888778 0.579949 0.074640
0.893719 0.577648 0.076975
0.898660 0.575347 0.079311
0.903601 0.573046 0.081646
0.908541 0.570744 0.083981
0.913482 0.568443 0.086316
0.127737 0.598874 0.251851
0.149344 0.598282 0.244681
0.170952 0.597689 0.237512
0.192559 0.597096 0.230342
0.214167 0.596504 0.223173
0.235775 0.595911 0.216003
0.271435 0.596929 0.205957
0.309907 0.598269 0.195335
0.348378 0.599609 0.184714
0.386849 0.600949 0.174092
0.425320 0.602290 0.163470
0.464893 0.603774 0.153553
0.505017 0.605331 0.143987
0.545141 0.606888 0.134421
0.585265 0.608445 0.124855
0.625389 0.610001 0.115289
0.660748 0.611086 0.107806
0.691343 0.611700 0.102406
0.721938 0.612313 0.097006
0.752533 0.612926 0.091606
0.783129 0.613539 0.086207
0.809061 0.613681 0.082445
0.825667 0.612881 0.081960
0.842273 0.612081 0.081475
0.858879 0.611280 0.080990
0.875485 0.610480 0.080505
0.890212 0.609445 0.080521
0.895538 0.607237 0.083042
0.900865 0.605030 0.085562
0.906192 0.602822 0.088083
0.911518 0.600614 0.090604
0.916845 0.598407 0.093124
0.142878 0.625932 0.260171
0.162850 0.625256 0.253096
0.182822 0.624580 0.246021
0.202794 0.623905 0.238946
0.222765 0.623229 0.231870
0.242737 0.622554 0.224795
0.276936 0.623587 0.214767
0.313981 0.624962 0.204147
0.351026 0.626337 0.193528
0.388070 0.627712 0.182909
0.425115 0.629087 0.172289
0.463869 0.630693 0.162242
0.503478 0.632413 0.152480
0.543088 0.634134 0.142718
0.582697 0.635854 0.132956
0.622306 0.637575 0.123194
0.657562 0.638843 0.115481
0.688464 0.639659 0.109817
0.719366 0.640476 0.104153
0.750268 0.641292 0.098489
0.781171 0.642108 0.092824
0.807509 0.642436 0.088848
0.824719 0.641785 0.088249
0.841930 0.641135 0.087649
0.859140 0.640485 0.087050
0.876351 0.639835 0.086451
0.891645 0.638941 0.086402
0.897358 0.636827 0.089108
0.903070 0.634713 0.091814
0.908783 0.632599 0.094520
0.914495 0.630485 0.097227
0.920208 0.628371 0.099933
0.158019 0.652989 0.268492
0.176355 0.652231 0.261511
0.194691 0.651472 0.254530
0.213028 0.650713 0.247549
0.231364 0.649955 0.240568
0.249700 0.649196 0.233587
0.282438 0.650245 0.223576
0.318055 0.651655 0.212959
0.353673 0.653065 0.202342
0.389291 0.654475 0.191725
0.424909 0.655885 0.181108
0.462845 0.657612 0.170931
0.501939 0.659496 0.160973
0.541034 0.661380 0.151015
0.580129 0.663264 0.141057
0.619224 0.665148 0.131099
0.654376 0.666600 0.123156
0.685585 0.667619 0.117228
0.716794 0.668638 0.111299
0.748004 0.669658 0.105371
0.779213 0.670677 0.099442
0.805957 0.671190 0.095252
0.823772 0.670690 0.094538
0.841587 0.670190 0.093824
0.859402 0.669690 0.093110
0.877216 0.669190 0.092396
0.893078 0.668436 0.092283
0.899177 0.666416 0.095175
0.905275 0.664395 0.098066
0.911374 0.662375 0.100958
0.917472 0.660355 0.103849
0.923570 0.658334 0.106741
0.173160 0.680047 0.276812
0.189860 0.679205 0.269925
0.206561 0.678364 0.263039
0.223262 0.677522 0.256152
0.239962 0.676680 0.249266
0.256663 0.675839 0.242379
0.287939 0.676903 0.232386
0.322130 0.678348 0.221771
0.356321 0.679793 0.211157
0.390512 0.681238 0.200542
0.424703 0.682683 0.189927
0.461820 0.684530 0.179620
0.500401 0.686578 0.169466
0.538981 0.688626 0.159312
0.577561 0.690674 0.149158
0.616141 0.692721 0.139004
0.651190 0.694356 0.130831
0.682706 0.695579 0.124638
0.714222 0.696801 0.118446
0.745739 0.698024 0.112253
0.777255 0.699246 0.106060
0.804405 0.699944 0.101655
0.822825 0.699594 0.100827
0.841244 0.699244 0.099998
0.859663 0.698894 0.099170
0.878082 0.698544 0.098341
0.894512 0.697932 0.098164
0.900996 0.696005 0.101241
0.907480 0.694078 0.104318
0.913965 0.692152 0.107395
0.920449 0.690225 0.110472
0.926933 0.688298 0.113549
0.190226 0.703605 0.283888
0.205380 0.702741 0.277159
0.220533 0.701877 0.270430
0.235687 0.701013 0.263702
0.250840 0.700149 0.256973
0.265994 0.699285 0.250244
0.295746 0.700389 0.240361
0.328418 0.701888 0.229847
0.361090 0.703386 0.219332
0.393763 0.704884 0.208818
0.426435 0.706383 0.198303
0.462569 0.708364 0.187964
0.500434 0.710587 0.177713
0.538300 0.712810 0.167461
0.576165 0.715033 0.157210
0.614030 0.717256 0.146959
0.648784 0.719096 0.138635
0.680425 0.720554 0.132240
0.712067 0.722012 0.125845
0.743708 0.723469 0.119450
0.775350 0.724927 0.113054
0.802760 0.725850 0.108481
0.821708 0.725706 0.107551
0.840655 0.725562 0.106622
0.859603 0.725418 0.105692
0.878550 0.725273 0.104762
0.895488 0.724856 0.104530
0.902373 0.723076 0.107782
0.909258 0.721296 0.111034
0.916144 0.719515 0.114286
0.923029 0.717735 0.117539
0.929914 0.715954 0.120791
0.211142 0.720167 0.288474
0.224926 0.719401 0.282030
0.238710 0.718635 0.275587
0.252494 0.717870 0.269144
0.266278 0.717104 0.262700
0.280062 0.716338 0.256257
0.308166 0.717534 0.246668
0.339135 0.719121 0.236449
0.370104 0.720709 0.226230
0.401072 0.722297 0.216012
0.432041 0.723885 0.205793
0.466864 0.726028 0.195619
0.503613 0.728449 0.185467
0.540363 0.730871 0.175315
0.577113 0.733292 0.165163
0.613863 0.735714 0.155012
0.647939 0.737803 0.146698
0.679342 0.739560 0.140224
0.710744 0.741317 0.133750
0.742147 0.743074 0.127276
0.773550 0.744831 0.120801
0.800927 0.746060 0.116150
0.820251 0.746233 0.115146
0.839575 0.746406 0.114142
0.858900 0.746578 0.113138
0.878224 0.746751 0.112134
0.895548 0.746640 0.111865
0.902865 0.745111 0.115272
0.910182 0.743582 0.118679
0.917499 0.742053 0.122086
0.924816 0.740524 0.125493
0.932133 0.738996 0.128900
0.232058 0.736728 0.293060
0.244472 0.736061 0.286902
0.256887 0.735393 0.280744
0.269301 0.734726 0.274586
0.281715 0.734059 0.268427
0.294130 0.733392 0.262269
0.320586 0.734678 0.252974
0.349852 0.736355 0.243051
0.379117 0.738032 0.233129
0.408382 0.739709 0.223206
0.437647 0.741387 0.213283
0.471158 0.743692 0.203274
0.506793 0.746312 0.193222
0.542427 0.748932 0.183169
0.578061 0.751551 0.173117
0.613695 0.754171 0.163065
0.647094 0.756509 0.154762
0.678258 0.758566 0.148208
0.709422 0.760623 0.141655
0.740586 0.762679 0.135102
0.771750 0.764736 0.128548
0.799093 0.766271 0.123820
0.818795 0.766760 0.122741
0.838496 0.767249 0.121663
0.858197 0.767739 0.120584
0.877898 0.768228 0.119506
0.895607 0.768423 0.119201
0.903356 0.767146 0.122762
0.911105 0.765868 0.126324
0.918854 0.764591 0.129886
0.926602 0.763314 0.133447
0.934351 0.762037 0.137009
0.252974 0.753289 0.297646
0.264019 0.752720 0.291773
0.275063 0.752151 0.285900
0.286108 0.751583 0.280028
0.297153 0.751014 0.274155
0.308197 0.750445 0.268282
0.333006 0.751822 0.259281
0.360568 0.753589 0.249654
0.388130 0.755355 0.240027
0.415692 0.757122 0.230400
0.443254 0.758889 0.220773
0.475453 0.761356 0.210929
0.509972 0.764174 0.200976
0.544490 0.766992 0.191023
0.579009 0.769810 0.181070
0.613527 0.772628 0.171117
0.646249 0.775216 0.162825
0.677174 0.777572 0.156192
0.708100 0.779928 0.149560
0.739025 0.782285 0.142928
0.769950 0.784641 0.136295
0.797260 0.786481 0.131489
0.817338 0.787287 0.130336
0.837416 0.788093 0.129184
0.857494 0.788899 0.128031
0.877572 0.789705 0.126878
0.895667 0.790206 0.126536
0.903848 0.789180 0.130252
0.912028 0.788155 0.133969
0.920208 0.787129 0.137685
0.928389 0.786104 0.141401
0.936569 0.785078 0.145118
0.273890 0.769850 0.302232
0.283565 0.769380 0.296645
0.293240 0.768909 0.291057
0.302915 0.768439 0.285469
0.312590 0.767969 0.279882
0.322265 0.767499 0.274294
0.345427 0.768967 0.265587
0.371285 0.770823 0.256256
0.397143 0.772679 0.246925
0.423002 0.774535 0.237594
0.448860 0.776391 0.228263
0.479748 0.779020 0.218584
0.513151 0.782037 0.208731
0.546554 0.785053 0.198877
0.579956 0.788069 0.189024
0.613359 0.791086 0.179170
0.645404 0.793922 0.170888
0.676091 0.796578 0.164177
0.706777 0.799234 0.157465
0.737464 0.801890 0.150754
0.768151 0.804546 0.144042
0.795427 0.806691 0.139159
0.815882 0.807814 0.137932
0.836336 0.808937 0.136704
0.856791 0.810059 0.135477
0.877246 0.811182 0.134249
0.895727 0.811989 0.133872
0.904339 0.811215 0.137743
0.912951 0.810441 0.141614
0.921563 0.809667 0.145485
0.930175 0.808893 0.149356
0.938787 0.808119 0.153227
0.294826 0.784937 0.306301
0.303270 0.784584 0.301020
0.311714 0.784230 0.295739
0.320158 0.783876 0.290458
0.328601 0.783522 0.285176
0.337045 0.783169 0.279895
0.358590 0.784721 0.271511
0.382756 0.786654 0.262507
0.406921 0.788587 0.253503
0.431086 0.790520 0.244498
0.455251 0.792453 0.235494
0.484786 0.795224 0.226019
0.517005 0.798414 0.216308
0.549224 0.801603 0.206597
0.581443 0.804793 0.196886
0.613663 0.807983 0.187175
0.644953 0.811045 0.178945
0.675316 0.813980 0.172194
0.705679 0.816916 0.165443
0.736042 0.819851 0.158692
0.766405 0.822786 0.151942
0.793574 0.825222 0.147013
0.814357 0.826657 0.145728
0.835140 0.828092 0.144444
0.855923 0.829527 0.143160
0.876706 0.830962 0.141875
0.895533 0.832072 0.141473
0.904582 0.831552 0.145484
0.913632 0.831033 0.149495
0.922681 0.830514 0.153506
0.931731 0.829994 0.157517
0.940780 0.829475 0.161528
0.315861 0.792656 0.307786
0.323765 0.792509 0.302916
0.331670 0.792362 0.298047
0.339575 0.792215 0.293177
0.347480 0.792068 0.288307
0.355385 0.791922 0.283437
0.375473 0.793522 0.275522
0.397997 0.795471 0.266998
0.420521 0.797421 0.258475
0.443046 0.799371 0.249951
0.465570 0.801320 0.241427
0.493541 0.804128 0.232350
0.524236 0.807365 0.222998
0.554931 0.810602 0.213645
0.585626 0.813839 0.204292
0.616321 0.817076 0.194940
0.646475 0.820252 0.186968
0.676088 0.823366 0.180376
0.705701 0.826479 0.173785
0.735314 0.829593 0.167193
0.764927 0.832707 0.160601
0.791624 0.835358 0.155789
0.812491 0.837082 0.154534
