Assets/1__3DArt/KimSe/artstation_asset/LUTs_pasterls/CUBE/Cotton Candy 04 S.cube
# Enhanced with VOXCOLOR algorithms
LUT_3D_SIZE 32
0.054902 0.058824 0.082353
0.100587 0.064558 0.077988
0.146272 0.070293 0.073624
0.191956 0.076027 0.069259
0.237641 0.081762 0.064894
0.283326 0.087496 0.060529
0.332957 0.093809 0.055475
0.383378 0.100238 0.050282
0.433798 0.106667 0.045090
0.484219 0.113096 0.039897
0.534639 0.119525 0.034705
0.575460 0.125522 0.031097
0.611481 0.131303 0.028282
0.647501 0.137085 0.025467
0.683522 0.142866 0.022652
0.719543 0.148647 0.019837
0.746754 0.153634 0.018235
0.765157 0.157825 0.017848
0.783559 0.162016 0.017461
0.801961 0.166208 0.017074
0.820364 0.170399 0.016687
0.834695 0.173970 0.016693
0.840882 0.176299 0.017486
0.847070 0.178629 0.018278
0.853258 0.180959 0.019070
0.859446 0.183289 0.019863
0.864795 0.185327 0.020620
0.865954 0.185909 0.021202
0.867112 0.186490 0.021784
0.868271 0.187072 0.022365
0.869429 0.187653 0.022947
0.870588 0.188235 0.023529
0.054920 0.085328 0.090499
0.098931 0.090466 0.085793
0.142942 0.095605 0.081087
0.186952 0.100743 0.076381
0.230963 0.105882 0.071675
0.274974 0.111020 0.066969
0.323369 0.116663 0.061468
0.372640 0.122407 0.055809
0.421912 0.128151 0.050149
0.471183 0.133895 0.044489
0.520455 0.139639 0.038829
0.560820 0.144973 0.034791
0.596731 0.150102 0.031563
0.632643 0.155231 0.028336
0.668555 0.160361 0.025109
0.704467 0.165490 0.021881
0.732077 0.169947 0.019969
0.751385 0.173733 0.019372
0.770694 0.177519 0.018775
0.790002 0.181305 0.018177
0.809311 0.185091 0.017580
0.824710 0.188371 0.017459
0.832291 0.190637 0.018288
0.839872 0.192904 0.019118
0.847452 0.195171 0.019948
0.855033 0.197437 0.020777
0.861695 0.199448 0.021607
0.863759 0.200181 0.022434
0.865824 0.200913 0.023262
0.867889 0.201645 0.024089
0.869953 0.202378 0.024917
0.872018 0.203110 0.025745
0.054939 0.111832 0.098646
0.097275 0.116374 0.093598
0.139612 0.120917 0.088551
0.181949 0.125459 0.083504
0.224285 0.130002 0.078456
0.266622 0.134544 0.073409
0.313780 0.139517 0.067462
0.361903 0.144576 0.061335
0.410025 0.149634 0.055208
0.458148 0.154693 0.049080
0.506270 0.159752 0.042953
0.546180 0.164423 0.038485
0.581982 0.168900 0.034845
0.617785 0.173378 0.031205
0.653588 0.177855 0.027566
0.689390 0.182332 0.023926
0.717399 0.186261 0.021702
0.737614 0.189642 0.020895
0.757829 0.193022 0.020088
0.778044 0.196403 0.019281
0.798258 0.199783 0.018473
0.814726 0.202772 0.018224
0.823700 0.204975 0.019091
0.832673 0.207179 0.019958
0.841647 0.209382 0.020825
0.850621 0.211586 0.021692
0.858594 0.213569 0.022593
0.861565 0.214453 0.023667
0.864536 0.215336 0.024740
0.867507 0.216219 0.025814
0.870477 0.217102 0.026887
0.873448 0.217986 0.027960
0.054957 0.138336 0.106792
0.095620 0.142282 0.101403
0.136282 0.146229 0.096015
0.176945 0.150175 0.090626
0.217607 0.154122 0.085237
0.258270 0.158068 0.079849
0.304191 0.162371 0.073455
0.351165 0.166744 0.066861
0.398139 0.171118 0.060266
0.445112 0.175492 0.053672
0.492086 0.179866 0.047078
0.531540 0.183874 0.042178
0.567233 0.187699 0.038126
0.602927 0.191524 0.034074
0.638621 0.195349 0.030022
0.674314 0.199175 0.025971
0.702722 0.202575 0.023436
0.723843 0.205550 0.022419
0.744964 0.208525 0.021401
0.766085 0.211501 0.020384
0.787206 0.214476 0.019367
0.804742 0.217173 0.018990
0.815109 0.219313 0.019894
0.825475 0.221454 0.020798
0.835842 0.223594 0.021702
0.846208 0.225735 0.022607
0.855493 0.227691 0.023580
0.859370 0.228725 0.024899
0.863247 0.229759 0.026218
0.867124 0.230793 0.027538
0.871001 0.231827 0.028857
0.874878 0.232861 0.030176
0.054976 0.164840 0.114938
0.093964 0.168190 0.109208
0.132952 0.171541 0.103478
0.171941 0.174891 0.097748
0.210929 0.178241 0.092018
0.249918 0.181592 0.086288
0.294603 0.185224 0.079449
0.340427 0.188913 0.072387
0.386252 0.192602 0.065325
0.432077 0.196290 0.058264
0.477901 0.199979 0.051202
0.516899 0.203324 0.045872
0.552484 0.206497 0.041408
0.588069 0.209671 0.036944
0.623653 0.212844 0.032479
0.659238 0.216017 0.028015
0.688044 0.218889 0.025169
0.710071 0.221459 0.023942
0.732099 0.224028 0.022715
0.754126 0.226598 0.021487
0.776153 0.229168 0.020260
0.794758 0.231574 0.019755
0.806517 0.233651 0.020697
0.818277 0.235729 0.021638
0.830036 0.237806 0.022580
0.841796 0.239883 0.023521
0.852393 0.241812 0.024567
0.857176 0.242997 0.026132
0.861959 0.244182 0.027697
0.866742 0.245367 0.029262
0.871525 0.246552 0.030827
0.876309 0.247736 0.032392
0.054994 0.191344 0.123084
0.092308 0.194098 0.117013
0.129623 0.196853 0.110942
0.166937 0.199607 0.104871
0.204251 0.202361 0.098799
0.241565 0.205116 0.092728
0.285014 0.208078 0.085442
0.329690 0.211082 0.077913
0.374366 0.214085 0.070384
0.419041 0.217089 0.062855
0.463717 0.220093 0.055326
0.502259 0.222775 0.049566
0.537735 0.225296 0.044689
0.573211 0.227817 0.039813
0.608686 0.230338 0.034936
0.644162 0.232860 0.030060
0.673367 0.235202 0.026903
0.696300 0.237367 0.025465
0.719233 0.239531 0.024028
0.742167 0.241696 0.022590
0.765100 0.243860 0.021153
0.784774 0.245975 0.020521
0.797926 0.247989 0.021499
0.811079 0.250003 0.022478
0.824231 0.252018 0.023457
0.837384 0.254032 0.024436
0.849292 0.255933 0.025553
0.854981 0.257269 0.027364
0.860671 0.258605 0.029175
0.866360 0.259940 0.030986
0.872049 0.261276 0.032797
0.877739 0.262612 0.034608
0.056616 0.225257 0.133773
0.092446 0.227491 0.127384
0.128276 0.229726 0.120994
0.164106 0.231960 0.114605
0.199936 0.234195 0.108216
0.235766 0.236429 0.101827
0.278163 0.238834 0.094041
0.321873 0.241273 0.085975
0.365584 0.243712 0.077909
0.409294 0.246151 0.069843
0.453004 0.248590 0.061778
0.491270 0.250757 0.055492
0.526813 0.252788 0.050095
0.562355 0.254819 0.044699
0.597898 0.256850 0.039302
0.633441 0.258881 0.033906
0.663111 0.260818 0.030346
0.686908 0.262661 0.028623
0.710705 0.264504 0.026899
0.734503 0.266347 0.025176
0.758300 0.268190 0.023453
0.778908 0.270046 0.022641
0.793140 0.271928 0.023651
0.807372 0.273809 0.024662
0.821603 0.275691 0.025672
0.835835 0.277573 0.026682
0.848753 0.279361 0.027869
0.855107 0.280681 0.029936
0.861462 0.282001 0.032003
0.867816 0.283321 0.034070
0.874170 0.284641 0.036137
0.880524 0.285961 0.038205
0.058559 0.260652 0.144970
0.092943 0.262382 0.138267
0.127326 0.264111 0.131565
0.161709 0.265841 0.124862
0.196093 0.267570 0.118160
0.230476 0.269300 0.111457
0.271858 0.271171 0.103160
0.314640 0.273069 0.094544
0.357422 0.274968 0.085927
0.400204 0.276867 0.077311
0.442986 0.278765 0.068695
0.481010 0.280447 0.061864
0.516656 0.282019 0.055926
0.552301 0.283592 0.049988
0.587946 0.285165 0.044050
0.623591 0.286738 0.038112
0.653740 0.288294 0.034131
0.678393 0.289832 0.032107
0.703045 0.291370 0.030083
0.727697 0.292909 0.028059
0.752350 0.294447 0.026035
0.773867 0.296051 0.025032
0.789115 0.297786 0.026073
0.804363 0.299522 0.027113
0.819611 0.301257 0.028154
0.834859 0.302993 0.029195
0.848727 0.304651 0.030450
0.855698 0.305921 0.032775
0.862668 0.307192 0.035101
0.869639 0.308463 0.037426
0.876609 0.309734 0.039752
0.883580 0.311004 0.042078
0.060502 0.296047 0.156167
0.093439 0.297272 0.149151
0.126376 0.298497 0.142135
0.159313 0.299722 0.135119
0.192250 0.300946 0.128104
0.225187 0.302171 0.121088
0.265554 0.303507 0.112279
0.307408 0.304865 0.103112
0.349261 0.306223 0.093945
0.391115 0.307582 0.084778
0.432968 0.308940 0.075611
0.470751 0.310136 0.068236
0.506499 0.311251 0.061757
0.542246 0.312365 0.055277
0.577994 0.313480 0.048798
0.613742 0.314595 0.042318
0.644369 0.315769 0.037916
0.669877 0.317003 0.035591
0.695384 0.318237 0.033266
0.720892 0.319470 0.030941
0.746399 0.320704 0.028616
0.768826 0.322056 0.027423
0.785090 0.323645 0.028494
0.801354 0.325234 0.029565
0.817619 0.326823 0.030636
0.833883 0.328412 0.031707
0.848701 0.329940 0.033031
0.856288 0.331162 0.035615
0.863875 0.332383 0.038199
0.871462 0.333605 0.040783
0.879049 0.334826 0.043367
0.886636 0.336048 0.045951
0.062445 0.331442 0.167364
0.093936 0.332162 0.160035
0.125426 0.332882 0.152706
0.156917 0.333602 0.145377
0.188407 0.334322 0.138047
0.219898 0.335042 0.130718
0.259250 0.335844 0.121399
0.300175 0.336661 0.111681
0.341100 0.337479 0.101964
0.382025 0.338297 0.092246
0.422950 0.339115 0.082528
0.460491 0.339825 0.074608
0.496341 0.340482 0.067587
0.532192 0.341139 0.060566
0.568042 0.341795 0.053545
0.603892 0.342452 0.046524
0.634998 0.343245 0.041701
0.661361 0.344174 0.039075
0.687724 0.345103 0.036449
0.714086 0.346032 0.033824
0.740449 0.346961 0.031198
0.763785 0.348061 0.029814
0.781065 0.349504 0.030916
0.798346 0.350947 0.032017
0.815626 0.352389 0.033119
0.832907 0.353832 0.034220
0.848674 0.355229 0.035612
0.856878 0.356402 0.038454
0.865081 0.357574 0.041297
0.873285 0.358747 0.044139
0.881489 0.359919 0.046981
0.889692 0.361092 0.049824
0.064388 0.366838 0.178561
0.094432 0.367053 0.170918
0.124476 0.367268 0.163276
0.154520 0.367483 0.155634
0.184564 0.367698 0.147991
0.214608 0.367913 0.140349
0.252946 0.368180 0.130518
0.292942 0.368457 0.120250
0.332939 0.368735 0.109982
0.372935 0.369012 0.099714
0.412931 0.369289 0.089445
0.450232 0.369514 0.080981
0.486184 0.369713 0.073418
0.522137 0.369912 0.065856
0.558089 0.370111 0.058293
0.594042 0.370309 0.050730
0.625627 0.370721 0.045486
0.652845 0.371345 0.042559
0.680063 0.371969 0.039633
0.707281 0.372594 0.036706
0.734499 0.373218 0.033779
0.758743 0.374066 0.032206
0.777040 0.375363 0.033337
0.795337 0.376659 0.034469
0.813634 0.377955 0.035601
0.831931 0.379251 0.036733
0.848648 0.380519 0.038193
0.857468 0.381642 0.041294
0.866288 0.382765 0.044394
0.875108 0.383889 0.047495
0.883928 0.385012 0.050596
0.892748 0.386135 0.053697
0.070119 0.401836 0.189581
0.098726 0.401688 0.181760
0.127333 0.401540 0.173940
0.155940 0.401392 0.166119
0.184547 0.401243 0.158299
0.213154 0.401095 0.150478
0.250533 0.401052 0.140294
0.289667 0.401030 0.129638
0.328800 0.401008 0.118982
0.367933 0.400987 0.108325
0.407067 0.400965 0.097669
0.444157 0.400956 0.088764
0.480226 0.400954 0.080735
0.516295 0.400952 0.072706
0.552364 0.400950 0.064677
0.588433 0.400948 0.056648
0.620428 0.401196 0.051010
0.648349 0.401694 0.047763
0.676270 0.402192 0.044516
0.704191 0.402689 0.041269
0.732113 0.403187 0.038021
0.757057 0.403919 0.036222
0.776048 0.405118 0.037317
0.795040 0.406318 0.038412
0.814031 0.407517 0.039507
0.833023 0.408716 0.040602
0.850377 0.409886 0.042064
0.859550 0.410908 0.045358
0.868722 0.411930 0.048652
0.877894 0.412952 0.051946
0.887067 0.413974 0.055240
0.896239 0.414996 0.058534
0.077744 0.436636 0.200513
0.104919 0.436196 0.192581
0.132093 0.435755 0.184650
0.159268 0.435314 0.176719
0.186443 0.434874 0.168788
0.213618 0.434433 0.160857
0.250066 0.434192 0.150399
0.288370 0.433992 0.139435
0.326673 0.433791 0.128472
0.364976 0.433591 0.117509
0.403279 0.433390 0.106545
0.440175 0.433274 0.097252
0.476367 0.433199 0.088795
0.512560 0.433125 0.080337
0.548752 0.433051 0.071879
0.584945 0.432977 0.063422
0.617315 0.433170 0.057404
0.645863 0.433631 0.053827
0.674411 0.434091 0.050249
0.702960 0.434552 0.046671
0.731508 0.435013 0.043094
0.757048 0.435696 0.041050
0.776573 0.436823 0.042075
0.796098 0.437949 0.043100
0.815623 0.439076 0.044125
0.835148 0.440203 0.045150
0.852985 0.441292 0.046580
0.862377 0.442186 0.050034
0.871769 0.443081 0.053489
0.881162 0.443976 0.056943
0.890554 0.444871 0.060397
0.899947 0.445766 0.063852
0.085368 0.471437 0.211444
0.111111 0.470703 0.203403
0.136854 0.469970 0.195361
0.162596 0.469237 0.187319
0.188339 0.468504 0.179277
0.214082 0.467771 0.171235
0.249600 0.467333 0.160503
0.287073 0.466953 0.149233
0.324546 0.466574 0.137962
0.362018 0.466195 0.126692
0.399491 0.465816 0.115422
0.436193 0.465592 0.105741
0.472509 0.465445 0.096855
0.508824 0.465299 0.087968
0.545140 0.465152 0.079082
0.581456 0.465006 0.070195
0.614202 0.465144 0.063798
0.643377 0.465568 0.059890
0.672552 0.465991 0.055982
0.701728 0.466415 0.052074
0.730903 0.466838 0.048166
0.757040 0.467472 0.045879
0.777098 0.468527 0.046834
0.797157 0.469581 0.047788
0.817216 0.470636 0.048743
0.837274 0.471691 0.049698
0.855592 0.472697 0.051096
0.865204 0.473465 0.054711
0.874817 0.474233 0.058325
0.884429 0.475001 0.061940
0.894042 0.475768 0.065555
0.903654 0.476536 0.069170
0.092993 0.506237 0.222376
0.117304 0.505211 0.214224
0.141614 0.504185 0.206071
0.165925 0.503160 0.197919
0.190235 0.502134 0.189766
0.214546 0.501108 0.181614
0.249133 0.500473 0.170607
0.285776 0.499915 0.159030
0.322418 0.499357 0.147453
0.359061 0.498799 0.135876
0.395704 0.498241 0.124299
0.432211 0.497909 0.114229
0.468650 0.497691 0.104914
0.505089 0.497472 0.095599
0.541528 0.497253 0.086284
0.577968 0.497035 0.076969
0.611088 0.497119 0.070192
0.640891 0.497505 0.065954
0.670693 0.497891 0.061715
0.700496 0.498277 0.057477
0.730299 0.498664 0.053238
0.757031 0.499249 0.050708
0.777623 0.500231 0.051592
0.798215 0.501213 0.052476
0.818808 0.502196 0.053361
0.839400 0.503178 0.054245
0.858199 0.504103 0.055611
0.868032 0.504744 0.059387
0.877864 0.505384 0.063162
0.887697 0.506025 0.066938
0.897530 0.506666 0.070713
0.907362 0.507306 0.074489
0.100618 0.541037 0.233308
0.123496 0.539719 0.225045
0.146374 0.538401 0.216782
0.169253 0.537082 0.208519
0.192131 0.535764 0.200255
0.215009 0.534446 0.191992
0.248666 0.533613 0.180712
0.284479 0.532876 0.168827
0.320291 0.532140 0.156943
0.356103 0.531403 0.145059
0.391916 0.530667 0.133175
0.428228 0.530227 0.122718
0.464791 0.529936 0.112974
0.501354 0.529646 0.103230
0.537916 0.529355 0.093486
0.574479 0.529064 0.083742
0.607975 0.529093 0.076586
0.638405 0.529442 0.072017
0.668835 0.529791 0.067448
0.699264 0.530140 0.062880
0.729694 0.530489 0.058311
0.757022 0.531025 0.055536
0.778148 0.531935 0.056351
0.799274 0.532845 0.057165
0.820400 0.533755 0.057979
0.841526 0.534665 0.058793
0.860806 0.535509 0.060127
0.870859 0.536022 0.064063
0.880912 0.536536 0.067999
0.890965 0.537049 0.071935
0.901017 0.537563 0.075871
0.911070 0.538076 0.079807
0.111852 0.572003 0.242786
0.133300 0.570531 0.234552
0.154748 0.569059 0.226319
0.176196 0.567587 0.218085
0.197644 0.566115 0.209852
0.219093 0.564643 0.201618
0.251764 0.563780 0.190256
0.286681 0.563039 0.178268
0.321597 0.562298 0.166280
0.356514 0.561557 0.154292
0.391430 0.560816 0.142304
0.427430 0.560439 0.131620
0.463971 0.560245 0.121589
0.500513 0.560051 0.111558
0.537054 0.559856 0.101527
0.573595 0.559662 0.091496
0.607297 0.559781 0.084047
0.638157 0.560215 0.079179
0.669018 0.560648 0.074310
0.699879 0.561081 0.069442
0.730740 0.561514 0.064574
0.758466 0.562100 0.061558
0.779924 0.562991 0.062248
0.801381 0.563882 0.062938
0.822839 0.564773 0.063628
0.844296 0.565664 0.064318
0.863868 0.566473 0.065566
0.874015 0.566867 0.069605
0.884161 0.567261 0.073643
0.894307 0.567655 0.077682
0.904454 0.568049 0.081720
0.914600 0.568443 0.085759
0.126695 0.599135 0.250809
0.146715 0.597648 0.242745
0.166735 0.596161 0.234682
0.186755 0.594674 0.226618
0.206775 0.593187 0.218555
0.226795 0.591700 0.210491
0.258427 0.590976 0.199240
0.292382 0.590404 0.187351
0.326337 0.589832 0.175462
0.360291 0.589260 0.163573
0.394246 0.588688 0.151684
0.429815 0.588545 0.140936
0.466190 0.588616 0.130760
0.502566 0.588687 0.120584
0.538941 0.588758 0.110408
0.575317 0.588829 0.100231
0.609053 0.589184 0.092575
0.640149 0.589823 0.087438
0.671245 0.590462 0.082301
0.702341 0.591100 0.077164
0.733437 0.591739 0.072027
0.761363 0.592474 0.068773
0.782950 0.593399 0.069285
0.804537 0.594325 0.069797
0.826124 0.595250 0.070309
0.847711 0.596176 0.070820
0.867385 0.596994 0.071927
0.877498 0.597277 0.076011
0.887612 0.597559 0.080094
0.897725 0.597842 0.084177
0.907838 0.598124 0.088260
0.917952 0.598407 0.092344
0.141539 0.626267 0.258832
0.160131 0.624765 0.250938
0.178722 0.623263 0.243045
0.197314 0.621761 0.235151
0.215906 0.620259 0.227258
0.234497 0.618757 0.219364
0.265090 0.618171 0.208224
0.298083 0.617768 0.196434
0.331076 0.617366 0.184644
0.364069 0.616963 0.172854
0.397062 0.616561 0.161064
0.432200 0.616651 0.150252
0.468409 0.616987 0.139931
0.504619 0.617323 0.129609
0.540829 0.617660 0.119288
0.577038 0.617996 0.108966
0.610809 0.618587 0.101102
0.642140 0.619431 0.095697
0.673471 0.620275 0.090292
0.704803 0.621120 0.084886
0.736134 0.621964 0.079481
0.764260 0.622847 0.075988
0.785977 0.623807 0.076322
0.807693 0.624767 0.076656
0.829409 0.625727 0.076989
0.851125 0.626687 0.077323
0.870902 0.627516 0.078289
0.880982 0.627687 0.082417
0.891062 0.627858 0.086545
0.901143 0.628029 0.090673
0.911223 0.628200 0.094801
0.921303 0.628371 0.098929
0.156383 0.653398 0.266855
0.173546 0.651881 0.259132
0.190710 0.650364 0.251408
0.207873 0.648847 0.243684
0.225036 0.647330 0.235961
0.242200 0.645814 0.228237
0.271753 0.645366 0.217208
0.303784 0.645133 0.205517
0.335816 0.644900 0.193826
0.367847 0.644667 0.182135
0.399879 0.644433 0.170444
0.434585 0.644757 0.159569
0.470628 0.645358 0.149102
0.506672 0.645960 0.138635
0.542716 0.646562 0.128168
0.578760 0.647163 0.117701
0.612565 0.647989 0.109630
0.644131 0.649039 0.103956
0.675698 0.650089 0.098282
0.707265 0.651139 0.092608
0.738831 0.652189 0.086934
0.767157 0.653221 0.083204
0.789003 0.654215 0.083359
0.810849 0.655210 0.083514
0.832694 0.656204 0.083670
0.854540 0.657198 0.083825
0.874419 0.658037 0.084650
0.884466 0.658096 0.088823
0.894513 0.658156 0.092995
0.904560 0.658215 0.097168
0.914608 0.658275 0.101341
0.924655 0.658334 0.105514
0.171226 0.680530 0.274878
0.186961 0.678998 0.267325
0.202697 0.677466 0.259771
0.218432 0.675934 0.252218
0.234167 0.674402 0.244664
0.249902 0.672870 0.237111
0.278416 0.672562 0.226192
0.309486 0.672498 0.214600
0.340555 0.672434 0.203008
0.371625 0.672370 0.191416
0.402695 0.672306 0.179824
0.436970 0.672863 0.168885
0.472848 0.673730 0.158272
0.508725 0.674596 0.147660
0.544603 0.675463 0.137048
0.580481 0.676330 0.126435
0.614321 0.677392 0.118158
0.646123 0.678647 0.112216
0.677924 0.679903 0.106273
0.709726 0.681159 0.100331
0.741528 0.682414 0.094388
0.770054 0.683595 0.090419
0.792029 0.684623 0.090396
0.814004 0.685652 0.090373
0.835979 0.686681 0.090350
0.857954 0.687710 0.090327
0.877936 0.688558 0.091011
0.887950 0.688506 0.095229
0.897964 0.688454 0.099446
0.907978 0.688402 0.103664
0.917992 0.688350 0.107881
0.928007 0.688298 0.112099
0.187995 0.704163 0.281657
0.202380 0.702684 0.274344
0.216765 0.701205 0.267032
0.231149 0.699725 0.259719
0.245534 0.698246 0.252406
0.259919 0.696767 0.245094
0.287320 0.696639 0.234391
0.317324 0.696782 0.223011
0.347328 0.696925 0.211631
0.377332 0.697067 0.200251
0.407336 0.697210 0.188871
0.441014 0.698029 0.177976
0.476528 0.699187 0.167324
0.512042 0.700345 0.156673
0.547556 0.701503 0.146021
0.583070 0.702661 0.135369
0.616761 0.703984 0.126966
0.648628 0.705473 0.120810
0.680495 0.706961 0.114654
0.712362 0.708450 0.108498
0.744229 0.709938 0.102343
0.772820 0.711296 0.098171
0.794857 0.712393 0.097969
0.816894 0.713489 0.097766
0.838931 0.714586 0.097564
0.860969 0.715683 0.097362
0.880999 0.716576 0.097900
0.890994 0.716452 0.102144
0.900990 0.716327 0.106387
0.910986 0.716203 0.110631
0.920981 0.716079 0.114874
0.930977 0.715954 0.119118
0.208614 0.720799 0.285946
0.221804 0.719508 0.279016
0.234994 0.718217 0.272086
0.248184 0.716926 0.265156
0.261375 0.715635 0.258226
0.274565 0.714344 0.251297
0.300706 0.714482 0.241023
0.329436 0.714906 0.230080
0.358167 0.715329 0.219137
0.386898 0.715753 0.208195
0.415629 0.716177 0.197252
0.448376 0.717318 0.186618
0.483131 0.718818 0.176139
0.517886 0.720319 0.165660
0.552641 0.721819 0.155181
0.587396 0.723319 0.144701
0.620570 0.724957 0.136332
0.652162 0.726732 0.130074
0.683755 0.728508 0.123816
0.715347 0.730283 0.117557
0.746939 0.732058 0.111299
0.775322 0.733653 0.106999
0.797287 0.734884 0.106614
0.819252 0.736116 0.106230
0.841217 0.737348 0.105845
0.863182 0.738580 0.105461
0.883154 0.739587 0.105846
0.893160 0.739468 0.110077
0.903166 0.739350 0.114309
0.913172 0.739232 0.118540
0.923178 0.739114 0.122772
0.933184 0.738996 0.127004
0.229233 0.737434 0.290235
0.241228 0.736331 0.283688
0.253224 0.735229 0.277141
0.265219 0.734126 0.270594
0.277215 0.733023 0.264047
0.289211 0.731921 0.257500
0.314091 0.732324 0.247654
0.341549 0.733029 0.237149
0.369006 0.733734 0.226643
0.396464 0.734439 0.216138
0.423921 0.735143 0.205633
0.455738 0.736607 0.195260
0.489734 0.738449 0.184953
0.523730 0.740292 0.174647
0.557726 0.742134 0.164340
0.591722 0.743977 0.154033
0.624379 0.745929 0.145699
0.655696 0.747992 0.139338
0.687014 0.750054 0.132978
0.718331 0.752116 0.126617
0.749649 0.754179 0.120256
0.777825 0.756009 0.115826
0.799718 0.757376 0.115260
0.821610 0.758743 0.114693
0.843503 0.760110 0.114126
0.865396 0.761477 0.113560
0.885309 0.762597 0.113791
0.895326 0.762485 0.118011
0.905342 0.762373 0.122230
0.915359 0.762261 0.126450
0.925375 0.762149 0.130670
0.935392 0.762037 0.134890
0.249852 0.754070 0.294524
0.260653 0.753155 0.288360
0.271454 0.752241 0.282196
0.282254 0.751326 0.276031
0.293055 0.750412 0.269867
0.303856 0.749498 0.263702
0.327477 0.750167 0.254285
0.353661 0.751153 0.244217
0.379845 0.752138 0.234150
0.406029 0.753124 0.224082
0.432213 0.754110 0.214014
0.463099 0.755895 0.203902
0.496337 0.758080 0.193768
0.529574 0.760265 0.183634
0.562811 0.762450 0.173499
0.596048 0.764635 0.163365
0.628188 0.766902 0.155066
0.659230 0.769251 0.148603
0.690273 0.771601 0.142139
0.721316 0.773950 0.135676
0.752359 0.776299 0.129212
0.780327 0.778366 0.124654
0.802148 0.779868 0.123905
0.823968 0.781370 0.123156
0.845789 0.782872 0.122408
0.867609 0.784373 0.121659
0.887464 0.785607 0.121736
0.897491 0.785502 0.125944
0.907518 0.785396 0.130152
0.917545 0.785290 0.134360
0.927572 0.785184 0.138568
0.937599 0.785078 0.142775
0.270471 0.770705 0.298814
0.280077 0.769979 0.293032
0.289683 0.769253 0.287250
0.299289 0.768527 0.281469
0.308896 0.767801 0.275687
0.318502 0.767074 0.269905
0.340862 0.768009 0.260916
0.365773 0.769276 0.251286
0.390684 0.770543 0.241656
0.415595 0.771810 0.232026
0.440506 0.773077 0.222395
0.470461 0.775184 0.212544
0.502939 0.777711 0.202582
0.535417 0.780238 0.192621
0.567895 0.782766 0.182659
0.600373 0.785293 0.172697
0.631996 0.787875 0.164433
0.662764 0.790511 0.157867
0.693532 0.793147 0.151301
0.724300 0.795783 0.144735
0.755069 0.798419 0.138169
0.782830 0.800723 0.133481
0.804578 0.802360 0.132550
0.826326 0.803996 0.131619
0.848075 0.805633 0.130689
0.869823 0.807270 0.129758
0.889619 0.808618 0.129682
0.899657 0.808518 0.133878
0.909694 0.808418 0.138074
0.919732 0.808319 0.142269
0.929769 0.808219 0.146465
0.939806 0.808119 0.150661
0.291277 0.785825 0.302754
0.299796 0.785296 0.297363
0.308314 0.784767 0.291973
0.316832 0.784238 0.286582
0.325351 0.783709 0.281192
0.333869 0.783180 0.275801
0.354952 0.784357 0.267253
0.378547 0.785875 0.258073
0.402142 0.787392 0.248893
0.425738 0.788910 0.239714
0.449333 0.790428 0.230534
0.478273 0.792822 0.220969
0.509884 0.795654 0.211213
0.541496 0.798487 0.201456
0.573108 0.801319 0.191699
0.604719 0.804151 0.181942
0.635732 0.807020 0.173750
0.666144 0.809926 0.167120
0.696556 0.812832 0.160491
0.726969 0.815739 0.153862
0.757381 0.818645 0.147233
0.784880 0.821177 0.142452
0.806553 0.822963 0.141368
0.828225 0.824749 0.140283
0.849897 0.826535 0.139199
0.871570 0.828321 0.138115
0.891312 0.829799 0.137910
0.901401 0.829734 0.142101
0.911490 0.829669 0.146292
0.921579 0.829604 0.150483
0.931668 0.829540 0.154674
0.941757 0.829475 0.158866
0.313022 0.793366 0.304948
0.320986 0.793079 0.299991
0.328951 0.792792 0.295034
0.336915 0.792505 0.290077
0.344880 0.792218 0.285119
0.352844 0.791931 0.280162
0.372562 0.793231 0.272116
0.394630 0.794848 0.263452
0.416698 0.796465 0.254787
0.438767 0.798083 0.246123
0.460835 0.799700 0.237459
0.488331 0.802206 0.228311
0.518540 0.805157 0.218922
0.548749 0.808109 0.209532
0.578958 0.811060 0.200143
0.609167 0.814011 0.190754
0.639098 0.817032 0.182812
0.668750 0.820122 0.176317
0.698403 0.823213 0.169823
0.728055 0.826303 0.163329
0.757708 0.829394 0.156834
0.784669 0.832123 0.152140
0.806247 0.834127 0.151046
