Assets/1__3DArt/KimSe/artstation_asset/LUTs_pasterls/CUBE/Cotton Candy 03.cube
# Enhanced with VOXCOLOR algorithms
LUT_3D_SIZE 8
DOMAIN_MIN 0.000000 0.000000 0.000000
DOMAIN_MAX 0.903226 0.903226 0.903226
0.141176 0.070588 0.090196
0.317515 0.093275 0.065288
0.494800 0.118013 0.042028
0.647980 0.141582 0.023611
0.759098 0.161330 0.012144
0.815816 0.174070 0.008511
0.840245 0.180605 0.008737
0.851174 0.183569 0.010273
0.146569 0.217519 0.116964
0.297931 0.224004 0.086365
0.462826 0.232947 0.057219
0.615140 0.241635 0.033416
0.734857 0.247896 0.017628
0.804311 0.249569 0.011472
0.837907 0.247249 0.010372
0.853542 0.242547 0.010794
0.172568 0.364167 0.141079
0.296230 0.361572 0.108833
0.443687 0.361019 0.075970
0.589719 0.360324 0.047386
0.713829 0.357719 0.026743
0.794470 0.351372 0.017281
0.837530 0.341735 0.014984
0.858805 0.330251 0.015318
0.221143 0.499574 0.161056
0.315635 0.492924 0.130084
0.441215 0.488186 0.095751
0.575295 0.483473 0.063762
0.698443 0.477166 0.038723
0.787216 0.467156 0.025780
0.839087 0.453474 0.022466
0.866543 0.437722 0.023622
0.292472 0.615013 0.175974
0.357733 0.607504 0.148178
0.457916 0.602707 0.114577
0.574511 0.598719 0.081121
0.690593 0.593760 0.052939
0.783179 0.585044 0.036844
0.842313 0.571700 0.032697
0.876078 0.555360 0.035387
0.384995 0.699691 0.185317
0.424017 0.693172 0.161698
0.497282 0.690597 0.131006
0.591372 0.690123 0.098586
0.693171 0.689904 0.069371
0.783029 0.686776 0.051000
0.846168 0.678613 0.046048
0.885639 0.666364 0.050491
0.481342 0.758063 0.191875
0.500929 0.753094 0.172532
0.550240 0.752356 0.145938
0.620955 0.754549 0.116350
0.704231 0.758247 0.088010
0.785632 0.760843 0.068485
0.848889 0.759463 0.062659
0.892507 0.753877 0.068304
0.566813 0.798006 0.196879
0.575304 0.795280 0.181900
0.606323 0.795983 0.160020
0.656217 0.799619 0.134403
0.720358 0.805488 0.108476
0.790147 0.812097 0.089163
0.850419 0.816685 0.082806
0.896114 0.818198 0.089060
0.161084 0.117002 0.231997
0.326232 0.125692 0.194744
0.494681 0.140189 0.156725
0.642760 0.157005 0.123382
0.753070 0.173083 0.098729
0.811946 0.184683 0.085982
0.837934 0.190874 0.080801
0.848989 0.193427 0.078958
0.163778 0.264517 0.247982
0.321912 0.262119 0.205686
0.481690 0.263226 0.165978
0.624436 0.265668 0.132327
0.735948 0.267594 0.107249
0.802367 0.266988 0.093280
0.835901 0.263319 0.086604
0.851772 0.257349 0.083043
0.189650 0.407764 0.265425
0.323302 0.399343 0.224428
0.467157 0.392994 0.184178
0.603406 0.387197 0.148575
0.717623 0.380661 0.120661
0.793301 0.371870 0.104041
0.835575 0.360545 0.095885
0.857354 0.347374 0.091640
0.239182 0.536985 0.282457
0.339589 0.526508 0.246221
0.461505 0.517625 0.206836
0.587282 0.509033 0.169351
0.701701 0.499549 0.137983
0.785587 0.487389 0.118110
0.836667 0.472102 0.108562
0.865075 0.454652 0.104581
0.311244 0.644704 0.297632
0.377038 0.635010 0.267250
0.472630 0.627337 0.230248
0.582235 0.620381 0.192261
0.691359 0.612835 0.158280
0.780025 0.602306 0.135278
0.838822 0.587628 0.124467
0.874113 0.569903 0.121518
0.402676 0.722140 0.309735
0.439692 0.714670 0.284516
0.507908 0.710111 0.251340
0.595724 0.707239 0.215199
0.691668 0.704716 0.180816
0.778321 0.699865 0.155712
0.841421 0.690495 0.143737
0.882701 0.677202 0.142045
0.495185 0.774710 0.318561
0.512994 0.769573 0.297851
0.558220 0.767646 0.269347
0.623829 0.768089 0.236863
0.702176 0.769879 0.204287
0.780565 0.770820 0.178633
0.843467 0.768145 0.165611
0.888517 0.761471 0.164341
0.574272 0.809625 0.323462
0.582653 0.807410 0.307474
0.611542 0.807745 0.284318
0.658111 0.810389 0.256695
0.718538 0.814888 0.227601
0.785460 0.820031 0.203049
0.844752 0.823226 0.189463
0.891088 0.823277 0.187488
0.180315 0.169458 0.372169
0.333765 0.167755 0.331872
0.493524 0.173407 0.288205
0.636953 0.183357 0.247548
0.746963 0.194782 0.214893
0.808526 0.204104 0.195160
0.836799 0.209207 0.185243
0.849026 0.210990 0.180467
0.182515 0.314085 0.385618
0.333725 0.304907 0.341548
0.485692 0.299692 0.298585
0.622324 0.296822 0.260142
0.731144 0.294828 0.228922
0.798635 0.291954 0.208432
0.834193 0.286989 0.196597
0.851649 0.280126 0.189539
0.209746 0.452063 0.401746
0.338740 0.439216 0.360139
0.475486 0.428413 0.318340
0.604943 0.418657 0.279791
0.714761 0.409035 0.247342
0.789818 0.398341 0.224981
0.833485 0.385912 0.211589
0.857035 0.372015 0.203385
0.261022 0.574369 0.418346
0.357520 0.561088 0.382511
0.472810 0.549083 0.342867
0.591568 0.537521 0.303875
0.700481 0.525595 0.269386
0.782293 0.511900 0.244679
0.834048 0.495820 0.230011
0.864290 0.477958 0.221687
0.333955 0.674324 0.433649
0.395970 0.663099 0.404452
0.485252 0.653216 0.368245
0.587851 0.643859 0.329986
0.690881 0.634145 0.294165
0.776465 0.622209 0.267253
0.835330 0.606944 0.251534
0.872448 0.589119 0.243920
0.423850 0.744586 0.446081
0.457618 0.736490 0.422307
0.520157 0.730337 0.390643
0.601366 0.725376 0.355284
0.691163 0.720713 0.320304
0.774189 0.714289 0.292328
0.836854 0.704219 0.275828
0.879785 0.690881 0.269257
0.512150 0.791411 0.454564
0.527996 0.786193 0.435109
0.568914 0.783235 0.408396
0.629028 0.782047 0.377454
0.701816 0.781950 0.345455
0.776384 0.781262 0.318181
0.838281 0.777631 0.301254
0.884487 0.770611 0.294878
0.585165 0.821701 0.458167
0.593088 0.819677 0.442981
0.619519 0.819497 0.421551
0.662338 0.821092 0.395897
0.718462 0.824198 0.368304
0.781810 0.827927 0.343338
0.839555 0.830039 0.326465
0.886315 0.829288 0.318814
0.197981 0.226471 0.501411
0.339908 0.219063 0.464971
0.491240 0.218467 0.423138
0.630389 0.222450 0.382045
0.740582 0.228848 0.346733
0.805442 0.234757 0.322904
0.836631 0.237725 0.309486
0.850682 0.238019 0.302373
0.202004 0.365266 0.517457
0.338449 0.352410 0.478797
0.480906 0.343184 0.438723
0.613282 0.336470 0.400547
0.722629 0.331185 0.367109
0.793830 0.325950 0.342506
0.832890 0.319460 0.326763
0.852832 0.311659 0.316996
0.232127 0.496031 0.535364
0.347526 0.480855 0.499202
0.474635 0.467477 0.460975
0.598709 0.455242 0.423767
0.707314 0.443513 0.390293
0.784631 0.431380 0.364624
0.831357 0.418209 0.347473
0.857646 0.404138 0.336371
0.285939 0.610374 0.552782
0.372055 0.595686 0.521777
0.478318 0.581947 0.486191
0.590407 0.568628 0.449745
0.695684 0.555188 0.415768
0.777466 0.540610 0.389020
0.831213 0.524424 0.371106
0.864092 0.507093 0.359812
0.359866 0.702256 0.567880
0.414924 0.690308 0.542894
0.496333 0.679136 0.511140
0.591575 0.668245 0.476556
0.688973 0.657073 0.442802
0.772249 0.644310 0.415295
0.831778 0.629192 0.397061
0.871144 0.612324 0.386485
0.447755 0.765437 0.579061
0.477265 0.757111 0.559071
0.533525 0.749927 0.532076
0.607788 0.743450 0.501220
0.691237 0.737122 0.469638
0.770489 0.729525 0.442555
0.832620 0.719332 0.424471
0.877200 0.706840 0.415083
0.531401 0.806756 0.585736
0.545117 0.801603 0.569527
0.581608 0.797909 0.547319
0.636055 0.795416 0.521249
0.702991 0.793713 0.493608
0.773312 0.791641 0.468630
0.833806 0.787455 0.451200
0.880947 0.780775 0.442302
0.598446 0.832906 0.587580
0.605717 0.830945 0.574771
0.629622 0.830286 0.557252
0.668624 0.830954 0.536361
0.720285 0.832815 0.513627
0.779726 0.835279 0.492025
0.835513 0.836571 0.475572
0.882409 0.835558 0.465627
0.213432 0.286642 0.612326
0.344593 0.278823 0.584234
0.487850 0.275449 0.549852
0.622969 0.275251 0.514109
0.733724 0.276927 0.481269
0.802490 0.278535 0.456719
0.837150 0.278248 0.441483
0.853390 0.276164 0.432772
0.221543 0.417011 0.633193
0.340553 0.404175 0.604314
0.472754 0.393813 0.571805
0.601386 0.385182 0.538552
0.712435 0.377550 0.507189
0.788599 0.369948 0.481703
0.832034 0.361597 0.463976
0.854960 0.352551 0.452562
0.256031 0.538583 0.653935
0.354092 0.523588 0.626986
0.470091 0.509878 0.596356
0.588922 0.496934 0.564562
0.697449 0.484266 0.533944
0.778465 0.471212 0.508137
0.829313 0.457554 0.489386
0.858958 0.443563 0.476803
0.313114 0.643735 0.672334
0.385602 0.629236 0.649079
0.481197 0.615395 0.620995
0.586291 0.601774 0.590797
0.688593 0.587955 0.561020
0.771526 0.573242 0.535451
0.828252 0.557565 0.516732
0.864374 0.541433 0.504268
0.388113 0.727097 0.686769
0.434294 0.715303 0.668037
0.506636 0.703929 0.643534
0.594019 0.692604 0.615918
0.685902 0.680937 0.587759
0.767448 0.668107 0.563017
0.828231 0.653869 0.545051
0.870242 0.638811 0.533709
0.473534 0.783363 0.695905
0.498107 0.775225 0.681182
0.547643 0.767687 0.661002
0.614712 0.760464 0.637369
0.691722 0.753208 0.612363
0.767230 0.745067 0.589565
0.828893 0.735392 0.572988
0.875180 0.724531 0.563341
0.552104 0.819599 0.700317
0.563560 0.814679 0.688597
0.595632 0.810627 0.672542
0.644463 0.807311 0.653463
0.705566 0.804493 0.632804
0.771532 0.801471 0.613236
0.830410 0.797193 0.598511
0.878287 0.791478 0.590068
0.613204 0.842180 0.700587
0.619717 0.840283 0.691299
0.641222 0.839308 0.678983
0.676636 0.839304 0.664452
0.724039 0.840203 0.648598
0.779562 0.841632 0.632990
0.833119 0.842346 0.620152
0.879805 0.841502 0.611590
0.225980 0.348643 0.695475
0.347919 0.346051 0.677089
0.483560 0.344402 0.652917
0.614612 0.343240 0.626341
0.725885 0.342044 0.600391
0.798988 0.339641 0.579039
0.837749 0.335535 0.564354
0.856556 0.330460 0.555217
0.240217 0.467241 0.719725
0.344676 0.458418 0.700845
0.467189 0.450497 0.677929
0.591380 0.442863 0.653007
0.703070 0.434953 0.628010
0.783685 0.425919 0.605853
0.831545 0.415822 0.589072
0.857530 0.405338 0.577641
0.280352 0.577286 0.741996
0.363372 0.565145 0.724153
0.468576 0.553815 0.702688
0.581388 0.542639 0.679201
0.688735 0.531051 0.655263
0.772813 0.518330 0.633368
0.827681 0.504771 0.616177
0.860643 0.491099 0.604137
0.341255 0.671967 0.760410
0.401231 0.659296 0.744797
0.486219 0.647289 0.725379
0.583793 0.635347 0.703697
0.682433 0.622957 0.681277
0.766106 0.609448 0.660525
0.825722 0.595137 0.644190
0.865015 0.580795 0.632913
0.417240 0.746544 0.773697
0.454854 0.735757 0.761089
0.518165 0.725456 0.744518
0.597551 0.715184 0.725413
0.683699 0.704533 0.705234
0.763331 0.692906 0.686377
0.825271 0.680499 0.671791
0.869820 0.668037 0.662305
0.499777 0.796443 0.780913
0.519537 0.788855 0.771235
0.562591 0.781738 0.758031
0.622713 0.774807 0.742390
0.693445 0.767782 0.725486
0.765166 0.760166 0.709422
0.826167 0.751886 0.697228
0.873960 0.743449 0.690091
0.573159 0.828419 0.783706
0.582339 0.823827 0.776249
0.610323 0.819840 0.766184
0.654025 0.816346 0.754253
0.709753 0.813184 0.741275
0.771505 0.809967 0.728729
0.828533 0.806256 0.719121
0.876829 0.802175 0.713943
0.628743 0.848299 0.783390
0.634260 0.846457 0.777500
0.653604 0.845372 0.770145
0.685957 0.845044 0.761795
0.729722 0.845399 0.752913
0.781681 0.846189 0.744150
0.832842 0.846661 0.736879
0.878824 0.846372 0.732591
0.236804 0.408961 0.754128
0.351361 0.414512 0.743721
0.479938 0.417724 0.728527
0.606592 0.418808 0.710907
0.717613 0.417827 0.692927
0.794600 0.413802 0.676885
0.837540 0.407090 0.664465
0.858979 0.399451 0.655848
0.258237 0.513946 0.778922
0.352676 0.510787 0.766987
0.466750 0.507382 0.751967
0.585596 0.503131 0.735150
0.695948 0.497471 0.717733
0.779306 0.489240 0.701274
0.830829 0.478781 0.687618
0.859495 0.467504 0.677494
0.304301 0.611236 0.800663
0.376905 0.602856 0.788704
0.472897 0.595271 0.774397
0.579125 0.587613 0.758587
0.683470 0.579117 0.742111
0.768688 0.568675 0.726230
0.826402 0.556584 0.712847
0.861936 0.544013 0.702922
0.368767 0.694894 0.817907
0.419613 0.684544 0.807156
0.495557 0.675269 0.794251
0.585716 0.666281 0.779919
0.679731 0.656892 0.764912
0.762711 0.646222 0.750456
0.824035 0.634539 0.738497
0.865547 0.622818 0.730057
0.445232 0.760809 0.829758
0.476091 0.751275 0.821108
0.531623 0.742631 0.810319
0.603663 0.734345 0.798093
0.684118 0.725949 0.785173
0.761268 0.716890 0.772844
0.823507 0.707433 0.763114
0.869640 0.698373 0.757014
0.524732 0.805065 0.835635
0.540344 0.798090 0.829285
0.577723 0.791759 0.821041
0.631714 0.785803 0.811518
0.696842 0.779983 0.801376
0.764973 0.774020 0.791805
0.824896 0.768091 0.784737
0.873392 0.762777 0.781274
0.593445 0.833643 0.837632
0.600369 0.829330 0.833038
0.624698 0.825613 0.827179
0.663987 0.822403 0.820516
0.715174 0.819591 0.813528
0.773268 0.817018 0.807036
0.828331 0.814620 0.802521
0.876382 0.812716 0.801198
0.644318 0.851494 0.837354
0.648579 0.849703 0.833763
0.665899 0.848656 0.829922
0.695663 0.848291 0.826071
0.736495 0.848517 0.822406
0.785535 0.849191 0.819123
0.834375 0.849921 0.816820
0.879050 0.850548 0.816672
0.247182 0.463924 0.795893
0.356263 0.479364 0.791890
0.478549 0.489197 0.783726
0.600644 0.494621 0.773459
0.710557 0.496456 0.762707
0.790352 0.493751 0.752379
0.836651 0.486565 0.742807
0.859909 0.477110 0.734661
0.276933 0.556779 0.819930
0.363785 0.559402 0.812648
0.470171 0.561052 0.803368
0.583131 0.561281 0.793035
0.690749 0.559586 0.782405
0.775367 0.554414 0.771954
0.829659 0.545494 0.762149
0.860427 0.534374 0.753656
0.328747 0.641744 0.840095
0.393217 0.636731 0.831649
0.480832 0.632909 0.822216
0.580161 0.629293 0.812244
0.680376 0.624968 0.802125
0.765409 0.618461 0.792260
0.825067 0.609437 0.783322
0.862534 0.598960 0.776018
0.396011 0.714415 0.855547
0.439349 0.706030 0.847577
0.507039 0.699383 0.838903
0.589886 0.693610 0.829855
0.678861 0.687926 0.820760
0.760453 0.681318 0.812142
0.822771 0.673569 0.804887
0.865718 0.665399 0.799734
0.472217 0.771813 0.865860
0.497002 0.763332 0.859504
0.545234 0.756274 0.852380
0.610339 0.750171 0.844875
0.685512 0.744594 0.837381
0.760425 0.739105 0.830594
0.822681 0.733680 0.825548
0.869518 0.728804 0.822977
0.548660 0.810954 0.870768
0.560050 0.804426 0.866442
0.591840 0.798855 0.861350
0.640156 0.794112 0.855930
0.700586 0.790073 0.850614
0.766156 0.786695 0.846130
0.825231 0.784031 0.843440
0.873498 0.782376 0.843213
0.613265 0.836690 0.872178
0.617676 0.832527 0.869510
0.638285 0.829109 0.866419
0.673528 0.826444 0.863282
0.721079 0.824522 0.860441
0.776733 0.823427 0.858406
0.830320 0.823118 0.857803
0.877192 0.823725 0.859276
0.659856 0.852604 0.871525
0.662802 0.850998 0.869840
0.678035 0.850138 0.868509
0.705388 0.849986 0.867716
0.743846 0.850492 0.867566
0.790827 0.851683 0.868069
0.837765 0.853329 0.869275
0.880520 0.855310 0.871843
