Assets/1__3DArt/KimSe/artstation_asset/LUTs_pasterls/CUBE/Cotton Candy 01.cube
# Enhanced with VOXCOLOR algorithms
LUT_3D_SIZE 32
0.113725 0.101961 0.109804
0.146669 0.106246 0.105530
0.179614 0.110532 0.101257
0.212558 0.114817 0.096983
0.245502 0.119102 0.092710
0.278446 0.123388 0.088436
0.323460 0.130162 0.085515
0.370887 0.137435 0.082865
0.418314 0.144708 0.080215
0.465742 0.151980 0.077565
0.513169 0.159253 0.074914
0.556976 0.166869 0.075508
0.598973 0.174657 0.077722
0.640970 0.182446 0.079937
0.682967 0.190234 0.082152
0.724964 0.198022 0.084367
0.759433 0.205061 0.088327
0.786374 0.211352 0.094034
0.813315 0.217643 0.099741
0.840257 0.223933 0.105448
0.867198 0.230224 0.111154
0.889082 0.235693 0.116891
0.900852 0.239517 0.122687
0.912621 0.243341 0.128483
0.924391 0.247166 0.134279
0.936160 0.250990 0.140075
0.946446 0.254453 0.145417
0.949314 0.256112 0.148491
0.952181 0.257770 0.151564
0.955049 0.259428 0.154637
0.957916 0.261087 0.157711
0.960784 0.262745 0.160784
0.118740 0.126673 0.117402
0.150535 0.130212 0.112839
0.182329 0.133750 0.108276
0.214123 0.137289 0.103713
0.245918 0.140828 0.099150
0.277712 0.144367 0.094587
0.321627 0.150366 0.091254
0.367966 0.156858 0.088167
0.414305 0.163349 0.085080
0.460644 0.169841 0.081993
0.506983 0.176333 0.078906
0.550244 0.183270 0.079043
0.591966 0.190431 0.080791
0.633688 0.197592 0.082538
0.675409 0.204752 0.084286
0.717131 0.211913 0.086034
0.751696 0.218429 0.089642
0.779103 0.224302 0.095110
0.806510 0.230174 0.100577
0.833917 0.236047 0.106045
0.861325 0.241919 0.111512
0.883749 0.247015 0.117126
0.896207 0.250557 0.123033
0.908666 0.254100 0.128939
0.921124 0.257643 0.134846
0.933582 0.261185 0.140753
0.944505 0.264367 0.146234
0.947750 0.265747 0.149591
0.950994 0.267126 0.152947
0.954239 0.268506 0.156303
0.957484 0.269885 0.159659
0.960729 0.271265 0.163016
0.123756 0.151384 0.124999
0.154400 0.154177 0.120147
0.185044 0.156969 0.115294
0.215689 0.159761 0.110442
0.246333 0.162554 0.105590
0.276977 0.165346 0.100737
0.319794 0.170570 0.096992
0.365045 0.176281 0.093469
0.410296 0.181991 0.089945
0.455547 0.187702 0.086422
0.500798 0.193413 0.082898
0.543513 0.199671 0.082578
0.584959 0.206204 0.083859
0.626406 0.212737 0.085140
0.667852 0.219271 0.086421
0.709299 0.225804 0.087702
0.743959 0.231797 0.090957
0.771832 0.237251 0.096185
0.799705 0.242706 0.101413
0.827578 0.248160 0.106642
0.855451 0.253614 0.111870
0.878415 0.258337 0.117361
0.891563 0.261598 0.123378
0.904710 0.264859 0.129396
0.917857 0.268119 0.135413
0.931004 0.271380 0.141430
0.942564 0.274281 0.147051
0.946186 0.275382 0.150691
0.949808 0.276483 0.154330
0.953430 0.277583 0.157969
0.957051 0.278684 0.161608
0.960673 0.279785 0.165247
0.128771 0.176096 0.132597
0.158266 0.178142 0.127455
0.187760 0.180188 0.122313
0.217254 0.182233 0.117171
0.246749 0.184279 0.112029
0.276243 0.186325 0.106888
0.317961 0.190774 0.102731
0.362124 0.195704 0.098770
0.406287 0.200633 0.094810
0.450450 0.205563 0.090850
0.494613 0.210492 0.086890
0.536781 0.216073 0.086113
0.577953 0.221978 0.086927
0.619124 0.227883 0.087741
0.660295 0.233789 0.088555
0.701467 0.239694 0.089370
0.736222 0.245165 0.092271
0.764561 0.250201 0.097260
0.792900 0.255237 0.102249
0.821239 0.260273 0.107238
0.849577 0.265309 0.112228
0.873082 0.269659 0.117596
0.886918 0.272638 0.123724
0.900754 0.275617 0.129852
0.914590 0.278596 0.135980
0.928427 0.281575 0.142108
0.940623 0.284195 0.147868
0.944622 0.285017 0.151791
0.948621 0.285839 0.155713
0.952620 0.286661 0.159635
0.956619 0.287483 0.163557
0.960618 0.288305 0.167479
0.133787 0.200808 0.140194
0.162131 0.202107 0.134763
0.190475 0.203406 0.129332
0.218820 0.204706 0.123900
0.247164 0.206005 0.118469
0.275508 0.207304 0.113038
0.316128 0.210978 0.108469
0.359203 0.215126 0.104072
0.402278 0.219275 0.099675
0.445352 0.223424 0.095279
0.488427 0.227572 0.090882
0.530050 0.232474 0.089648
0.570946 0.237752 0.089995
0.611842 0.243029 0.090343
0.652738 0.248307 0.090690
0.693634 0.253585 0.091037
0.728485 0.258533 0.093586
0.757289 0.263151 0.098336
0.786094 0.267768 0.103085
0.814899 0.272386 0.107835
0.843704 0.277004 0.112585
0.867749 0.280981 0.117831
0.882274 0.283679 0.124070
0.896799 0.286376 0.130309
0.911324 0.289073 0.136547
0.925849 0.291770 0.142786
0.938682 0.294108 0.148686
0.943058 0.294652 0.152891
0.947434 0.295195 0.157096
0.951810 0.295738 0.161300
0.956186 0.296282 0.165505
0.960563 0.296825 0.169710
0.138802 0.225519 0.147792
0.165996 0.226072 0.142071
0.193191 0.226625 0.136350
0.220385 0.227178 0.130630
0.247580 0.227730 0.124909
0.274774 0.228283 0.119188
0.314295 0.231182 0.114207
0.356282 0.234549 0.109374
0.398269 0.237917 0.104541
0.440255 0.241285 0.099707
0.482242 0.244652 0.094874
0.523318 0.248875 0.093183
0.563939 0.253525 0.093064
0.604560 0.258175 0.092944
0.645181 0.262826 0.092824
0.685802 0.267476 0.092705
0.720748 0.271901 0.094900
0.750018 0.276100 0.099411
0.779289 0.280300 0.103922
0.808560 0.284499 0.108432
0.837830 0.288699 0.112943
0.862415 0.292303 0.118066
0.877629 0.294719 0.124416
0.892843 0.297134 0.130765
0.908057 0.299550 0.137114
0.923271 0.301965 0.143464
0.936741 0.304022 0.149503
0.941494 0.304287 0.153991
0.946248 0.304551 0.158478
0.951001 0.304816 0.162966
0.955754 0.305080 0.167454
0.960507 0.305345 0.171942
0.147916 0.259165 0.156790
0.173901 0.259100 0.150908
0.199887 0.259035 0.145027
0.225872 0.258970 0.139145
0.251858 0.258904 0.133264
0.277843 0.258839 0.127382
0.316151 0.261018 0.122058
0.356923 0.263645 0.116845
0.397695 0.266273 0.111632
0.438467 0.268900 0.106419
0.479239 0.271528 0.101206
0.519588 0.275063 0.099072
0.559727 0.279053 0.098477
0.599865 0.283043 0.097882
0.640004 0.287032 0.097287
0.680142 0.291022 0.096692
0.714978 0.294866 0.098501
0.744510 0.298565 0.102714
0.774042 0.302264 0.106926
0.803574 0.305962 0.111138
0.833107 0.309661 0.115351
0.858062 0.312813 0.120299
0.873864 0.314870 0.126718
0.889666 0.316927 0.133137
0.905468 0.318984 0.139556
0.921270 0.321042 0.145975
0.935299 0.322752 0.152134
0.940463 0.322729 0.156990
0.945626 0.322705 0.161847
0.950789 0.322682 0.166703
0.955952 0.322659 0.171560
0.961116 0.322635 0.176417
0.157849 0.294598 0.166068
0.182614 0.293940 0.160051
0.207379 0.293283 0.154035
0.232144 0.292626 0.148018
0.256909 0.291968 0.142001
0.281673 0.291311 0.135984
0.318744 0.292780 0.130331
0.358276 0.294676 0.124749
0.397808 0.296571 0.119168
0.437340 0.298467 0.113587
0.476872 0.300362 0.108006
0.516459 0.303209 0.105431
0.556074 0.306532 0.104359
0.595688 0.309854 0.103288
0.635303 0.313177 0.102216
0.674917 0.316499 0.101144
0.709601 0.319751 0.102559
0.739354 0.322933 0.106462
0.769107 0.326114 0.110364
0.798860 0.329295 0.114266
0.828613 0.332477 0.118169
0.853905 0.335159 0.122930
0.870275 0.336843 0.129411
0.886645 0.338527 0.135892
0.903015 0.340211 0.142373
0.919385 0.341895 0.148853
0.933957 0.343246 0.155128
0.939537 0.342932 0.160370
0.945117 0.342619 0.165612
0.950697 0.342306 0.170855
0.956277 0.341993 0.176097
0.961857 0.341679 0.181340
0.167782 0.330031 0.175346
0.191326 0.328781 0.169194
0.214871 0.327531 0.163042
0.238415 0.326281 0.156890
0.261959 0.325032 0.150739
0.285504 0.323782 0.144587
0.321338 0.324543 0.138604
0.359630 0.325707 0.132654
0.397922 0.326870 0.126705
0.436214 0.328033 0.120755
0.474506 0.329197 0.114806
0.513330 0.331355 0.111790
0.552421 0.334010 0.110242
0.591511 0.336666 0.108693
0.630602 0.339321 0.107144
0.669692 0.341976 0.105596
0.704224 0.344636 0.106617
0.734198 0.347300 0.110210
0.764171 0.349964 0.113802
0.794145 0.352628 0.117394
0.824119 0.355293 0.120986
0.849747 0.357506 0.125562
0.866686 0.358816 0.132104
0.883624 0.360126 0.138647
0.900562 0.361437 0.145189
0.917500 0.362747 0.151731
0.932615 0.363739 0.158121
0.938612 0.363136 0.163750
0.944608 0.362533 0.169378
0.950605 0.361930 0.175006
0.956602 0.361327 0.180635
0.962598 0.360724 0.186263
0.177715 0.365463 0.184624
0.200039 0.363621 0.178337
0.222362 0.361779 0.172050
0.244686 0.359937 0.165763
0.267010 0.358095 0.159476
0.289334 0.356253 0.153189
0.323931 0.356306 0.146877
0.360983 0.356737 0.140559
0.398035 0.357169 0.134241
0.435088 0.357600 0.127924
0.472140 0.358031 0.121606
0.510201 0.359501 0.118150
0.548768 0.361489 0.116124
0.587334 0.363477 0.114098
0.625901 0.365465 0.112073
0.664467 0.367453 0.110047
0.698847 0.369521 0.110676
0.729042 0.371668 0.113958
0.759236 0.373815 0.117240
0.789431 0.375962 0.120522
0.819625 0.378108 0.123804
0.845590 0.379852 0.128194
0.863096 0.380789 0.134798
0.880603 0.381726 0.141402
0.898109 0.382663 0.148006
0.915615 0.383600 0.154610
0.931273 0.384232 0.161115
0.937686 0.383339 0.167129
0.944100 0.382446 0.173144
0.950513 0.381554 0.179158
0.956926 0.380661 0.185172
0.963340 0.379768 0.191186
0.187648 0.400896 0.193902
0.208751 0.398462 0.187480
0.229854 0.396028 0.181058
0.250958 0.393593 0.174636
0.272061 0.391159 0.168214
0.293164 0.388725 0.161791
0.326525 0.388069 0.155149
0.362337 0.387768 0.148464
0.398149 0.387467 0.141778
0.433961 0.387167 0.135092
0.469773 0.386866 0.128406
0.507072 0.387646 0.124509
0.545115 0.388967 0.122006
0.583157 0.390288 0.119504
0.621199 0.391609 0.117001
0.659242 0.392930 0.114499
0.693471 0.394406 0.114734
0.723886 0.396035 0.117706
0.754301 0.397665 0.120678
0.784716 0.399295 0.123650
0.815131 0.400924 0.126622
0.841433 0.402199 0.130825
0.859507 0.402762 0.137491
0.877582 0.403326 0.144157
0.895656 0.403889 0.150822
0.913730 0.404453 0.157488
0.929931 0.404726 0.164109
0.936761 0.403543 0.170509
0.943591 0.402360 0.176909
0.950421 0.401177 0.183309
0.957251 0.399995 0.189709
0.964081 0.398812 0.196109
0.201030 0.437906 0.203297
0.220886 0.435055 0.196836
0.240741 0.432204 0.190375
0.260597 0.429353 0.183913
0.280452 0.426502 0.177452
0.300307 0.423650 0.170990
0.332358 0.422484 0.164129
0.366847 0.421655 0.157187
0.401336 0.420826 0.150246
0.435826 0.419997 0.143305
0.470315 0.419167 0.136363
0.506706 0.419430 0.132104
0.544048 0.420238 0.129186
0.581390 0.421046 0.126269
0.618733 0.421854 0.123351
0.656075 0.422662 0.120433
0.689969 0.423666 0.120296
0.720417 0.424866 0.122938
0.750864 0.426065 0.125581
0.781311 0.427265 0.128224
0.811759 0.428465 0.130867
0.838234 0.429342 0.134850
0.856765 0.429573 0.141515
0.875296 0.429804 0.148179
0.893827 0.430036 0.154844
0.912358 0.430267 0.161508
0.929007 0.430219 0.168192
0.936249 0.428774 0.174971
0.943490 0.427330 0.181750
0.950731 0.425885 0.188528
0.957973 0.424440 0.195307
0.965214 0.422996 0.202086
0.216138 0.475706 0.212751
0.234732 0.472525 0.206298
0.253325 0.469345 0.199846
0.271919 0.466164 0.193393
0.290513 0.462984 0.186940
0.309107 0.459803 0.180487
0.339810 0.458227 0.173461
0.372936 0.456971 0.166321
0.406061 0.455714 0.159180
0.439186 0.454458 0.152040
0.472311 0.453202 0.144899
0.507722 0.453032 0.140317
0.544275 0.453404 0.137015
0.580829 0.453776 0.133713
0.617383 0.454149 0.130411
0.653937 0.454521 0.127109
0.687406 0.455114 0.126610
0.717791 0.455927 0.128913
0.748176 0.456741 0.131217
0.778562 0.457555 0.133521
0.808947 0.458368 0.135824
0.835514 0.458884 0.139571
0.854446 0.458803 0.146203
0.873378 0.458722 0.152836
0.892310 0.458642 0.159468
0.911242 0.458561 0.166100
0.928293 0.458212 0.172819
0.935943 0.456519 0.179973
0.943593 0.454827 0.187128
0.951243 0.453134 0.194282
0.958893 0.451442 0.201436
0.966543 0.449749 0.208590
0.231245 0.513505 0.222205
0.248577 0.509995 0.215761
0.265910 0.506485 0.209317
0.283242 0.502976 0.202873
0.300575 0.499466 0.196429
0.317907 0.495956 0.189985
0.347263 0.493969 0.182794
0.379024 0.492286 0.175454
0.410785 0.490603 0.168114
0.442546 0.488920 0.160775
0.474307 0.487237 0.153435
0.508737 0.486634 0.148531
0.544503 0.486570 0.144844
0.580268 0.486507 0.141158
0.616033 0.486443 0.137471
0.651798 0.486380 0.133785
0.684843 0.486561 0.132924
0.715166 0.486989 0.134888
0.745489 0.487416 0.136853
0.775812 0.487844 0.138817
0.806135 0.488271 0.140782
0.832794 0.488426 0.144292
0.852127 0.488033 0.150892
0.871460 0.487640 0.157492
0.890793 0.487248 0.164092
0.910126 0.486855 0.170692
0.927579 0.486205 0.177447
0.935638 0.484264 0.184976
0.943696 0.482324 0.192505
0.951755 0.480384 0.200035
0.959813 0.478443 0.207564
0.967872 0.476503 0.215093
0.246352 0.551304 0.231658
0.262423 0.547465 0.225223
0.278494 0.543626 0.218788
0.294565 0.539787 0.212352
0.310636 0.535948 0.205917
0.326707 0.532109 0.199482
0.354716 0.529711 0.192127
0.385113 0.527601 0.184588
0.415510 0.525492 0.177049
0.445906 0.523382 0.169510
0.476303 0.521272 0.161971
0.509753 0.520236 0.156744
0.544730 0.519737 0.152673
0.579707 0.519237 0.148602
0.614683 0.518738 0.144531
0.649660 0.518238 0.140460
0.682279 0.518009 0.139238
0.712540 0.518051 0.140863
0.742801 0.518092 0.142489
0.773062 0.518133 0.144114
0.803323 0.518175 0.145740
0.830075 0.517967 0.149013
0.849808 0.517263 0.155580
0.869542 0.516559 0.162148
0.889276 0.515854 0.168716
0.909009 0.515150 0.175284
0.926865 0.514198 0.182074
0.935332 0.512010 0.189979
0.943799 0.509821 0.197883
0.952267 0.507633 0.205788
0.960734 0.505445 0.213693
0.969201 0.503257 0.221597
0.261459 0.589103 0.241112
0.276269 0.584935 0.234685
0.291078 0.580767 0.228259
0.305888 0.576598 0.221832
0.320697 0.572430 0.215405
0.335507 0.568262 0.208979
0.362169 0.565453 0.201459
0.391201 0.562917 0.193721
0.420234 0.560380 0.185983
0.449266 0.557844 0.178245
0.478299 0.555307 0.170507
0.510769 0.553838 0.164957
0.544957 0.552903 0.160502
0.579145 0.551968 0.156046
0.613334 0.551032 0.151591
0.647522 0.550097 0.147136
0.679716 0.549457 0.145552
0.709914 0.549112 0.146838
0.740113 0.548768 0.148125
0.770312 0.548423 0.149411
0.800511 0.548078 0.150697
0.827355 0.547509 0.153734
0.847490 0.546493 0.160269
0.867624 0.545477 0.166805
0.887759 0.544460 0.173340
0.907893 0.543444 0.179875
0.926151 0.542191 0.186702
0.935027 0.539755 0.194981
0.943903 0.537319 0.203261
0.952778 0.534882 0.211541
0.961654 0.532446 0.219821
0.970530 0.530010 0.228101
0.278157 0.623843 0.249730
0.291772 0.619530 0.243382
0.305388 0.615218 0.237034
0.319003 0.610906 0.230686
0.332619 0.606594 0.224338
0.346234 0.602282 0.217991
0.371559 0.599258 0.210415
0.399226 0.596492 0.202594
0.426893 0.593727 0.194773
0.454560 0.590961 0.186952
0.482227 0.588195 0.179131
0.513644 0.586473 0.173358
0.546936 0.585272 0.168609
0.580228 0.584071 0.163859
0.613521 0.582869 0.159110
0.646813 0.581668 0.154361
0.678455 0.580770 0.152468
0.708445 0.580174 0.153433
0.738436 0.579578 0.154398
0.768427 0.578982 0.155363
0.798418 0.578387 0.156328
0.825224 0.577582 0.159122
0.845662 0.576361 0.165576
0.866101 0.575139 0.172029
0.886539 0.573917 0.178483
0.906977 0.572696 0.184936
0.925554 0.571244 0.191749
0.934828 0.568640 0.200358
0.944102 0.566037 0.208966
0.953376 0.563433 0.217574
0.962650 0.560830 0.226183
0.971924 0.558226 0.234791
0.296445 0.655522 0.257511
0.308934 0.651251 0.251312
0.321422 0.646981 0.245114
0.333911 0.642710 0.238915
0.346400 0.638439 0.232716
0.358888 0.634168 0.226517
0.382886 0.631126 0.218995
0.409186 0.628328 0.211207
0.435486 0.625531 0.203420
0.461786 0.622734 0.195633
0.488086 0.619937 0.187845
0.518378 0.618140 0.181947
0.550667 0.616843 0.176994
0.582956 0.615546 0.172041
0.615245 0.614249 0.167087
0.647534 0.612952 0.162134
0.678496 0.611947 0.159988
0.708133 0.611236 0.160648
0.737770 0.610524 0.161309
0.767406 0.609812 0.161969
0.797043 0.609100 0.162630
0.823682 0.608186 0.165178
0.844327 0.606866 0.171500
0.864971 0.605546 0.177822
0.885616 0.604226 0.184144
0.906260 0.602906 0.190467
0.925074 0.601357 0.197217
0.934736 0.598667 0.206107
0.944398 0.595976 0.214997
0.954060 0.593285 0.223888
0.963722 0.590595 0.232778
0.973384 0.587904 0.241668
0.314733 0.687202 0.265293
0.326095 0.682972 0.259243
0.337457 0.678743 0.253193
0.348819 0.674514 0.247143
0.360181 0.670284 0.241093
0.371542 0.666055 0.235044
0.394214 0.662993 0.227574
0.419146 0.660164 0.219820
0.444079 0.657336 0.212066
0.469012 0.654507 0.204313
0.493945 0.651679 0.196559
0.523113 0.649807 0.190536
0.554398 0.648414 0.185379
0.585684 0.647021 0.180222
0.616969 0.645628 0.175065
0.648254 0.644235 0.169908
0.678538 0.643125 0.167507
0.707821 0.642297 0.167864
0.737103 0.641469 0.168220
0.766386 0.640642 0.168576
0.795668 0.639814 0.168932
0.822140 0.638790 0.171233
0.842991 0.637371 0.177424
0.863842 0.635953 0.183615
0.884692 0.634534 0.189806
0.905543 0.633115 0.195997
0.924594 0.631470 0.202684
0.934644 0.628693 0.211857
0.944694 0.625915 0.221029
0.954744 0.623137 0.230201
0.964794 0.620360 0.239373
0.974844 0.617582 0.248545
0.333021 0.718881 0.273074
0.343256 0.714693 0.267173
0.353491 0.710505 0.261272
0.363726 0.706317 0.255372
0.373962 0.702130 0.249471
0.384197 0.697942 0.243570
0.405541 0.694860 0.236153
0.429107 0.692000 0.228433
0.452673 0.689140 0.220713
0.476239 0.686280 0.212993
0.499805 0.683420 0.205273
0.527848 0.681474 0.199125
0.558129 0.679985 0.193764
0.588411 0.678496 0.188403
0.618693 0.677007 0.183042
0.648975 0.675518 0.177681
0.678580 0.674302 0.175027
0.707508 0.673359 0.175079
0.736436 0.672415 0.175131
0.765365 0.671472 0.175183
0.794293 0.670528 0.175235
0.820598 0.669393 0.177289
0.841655 0.667876 0.183348
0.862712 0.666359 0.189408
0.883769 0.664842 0.195467
0.904826 0.663325 0.201527
0.924114 0.661584 0.208152
0.934552 0.658719 0.217606
0.944990 0.655854 0.227060
0.955428 0.652989 0.236514
0.965866 0.650125 0.245968
0.976304 0.647260 0.255422
0.351309 0.750560 0.280855
0.360417 0.746414 0.275104
0.369526 0.742268 0.269352
0.378634 0.738121 0.263600
0.387743 0.733975 0.257848
0.396851 0.729829 0.252097
0.416868 0.726728 0.244733
0.439067 0.723836 0.237046
0.461266 0.720945 0.229360
0.483465 0.718053 0.221673
0.505664 0.715162 0.213987
0.532582 0.713141 0.207714
0.561861 0.711556 0.202150
0.591139 0.709972 0.196585
0.620417 0.708387 0.191020
0.649695 0.706802 0.185455
0.678621 0.705480 0.182546
0.707196 0.704420 0.182294
0.735770 0.703361 0.182042
0.764344 0.702301 0.181789
0.792918 0.701242 0.181537
0.819056 0.699997 0.183345
0.840319 0.698382 0.189273
0.861583 0.696766 0.195201
0.882846 0.695151 0.201129
0.904110 0.693535 0.207057
0.923634 0.691697 0.213620
0.934460 0.688745 0.223356
0.945286 0.685793 0.233091
0.956112 0.682841 0.242827
0.966938 0.679890 0.252563
0.977764 0.676938 0.262298
0.369606 0.778554 0.287653
0.377698 0.774547 0.282084
0.385789 0.770540 0.276516
0.393880 0.766532 0.270948
0.401972 0.762525 0.265380
0.410063 0.758518 0.259811
0.428811 0.755496 0.252566
0.449691 0.752670 0.244985
0.470571 0.749844 0.237403
0.491451 0.747019 0.229822
0.512331 0.744193 0.222241
0.538116 0.742193 0.215918
0.566354 0.740604 0.210224
0.594591 0.739016 0.204530
0.622829 0.737428 0.198835
0.651066 0.735840 0.193141
0.679254 0.734502 0.190034
0.707391 0.733415 0.189514
0.735529 0.732327 0.188994
0.763666 0.731240 0.188474
0.791804 0.730153 0.187954
0.817697 0.728885 0.189533
0.839103 0.727258 0.195311
0.860509 0.725630 0.201089
0.881915 0.724003 0.206867
0.903321 0.722375 0.212645
0.923027 0.720527 0.219121
0.934236 0.717573 0.229088
0.945446 0.714619 0.239055
0.956655 0.711666 0.249021
0.967864 0.708712 0.258988
0.979074 0.705758 0.268955
0.387923 0.799175 0.292482
0.395216 0.795503 0.287166
0.402510 0.791831 0.281850
0.409803 0.788158 0.276534
0.417097 0.784486 0.271218
0.424390 0.780813 0.265902
0.441987 0.778064 0.258906
0.461644 0.775499 0.251574
0.481301 0.772934 0.244242
0.500958 0.770370 0.236910
0.520615 0.767805 0.229578
0.545249 0.766012 0.223351
0.572372 0.764606 0.217676
0.599494 0.763200 0.212001
0.626616 0.761793 0.206327
0.653739 0.760387 0.200652
0.681068 0.759214 0.197457
0.708603 0.758275 0.196743
0.736139 0.757335 0.196029
0.763674 0.756396 0.195315
0.791210 0.755457 0.194600
0.816707 0.754342 0.195987
0.838127 0.752875 0.201578
0.859547 0.751409 0.207168
0.880967 0.749943 0.212758
0.902387 0.748477 0.218349
0.922168 0.746791 0.224690
0.933751 0.744005 0.234786
0.945334 0.741220 0.244882
0.956917 0.738434 0.254978
0.968501 0.735649 0.265073
0.980084 0.732863 0.275169
0.406239 0.819797 0.297311
0.412735 0.816459 0.292247
0.419231 0.813122 0.287184
0.425726 0.809784 0.282120
0.432222 0.806446 0.277056
0.438718 0.803108 0.271992
0.455162 0.800632 0.265246
0.473596 0.798328 0.258163
0.492030 0.796024 0.251081
0.510465 0.793720 0.243998
0.528899 0.791416 0.236915
0.552382 0.789832 0.230784
0.578389 0.788608 0.225129
0.604397 0.787383 0.219473
0.630404 0.786159 0.213818
0.656412 0.784934 0.208163
0.682882 0.783926 0.204881
0.709815 0.783135 0.203972
0.736749 0.782344 0.203064
0.763682 0.781552 0.202155
0.790615 0.780761 0.201247
0.815716 0.779798 0.202442
0.837150 0.778493 0.207844
0.858585 0.777188 0.213247
0.880019 0.775883 0.218650
0.901453 0.774578 0.224052
0.921308 0.773054 0.230259
0.933265 0.770437 0.240484
0.945223 0.767820 0.250709
0.957180 0.765203 0.260934
0.969137 0.762586 0.271159
0.981094 0.759969 0.281384
0.424556 0.840419 0.302140
0.430254 0.837416 0.297329
0.435952 0.834412 0.292517
0.441649 0.831409 0.287706
0.447347 0.828406 0.282894
0.453045 0.825403 0.278083
0.468338 0.823200 0.271586
0.485549 0.821157 0.264753
0.502760 0.819114 0.257919
0.519971 0.817071 0.251085
0.537182 0.815028 0.244252
0.559514 0.813652 0.238217
0.584407 0.812609 0.232581
0.609299 0.811567 0.226945
0.634192 0.810524 0.221310
0.659084 0.809481 0.215674
0.684696 0.808638 0.212305
0.711027 0.807995 0.211202
0.737359 0.807352 0.210099
0.763690 0.806708 0.208996
0.790021 0.806065 0.207893
0.814725 0.805255 0.208896
0.836174 0.804111 0.214111
0.857622 0.802967 0.219326
0.879071 0.801823 0.224541
0.900520 0.800679 0.229756
0.920449 0.799318 0.235828
0.932780 0.796869 0.246182
0.945111 0.794420 0.256536
0.957442 0.791972 0.266890
0.969773 0.789523 0.277244
0.982104 0.787074 0.287598
0.442872 0.861040 0.306970
0.447772 0.858372 0.302410
0.452672 0.855703 0.297851
0.457572 0.853035 0.293292
0.462473 0.850367 0.288733
0.467373 0.847698 0.284173
0.481513 0.845768 0.277926
0.497501 0.843986 0.271342
0.513490 0.842204 0.264758
0.529478 0.840422 0.258173
0.545466 0.838639 0.251589
0.566647 0.837471 0.245650
0.590425 0.836611 0.240033
0.614202 0.835750 0.234417
0.637979 0.834889 0.228801
0.661757 0.834029 0.223185
0.686510 0.833351 0.219728
0.712239 0.832855 0.218431
0.737968 0.832360 0.217134
0.763698 0.831865 0.215836
0.789427 0.831369 0.214539
0.813734 0.830711 0.215350
0.835197 0.829729 0.220378
0.856660 0.828746 0.225405
0.878123 0.827763 0.230432
0.899586 0.826781 0.235460
0.919590 0.825582 0.241396
0.932294 0.823301 0.251880
0.944999 0.821021 0.262363
0.957704 0.818740 0.272846
0.970409 0.816460 0.283330
0.983114 0.814179 0.293813
0.460562 0.879876 0.311335
0.464747 0.877549 0.307025
0.468932 0.875221 0.302714
0.473117 0.872894 0.298403
0.477303 0.870566 0.294093
0.481488 0.868239 0.289782
0.494527 0.866589 0.283796
0.509336 0.865076 0.277473
0.524146 0.863562 0.271151
0.538956 0.862048 0.264829
0.553766 0.860535 0.258507
0.573816 0.859589 0.252691
0.596486 0.858927 0.247127
0.619156 0.858265 0.241564
0.641827 0.857603 0.236001
0.664497 0.856941 0.230437
0.688387 0.856447 0.226926
0.713495 0.856123 0.225467
0.738604 0.855798 0.224008
0.763713 0.855474 0.222549
0.788821 0.855149 0.221090
0.812712 0.854668 0.221734
0.834165 0.853874 0.226582
0.855619 0.853080 0.231429
0.877073 0.852286 0.236277
0.898527 0.851491 0.241125
0.918584 0.850485 0.246929
0.931661 0.848415 0.257513
0.944738 0.846345 0.268096
0.957814 0.844275 0.278680
0.970891 0.842205 0.289263
0.983968 0.840135 0.299847
0.475116 0.889783 0.313382
0.479001 0.887828 0.309302
0.482886 0.885873 0.305223
0.486771 0.883918 0.301143
0.490656 0.881963 0.297063
0.494541 0.880008 0.292984
0.506733 0.878677 0.287309
0.520586 0.877470 0.281315
0.534439 0.876263 0.275322
0.548291 0.875056 0.269328
0.562144 0.873850 0.263334
0.581164 0.873195 0.257773
0.602767 0.872815 0.252429
0.624370 0.872435 0.247085
0.645973 0.872056 0.241740
0.667576 0.871676 0.236396
0.690575 0.871466 0.232995
0.714971 0.871427 0.231538
0.739367 0.871387 0.230081
0.763763 0.871347 0.228623
0.788158 0.871307 0.227166
0.811531 0.871124 0.227764
0.832858 0.870655 0.232473
