Assets/1__3DArt/KimSe/artstation_asset/LUTs_pasterls/CUBE/Cotton Candy 02.cube
# Enhanced with VOXCOLOR algorithms
LUT_3D_SIZE 5
DOMAIN_MIN 0.000000 0.000000 0.000000
DOMAIN_MAX 0.903226 0.903226 0.903226
0.164706 0.152941 0.125490
0.364639 0.184635 0.154880
0.571150 0.214623 0.182224
0.708329 0.232720 0.199706
0.759542 0.238462 0.206591
0.199817 0.295248 0.155680
0.347745 0.298347 0.162595
0.534871 0.307521 0.175415
0.683301 0.311915 0.189306
0.753794 0.307856 0.201021
0.248588 0.486363 0.192249
0.349348 0.465314 0.184818
0.509205 0.453469 0.180034
0.660295 0.444392 0.182581
0.748874 0.431705 0.193527
0.296201 0.666936 0.225090
0.360525 0.635636 0.213724
0.493101 0.612751 0.197755
0.641973 0.597605 0.185134
0.747249 0.584097 0.185765
0.332128 0.781937 0.244978
0.371059 0.759637 0.236538
0.477969 0.738356 0.221749
0.623261 0.724846 0.201804
0.744414 0.719427 0.184311
0.193980 0.194911 0.238497
0.378885 0.205707 0.258083
0.579512 0.222999 0.274680
0.718280 0.235604 0.283360
0.771922 0.238767 0.285660
0.203736 0.351379 0.263899
0.368500 0.344915 0.271233
0.550272 0.342360 0.278430
0.694106 0.338980 0.283226
0.767162 0.330470 0.286633
0.227181 0.542382 0.294974
0.345030 0.518311 0.292912
0.512836 0.499164 0.288505
0.668530 0.483729 0.284839
0.764114 0.467239 0.287157
0.256684 0.710473 0.319470
0.332376 0.681508 0.314334
0.479497 0.655546 0.304472
0.643104 0.636175 0.292306
0.761569 0.620475 0.287822
0.283832 0.814335 0.328758
0.332369 0.795465 0.324953
0.454185 0.773759 0.319567
0.616882 0.756947 0.308198
0.752323 0.748045 0.292406
0.231061 0.249430 0.398163
0.398686 0.244220 0.416131
0.589676 0.241824 0.428051
0.730401 0.241247 0.429536
0.788562 0.238506 0.426147
0.220871 0.410909 0.426282
0.370785 0.398044 0.434924
0.552106 0.385387 0.441970
0.703899 0.372189 0.442685
0.786162 0.357319 0.440805
0.221595 0.597870 0.462921
0.335210 0.574024 0.462037
0.508178 0.552062 0.460556
0.675706 0.531731 0.457492
0.784459 0.512205 0.457858
0.233159 0.754929 0.486228
0.309025 0.729690 0.481861
0.463992 0.705496 0.478019
0.643982 0.685177 0.473920
0.780606 0.669790 0.475197
0.248767 0.848364 0.487192
0.298421 0.834010 0.483090
0.428452 0.817415 0.485053
0.609730 0.802879 0.488857
0.767946 0.794056 0.488998
0.267608 0.305013 0.565940
0.418438 0.299487 0.593338
0.596644 0.281111 0.612357
0.737781 0.262322 0.614808
0.801498 0.247844 0.608216
0.249032 0.464009 0.594404
0.377454 0.453648 0.610013
0.552284 0.437236 0.625785
0.709681 0.414049 0.631721
0.801974 0.389995 0.630516
0.234460 0.640392 0.636786
0.335976 0.620880 0.639211
0.504672 0.602964 0.646344
0.679317 0.581905 0.652660
0.802272 0.560455 0.659770
0.231362 0.785620 0.663733
0.302707 0.765087 0.660808
0.455488 0.747818 0.664500
0.643197 0.732674 0.673574
0.797879 0.721745 0.689572
0.238317 0.870973 0.665256
0.284675 0.861210 0.661758
0.413909 0.853105 0.669694
0.603499 0.846941 0.687861
0.781993 0.843737 0.710132
0.295934 0.347282 0.696707
0.431307 0.356695 0.735347
0.595968 0.337828 0.767812
0.736062 0.305696 0.783442
0.805762 0.274853 0.778714
0.278409 0.500010 0.720970
0.392019 0.498589 0.741987
0.555600 0.488919 0.769629
0.710696 0.463323 0.789712
0.807828 0.429560 0.795220
0.257939 0.662589 0.760537
0.350085 0.648605 0.765996
0.509533 0.639942 0.782910
0.682266 0.625794 0.803532
0.810763 0.606069 0.822923
0.244361 0.796678 0.790241
0.311861 0.779108 0.789265
0.458936 0.770080 0.799878
0.646316 0.766255 0.821257
0.808704 0.766091 0.851643
0.243633 0.877376 0.798409
0.288059 0.870397 0.797534
0.415105 0.869084 0.810120
0.605201 0.873670 0.836734
0.791048 0.882487 0.871637
