Assets/1__3DArt/KimSe/artstation_asset/LUTs_pasterls/CUBE/Cotton Candy 04.cube
# Enhanced with VOXCOLOR algorithms
LUT_3D_SIZE 5
DOMAIN_MIN 0.000000 0.000000 0.000000
DOMAIN_MAX 0.903226 0.903226 0.903226
0.054902 0.058824 0.082353
0.383378 0.100238 0.050282
0.683522 0.142866 0.022652
0.834695 0.173970 0.016693
0.867112 0.186490 0.021784
0.058580 0.260647 0.144990
0.333682 0.278998 0.099274
0.637170 0.300642 0.053347
0.822787 0.314224 0.034583
0.876040 0.314220 0.038889
0.093432 0.506127 0.222816
0.306735 0.508656 0.167077
0.596845 0.518910 0.101381
0.813381 0.522861 0.065258
0.893485 0.513902 0.068807
0.190226 0.703605 0.283888
0.328418 0.701888 0.229847
0.576165 0.715033 0.157210
0.802760 0.725850 0.108481
0.909258 0.721296 0.111034
0.336895 0.800374 0.309271
0.413238 0.804289 0.271490
0.589809 0.822885 0.211699
0.789674 0.845494 0.164565
0.912562 0.855270 0.167623
0.094344 0.128734 0.279077
0.408148 0.156403 0.238713
0.693573 0.190415 0.198805
0.839017 0.217454 0.179063
0.871062 0.228387 0.177056
0.095354 0.345840 0.338608
0.396113 0.359787 0.287340
0.671062 0.370675 0.239236
0.832702 0.374695 0.211992
0.882975 0.369381 0.205337
0.148984 0.575882 0.411499
0.366178 0.576409 0.359079
0.629589 0.579169 0.298226
0.821970 0.575459 0.257838
0.898918 0.561607 0.249323
0.267921 0.745333 0.467666
0.390471 0.742492 0.421845
0.607251 0.749612 0.361115
0.808417 0.754465 0.314578
0.911134 0.746997 0.305786
0.417104 0.824388 0.492795
0.478045 0.826352 0.460550
0.626299 0.839511 0.415753
0.798892 0.856018 0.377352
0.912294 0.863175 0.368813
0.143287 0.232705 0.505478
0.442176 0.259856 0.476623
0.710829 0.289560 0.443265
0.851114 0.310386 0.418988
0.882937 0.315614 0.409487
0.155575 0.451289 0.565763
0.425402 0.461493 0.529468
0.684488 0.470293 0.491849
0.842897 0.470594 0.463490
0.894988 0.462116 0.450283
0.237262 0.657179 0.627047
0.426048 0.654722 0.590735
0.659151 0.654756 0.548226
0.833169 0.648488 0.515412
0.908019 0.634442 0.502665
0.375201 0.794948 0.666613
0.474672 0.790691 0.637667
0.652893 0.793145 0.600546
0.822208 0.793773 0.569816
0.916487 0.787031 0.560784
0.514605 0.855083 0.681503
0.561301 0.855426 0.661734
0.678495 0.863524 0.638803
0.818194 0.874477 0.620047
0.917002 0.880372 0.614929
0.200270 0.358509 0.695327
0.484328 0.402973 0.686710
0.733165 0.438088 0.674165
0.868123 0.455271 0.659587
0.901138 0.453490 0.648671
0.237159 0.560304 0.750041
0.464538 0.575524 0.734351
0.701490 0.591352 0.718270
0.856061 0.594644 0.702130
0.910424 0.585487 0.690535
0.347867 0.733064 0.794425
0.496498 0.731442 0.777329
0.692426 0.734813 0.759678
0.846909 0.732216 0.744553
0.919536 0.722675 0.737067
0.494109 0.839318 0.816551
0.567681 0.835168 0.804083
0.705167 0.836459 0.790915
0.841089 0.836863 0.780946
0.924927 0.834397 0.780562
0.613900 0.882978 0.821959
0.648158 0.882755 0.814162
0.736450 0.887921 0.809205
0.844045 0.895480 0.808503
0.926026 0.901631 0.813890
0.261178 0.484019 0.804858
0.531602 0.554803 0.812208
0.757736 0.604389 0.819750
0.885300 0.628848 0.822317
0.920873 0.625527 0.817317
0.335906 0.654311 0.848105
0.527064 0.678326 0.844138
0.730757 0.705112 0.845911
0.871287 0.719330 0.847232
0.925031 0.714985 0.844297
0.466143 0.789816 0.877424
0.576585 0.790545 0.870969
0.731864 0.799845 0.869950
0.863202 0.806921 0.871768
0.930102 0.807053 0.874239
0.604565 0.869632 0.890545
0.652759 0.865396 0.886394
0.753992 0.868194 0.886320
0.861937 0.873512 0.890635
0.933687 0.878731 0.898761
0.699069 0.901629 0.893969
0.722262 0.900697 0.892197
0.787092 0.905226 0.894973
0.869756 0.912691 0.902813
0.935247 0.920464 0.913597
