Assets/1__3DArt/KimSe/artstation_asset/LUTs_pasterls/CUBE/Cotton Candy 04 S.cube
# Enhanced with VOXCOLOR algorithms
LUT_3D_SIZE 8
DOMAIN_MIN 0.000000 0.000000 0.000000
DOMAIN_MAX 0.903226 0.903226 0.903226
0.054902 0.058824 0.082353
0.237641 0.081762 0.064894
0.433798 0.106667 0.045090
0.611481 0.131303 0.028282
0.746754 0.153634 0.018235
0.820364 0.170399 0.016687
0.853258 0.180959 0.019070
0.867112 0.186490 0.021784
0.054976 0.164840 0.114938
0.210929 0.178241 0.092018
0.386252 0.192602 0.065325
0.552484 0.206497 0.041408
0.688044 0.218889 0.025169
0.776153 0.229168 0.020260
0.830036 0.237806 0.022580
0.861959 0.244182 0.027697
0.060502 0.296047 0.156167
0.192250 0.300946 0.128104
0.349261 0.306223 0.093945
0.506499 0.311251 0.061757
0.644369 0.315769 0.037916
0.746399 0.320704 0.028616
0.817619 0.326823 0.030636
0.863875 0.332383 0.038199
0.077744 0.436636 0.200513
0.186443 0.434874 0.168788
0.326673 0.433791 0.128472
0.476367 0.433199 0.088795
0.617315 0.433170 0.057404
0.731508 0.435013 0.043094
0.815623 0.439076 0.044125
0.871769 0.443081 0.053489
0.111852 0.572003 0.242786
0.197644 0.566115 0.209852
0.321597 0.562298 0.166280
0.463971 0.560245 0.121589
0.607297 0.559781 0.084047
0.730740 0.561514 0.064574
0.822839 0.564773 0.063628
0.884161 0.567261 0.073643
0.171226 0.680530 0.274878
0.234167 0.674402 0.244664
0.340555 0.672434 0.203008
0.472848 0.673730 0.158272
0.614321 0.677392 0.118158
0.741528 0.682414 0.094388
0.835979 0.686681 0.090350
0.897964 0.688454 0.099446
0.249852 0.754070 0.294524
0.293055 0.750412 0.269867
0.379845 0.752138 0.234150
0.496337 0.758080 0.193768
0.628188 0.766902 0.155066
0.752359 0.776299 0.129212
0.845789 0.782872 0.122408
0.907518 0.785396 0.130152
0.334766 0.800906 0.307142
0.364408 0.800727 0.289047
0.431255 0.805538 0.260681
0.527195 0.814661 0.226630
0.642464 0.827043 0.191874
0.758035 0.840143 0.166436
0.848911 0.849739 0.158515
0.911277 0.854452 0.165702
0.076225 0.094310 0.188226
0.253292 0.110846 0.167071
0.440833 0.129118 0.143776
0.609677 0.147464 0.123214
0.738302 0.164634 0.108889
0.810893 0.179853 0.102799
0.847425 0.193013 0.100898
0.865574 0.202353 0.100119
0.072761 0.208546 0.219147
0.239799 0.216487 0.191817
0.406874 0.221958 0.164429
0.557023 0.226009 0.141266
0.678168 0.229821 0.125320
0.762302 0.235893 0.118271
0.821360 0.245694 0.115342
0.861656 0.257273 0.112674
0.079571 0.341556 0.259097
0.222903 0.340318 0.227329
0.370895 0.335317 0.193951
0.510516 0.329011 0.164508
0.632214 0.323734 0.143094
0.729305 0.323256 0.132833
0.806788 0.329094 0.129039
0.865270 0.339026 0.126777
0.101790 0.478356 0.302312
0.215184 0.469866 0.268097
0.344898 0.458256 0.229080
0.477719 0.446318 0.192472
0.603113 0.436538 0.163924
0.711905 0.432490 0.148823
0.802755 0.434858 0.143603
0.874430 0.441257 0.142510
0.143329 0.605612 0.343574
0.226519 0.593655 0.309191
0.338240 0.580348 0.266835
0.464312 0.567956 0.224620
0.592438 0.558365 0.189267
0.709443 0.553963 0.168379
0.807919 0.554242 0.160632
0.887067 0.556937 0.160172
0.210544 0.704694 0.375608
0.267556 0.694523 0.344501
0.361004 0.685416 0.303805
0.477068 0.678397 0.260734
0.602803 0.674154 0.221669
0.721611 0.673177 0.195223
0.820566 0.673786 0.183375
0.900092 0.674336 0.181632
0.293964 0.771057 0.396238
0.330900 0.765279 0.371027
0.406062 0.762605 0.336460
0.507957 0.762981 0.297662
0.624877 0.766060 0.259582
0.739229 0.770702 0.230204
0.833805 0.774237 0.214488
0.909036 0.775583 0.210396
0.378586 0.813097 0.409363
0.403219 0.811975 0.390812
0.461510 0.814610 0.364179
0.546402 0.820751 0.332616
0.649512 0.829824 0.299525
0.755263 0.840228 0.271452
0.843513 0.848650 0.254784
0.912420 0.853752 0.249590
0.100834 0.141866 0.311790
0.272882 0.154421 0.290776
0.453296 0.168470 0.267437
0.615221 0.182658 0.245759
0.738982 0.196162 0.228742
0.810527 0.209550 0.218706
0.848461 0.222998 0.213074
0.868247 0.233124 0.209408
0.096111 0.261796 0.342942
0.261698 0.265044 0.315764
0.421564 0.264234 0.289176
0.563074 0.261596 0.266286
0.677614 0.259412 0.249248
0.760144 0.261939 0.239316
0.821516 0.271326 0.232583
0.865979 0.284735 0.225793
0.106783 0.394620 0.382108
0.248614 0.388034 0.350560
0.388576 0.375553 0.318461
0.518151 0.361159 0.290122
0.631515 0.348512 0.268644
0.725641 0.343044 0.256127
0.805673 0.346957 0.248267
0.870955 0.357694 0.240946
0.136168 0.526137 0.423295
0.246215 0.512318 0.389619
0.366556 0.493050 0.352275
0.487821 0.472641 0.317271
0.602840 0.454860 0.289204
0.706605 0.444660 0.271979
0.799672 0.443396 0.262152
0.880528 0.448804 0.255181
0.186337 0.644226 0.461378
0.264095 0.627961 0.428161
0.364904 0.607866 0.387963
0.477641 0.587512 0.347703
0.592942 0.569898 0.312997
0.702323 0.558556 0.289621
0.802183 0.553866 0.276391
0.892275 0.554066 0.269189
0.260741 0.733169 0.490239
0.311531 0.720345 0.460889
0.393284 0.706148 0.422841
0.494656 0.692540 0.382000
0.605331 0.681076 0.343525
0.713813 0.673300 0.313873
0.812649 0.668813 0.295303
0.903414 0.666656 0.285637
0.346836 0.791856 0.508861
0.378209 0.784679 0.485520
0.442622 0.778694 0.453957
0.530387 0.774406 0.417850
0.631926 0.772058 0.380741
0.734354 0.771490 0.347951
0.826676 0.771417 0.324393
0.911169 0.771246 0.310772
0.429147 0.828737 0.520469
0.449563 0.826850 0.503385
0.499657 0.827629 0.480028
0.573237 0.831102 0.452109
0.663176 0.837079 0.421485
0.757224 0.844936 0.391337
0.840814 0.852539 0.366641
0.914657 0.858484 0.350179
0.128392 0.199869 0.441463
0.296302 0.211950 0.423744
0.470829 0.224988 0.403526
0.627285 0.237682 0.383609
0.747513 0.249309 0.366256
0.817933 0.260691 0.353829
0.855455 0.272268 0.345573
0.874815 0.280551 0.339844
0.125124 0.322741 0.473733
0.282536 0.323921 0.450302
0.436577 0.320759 0.426593
0.574503 0.315478 0.405024
0.687372 0.310422 0.387378
0.769179 0.310180 0.375112
0.829800 0.317342 0.366032
0.874287 0.328975 0.357717
0.142091 0.452980 0.511748
0.275101 0.443734 0.483886
0.408476 0.428105 0.454786
0.533346 0.410079 0.428036
0.643464 0.393382 0.406295
0.735135 0.383717 0.391590
0.813658 0.383899 0.381151
0.880022 0.391591 0.371920
0.180276 0.577420 0.549675
0.282358 0.561189 0.519644
0.394834 0.538578 0.485785
0.508658 0.513909 0.453089
0.616958 0.491028 0.425419
0.715304 0.475085 0.406101
0.805868 0.468342 0.393085
0.889121 0.469247 0.383260
0.239504 0.685287 0.582800
0.310284 0.667453 0.553514
0.401796 0.644383 0.517569
0.503959 0.619630 0.480529
0.608517 0.596268 0.446949
0.709096 0.578025 0.421456
0.805388 0.566661 0.404192
0.899127 0.561630 0.392947
0.319743 0.763673 0.606374
0.364459 0.750133 0.581214
0.436105 0.733589 0.548011
0.524691 0.715963 0.511115
0.621478 0.698902 0.474389
0.718310 0.684297 0.442599
0.812614 0.673523 0.419175
0.907803 0.666969 0.404300
0.406124 0.814486 0.621020
0.432741 0.806950 0.601520
0.487670 0.799166 0.574813
0.562485 0.791650 0.543050
0.649207 0.784805 0.508392
0.738652 0.779023 0.473930
0.825533 0.774702 0.445068
0.914100 0.772156 0.425074
0.484164 0.846103 0.629836
0.501182 0.843851 0.615723
0.543811 0.843348 0.596897
0.606567 0.844717 0.573778
0.683413 0.847989 0.546869
0.764993 0.853292 0.516498
0.842078 0.859726 0.486592
0.917914 0.865990 0.462328
0.158607 0.266523 0.566631
0.323279 0.282244 0.554511
0.492754 0.297879 0.540064
0.644601 0.311985 0.524750
0.762100 0.323673 0.509895
0.831304 0.333082 0.497370
0.867162 0.341044 0.488044
0.884746 0.345492 0.481279
0.159744 0.389260 0.599856
0.307078 0.392234 0.582670
0.456737 0.391441 0.564184
0.593851 0.388085 0.546119
0.707381 0.383658 0.529863
0.788154 0.381659 0.516930
0.845066 0.384914 0.507002
0.885791 0.391412 0.498836
0.185156 0.514192 0.635669
0.306915 0.506220 0.614238
0.435332 0.492732 0.590633
0.558703 0.476338 0.567613
0.668184 0.459652 0.547339
0.756765 0.447130 0.531789
0.829727 0.442039 0.520166
0.891543 0.443115 0.510856
0.233162 0.629612 0.668979
0.325620 0.614805 0.645407
0.431910 0.594066 0.617767
0.541211 0.570306 0.589754
0.645063 0.546257 0.564333
0.737077 0.525867 0.544304
0.820537 0.512328 0.529544
0.899344 0.505637 0.518710
0.301115 0.726312 0.695909
0.364499 0.710158 0.673100
0.448483 0.688592 0.644171
0.542562 0.663884 0.612951
0.638203 0.638144 0.582688
0.728982 0.614115 0.556880
0.817061 0.595071 0.537404
0.907070 0.582491 0.524126
0.385253 0.794045 0.713146
0.424386 0.781960 0.694150
0.487727 0.766213 0.668154
0.565717 0.747778 0.637713
0.650260 0.727640 0.605242
0.734819 0.707135 0.573895
0.820581 0.689456 0.548348
0.913169 0.676977 0.530956
0.469423 0.837102 0.722915
0.492114 0.830381 0.708641
0.539096 0.822557 0.688439
0.602739 0.813671 0.662993
0.676137 0.803848 0.633176
0.752565 0.793425 0.600229
0.831161 0.784391 0.569920
0.917971 0.778391 0.547450
0.541430 0.863626 0.728442
0.555806 0.861516 0.718283
0.591972 0.860462 0.704855
0.645029 0.860480 0.687592
0.709828 0.861614 0.665985
0.779215 0.864307 0.638347
0.848223 0.868746 0.607795
0.922049 0.874098 0.581033
0.191790 0.340054 0.671766
0.353525 0.363644 0.665942
0.517633 0.385365 0.658728
0.664437 0.403687 0.650361
0.778998 0.417526 0.641152
0.847006 0.425760 0.631754
0.881190 0.429739 0.623631
0.897040 0.429962 0.617362
0.200570 0.457896 0.703805
0.339827 0.467078 0.693499
0.485807 0.473723 0.682283
0.622029 0.477331 0.670794
0.735692 0.477852 0.659577
0.814197 0.476273 0.649277
0.865162 0.475214 0.640558
0.899271 0.474783 0.633597
0.236052 0.573971 0.735618
0.348462 0.571641 0.721712
0.473172 0.566159 0.706234
0.595713 0.557683 0.690550
0.704578 0.546678 0.675757
0.788600 0.534604 0.662874
0.852408 0.524501 0.652309
0.904384 0.517295 0.644090
0.293816 0.678296 0.763295
0.377864 0.668836 0.747628
0.479560 0.655774 0.729100
0.585880 0.639441 0.709605
0.686252 0.620356 0.690706
0.770900 0.599527 0.673920
0.843067 0.580283 0.660268
0.910408 0.565068 0.650178
0.368823 0.763291 0.784023
0.425602 0.751833 0.768984
0.503956 0.736667 0.749690
0.592269 0.717799 0.727969
0.680954 0.695416 0.705453
0.761708 0.669754 0.683982
0.837441 0.644670 0.666162
0.915829 0.624259 0.653553
0.453921 0.820990 0.795725
0.488293 0.812211 0.783560
0.545429 0.800624 0.766579
0.615625 0.785637 0.745657
0.690700 0.766917 0.721768
0.763797 0.744060 0.696309
0.837568 0.721036 0.673851
0.919738 0.702495 0.657942
0.533275 0.857087 0.801539
0.552792 0.852107 0.792633
0.593744 0.846137 0.779810
0.648979 0.838420 0.762767
0.712130 0.828420 0.741440
0.777210 0.815571 0.715693
0.845125 0.802557 0.690400
0.923107 0.792584 0.671085
0.597978 0.879260 0.804622
0.610183 0.877626 0.798307
0.641158 0.876802 0.790272
0.686521 0.876490 0.779604
0.741754 0.876485 0.765400
0.800808 0.876867 0.745293
0.860568 0.878381 0.721329
0.926771 0.881178 0.699731
0.226825 0.414305 0.749668
0.385273 0.447292 0.749030
0.542935 0.476231 0.748285
0.683327 0.499909 0.746899
0.793754 0.517355 0.744420
0.860481 0.526383 0.740107
0.894023 0.528375 0.734820
0.909317 0.525951 0.730039
0.246252 0.523373 0.778502
0.378850 0.539888 0.773500
0.519542 0.555204 0.769135
0.652023 0.567491 0.765008
0.763229 0.575362 0.760726
0.838653 0.577178 0.755593
0.884169 0.574607 0.749916
0.911937 0.569734 0.744785
0.292253 0.628102 0.805403
0.396699 0.632139 0.797395
0.516193 0.636043 0.789759
0.635345 0.637897 0.782511
0.741467 0.636209 0.775580
0.820463 0.629267 0.768571
0.875191 0.618811 0.761650
0.916102 0.607543 0.755771
0.358274 0.720288 0.827661
0.434526 0.716500 0.818351
0.530619 0.712519 0.808562
0.632661 0.706544 0.798666
0.728959 0.697100 0.788912
0.806815 0.682166 0.779281
0.867537 0.663732 0.770379
0.920544 0.645741 0.763412
0.437555 0.793888 0.843455
0.487660 0.787067 0.834648
0.560077 0.779525 0.824345
0.642889 0.769533 0.812959
0.725913 0.755651 0.800851
0.798588 0.735617 0.788272
0.861815 0.712000 0.776855
0.924306 0.690030 0.768511
0.520686 0.842787 0.851689
0.550096 0.837041 0.844803
0.601450 0.830514 0.835898
0.665394 0.821567 0.824962
0.733784 0.808841 0.812078
0.798466 0.790208 0.797310
0.860185 0.768485 0.783413
0.926822 0.749027 0.773425
0.593507 0.873090 0.855554
0.609743 0.869593 0.850642
0.645527 0.866088 0.844137
0.694452 0.861345 0.835541
0.750634 0.854323 0.824476
0.807702 0.843472 0.810212
0.864975 0.830711 0.795432
0.928975 0.819756 0.784092
0.650313 0.891724 0.857556
0.660338 0.890414 0.854051
0.686898 0.890149 0.850291
0.726296 0.890374 0.845648
0.774596 0.890605 0.839422
0.826121 0.890292 0.829740
0.876979 0.889953 0.817252
0.931454 0.890521 0.805850
0.261178 0.484019 0.804858
0.417495 0.526866 0.808859
0.568817 0.563093 0.813423
0.702045 0.592396 0.817851
0.807079 0.614397 0.821401
0.871915 0.626445 0.822421
0.905337 0.629041 0.820566
0.920789 0.625425 0.817340
0.295374 0.583884 0.830865
0.421094 0.606764 0.829687
0.554084 0.629145 0.830433
0.679604 0.648830 0.832207
0.785610 0.663919 0.834098
0.857560 0.671241 0.834504
0.899346 0.670908 0.832679
0.922578 0.665445 0.829638
0.352478 0.676782 0.853342
0.447803 0.685512 0.849218
0.558692 0.696463 0.847201
0.670643 0.706934 0.846591
0.771345 0.714587 0.846643
0.845712 0.716158 0.846065
0.893829 0.711553 0.844061
0.925380 0.703212 0.841433
0.425144 0.756751 0.870936
0.491864 0.756735 0.865752
0.579017 0.759455 0.862162
0.673611 0.762462 0.859785
0.764274 0.763592 0.858170
0.836947 0.759798 0.856441
0.889094 0.751054 0.854112
0.928471 0.740060 0.852019
0.506105 0.819551 0.882904
0.547544 0.815547 0.878132
0.611336 0.813665 0.874183
0.686780 0.811957 0.870907
0.764244 0.808671 0.868098
0.831830 0.801181 0.865275
0.885546 0.789795 0.862548
0.931266 0.777517 0.860974
0.585050 0.860774 0.889089
0.607748 0.856599 0.885584
0.651637 0.853895 0.882356
0.708854 0.851198 0.879275
0.772069 0.847178 0.876197
0.832159 0.839777 0.872809
0.884538 0.829505 0.869753
0.933273 0.819143 0.868346
0.650110 0.886149 0.892236
0.661950 0.883210 0.889917
0.691875 0.881634 0.887823
0.734915 0.880447 0.885800
0.786092 0.878741 0.883663
0.838681 0.875105 0.880955
0.887433 0.869768 0.878168
0.934723 0.864600 0.876676
0.698093 0.901589 0.893811
0.705572 0.900214 0.892292
0.727678 0.900428 0.891454
0.761752 0.901723 0.891237
0.804654 0.903592 0.891439
0.851077 0.905302 0.891235
0.894592 0.906600 0.890114
0.935955 0.908087 0.889147
