Assets/1__3DArt/KimSe/artstation_asset/LUTs_pasterls/CUBE/Cotton Candy 02.cube
# Enhanced with VOXCOLOR algorithms
LUT_3D_SIZE 8
DOMAIN_MIN 0.000000 0.000000 0.000000
DOMAIN_MAX 0.903226 0.903226 0.903226
0.164706 0.152941 0.125490
0.273867 0.170619 0.142038
0.396784 0.189468 0.159252
0.516953 0.207053 0.175258
0.620841 0.221468 0.188595
0.693192 0.230805 0.197766
0.736044 0.235946 0.203419
0.759542 0.238462 0.206591
0.182534 0.226216 0.141635
0.272273 0.233815 0.149706
0.381994 0.244352 0.160270
0.495562 0.255230 0.171634
0.599319 0.264355 0.182431
0.677327 0.269704 0.191471
0.727250 0.271512 0.198502
0.756338 0.271000 0.203673
0.206408 0.321244 0.160772
0.277901 0.319391 0.162309
0.373436 0.321194 0.166295
0.478372 0.324512 0.171964
0.579828 0.327536 0.178681
0.661812 0.328411 0.186130
0.718019 0.326612 0.193516
0.752916 0.322782 0.200039
0.233969 0.429384 0.181561
0.288973 0.419368 0.178590
0.370303 0.413096 0.176844
0.465510 0.409176 0.176634
0.563093 0.406327 0.178254
0.647527 0.403031 0.182565
0.709122 0.398024 0.188926
0.749962 0.391289 0.195828
0.262922 0.541831 0.202564
0.303653 0.525632 0.197113
0.371569 0.512919 0.191143
0.456764 0.503096 0.185710
0.549463 0.495469 0.181843
0.635052 0.488975 0.181577
0.701136 0.481751 0.185266
0.747986 0.473163 0.191236
0.289877 0.643707 0.220952
0.319376 0.625093 0.215205
0.375627 0.609232 0.207575
0.451369 0.596237 0.199053
0.538757 0.586008 0.190742
0.624604 0.578161 0.185064
0.694506 0.570658 0.183961
0.747405 0.562336 0.186726
0.312686 0.723187 0.234744
0.333470 0.706241 0.229843
0.379567 0.690603 0.222639
0.446440 0.677031 0.213564
0.528375 0.666053 0.203250
0.614268 0.658284 0.193296
0.688000 0.652217 0.186510
0.746718 0.646187 0.183887
0.332128 0.781937 0.244978
0.345894 0.769412 0.240908
0.382594 0.756298 0.234801
0.440629 0.743893 0.226658
0.516710 0.733324 0.216585
0.602592 0.726294 0.204730
0.680455 0.722358 0.193250
0.744414 0.719427 0.184311
0.180173 0.174948 0.183113
0.284034 0.185137 0.196243
0.403337 0.198478 0.209743
0.521592 0.212361 0.222044
0.625126 0.224621 0.231959
0.698185 0.232924 0.238408
0.741725 0.237312 0.242191
0.765768 0.239063 0.244263
0.189794 0.254418 0.197030
0.287287 0.257852 0.204521
0.397518 0.263888 0.213194
0.507913 0.270662 0.221806
0.607767 0.276613 0.229397
0.683610 0.280070 0.235229
0.733178 0.280648 0.239518
0.762578 0.278906 0.242547
0.205010 0.353259 0.213801
0.287919 0.348956 0.216612
0.386833 0.347191 0.220320
0.490405 0.346730 0.224396
0.588623 0.346476 0.228473
0.668290 0.345126 0.232566
0.724144 0.341790 0.236697
0.759717 0.336506 0.240461
0.224152 0.462070 0.231892
0.289156 0.450756 0.231283
0.375463 0.441915 0.230616
0.472165 0.434952 0.230077
0.569234 0.429232 0.229944
0.652961 0.423765 0.231159
0.715102 0.417162 0.234116
0.757470 0.409034 0.237998
0.245578 0.571852 0.249794
0.293312 0.555624 0.247188
0.366633 0.541456 0.243342
0.455685 0.529466 0.238840
0.550891 0.519559 0.234389
0.638230 0.511186 0.231732
0.706416 0.502572 0.232252
0.755968 0.492907 0.235252
0.267090 0.668905 0.264948
0.301400 0.651337 0.261825
0.362665 0.634997 0.256839
0.443250 0.620624 0.250299
0.535049 0.608662 0.242761
0.624776 0.599257 0.235950
0.698358 0.590640 0.232466
0.755018 0.581539 0.232700
0.286642 0.744117 0.275517
0.311146 0.728517 0.272669
0.361820 0.712975 0.268214
0.433748 0.698627 0.261862
0.520878 0.686362 0.253603
0.611747 0.677208 0.244108
0.689973 0.670021 0.236246
0.752783 0.663099 0.231864
0.303891 0.799602 0.282308
0.321026 0.788472 0.279857
0.362129 0.775797 0.276487
0.425223 0.762991 0.271540
0.506670 0.751341 0.264507
0.597795 0.742822 0.254637
0.680191 0.737452 0.243574
0.747676 0.733253 0.233718
0.199050 0.202299 0.259539
0.297133 0.205398 0.270216
0.411951 0.212058 0.280744
0.527510 0.220365 0.289821
0.630352 0.228608 0.296510
0.704466 0.234641 0.300081
0.749302 0.237663 0.301658
0.774288 0.238509 0.302246
0.200766 0.285797 0.272832
0.297356 0.284904 0.279557
0.405651 0.286081 0.286742
0.514235 0.288234 0.293258
0.613259 0.290381 0.298276
0.689758 0.291281 0.301233
0.740709 0.290119 0.302900
0.771522 0.286999 0.303888
0.207502 0.387096 0.289738
0.292177 0.380351 0.292791
0.391551 0.375261 0.296106
0.495124 0.371244 0.299065
0.593563 0.367731 0.301271
0.674226 0.363904 0.302727
0.731749 0.358763 0.304117
0.769302 0.352003 0.305575
0.218337 0.496043 0.307814
0.286088 0.483730 0.307980
0.374636 0.472912 0.307751
0.473306 0.463475 0.307032
0.572273 0.455200 0.305899
0.658037 0.447566 0.305053
0.722526 0.439347 0.305510
0.767588 0.429979 0.307163
0.232281 0.603369 0.324865
0.282585 0.587406 0.323239
0.359022 0.572475 0.320482
0.451562 0.559027 0.316756
0.550450 0.547289 0.312414
0.641433 0.537164 0.308694
0.713123 0.527293 0.307380
0.766243 0.516868 0.308610
0.248075 0.696220 0.337843
0.284297 0.679749 0.335552
0.348634 0.663549 0.332034
0.433313 0.648547 0.327168
0.530022 0.635404 0.321091
0.625045 0.624643 0.314792
0.703568 0.615098 0.310786
0.764735 0.605670 0.310238
0.263514 0.767524 0.345172
0.289574 0.753242 0.342823
0.343094 0.738374 0.339932
0.419204 0.724054 0.335912
0.511773 0.711223 0.330396
0.608985 0.701077 0.323283
0.693260 0.693068 0.316727
0.761287 0.685844 0.312924
0.277383 0.819560 0.348155
0.296158 0.809791 0.345844
0.340117 0.798187 0.343939
0.407428 0.785976 0.341677
0.494460 0.774319 0.338325
0.592330 0.765087 0.332499
0.681319 0.758769 0.324557
0.754339 0.753913 0.316558
0.220054 0.233125 0.349331
0.312225 0.231137 0.359322
0.421907 0.231344 0.368620
0.534055 0.233154 0.375937
0.635784 0.235881 0.380387
0.711089 0.238199 0.381386
0.757616 0.238853 0.380688
0.783788 0.238180 0.379675
0.215325 0.318982 0.362921
0.305585 0.314917 0.369712
0.409965 0.311827 0.376650
0.516997 0.309360 0.382408
0.616617 0.307153 0.386029
0.695342 0.304571 0.386838
0.748786 0.300851 0.386271
0.781763 0.295878 0.385545
0.214601 0.421263 0.381479
0.294612 0.412900 0.384824
0.391801 0.405333 0.388426
0.495356 0.398337 0.391338
0.595550 0.391674 0.392895
0.679131 0.384960 0.392778
0.739740 0.377535 0.392221
0.780282 0.369087 0.392078
0.217803 0.529385 0.401312
0.283112 0.516713 0.401716
0.371139 0.504870 0.402071
0.471022 0.493842 0.401890
0.572656 0.483552 0.400903
0.662033 0.473787 0.399316
0.730252 0.463843 0.398450
0.779061 0.453317 0.398942
0.224664 0.633981 0.419226
0.274168 0.618652 0.417696
0.351252 0.603840 0.415730
0.445923 0.589927 0.413122
0.548332 0.577157 0.409865
0.643846 0.565658 0.406576
0.720144 0.554733 0.404983
0.777777 0.543882 0.405897
0.234817 0.722937 0.431253
0.270799 0.707648 0.428906
0.336146 0.692291 0.426307
0.423364 0.677616 0.423133
0.524239 0.664205 0.419248
0.624864 0.652697 0.415013
0.709162 0.642638 0.412385
0.775696 0.633396 0.412924
0.245947 0.790655 0.436132
0.271963 0.777692 0.433555
0.326519 0.764075 0.431564
0.405234 0.750683 0.429629
0.502260 0.738280 0.427300
0.605859 0.727948 0.424020
0.696986 0.719711 0.420876
0.771270 0.712838 0.419943
0.256168 0.839303 0.436041
0.275169 0.830876 0.433216
0.320305 0.820899 0.432008
0.390310 0.810251 0.431950
0.481920 0.799786 0.432420
0.586522 0.790935 0.431827
0.683027 0.784446 0.429112
0.763090 0.779629 0.425678
0.241913 0.265637 0.446821
0.328336 0.261721 0.458342
0.432442 0.256909 0.468771
0.540542 0.252257 0.476475
0.640655 0.248477 0.480337
0.717086 0.245616 0.479582
0.765521 0.242664 0.476878
0.793022 0.239521 0.474411
0.232991 0.352549 0.460902
0.314439 0.347430 0.469234
0.413470 0.341472 0.477692
0.518349 0.334946 0.484505
0.618583 0.328084 0.488363
0.699961 0.321043 0.488173
0.756401 0.313782 0.486076
0.791948 0.306252 0.484175
0.226481 0.454270 0.481619
0.298450 0.445694 0.486052
0.391287 0.436993 0.491167
0.493766 0.427957 0.495518
0.595605 0.418452 0.498011
0.682702 0.408443 0.497730
0.747143 0.398157 0.496316
0.791311 0.387680 0.495496
0.223206 0.560305 0.504026
0.282971 0.548138 0.504920
0.367992 0.536481 0.506585
0.467470 0.525015 0.508072
0.571159 0.513490 0.508673
0.664558 0.501748 0.507914
0.737316 0.489957 0.507155
0.790654 0.478307 0.507773
0.223699 0.661541 0.523895
0.270200 0.647239 0.522364
0.345589 0.633528 0.521468
0.440408 0.620342 0.520695
0.545097 0.607620 0.519689
0.645033 0.595376 0.518427
0.726561 0.583700 0.518261
0.789517 0.572777 0.520477
0.228578 0.746667 0.536220
0.262956 0.732653 0.533666
0.327382 0.718847 0.531954
0.415115 0.705557 0.530745
0.518465 0.693039 0.529779
0.623969 0.681718 0.529006
0.714308 0.671773 0.529582
0.786972 0.663297 0.533080
0.235715 0.811098 0.540015
0.260668 0.799457 0.537152
0.314585 0.787605 0.535854
0.393944 0.776037 0.535897
0.493547 0.765195 0.536978
0.602416 0.755779 0.538491
0.700378 0.748154 0.540458
0.781695 0.742365 0.544461
0.242722 0.856648 0.538399
0.260913 0.849531 0.535074
0.305635 0.841605 0.534261
0.376454 0.833363 0.536018
0.470764 0.825270 0.540067
0.580802 0.818076 0.545093
0.684611 0.812426 0.548998
0.772556 0.808446 0.552462
0.262688 0.297465 0.543092
0.343867 0.295703 0.558237
0.442201 0.288951 0.572233
0.545638 0.279561 0.582960
0.643387 0.269492 0.588871
0.720548 0.260382 0.588479
0.771006 0.252496 0.584987
0.800050 0.245687 0.581693
0.252232 0.383935 0.556452
0.325732 0.380591 0.567749
0.418912 0.374331 0.579587
0.520380 0.365560 0.589670
0.619771 0.354784 0.596207
0.702806 0.342813 0.597297
0.761901 0.331080 0.595275
0.799958 0.320148 0.593185
0.242370 0.483291 0.578099
0.306719 0.476282 0.584573
0.394205 0.468502 0.592619
0.493876 0.459242 0.600269
0.595515 0.448072 0.605921
0.684867 0.434930 0.607814
0.752619 0.421359 0.607462
0.800251 0.408449 0.607358
0.234559 0.585681 0.602272
0.288655 0.574963 0.604299
0.369301 0.565032 0.608317
0.466364 0.554824 0.612951
0.570005 0.543532 0.617042
0.665948 0.530558 0.619340
0.742620 0.517049 0.620787
0.800332 0.504333 0.623267
0.229976 0.682643 0.624038
0.273169 0.669704 0.622966
0.345458 0.658122 0.623835
0.438333 0.647102 0.625916
0.542956 0.635991 0.628575
0.645470 0.624210 0.631237
0.731410 0.612447 0.634579
0.799593 0.601932 0.640014
0.230278 0.763880 0.637628
0.262899 0.751155 0.635302
0.325256 0.739483 0.634886
0.411532 0.728638 0.636140
0.514830 0.718416 0.638807
0.622875 0.708706 0.642691
0.718051 0.699947 0.648149
0.796765 0.693064 0.656423
0.234092 0.825439 0.642106
0.257814 0.815016 0.639429
0.310119 0.805196 0.639087
0.388307 0.796143 0.641197
0.487938 0.787967 0.645688
0.599355 0.780859 0.652228
0.702460 0.775127 0.660183
0.790558 0.771511 0.670579
0.238766 0.868561 0.641156
0.255778 0.862576 0.637882
0.299161 0.856766 0.637741
0.369153 0.851358 0.641214
0.463766 0.846504 0.648350
0.576366 0.842301 0.658371
0.685276 0.838920 0.668916
0.780306 0.836999 0.680249
0.280731 0.325196 0.627172
0.356995 0.328222 0.646175
0.449702 0.322878 0.664273
0.548329 0.311842 0.679256
0.643276 0.297578 0.689336
0.720771 0.282737 0.691980
0.773256 0.269401 0.689548
0.803987 0.258007 0.686001
0.270318 0.410346 0.638803
0.337958 0.410399 0.652813
0.425773 0.406233 0.668201
0.523168 0.397755 0.682425
0.620364 0.385200 0.693343
0.703686 0.369351 0.698077
0.764577 0.353146 0.697989
0.804631 0.338277 0.696474
0.259099 0.506380 0.659544
0.318100 0.501822 0.667783
0.400728 0.496521 0.678800
0.496755 0.488951 0.690348
0.596485 0.478055 0.700462
0.686170 0.463130 0.706539
0.755747 0.446719 0.709085
0.805754 0.431254 0.710713
0.248634 0.604340 0.683608
0.298751 0.595427 0.686685
0.375365 0.588079 0.693092
0.469198 0.580425 0.701251
0.571070 0.570975 0.709720
0.667397 0.558248 0.716625
0.746092 0.543853 0.721930
0.806663 0.530361 0.727424
0.240351 0.696614 0.706006
0.281231 0.685023 0.705526
0.350601 0.675875 0.708229
0.440826 0.667768 0.713341
0.543813 0.659488 0.720101
0.646715 0.649651 0.727614
0.734967 0.638949 0.735667
0.806617 0.629520 0.745343
0.236714 0.774144 0.720930
0.268194 0.762466 0.719050
0.328647 0.752861 0.720014
0.412931 0.744766 0.723714
0.514814 0.737635 0.729944
0.623244 0.730831 0.738553
0.721036 0.724562 0.749219
0.803919 0.720238 0.762678
0.237518 0.833416 0.727180
0.260476 0.823890 0.724954
0.311423 0.815811 0.725698
0.388116 0.809205 0.729734
0.486622 0.804015 0.737144
0.598446 0.800135 0.747896
0.704265 0.797553 0.761052
0.797011 0.797234 0.777210
0.240211 0.874815 0.728019
0.256426 0.869690 0.725324
0.298813 0.865563 0.726213
0.367853 0.862600 0.731347
0.461842 0.860843 0.740939
0.574890 0.860157 0.754612
0.686141 0.860199 0.770092
0.785556 0.861549 0.787404
0.295934 0.347282 0.696707
0.367444 0.356589 0.719086
0.454765 0.355273 0.740655
0.548804 0.345533 0.759756
0.641073 0.329650 0.774792
0.718931 0.310450 0.782302
0.773452 0.291706 0.782438
0.805762 0.274853 0.778714
0.286633 0.431319 0.707478
0.349265 0.435353 0.723063
0.432076 0.434796 0.741039
0.525343 0.428684 0.758972
0.619965 0.416589 0.774608
0.703017 0.398525 0.784244
0.765154 0.378330 0.787251
0.806672 0.358947 0.786397
0.275404 0.524109 0.726616
0.329955 0.522122 0.735566
0.408042 0.519975 0.748626
0.500236 0.515318 0.763507
0.597455 0.506371 0.778060
0.686580 0.491329 0.789058
0.756970 0.472919 0.795341
0.808313 0.454698 0.798810
0.263640 0.617725 0.749220
0.310335 0.610464 0.752675
0.383048 0.605753 0.760766
0.473403 0.601165 0.771885
0.572927 0.594648 0.784454
0.668717 0.583700 0.796222
0.748160 0.569547 0.805831
0.810044 0.555496 0.814340
0.252775 0.705520 0.771021
0.291418 0.694860 0.770801
0.357745 0.687770 0.774896
0.445065 0.682592 0.782568
0.546056 0.677784 0.793008
0.648715 0.671259 0.805180
0.737997 0.662964 0.817864
0.811110 0.655232 0.831410
0.245667 0.779784 0.786994
0.275883 0.768518 0.785337
0.334263 0.760410 0.787410
0.416455 0.754848 0.793193
0.516920 0.751165 0.802510
0.625599 0.748440 0.815275
0.724963 0.746068 0.830407
0.809574 0.745099 0.847816
0.243270 0.837325 0.795512
0.265548 0.828100 0.793604
0.315259 0.821175 0.795230
0.390673 0.816655 0.800845
0.488364 0.814505 0.810630
0.600795 0.814679 0.824777
0.708529 0.816495 0.841830
0.803186 0.820218 0.861472
0.243633 0.877376 0.798409
0.259387 0.872792 0.796537
0.301192 0.869820 0.798376
0.369685 0.868751 0.804785
0.463361 0.869716 0.816154
0.576892 0.872780 0.832422
0.689679 0.877083 0.851138
0.791048 0.882487 0.871637
