Assets/1__3DArt/KimSe/artstation_asset/LUTs_pasterls/CUBE/Cotton Candy 03 S.cube
# Enhanced with VOXCOLOR algorithms
LUT_3D_SIZE 32
0.141176 0.070588 0.090196
0.185261 0.076260 0.083969
0.229345 0.081931 0.077742
0.273430 0.087603 0.071515
0.317515 0.093275 0.065288
0.361600 0.098947 0.059061
0.405962 0.105222 0.053318
0.450381 0.111617 0.047673
0.494800 0.118013 0.042028
0.539218 0.124409 0.036382
0.583637 0.130804 0.030737
0.618258 0.136394 0.026757
0.647980 0.141582 0.023611
0.677702 0.146769 0.020464
0.707425 0.151957 0.017318
0.737147 0.157144 0.014171
0.759098 0.161330 0.012144
0.773277 0.164515 0.011236
0.787457 0.167700 0.010327
0.801636 0.170885 0.009419
0.815816 0.174070 0.008511
0.826767 0.176634 0.007988
0.831259 0.177958 0.008238
0.835752 0.179281 0.008488
0.840245 0.180605 0.008737
0.844738 0.181928 0.008987
0.848689 0.183072 0.009278
0.849932 0.183321 0.009775
0.851174 0.183569 0.010273
0.852417 0.183817 0.010770
0.853659 0.184066 0.011268
0.854902 0.184314 0.011765
0.142524 0.107321 0.096888
0.184689 0.111821 0.090263
0.226853 0.116321 0.083638
0.269018 0.120822 0.077013
0.311183 0.125322 0.070388
0.353347 0.129822 0.063763
0.396337 0.134822 0.057607
0.439492 0.139921 0.051544
0.482648 0.145020 0.045481
0.525803 0.150120 0.039419
0.568958 0.155219 0.033356
0.603120 0.159641 0.029035
0.632785 0.163724 0.025586
0.662450 0.167808 0.022136
0.692115 0.171891 0.018686
0.721780 0.175975 0.015237
0.744202 0.179271 0.012983
0.759381 0.181780 0.011924
0.774560 0.184289 0.010866
0.789739 0.186798 0.009808
0.804918 0.189307 0.008749
0.817001 0.191345 0.008115
0.822891 0.192443 0.008330
0.828781 0.193540 0.008545
0.834671 0.194637 0.008759
0.840561 0.195735 0.008974
0.845805 0.196685 0.009235
0.847813 0.196896 0.009724
0.849822 0.197107 0.010214
0.851831 0.197318 0.010703
0.853840 0.197529 0.011193
0.855848 0.197740 0.011682
0.143873 0.144054 0.103580
0.184117 0.147382 0.096557
0.224361 0.150711 0.089534
0.264606 0.154040 0.082511
0.304850 0.157369 0.075488
0.345095 0.160697 0.068465
0.386712 0.164421 0.061895
0.428604 0.168225 0.055415
0.470495 0.172028 0.048935
0.512387 0.175831 0.042455
0.554279 0.179634 0.035975
0.587982 0.182888 0.031313
0.617590 0.185867 0.027560
0.647198 0.188846 0.023808
0.676806 0.191826 0.020055
0.706414 0.194805 0.016302
0.729307 0.197211 0.013822
0.745485 0.199044 0.012613
0.761664 0.200877 0.011405
0.777842 0.202710 0.010196
0.794020 0.204544 0.008988
0.807235 0.206056 0.008242
0.814522 0.206928 0.008422
0.821810 0.207799 0.008602
0.829097 0.208670 0.008781
0.836385 0.209542 0.008961
0.842920 0.210297 0.009191
0.845695 0.210471 0.009673
0.848470 0.210644 0.010155
0.851245 0.210818 0.010636
0.854020 0.210992 0.011118
0.856795 0.211166 0.011600
0.145221 0.180786 0.110272
0.183545 0.182944 0.102851
0.221869 0.185101 0.095430
0.260194 0.187258 0.088009
0.298518 0.189416 0.080588
0.336842 0.191573 0.073167
0.377087 0.194021 0.066183
0.417715 0.196528 0.059286
0.458343 0.199035 0.052388
0.498972 0.201542 0.045491
0.539600 0.204049 0.038594
0.572843 0.206134 0.033591
0.602394 0.208010 0.029535
0.631945 0.209885 0.025479
0.661496 0.211760 0.021424
0.691047 0.213635 0.017368
0.714411 0.215152 0.014661
0.731589 0.216309 0.013302
0.748767 0.217466 0.011943
0.765945 0.218623 0.010585
0.783122 0.219780 0.009226
0.797469 0.220767 0.008369
0.806154 0.221412 0.008514
0.814839 0.222058 0.008659
0.823523 0.222703 0.008803
0.832208 0.223349 0.008948
0.840036 0.223909 0.009148
0.843577 0.224046 0.009622
0.847118 0.224182 0.010096
0.850659 0.224319 0.010569
0.854200 0.224455 0.011043
0.857741 0.224592 0.011517
0.146569 0.217519 0.116964
0.182973 0.218505 0.109145
0.219377 0.219491 0.101326
0.255782 0.220477 0.093507
0.292186 0.221462 0.085688
0.328590 0.222448 0.077870
0.367461 0.223621 0.070471
0.406826 0.224832 0.063157
0.446191 0.226042 0.055842
0.485556 0.227253 0.048527
0.524921 0.228464 0.041213
0.557705 0.229381 0.035869
0.587199 0.230152 0.031510
0.616693 0.230923 0.027151
0.646186 0.231695 0.022792
0.675680 0.232466 0.018433
0.699516 0.233092 0.015499
0.717693 0.233573 0.013991
0.735870 0.234055 0.012482
0.754047 0.234536 0.010974
0.772225 0.235017 0.009465
0.787703 0.235478 0.008496
0.797785 0.235897 0.008606
0.807868 0.236317 0.008716
0.817950 0.236736 0.008826
0.828032 0.237155 0.008935
0.837151 0.237521 0.009105
0.841458 0.237621 0.009571
0.845766 0.237720 0.010037
0.850073 0.237819 0.010503
0.854380 0.237918 0.010968
0.858688 0.238017 0.011434
0.147917 0.254252 0.123656
0.182401 0.254066 0.115439
0.216885 0.253881 0.107222
0.251369 0.253695 0.099005
0.285853 0.253509 0.090789
0.320337 0.253324 0.082572
0.357836 0.253221 0.074759
0.395938 0.253136 0.067027
0.434039 0.253050 0.059296
0.472141 0.252964 0.051564
0.510242 0.252878 0.043832
0.542567 0.252628 0.038147
0.572004 0.252295 0.033485
0.601440 0.251962 0.028823
0.630877 0.251629 0.024161
0.660314 0.251296 0.019499
0.684620 0.251032 0.016338
0.703797 0.250838 0.014680
0.722974 0.250643 0.013021
0.742150 0.250449 0.011362
0.761327 0.250254 0.009704
0.777938 0.250189 0.008623
0.789417 0.250382 0.008698
0.800896 0.250576 0.008773
0.812376 0.250769 0.008848
0.823855 0.250962 0.008923
0.834267 0.251134 0.009061
0.839340 0.251196 0.009519
0.844414 0.251257 0.009978
0.849487 0.251319 0.010436
0.854561 0.251381 0.010894
0.859634 0.251443 0.011352
0.155312 0.290904 0.129563
0.187848 0.290098 0.121232
0.220385 0.289293 0.112901
0.252921 0.288488 0.104571
0.285457 0.287682 0.096240
0.317993 0.286877 0.087910
0.354077 0.286027 0.079804
0.390871 0.285169 0.071742
0.427664 0.284311 0.063681
0.464458 0.283452 0.055620
0.501251 0.282594 0.047559
0.533053 0.281652 0.041542
0.562360 0.280669 0.036546
0.591666 0.279686 0.031551
0.620972 0.278703 0.026555
0.650278 0.277720 0.021560
0.674905 0.276921 0.018138
0.694853 0.276308 0.016289
0.714800 0.275695 0.014440
0.734748 0.275081 0.012592
0.754696 0.274468 0.010743
0.772162 0.274051 0.009534
0.784664 0.274025 0.009603
0.797166 0.274000 0.009672
0.809668 0.273975 0.009742
0.822170 0.273949 0.009811
0.833529 0.273913 0.009964
0.839173 0.273820 0.010531
0.844817 0.273727 0.011099
0.850462 0.273634 0.011666
0.856106 0.273542 0.012234
0.861750 0.273449 0.012802
0.163916 0.327539 0.135313
0.194499 0.326225 0.126925
0.225082 0.324910 0.118538
0.255665 0.323595 0.110150
0.286248 0.322281 0.101762
0.316831 0.320966 0.093374
0.351492 0.319475 0.084999
0.386968 0.317948 0.076626
0.422445 0.316422 0.068253
0.457922 0.314895 0.059881
0.493398 0.313369 0.051508
0.524665 0.311832 0.045160
0.553826 0.310289 0.039825
0.582987 0.308747 0.034490
0.612148 0.307204 0.029155
0.641309 0.305662 0.023820
0.666226 0.304400 0.020130
0.686899 0.303419 0.018083
0.707572 0.302439 0.016036
0.728245 0.301458 0.013989
0.748918 0.300477 0.011942
0.767184 0.299742 0.010601
0.780633 0.299500 0.010671
0.794083 0.299257 0.010741
0.807533 0.299015 0.010810
0.820982 0.298772 0.010880
0.833220 0.298525 0.011055
0.839396 0.298254 0.011755
0.845572 0.297983 0.012456
0.851748 0.297712 0.013157
0.857924 0.297441 0.013857
0.864100 0.297170 0.014558
0.172521 0.364175 0.141063
0.201150 0.362351 0.132618
0.229779 0.360527 0.124174
0.258409 0.358703 0.115729
0.287038 0.356879 0.107284
0.315668 0.355055 0.098839
0.348906 0.352922 0.090195
0.383066 0.350728 0.081510
0.417226 0.348533 0.072826
0.451386 0.346339 0.064141
0.485545 0.344144 0.055457
0.516276 0.342011 0.048779
0.545292 0.339909 0.043104
0.574307 0.337807 0.037430
0.603323 0.335706 0.031755
0.632339 0.333604 0.026081
0.657546 0.331879 0.022121
0.678945 0.330530 0.019876
0.700344 0.329182 0.017632
0.721742 0.327834 0.015387
0.743141 0.326486 0.013142
0.762206 0.325434 0.011669
0.776603 0.324975 0.011739
0.791000 0.324515 0.011809
0.805398 0.324055 0.011879
0.819795 0.323595 0.011949
0.832911 0.323137 0.012146
0.839619 0.322688 0.012980
0.846327 0.322239 0.013813
0.853034 0.321790 0.014647
0.859742 0.321341 0.015480
0.866450 0.320892 0.016314
0.181125 0.400811 0.146813
0.207801 0.398477 0.138311
0.234477 0.396144 0.129810
0.261153 0.393811 0.121308
0.287829 0.391477 0.112806
0.314505 0.389144 0.104304
0.346320 0.386370 0.095390
0.379163 0.383507 0.086394
0.412006 0.380645 0.077398
0.444849 0.377782 0.068402
0.477692 0.374919 0.059405
0.507887 0.372191 0.052397
0.536758 0.369530 0.046383
0.565628 0.366868 0.040369
0.594499 0.364207 0.034355
0.623370 0.361546 0.028341
0.648867 0.359357 0.024113
0.670991 0.357642 0.021670
0.693115 0.355926 0.019227
0.715239 0.354211 0.016784
0.737363 0.352495 0.014341
0.757228 0.351126 0.012736
0.772573 0.350449 0.012807
0.787918 0.349772 0.012877
0.803263 0.349095 0.012947
0.818608 0.348418 0.013018
0.832602 0.347749 0.013238
0.839842 0.347122 0.014204
0.847081 0.346495 0.015171
0.854321 0.345868 0.016137
0.861560 0.345241 0.017104
0.868800 0.344613 0.018070
0.189729 0.437446 0.152563
0.214452 0.434604 0.144004
0.239174 0.431761 0.135446
0.263897 0.428918 0.126887
0.288620 0.426076 0.118328
0.313343 0.423233 0.109769
0.343735 0.419817 0.100586
0.375261 0.416287 0.091278
0.406787 0.412756 0.081970
0.438313 0.409225 0.072662
0.469839 0.405695 0.063354
0.499498 0.402371 0.056016
0.528224 0.399150 0.049662
0.556949 0.395929 0.043309
0.585675 0.392708 0.036955
0.614400 0.389488 0.030602
0.640188 0.386836 0.026105
0.663037 0.384753 0.023464
0.685887 0.382670 0.020823
0.708736 0.380587 0.018182
0.731586 0.378504 0.015541
0.752250 0.376818 0.013804
0.768542 0.375924 0.013874
0.784835 0.375030 0.013945
0.801128 0.374135 0.014016
0.817421 0.373241 0.014087
0.832294 0.372362 0.014329
0.840065 0.371556 0.015428
0.847836 0.370751 0.016528
0.855607 0.369946 0.017627
0.863378 0.369140 0.018727
0.871150 0.368335 0.019827
0.203877 0.469648 0.157064
0.226768 0.466594 0.148606
0.249660 0.463541 0.140147
0.272552 0.460488 0.131689
0.295443 0.457435 0.123231
0.318335 0.454382 0.114772
0.347336 0.450746 0.105486
0.377558 0.446994 0.096034
0.407781 0.443242 0.086583
0.438003 0.439490 0.077131
0.468226 0.435738 0.067680
0.497249 0.432243 0.060120
0.525671 0.428876 0.053506
0.554094 0.425509 0.046893
0.582516 0.422142 0.040279
0.610939 0.418775 0.033666
0.636776 0.416005 0.028942
0.660028 0.413833 0.026108
0.683280 0.411660 0.023274
0.706533 0.409488 0.020439
0.729785 0.407315 0.017605
0.750903 0.405537 0.015738
0.767755 0.404547 0.015805
0.784606 0.403556 0.015872
0.801458 0.402566 0.015938
0.818309 0.401576 0.016005
0.833701 0.400591 0.016273
0.841792 0.399631 0.017547
0.849884 0.398672 0.018821
0.857976 0.397712 0.020095
0.866068 0.396752 0.021369
0.874160 0.395793 0.022642
0.220796 0.499632 0.160941
0.241918 0.496518 0.152662
0.263040 0.493403 0.144382
0.284162 0.490289 0.136103
0.305284 0.487175 0.127823
0.326405 0.484060 0.119544
0.354030 0.480416 0.110238
0.382956 0.476666 0.100727
0.411881 0.472916 0.091216
0.440807 0.469165 0.081705
0.469732 0.465415 0.072193
0.498068 0.461961 0.064467
0.526109 0.458654 0.057633
0.554150 0.455348 0.050799
0.582190 0.452042 0.043965
0.610231 0.448735 0.037131
0.635998 0.446020 0.032202
0.659492 0.443897 0.029177
0.682985 0.441774 0.026152
0.706479 0.439650 0.023127
0.729972 0.437527 0.020102
0.751373 0.435769 0.018106
0.768588 0.434744 0.018166
0.785804 0.433718 0.018227
0.803019 0.432692 0.018288
0.820235 0.431667 0.018349
0.835965 0.430628 0.018644
0.844272 0.429526 0.020113
0.852580 0.428425 0.021582
0.860887 0.427323 0.023051
0.869194 0.426221 0.024519
0.877501 0.425119 0.025988
0.237715 0.529616 0.164818
0.257067 0.526441 0.156717
0.276420 0.523265 0.148617
0.295772 0.520090 0.140517
0.315124 0.516915 0.132416
0.334476 0.513739 0.124316
0.360725 0.510086 0.114990
0.388353 0.506338 0.105420
0.415982 0.502589 0.095849
0.443610 0.498841 0.086278
0.471239 0.495092 0.076707
0.498888 0.491679 0.068814
0.526547 0.488433 0.061760
0.554206 0.485187 0.054705
0.581865 0.481941 0.047651
0.609524 0.478696 0.040597
0.635220 0.476036 0.035462
0.658955 0.473961 0.032246
0.682690 0.471887 0.029030
0.706425 0.469813 0.025815
0.730159 0.467738 0.022599
0.751842 0.466002 0.020473
0.769422 0.464941 0.020528
0.787001 0.463879 0.020583
0.804581 0.462818 0.020637
0.822160 0.461757 0.020692
0.838230 0.460666 0.021015
0.846752 0.459422 0.022679
0.855275 0.458178 0.024343
0.863797 0.456934 0.026006
0.872319 0.455689 0.027670
0.880841 0.454445 0.029334
0.254635 0.559601 0.168694
0.272217 0.556364 0.160773
0.289799 0.553127 0.152852
0.307381 0.549891 0.144931
0.324964 0.546654 0.137009
0.342546 0.543418 0.129088
0.367419 0.539756 0.119743
0.393751 0.536009 0.110112
0.420082 0.532263 0.100482
0.446414 0.528516 0.090852
0.472746 0.524769 0.081221
0.499707 0.521397 0.073161
0.526985 0.518212 0.065886
0.554262 0.515026 0.058612
0.581539 0.511841 0.051337
0.608816 0.508656 0.044062
0.634443 0.506051 0.038722
0.658419 0.504025 0.035315
0.682395 0.502000 0.031909
0.706371 0.499975 0.028502
0.730347 0.497950 0.025096
0.752312 0.496234 0.022841
0.770255 0.495138 0.022890
0.788199 0.494041 0.022938
0.806142 0.492945 0.022987
0.824086 0.491848 0.023036
0.840495 0.490703 0.023386
0.849232 0.489317 0.025245
0.857970 0.487931 0.027103
0.866707 0.486544 0.028962
0.875445 0.485158 0.030821
0.884182 0.483772 0.032679
0.271554 0.589585 0.172571
0.287367 0.586287 0.164829
0.303179 0.582989 0.157087
0.318991 0.579692 0.149345
0.334804 0.576394 0.141602
0.350616 0.573096 0.133860
0.374114 0.569426 0.124495
0.399148 0.565681 0.114805
0.424183 0.561936 0.105115
0.449217 0.558191 0.095425
0.474252 0.554446 0.085735
0.500527 0.551115 0.077508
0.527422 0.547990 0.070013
0.554318 0.544866 0.062518
0.581213 0.541741 0.055023
0.608109 0.538616 0.047528
0.633665 0.536066 0.041982
0.657882 0.534090 0.038384
0.682099 0.532113 0.034787
0.706317 0.530137 0.031190
0.730534 0.528161 0.027592
0.752781 0.526467 0.025208
0.771089 0.525335 0.025251
0.789396 0.524203 0.025294
0.807704 0.523071 0.025337
0.826011 0.521939 0.025379
0.842760 0.520741 0.025757
0.851712 0.519212 0.027811
0.860665 0.517684 0.029864
0.869617 0.516155 0.031918
0.878570 0.514626 0.033972
0.887523 0.513098 0.036025
0.291356 0.615199 0.175602
0.305575 0.611960 0.168101
0.319793 0.608720 0.160600
0.334011 0.605481 0.153099
0.348229 0.602241 0.145598
0.362448 0.599002 0.138096
0.384623 0.595499 0.128826
0.408390 0.591943 0.119201
0.432156 0.588388 0.109576
0.455923 0.584832 0.099951
0.479690 0.581277 0.090327
0.505188 0.578168 0.082034
0.531552 0.575282 0.074407
0.557916 0.572396 0.066780
0.584280 0.569511 0.059153
0.610645 0.566625 0.051526
0.635929 0.564285 0.045828
0.660134 0.562490 0.042059
0.684339 0.560696 0.038290
0.708543 0.558901 0.034521
0.732748 0.557107 0.030752
0.755027 0.555549 0.028243
0.773455 0.554465 0.028254
0.791884 0.553381 0.028265
0.810312 0.552296 0.028277
0.828740 0.551212 0.028288
0.845608 0.550040 0.028671
0.854675 0.548427 0.030907
0.863742 0.546815 0.033144
0.872809 0.545202 0.035381
0.881876 0.543590 0.037618
0.890943 0.541977 0.039855
0.314041 0.636443 0.177789
0.326841 0.633381 0.170591
0.339641 0.630320 0.163392
0.352441 0.627258 0.156194
0.365241 0.624196 0.148995
0.378041 0.621135 0.141796
0.398948 0.617975 0.132734
0.421475 0.614796 0.123300
0.444003 0.611618 0.113865
0.466531 0.608439 0.104431
0.489059 0.605260 0.094996
0.513690 0.602555 0.086738
0.539374 0.600087 0.079067
0.565057 0.597618 0.071397
0.590741 0.595150 0.063726
0.616424 0.592682 0.056056
0.641235 0.590708 0.050260
0.665173 0.589227 0.046338
0.689112 0.587747 0.042417
0.713050 0.586266 0.038495
0.736989 0.584786 0.034573
0.759049 0.583481 0.031944
0.777355 0.582528 0.031899
0.795661 0.581575 0.031853
0.813967 0.580622 0.031808
0.832272 0.579668 0.031763
0.849041 0.578601 0.032126
0.858121 0.576963 0.034535
0.867202 0.575325 0.036944
0.876283 0.573686 0.039353
0.885364 0.572048 0.041761
0.894444 0.570410 0.044170
0.336725 0.657687 0.179976
0.348107 0.654803 0.173080
0.359489 0.651919 0.166184
0.370871 0.649035 0.159288
0.382252 0.646151 0.152392
0.393634 0.643267 0.145496
0.413272 0.640452 0.136643
0.434561 0.637649 0.127399
0.455850 0.634847 0.118155
0.477139 0.632045 0.108910
0.498428 0.629243 0.099666
0.522193 0.626942 0.091442
0.547195 0.624891 0.083728
0.572198 0.622841 0.076014
0.597201 0.620790 0.068300
0.622204 0.618739 0.060586
0.646541 0.617131 0.054692
0.670213 0.615964 0.050618
0.693885 0.614798 0.046544
0.717557 0.613632 0.042469
0.741229 0.612465 0.038395
0.763071 0.611413 0.035645
0.781255 0.610591 0.035543
0.799438 0.609769 0.035441
0.817621 0.608947 0.035339
0.835804 0.608125 0.035237
0.852473 0.607162 0.035582
0.861567 0.605498 0.038163
0.870662 0.603834 0.040743
0.879756 0.602170 0.043324
0.888851 0.600507 0.045904
0.897945 0.598843 0.048485
0.359410 0.678931 0.182163
0.369373 0.676224 0.175570
0.379337 0.673518 0.168976
0.389300 0.670812 0.162383
0.399264 0.668106 0.155790
0.409228 0.665400 0.149196
0.427597 0.662928 0.140552
0.447647 0.660502 0.131498
0.467697 0.658077 0.122444
0.487747 0.655652 0.113390
0.507797 0.653226 0.104336
0.530695 0.651329 0.096146
0.555017 0.649696 0.088389
0.579339 0.648063 0.080631
0.603661 0.646430 0.072874
0.627983 0.644797 0.065116
0.651847 0.643554 0.059124
0.675253 0.642702 0.054898
0.698658 0.641849 0.050671
0.722064 0.640997 0.046444
0.745470 0.640144 0.042217
0.767094 0.639346 0.039346
0.785154 0.638654 0.039188
0.803215 0.637963 0.039029
0.821276 0.637272 0.038870
0.839337 0.636581 0.038712
0.855905 0.635723 0.039038
0.865013 0.634034 0.041791
0.874122 0.632344 0.044543
0.883230 0.630655 0.047295
0.892338 0.628965 0.050047
0.901446 0.627275 0.052800
0.382094 0.700174 0.184350
0.390639 0.697646 0.178059
0.399185 0.695118 0.171769
0.407730 0.692589 0.165478
0.416275 0.690061 0.159187
0.424821 0.687533 0.152896
0.441921 0.685404 0.144461
0.460732 0.683355 0.135597
0.479543 0.681307 0.126733
0.498355 0.679258 0.117869
0.517166 0.677209 0.109005
0.539197 0.675716 0.100850
0.562839 0.674501 0.093049
0.586480 0.673285 0.085248
0.610122 0.672070 0.077448
0.633763 0.670854 0.069647
0.657153 0.669977 0.063557
0.680293 0.669439 0.059177
0.703432 0.668900 0.054798
0.726571 0.668362 0.050418
0.749710 0.667824 0.046039
0.771116 0.667278 0.043047
0.789054 0.666718 0.042832
0.806992 0.666158 0.042617
0.824931 0.665597 0.042402
0.842869 0.665037 0.042186
0.859338 0.664285 0.042494
0.868459 0.662569 0.045418
0.877581 0.660854 0.048342
0.886703 0.659139 0.051266
0.895825 0.657423 0.054190
0.904947 0.655708 0.057114
0.405161 0.718788 0.186259
0.412450 0.716453 0.180277
0.419740 0.714118 0.174295
0.427029 0.711783 0.168313
0.434318 0.709448 0.162331
0.441607 0.707113 0.156349
0.457486 0.705324 0.148165
0.475083 0.703644 0.139540
0.492680 0.701963 0.130915
0.510277 0.700283 0.122290
0.527874 0.698603 0.113665
0.548980 0.697504 0.105596
0.571841 0.696694 0.097806
0.594701 0.695884 0.090016
0.617562 0.695074 0.082225
0.640422 0.694264 0.074435
0.663222 0.693749 0.068286
0.685960 0.693528 0.063778
0.708699 0.693308 0.059270
0.731438 0.693087 0.054762
0.754177 0.692867 0.050255
0.775248 0.692588 0.047154
0.792984 0.692193 0.046867
0.810721 0.691797 0.046580
0.828457 0.691402 0.046294
0.846193 0.691007 0.046007
0.862496 0.690398 0.046280
0.871632 0.688724 0.049353
0.880768 0.687050 0.052426
0.889905 0.685376 0.055498
0.899041 0.683701 0.058571
0.908177 0.682027 0.061644
0.428994 0.732140 0.187610
0.435351 0.730029 0.181950
0.441708 0.727919 0.176289
0.448066 0.725809 0.170629
0.454423 0.723698 0.164968
0.460780 0.721588 0.159308
0.475533 0.720130 0.151458
0.491965 0.718802 0.143169
0.508397 0.717475 0.134881
0.524829 0.716147 0.126593
0.541261 0.714819 0.118305
0.561324 0.714091 0.110427
0.583203 0.713663 0.102755
0.605082 0.713235 0.095083
0.626961 0.712807 0.087411
0.648840 0.712379 0.079739
0.670815 0.712217 0.073609
0.692885 0.712322 0.069022
0.714955 0.712427 0.064434
0.737025 0.712532 0.059846
0.759095 0.712637 0.055259
0.779600 0.712653 0.052071
0.796975 0.712490 0.051683
0.814351 0.712328 0.051296
0.831727 0.712165 0.050908
0.849102 0.712002 0.050520
0.865107 0.711617 0.050726
0.874259 0.710117 0.053901
0.883410 0.708618 0.057076
0.892562 0.707118 0.060251
0.901713 0.705619 0.063426
0.910865 0.704119 0.066601
0.452826 0.745492 0.188962
0.458252 0.743606 0.183623
0.463677 0.741720 0.178284
0.469102 0.739835 0.172945
0.474528 0.737949 0.167606
0.479953 0.736063 0.162267
0.493580 0.734936 0.154751
0.508847 0.733961 0.146799
0.524114 0.732986 0.138848
0.539381 0.732010 0.130896
0.554648 0.731035 0.122945
0.573669 0.730679 0.115258
0.594566 0.730633 0.107705
0.615463 0.730586 0.100151
0.636361 0.730540 0.092597
0.657258 0.730494 0.085043
0.678408 0.730686 0.078933
0.699809 0.731116 0.074265
0.721210 0.731547 0.069598
0.742611 0.731977 0.064930
0.764013 0.732408 0.060263
0.783952 0.732718 0.056988
0.800967 0.732788 0.056500
0.817981 0.732858 0.056011
0.834996 0.732928 0.055522
0.852011 0.732998 0.055033
0.867718 0.732836 0.055172
0.876885 0.731511 0.058449
0.886052 0.730186 0.061727
0.895219 0.728861 0.065004
0.904386 0.727536 0.068282
0.913553 0.726211 0.071559
0.476659 0.758844 0.190313
0.481152 0.757183 0.185296
0.485646 0.755522 0.180278
0.490139 0.753861 0.175261
0.494632 0.752199 0.170243
0.499126 0.750538 0.165226
0.511626 0.749742 0.158044
0.525728 0.749120 0.150429
0.539831 0.748497 0.142814
0.553933 0.747874 0.135199
0.568035 0.747251 0.127584
0.586013 0.747267 0.120089
0.605929 0.747602 0.112654
0.625845 0.747938 0.105218
0.645761 0.748273 0.097783
0.665677 0.748609 0.090348
0.686001 0.749154 0.084256
0.706733 0.749910 0.079509
0.727466 0.750667 0.074762
0.748198 0.751423 0.070014
0.768930 0.752179 0.065267
0.788303 0.752784 0.061906
0.804958 0.753086 0.061316
0.821612 0.753389 0.060726
0.838266 0.753691 0.060136
0.854920 0.753994 0.059546
0.870329 0.754055 0.059618
0.879511 0.752904 0.062998
0.888694 0.751754 0.066377
0.897876 0.750604 0.069757
0.907058 0.749454 0.073137
0.916240 0.748304 0.076517
0.500492 0.772196 0.191665
0.504053 0.770760 0.186969
0.507614 0.769323 0.182273
0.511176 0.767887 0.177576
0.514737 0.766450 0.172880
0.518299 0.765014 0.168184
0.529673 0.764549 0.161337
0.542610 0.764278 0.154058
0.555547 0.764008 0.146780
0.568484 0.763737 0.139502
0.581422 0.763467 0.132224
0.598357 0.763855 0.124920
0.617291 0.764572 0.117603
0.636226 0.765289 0.110286
0.655160 0.766006 0.102969
0.674095 0.766724 0.095652
0.693594 0.767623 0.089580
0.713657 0.768705 0.084753
0.733721 0.769786 0.079926
0.753785 0.770868 0.075098
0.773848 0.771949 0.070271
0.792655 0.772849 0.066823
0.808949 0.773384 0.066132
0.825242 0.773919 0.065441
0.841536 0.774455 0.064750
0.857829 0.774990 0.064059
0.872940 0.775273 0.064064
0.882138 0.774298 0.067546
0.891335 0.773322 0.071028
0.900533 0.772347 0.074510
0.909731 0.771371 0.077992
0.918928 0.770396 0.081475
0.523680 0.784493 0.193024
0.526412 0.783279 0.188644
0.529144 0.782064 0.184265
0.531876 0.780850 0.179885
0.534608 0.779635 0.175506
0.537340 0.778421 0.171127
0.547628 0.778254 0.164614
0.559427 0.778297 0.157675
0.571225 0.778340 0.150736
0.583024 0.778382 0.143796
0.594822 0.778425 0.136857
0.610704 0.779141 0.129757
0.628628 0.780192 0.122578
0.646551 0.781244 0.115398
0.664475 0.782296 0.108218
0.682398 0.783348 0.101038
0.701040 0.784563 0.095006
0.720399 0.785941 0.090122
0.739758 0.787319 0.085237
0.759118 0.788697 0.080353
0.778477 0.790075 0.075468
0.796693 0.791251 0.071951
0.812621 0.792024 0.071167
0.828549 0.792796 0.070384
0.844477 0.793569 0.069600
0.860405 0.794341 0.068816
0.875214 0.794859 0.068759
0.884433 0.794100 0.072335
0.893651 0.793341 0.075912
0.902870 0.792582 0.079488
0.912089 0.791823 0.083064
0.921307 0.791065 0.086640
0.543650 0.791516 0.194419
0.546065 0.790511 0.190332
0.548481 0.789505 0.186245
0.550896 0.788500 0.182159
0.553312 0.787494 0.178072
0.555727 0.786489 0.173985
0.565124 0.786454 0.167813
0.575916 0.786614 0.161224
0.586709 0.786774 0.154635
0.597501 0.786934 0.148046
0.608294 0.787094 0.141457
0.623068 0.787915 0.134628
0.639833 0.789066 0.127680
0.656598 0.790218 0.120731
0.673363 0.791370 0.113783
0.690129 0.792522 0.106834
0.707750 0.793862 0.100946
0.726228 0.795390 0.096117
0.744705 0.796918 0.091288
0.763183 0.798446 0.086459
0.781661 0.799974 0.081630
0.799159 0.801337 0.078132
0.814697 0.802371 0.077298
