Assets/1__3DArt/KimSe/artstation_asset/LUTs_pasterls/CUBE/Cotton Candy 02 S.cube
# Enhanced with VOXCOLOR algorithms
LUT_3D_SIZE 8
DOMAIN_MIN 0.000000 0.000000 0.000000
DOMAIN_MAX 0.903226 0.903226 0.903226
0.164706 0.152941 0.125490
0.273867 0.170619 0.142038
0.396784 0.189468 0.159252
0.516953 0.207053 0.175258
0.620841 0.221468 0.188595
0.693192 0.230805 0.197766
0.736044 0.235946 0.203419
0.759542 0.238462 0.206591
0.182534 0.226216 0.141635
0.270063 0.232783 0.145783
0.376155 0.240984 0.148511
0.486587 0.248942 0.150518
0.589320 0.255356 0.152932
0.670522 0.259937 0.159542
0.725567 0.263910 0.173072
0.756938 0.267319 0.190999
0.206376 0.321252 0.160748
0.274477 0.318282 0.155590
0.364672 0.317675 0.146772
0.465219 0.318055 0.137498
0.565636 0.318434 0.131160
0.652854 0.318676 0.135090
0.716753 0.319120 0.152823
0.754679 0.319192 0.179584
0.233738 0.429442 0.181388
0.285218 0.418726 0.170590
0.361135 0.411086 0.154336
0.452100 0.405599 0.137524
0.549095 0.401458 0.124992
0.639424 0.398044 0.125882
0.709062 0.394362 0.143849
0.752748 0.389665 0.173001
0.262179 0.542018 0.202006
0.300239 0.525659 0.189477
0.363979 0.512789 0.170622
0.446026 0.502921 0.150687
0.538632 0.495435 0.134779
0.629370 0.489300 0.132114
0.702087 0.482379 0.146254
0.751201 0.473839 0.171308
0.287943 0.644190 0.219501
0.316394 0.625717 0.209146
0.370546 0.610292 0.193126
0.444724 0.597938 0.175261
0.532352 0.588432 0.159381
0.621601 0.581071 0.152616
0.695816 0.573460 0.158578
0.750530 0.564511 0.173337
0.309564 0.723966 0.232402
0.330711 0.707199 0.225361
0.376476 0.692018 0.214218
0.443089 0.679058 0.200788
0.525464 0.668715 0.187023
0.613211 0.661340 0.176776
0.689371 0.655250 0.173446
0.749667 0.648903 0.176271
0.329999 0.782468 0.243382
0.344340 0.770043 0.238726
0.381302 0.757170 0.231514
0.439516 0.745075 0.222160
0.515900 0.734816 0.211160
0.602458 0.727977 0.199320
0.681251 0.724078 0.188873
0.746075 0.721097 0.181385
0.180173 0.174948 0.183113
0.283393 0.184144 0.196092
0.401113 0.194627 0.209146
0.517562 0.204702 0.220846
0.619774 0.213325 0.230181
0.693292 0.220980 0.236526
0.738824 0.228956 0.240894
0.764695 0.235392 0.243703
0.189794 0.254417 0.197030
0.281911 0.254073 0.201731
0.385001 0.253483 0.205130
0.489905 0.252695 0.207511
0.588714 0.252105 0.209499
0.671374 0.253852 0.213467
0.731840 0.259656 0.221706
0.768660 0.267903 0.233228
0.204989 0.353262 0.213788
0.280328 0.344222 0.211791
0.369754 0.335273 0.207075
0.466625 0.327230 0.201597
0.564742 0.320942 0.197437
0.655441 0.318428 0.199003
0.728246 0.320368 0.208946
0.776860 0.325269 0.225214
0.224001 0.462094 0.231795
0.281486 0.446431 0.225368
0.358592 0.431822 0.215026
0.449231 0.419354 0.203891
0.547305 0.409873 0.195010
0.644001 0.404585 0.193876
0.726301 0.402666 0.203091
0.786681 0.402615 0.219937
0.245096 0.571931 0.249481
0.287166 0.552616 0.241295
0.353553 0.534991 0.228489
0.438403 0.520284 0.214474
0.535502 0.509300 0.202525
0.635541 0.502607 0.198247
0.724384 0.498218 0.204183
0.795603 0.494481 0.217504
0.265844 0.669113 0.264135
0.297250 0.650020 0.257042
0.354809 0.632383 0.245730
0.433536 0.617585 0.232586
0.527706 0.606573 0.220004
0.628058 0.600117 0.212283
0.720176 0.596098 0.212183
0.799451 0.592473 0.218098
0.284634 0.744454 0.274205
0.308362 0.728434 0.269303
0.357863 0.712852 0.261533
0.429672 0.699270 0.251690
0.519180 0.688938 0.240714
0.617941 0.683528 0.230559
0.710813 0.681724 0.223934
0.793537 0.680907 0.221448
0.302523 0.799833 0.281414
0.319741 0.788730 0.278295
0.360813 0.776357 0.273809
0.424359 0.764431 0.267627
0.507416 0.754546 0.259527
0.603078 0.749445 0.249113
0.694494 0.749305 0.237986
0.775432 0.751220 0.228307
0.199050 0.202299 0.259539
0.296215 0.203982 0.270112
0.408773 0.206605 0.280325
0.521750 0.209551 0.288969
0.622697 0.212693 0.295227
0.697452 0.217823 0.298702
0.745134 0.225872 0.300695
0.772742 0.233316 0.301825
0.200765 0.285796 0.272832
0.290825 0.279602 0.278093
0.390601 0.271829 0.282581
0.492658 0.263940 0.285926
0.590432 0.257513 0.288083
0.675077 0.256105 0.290015
0.739740 0.261416 0.293595
0.781640 0.270857 0.299015
0.207482 0.387091 0.289730
0.283059 0.373313 0.290066
0.371272 0.357910 0.288938
0.467048 0.343167 0.287023
0.565503 0.331168 0.285147
0.659604 0.325348 0.285345
0.739236 0.326574 0.289482
0.797482 0.332709 0.297195
0.218221 0.496038 0.307762
0.276998 0.476795 0.304385
0.354775 0.456822 0.298780
0.446444 0.438557 0.292483
0.546844 0.423999 0.287012
0.648884 0.415719 0.285103
0.740889 0.413243 0.288454
0.815479 0.414560 0.296217
0.231930 0.603372 0.324698
0.275532 0.582031 0.319383
0.343902 0.560662 0.311251
0.431677 0.541622 0.302174
0.533213 0.526716 0.293940
0.640849 0.517803 0.289505
0.742171 0.513412 0.290538
0.831232 0.511432 0.296023
0.247195 0.696257 0.337408
0.279933 0.676787 0.332259
0.339978 0.657384 0.324515
0.422739 0.640246 0.315425
0.522949 0.627077 0.306251
0.632889 0.619773 0.299207
0.739455 0.616781 0.296225
0.838178 0.615566 0.297068
0.262114 0.767600 0.344470
0.287046 0.752227 0.340530
0.339154 0.736523 0.335118
0.415435 0.722533 0.328375
0.511751 0.711994 0.320535
0.621060 0.707470 0.312149
0.728912 0.708089 0.305015
0.830673 0.710608 0.300422
0.276432 0.819615 0.347677
0.295135 0.809700 0.344798
0.339034 0.798299 0.341874
0.407192 0.787338 0.338295
0.497071 0.778681 0.333458
0.602938 0.775862 0.326034
0.708258 0.779557 0.316447
0.806204 0.786141 0.306981
0.220054 0.233125 0.349331
0.311341 0.229780 0.359324
0.418845 0.226142 0.368616
0.528497 0.222863 0.375908
0.628383 0.220765 0.380314
0.704284 0.222238 0.381271
0.753555 0.227650 0.380587
0.782275 0.233240 0.379622
0.215322 0.318978 0.362921
0.299533 0.309366 0.369329
0.395867 0.296990 0.375552
0.496596 0.284145 0.380477
0.594799 0.273081 0.383361
0.681157 0.267923 0.383932
0.748369 0.270255 0.383921
0.794093 0.277245 0.384536
0.214570 0.421243 0.381475
0.286156 0.405172 0.383799
0.372765 0.386208 0.385880
0.468733 0.367239 0.387251
0.568662 0.350879 0.387667
0.665242 0.341170 0.387365
0.749018 0.339288 0.387720
0.814396 0.342989 0.389471
0.217678 0.529343 0.401284
0.274699 0.508738 0.400048
0.352493 0.486056 0.398163
0.445535 0.464184 0.395871
0.548357 0.445570 0.393483
0.654027 0.433439 0.391776
0.752153 0.427997 0.391808
0.836957 0.427319 0.393819
0.224330 0.633916 0.419134
0.267723 0.612139 0.415609
0.337180 0.589019 0.410949
0.427252 0.567218 0.405835
0.532279 0.548892 0.400929
0.645156 0.536551 0.397361
0.754725 0.529669 0.396130
0.856261 0.526391 0.397224
0.234044 0.722859 0.431016
0.266953 0.703771 0.426939
0.328360 0.683767 0.421794
0.413945 0.665175 0.416017
0.518705 0.649903 0.410057
0.635739 0.640355 0.404707
0.752536 0.635883 0.401154
0.864877 0.634241 0.399864
0.244755 0.790582 0.435749
0.269855 0.776087 0.432139
0.323249 0.760880 0.428330
0.402533 0.746998 0.424132
0.504078 0.736231 0.419373
0.621891 0.731423 0.413689
0.741483 0.732259 0.407918
0.857583 0.735630 0.403541
0.255366 0.839263 0.435780
0.274364 0.830538 0.432558
0.319583 0.820584 0.430447
0.390827 0.811232 0.428915
0.486187 0.804304 0.427267
0.601129 0.803504 0.423619
0.718944 0.809770 0.417102
0.831845 0.819310 0.409779
0.241913 0.265637 0.446821
0.327718 0.260778 0.458410
0.430290 0.253300 0.469023
0.536620 0.245125 0.476964
0.635406 0.238010 0.481036
0.712227 0.234579 0.480288
0.762599 0.234930 0.477346
0.791923 0.236116 0.474606
0.232984 0.352541 0.460902
0.310042 0.342826 0.469401
0.402958 0.329087 0.478148
0.502856 0.313810 0.485329
0.601720 0.299389 0.489578
0.688895 0.289810 0.489650
0.756788 0.286791 0.487494
0.804451 0.288020 0.485296
0.226430 0.454230 0.481617
0.292273 0.438972 0.485950
0.376975 0.420007 0.491023
0.473334 0.399856 0.495480
0.574602 0.380891 0.498261
0.672087 0.366887 0.498357
0.756952 0.359630 0.496992
0.825893 0.357521 0.495763
0.223038 0.560219 0.504009
0.276809 0.540939 0.504382
0.353942 0.518900 0.505434
0.447892 0.496399 0.506472
0.552298 0.475491 0.506943
0.659363 0.459128 0.506330
0.759625 0.448555 0.505339
0.849540 0.442788 0.504919
0.223300 0.661404 0.523840
0.265480 0.641143 0.521412
0.335055 0.618940 0.519291
0.426265 0.596800 0.517335
0.533168 0.576450 0.515440
0.648449 0.560150 0.513577
0.761665 0.548671 0.512267
0.869552 0.541360 0.512036
0.227733 0.746498 0.536076
0.260119 0.728861 0.532614
0.321726 0.709919 0.529355
0.408491 0.691395 0.526249
0.515601 0.674781 0.523245
0.636506 0.662182 0.520285
0.758786 0.654121 0.517910
0.878477 0.649579 0.516843
0.234464 0.810936 0.539783
0.259046 0.797758 0.536338
0.312394 0.783883 0.533678
0.392766 0.770859 0.531561
0.497067 0.760092 0.529669
0.620108 0.753982 0.527183
0.747009 0.752862 0.524063
0.871772 0.754661 0.521647
0.241890 0.856558 0.538241
0.260262 0.849100 0.534677
0.305292 0.841008 0.533054
0.377624 0.833728 0.533147
0.476048 0.828721 0.534401
0.597128 0.829110 0.534811
0.723762 0.835808 0.532431
0.847086 0.845650 0.528868
0.262688 0.297465 0.543092
0.343570 0.295255 0.558291
0.441160 0.287230 0.572436
0.543727 0.276156 0.583356
0.640811 0.264493 0.589447
0.718142 0.255118 0.589073
0.769545 0.248825 0.585388
0.799494 0.244078 0.581863
0.252220 0.383923 0.556452
0.323352 0.377759 0.567926
0.413015 0.366563 0.580090
0.511495 0.352112 0.590604
0.609935 0.336251 0.597611
0.696447 0.322097 0.599038
0.763146 0.312096 0.596947
0.810389 0.305422 0.594390
0.242301 0.483233 0.578098
0.303345 0.471961 0.584620
0.386083 0.457156 0.592802
0.482012 0.439844 0.600710
0.583178 0.421203 0.606736
0.679287 0.403566 0.608988
0.761782 0.389607 0.608532
0.829505 0.379505 0.607611
0.234355 0.585560 0.602266
0.285258 0.570194 0.604091
0.361314 0.552745 0.607838
0.455053 0.533773 0.612248
0.559235 0.513935 0.616226
0.664739 0.494572 0.618435
0.762459 0.477965 0.619226
0.850864 0.465198 0.619955
0.229521 0.682459 0.624015
0.270512 0.665554 0.622501
0.339510 0.647474 0.622622
0.430413 0.628610 0.623798
0.536918 0.609381 0.625485
0.650991 0.590523 0.627009
0.762396 0.573886 0.628378
0.869148 0.561002 0.630252
0.229362 0.763668 0.637568
0.261173 0.748495 0.634762
0.322157 0.732637 0.633287
0.408356 0.716581 0.632926
0.515020 0.700799 0.633417
0.635545 0.686106 0.634343
0.757463 0.673904 0.635568
0.877109 0.665206 0.637628
0.232770 0.825255 0.642007
0.256651 0.813771 0.639019
0.309021 0.802129 0.637659
0.388538 0.791042 0.637822
0.492436 0.781174 0.639238
0.615936 0.773768 0.641059
0.743919 0.769587 0.642494
0.869966 0.768323 0.644400
0.237894 0.868464 0.641089
0.255236 0.862235 0.637684
0.299082 0.856153 0.636897
0.370565 0.851084 0.638832
0.468872 0.847881 0.643166
0.591075 0.848414 0.648200
0.719774 0.853274 0.651399
0.845524 0.860700 0.653701
0.280731 0.325196 0.627172
0.356889 0.328062 0.646198
0.449325 0.322263 0.664364
0.547634 0.310624 0.679435
0.642333 0.295788 0.689598
0.719885 0.280855 0.692252
0.772714 0.268094 0.689733
0.803779 0.257437 0.686080
0.270308 0.410335 0.638803
0.336973 0.409107 0.652895
0.423253 0.402596 0.668442
0.519310 0.391314 0.682891
0.616070 0.376088 0.694076
0.701096 0.358691 0.699039
0.766040 0.342508 0.698974
0.811607 0.328672 0.697231
0.259041 0.506332 0.659545
0.316683 0.499778 0.667808
0.397217 0.490906 0.678890
0.491565 0.478910 0.690576
0.591167 0.463410 0.700910
0.684545 0.444647 0.707243
0.762856 0.425808 0.709781
0.826015 0.409221 0.710876
0.248460 0.604240 0.683612
0.297296 0.593115 0.686603
0.371906 0.581742 0.692869
0.464329 0.568828 0.700901
0.566775 0.553410 0.709294
0.668821 0.534595 0.716140
0.760933 0.514826 0.720972
0.842629 0.497245 0.725073
0.239965 0.696464 0.706019
0.280035 0.682963 0.705349
0.348046 0.670151 0.707667
0.437638 0.656893 0.712261
0.542177 0.642239 0.718400
0.652598 0.624957 0.725091
0.758093 0.606771 0.731572
0.857303 0.590948 0.738210
0.235938 0.773980 0.720963
0.267291 0.761112 0.718888
0.327362 0.749001 0.719299
0.412107 0.737109 0.722047
0.516643 0.724956 0.726870
0.633795 0.711875 0.733347
0.750561 0.699020 0.740590
0.863348 0.688747 0.748572
0.236400 0.833285 0.727234
0.259718 0.823237 0.724898
0.311018 0.813972 0.725095
0.388947 0.805575 0.727955
0.490711 0.798091 0.733367
0.611254 0.791647 0.740787
0.734996 0.786738 0.748794
0.855253 0.784234 0.757461
0.239473 0.874750 0.728056
0.256017 0.869502 0.725321
0.298833 0.865131 0.725855
0.369005 0.862058 0.730048
0.465635 0.860640 0.737834
0.585378 0.861610 0.748096
0.710332 0.865002 0.758087
0.830926 0.870210 0.767876
0.295934 0.347282 0.696707
0.367426 0.356563 0.719091
0.454700 0.355169 0.740675
0.548681 0.345326 0.759796
0.640905 0.329345 0.774851
0.718771 0.310130 0.782363
0.773353 0.291486 0.782480
0.805723 0.274758 0.778732
0.286628 0.431314 0.707478
0.349031 0.434998 0.723081
0.431446 0.433747 0.741100
0.524357 0.426748 0.759103
0.618869 0.413724 0.774837
0.702468 0.394935 0.784578
0.766038 0.374341 0.787630
0.809763 0.354765 0.786724
0.275374 0.524085 0.726617
0.329608 0.521530 0.735570
0.407146 0.518217 0.748649
0.498899 0.511948 0.763589
0.596152 0.501092 0.778250
0.686648 0.484020 0.789398
0.760547 0.463696 0.795739
0.817694 0.443781 0.799042
0.263551 0.617676 0.749226
0.309964 0.609769 0.752660
0.382164 0.603651 0.760716
0.472197 0.596951 0.771819
0.572079 0.587677 0.784411
0.670216 0.573311 0.796227
0.755490 0.555425 0.805714
0.827234 0.537763 0.813688
0.252576 0.705446 0.771039
0.291081 0.694220 0.770787
0.357103 0.685768 0.774781
0.444401 0.678340 0.782308
0.546218 0.670333 0.792570
0.652212 0.659417 0.804482
0.749449 0.645980 0.816563
0.835984 0.633046 0.828830
0.245265 0.779707 0.787039
0.275566 0.768084 0.785385
0.333968 0.758985 0.787317
0.416557 0.751627 0.792793
0.518371 0.745211 0.801607
0.631141 0.738501 0.813532
0.739613 0.731268 0.827180
0.839133 0.725133 0.842074
0.242689 0.837268 0.795585
0.265217 0.827883 0.793740
0.315198 0.820453 0.795236
0.391292 0.814981 0.800449
0.490586 0.811362 0.809472
0.607167 0.809423 0.822232
0.723530 0.808658 0.836933
0.831693 0.809385 0.852900
0.243250 0.877350 0.798459
0.259190 0.872726 0.796639
0.301228 0.869624 0.798391
0.370270 0.868376 0.804464
0.465171 0.869180 0.815126
0.581761 0.872331 0.829966
0.700828 0.877112 0.846198
0.811965 0.882973 0.863025
