Assets/1__3DArt/KimSe/artstation_asset/LUTs_pasterls/CUBE/Cotton Candy 03 S.cube
# Enhanced with VOXCOLOR algorithms
LUT_3D_SIZE 5
DOMAIN_MIN 0.000000 0.000000 0.000000
DOMAIN_MAX 0.903226 0.903226 0.903226
0.141176 0.070588 0.090196
0.450381 0.111617 0.047673
0.707425 0.151957 0.017318
0.826767 0.176634 0.007988
0.851174 0.183569 0.010273
0.163916 0.327539 0.135313
0.386968 0.317948 0.076626
0.612148 0.307204 0.029155
0.767184 0.299742 0.010601
0.845572 0.297983 0.012456
0.254635 0.559601 0.168694
0.393751 0.536009 0.110112
0.581539 0.511841 0.051337
0.752312 0.496234 0.022841
0.857970 0.487931 0.027103
0.405161 0.718788 0.186259
0.475083 0.703644 0.139540
0.617562 0.695074 0.082225
0.775248 0.692588 0.047154
0.880768 0.687050 0.052426
0.563620 0.798539 0.195814
0.592406 0.794931 0.164774
0.682252 0.800444 0.119348
0.801625 0.811423 0.084313
0.895027 0.817886 0.088007
0.175577 0.155723 0.337294
0.448241 0.158089 0.266198
0.683725 0.171513 0.202646
0.807775 0.187381 0.167399
0.845335 0.201653 0.153776
0.195161 0.406682 0.362172
0.404536 0.364257 0.287187
0.591057 0.323672 0.232476
0.741783 0.303851 0.203148
0.848564 0.309804 0.181621
0.289829 0.618119 0.390579
0.406781 0.568080 0.324340
0.558994 0.517694 0.262753
0.723390 0.489156 0.226269
0.870540 0.483703 0.208411
0.438634 0.754709 0.412902
0.486723 0.726502 0.361328
0.597861 0.699737 0.298025
0.744671 0.685102 0.249792
0.893265 0.679473 0.231994
0.580164 0.818739 0.423056
0.602746 0.813714 0.389777
0.676564 0.813991 0.339599
0.784839 0.822127 0.289098
0.899300 0.833206 0.262694
0.205914 0.256426 0.558852
0.447791 0.243328 0.499533
0.674047 0.240530 0.435579
0.806175 0.244855 0.390498
0.849160 0.252324 0.369769
0.233204 0.486850 0.591858
0.409768 0.437691 0.529666
0.590901 0.387341 0.472516
0.746223 0.357038 0.432930
0.858599 0.354443 0.406695
0.335192 0.673166 0.622332
0.431720 0.620715 0.566299
0.569667 0.562113 0.505410
0.726264 0.520214 0.460648
0.883837 0.503169 0.435745
0.479458 0.787506 0.641083
0.516715 0.758667 0.599484
0.608547 0.724731 0.541342
0.739746 0.697943 0.486700
0.902877 0.684572 0.455780
0.603781 0.837762 0.645588
0.622485 0.832415 0.620909
0.683053 0.830025 0.580744
0.778354 0.836469 0.529987
0.904535 0.852365 0.485919
0.228944 0.363974 0.713813
0.446495 0.361426 0.682250
0.667515 0.357402 0.640366
0.809727 0.351723 0.604039
0.856406 0.344391 0.584091
0.273207 0.560552 0.755655
0.425280 0.530235 0.721179
0.610147 0.494715 0.680331
0.767539 0.463085 0.644827
0.866730 0.441959 0.622002
0.385032 0.716261 0.786037
0.469069 0.681742 0.754669
0.603446 0.638121 0.713482
0.749613 0.593931 0.675793
0.888840 0.559451 0.653422
0.522968 0.809475 0.799671
0.556167 0.789663 0.777869
0.639362 0.762199 0.742001
0.755265 0.731067 0.701327
0.903901 0.706719 0.674470
0.630361 0.849505 0.800619
0.646835 0.845407 0.788905
0.700282 0.842693 0.768366
0.785097 0.845162 0.737004
0.902528 0.856160 0.703689
0.247182 0.463924 0.795893
0.446525 0.487244 0.786215
0.657479 0.495620 0.768126
0.806673 0.492335 0.749970
0.859839 0.477021 0.734693
0.313460 0.621297 0.835433
0.449112 0.613537 0.819338
0.627785 0.604520 0.800788
0.781985 0.589886 0.782982
0.865141 0.567968 0.768742
0.433721 0.744358 0.861001
0.506357 0.727771 0.846721
0.634726 0.710809 0.829940
0.771669 0.689902 0.814237
0.877471 0.666424 0.805501
0.565410 0.819337 0.871442
0.592026 0.807847 0.863252
0.670332 0.795442 0.851563
0.777174 0.780707 0.839528
0.888176 0.766710 0.834548
0.658870 0.852590 0.871376
0.671642 0.849992 0.868362
0.721533 0.849088 0.865158
0.800113 0.850195 0.860788
0.889737 0.854296 0.856944
