Assets/1__3DArt/KimSe/artstation_asset/LUTs_pasterls/CUBE/Cotton Candy 01 S.cube
# Enhanced with VOXCOLOR algorithms
LUT_3D_SIZE 32
0.113725 0.101961 0.109804
0.146669 0.106246 0.105530
0.179614 0.110532 0.101257
0.212558 0.114817 0.096983
0.245502 0.119102 0.092710
0.278446 0.123388 0.088436
0.323460 0.130162 0.085515
0.370887 0.137435 0.082865
0.418314 0.144708 0.080215
0.465742 0.151980 0.077565
0.513169 0.159253 0.074914
0.556976 0.166869 0.075508
0.598973 0.174657 0.077722
0.640970 0.182446 0.079937
0.682967 0.190234 0.082152
0.724964 0.198022 0.084367
0.759433 0.205061 0.088327
0.786374 0.211352 0.094034
0.813315 0.217643 0.099741
0.840257 0.223933 0.105448
0.867198 0.230224 0.111154
0.889082 0.235693 0.116891
0.900852 0.239517 0.122687
0.912621 0.243341 0.128483
0.924391 0.247166 0.134279
0.936160 0.250990 0.140075
0.946446 0.254453 0.145417
0.949314 0.256112 0.148491
0.952181 0.257770 0.151564
0.955049 0.259428 0.154637
0.957916 0.261087 0.157711
0.960784 0.262745 0.160784
0.118740 0.126673 0.117402
0.150270 0.130137 0.112711
0.181799 0.133602 0.108020
0.213329 0.137067 0.103329
0.244858 0.140532 0.098638
0.276388 0.143996 0.093947
0.319631 0.149797 0.090355
0.365216 0.156064 0.086983
0.410802 0.162332 0.083611
0.456388 0.168600 0.080239
0.501974 0.174867 0.076867
0.544509 0.181550 0.076688
0.585519 0.188441 0.078106
0.626529 0.195332 0.079524
0.667539 0.202223 0.080943
0.708548 0.209114 0.082361
0.742734 0.215439 0.085712
0.770096 0.221196 0.090996
0.797457 0.226953 0.096281
0.824819 0.232711 0.101565
0.852180 0.238468 0.106850
0.874842 0.243555 0.112407
0.888103 0.247300 0.118510
0.901365 0.251045 0.124613
0.914626 0.254790 0.130717
0.927888 0.258535 0.136820
0.939642 0.261966 0.142585
0.943859 0.263826 0.146658
0.948077 0.265686 0.150730
0.952294 0.267545 0.154803
0.956511 0.269405 0.158876
0.960729 0.271265 0.162948
0.123756 0.151384 0.124999
0.153870 0.154028 0.119891
0.183985 0.156673 0.114782
0.214100 0.159317 0.109674
0.244214 0.161961 0.104565
0.274329 0.164605 0.099457
0.315802 0.169431 0.095194
0.359546 0.174694 0.091100
0.403290 0.179956 0.087006
0.447035 0.185219 0.082913
0.490779 0.190481 0.078819
0.532042 0.196232 0.077869
0.572065 0.202225 0.078490
0.612088 0.208219 0.079112
0.652111 0.214213 0.079733
0.692133 0.220207 0.080355
0.726036 0.225816 0.083097
0.753817 0.231040 0.087959
0.781599 0.236264 0.092821
0.809381 0.241488 0.097683
0.837162 0.246712 0.102545
0.860601 0.251417 0.107923
0.875355 0.255083 0.114333
0.890108 0.258749 0.120744
0.904862 0.262414 0.127155
0.919615 0.266080 0.133565
0.932838 0.269479 0.139753
0.938405 0.271540 0.144825
0.943972 0.273601 0.149897
0.949539 0.275662 0.154969
0.955106 0.277724 0.160041
0.960673 0.279785 0.165113
0.128771 0.176096 0.132597
0.157471 0.177920 0.127071
0.186171 0.179743 0.121545
0.214871 0.181567 0.116019
0.243570 0.183390 0.110493
0.272270 0.185214 0.104967
0.311973 0.189065 0.100033
0.353875 0.193323 0.095218
0.395778 0.197581 0.090402
0.437681 0.201838 0.085587
0.479584 0.206096 0.080771
0.519575 0.210913 0.079049
0.558611 0.216009 0.078874
0.597647 0.221106 0.078699
0.636683 0.226203 0.078524
0.675718 0.231300 0.078349
0.709337 0.236193 0.080482
0.737539 0.240884 0.084921
0.765741 0.245575 0.089361
0.793943 0.250265 0.093800
0.822145 0.254956 0.098240
0.846361 0.259279 0.103439
0.862606 0.262866 0.110157
0.878852 0.266452 0.116874
0.895097 0.270039 0.123592
0.911343 0.273625 0.130310
0.926034 0.276991 0.136920
0.932950 0.279254 0.142992
0.939867 0.281517 0.149063
0.946784 0.283780 0.155135
0.953701 0.286042 0.161206
0.960618 0.288305 0.167277
0.133787 0.200808 0.140194
0.161072 0.201811 0.134251
0.188357 0.202813 0.128308
0.215642 0.203816 0.122364
0.242926 0.204819 0.116421
0.270211 0.205822 0.110478
0.308143 0.208700 0.104873
0.348205 0.211952 0.099335
0.388266 0.215205 0.093798
0.428328 0.218457 0.088260
0.468389 0.221710 0.082723
0.507109 0.225594 0.080230
0.545157 0.229793 0.079258
0.583206 0.233993 0.078287
0.621255 0.238193 0.077315
0.659303 0.242392 0.076343
0.692639 0.246571 0.077866
0.721261 0.250728 0.081883
0.749883 0.254885 0.085901
0.778505 0.259043 0.089918
0.807127 0.263200 0.093935
0.832121 0.267141 0.098955
0.849858 0.270648 0.105980
0.867595 0.274156 0.113005
0.885333 0.277663 0.120030
0.903070 0.281171 0.127055
0.919229 0.284504 0.134088
0.927496 0.286968 0.141159
0.935763 0.289432 0.148230
0.944029 0.291897 0.155300
0.952296 0.294361 0.162371
0.960563 0.296825 0.169442
0.138802 0.225519 0.147792
0.164672 0.225702 0.141431
0.190542 0.225884 0.135070
0.216412 0.226066 0.128710
0.242283 0.226248 0.122349
0.268153 0.226431 0.115988
0.304314 0.228334 0.109712
0.342534 0.230582 0.103453
0.380754 0.232829 0.097194
0.418974 0.235077 0.090934
0.457194 0.237324 0.084675
0.494642 0.240275 0.081410
0.531703 0.243577 0.079642
0.568765 0.246880 0.077874
0.605827 0.250182 0.076106
0.642888 0.253485 0.074338
0.675940 0.256948 0.075251
0.704982 0.260572 0.078846
0.734025 0.264196 0.082440
0.763067 0.267820 0.086035
0.792109 0.271444 0.089630
0.817880 0.275003 0.094471
0.837110 0.278431 0.101803
0.856339 0.281859 0.109135
0.875569 0.285288 0.116468
0.894798 0.288716 0.123800
0.912425 0.292017 0.131256
0.922042 0.294682 0.139326
0.931658 0.297348 0.147396
0.941274 0.300014 0.155466
0.950891 0.302679 0.163536
0.960507 0.305345 0.171606
0.147902 0.259165 0.156780
0.172430 0.258684 0.150140
0.196959 0.258203 0.143499
0.221487 0.257722 0.136858
0.246016 0.257242 0.130217
0.270545 0.256761 0.123577
0.305175 0.257858 0.116759
0.341827 0.259271 0.109906
0.378478 0.260684 0.103052
0.415129 0.262097 0.096199
0.451780 0.263510 0.089346
0.488164 0.265689 0.085443
0.524415 0.268250 0.083016
0.560665 0.270812 0.080589
0.596916 0.273374 0.078161
0.633166 0.275936 0.075734
0.665930 0.278773 0.076136
0.695208 0.281884 0.079368
0.724486 0.284996 0.082599
0.753764 0.288108 0.085831
0.783041 0.291219 0.089062
0.809287 0.294344 0.093730
0.829470 0.297494 0.101269
0.849653 0.300645 0.108809
0.869835 0.303795 0.116349
0.890018 0.306946 0.123889
0.908587 0.309993 0.131649
0.919093 0.312521 0.140507
0.929599 0.315050 0.149366
0.940104 0.317578 0.158225
0.950610 0.320107 0.167083
0.961116 0.322635 0.175942
0.157818 0.294598 0.166047
0.181020 0.293485 0.159154
0.204221 0.292373 0.152261
0.227423 0.291260 0.145367
0.250625 0.290147 0.138474
0.273826 0.289035 0.131581
0.306974 0.289360 0.124247
0.342111 0.289972 0.116825
0.377249 0.290584 0.109404
0.412386 0.291197 0.101982
0.447523 0.291809 0.094560
0.482885 0.293248 0.090047
0.518359 0.295101 0.086988
0.553834 0.296954 0.083929
0.589308 0.298806 0.080870
0.624782 0.300659 0.077811
0.657258 0.302887 0.077722
0.686735 0.305490 0.080602
0.716211 0.308094 0.083481
0.745688 0.310697 0.086361
0.775164 0.313300 0.089241
0.801824 0.315980 0.093737
0.822852 0.318813 0.101464
0.843880 0.321647 0.109192
0.864908 0.324480 0.116919
0.885936 0.327313 0.124647
0.905343 0.330061 0.132687
0.916646 0.332385 0.142292
0.927949 0.334708 0.151897
0.939251 0.337032 0.161502
0.950554 0.339356 0.171106
0.961857 0.341679 0.180711
0.167734 0.330031 0.175314
0.189609 0.328286 0.168168
0.211484 0.326542 0.161022
0.233359 0.324798 0.153876
0.255234 0.323053 0.146730
0.277108 0.321309 0.139584
0.308773 0.320861 0.131735
0.342396 0.320673 0.123745
0.376019 0.320485 0.115755
0.409642 0.320297 0.107765
0.443265 0.320109 0.099775
0.477605 0.320808 0.094651
0.512304 0.321952 0.090960
0.547002 0.323095 0.087269
0.581700 0.324239 0.083579
0.616399 0.325382 0.079888
0.648586 0.327001 0.079307
0.678261 0.329096 0.081835
0.707936 0.331191 0.084364
0.737612 0.333286 0.086892
0.767287 0.335381 0.089421
0.794361 0.337617 0.093745
0.816235 0.340133 0.101659
0.838108 0.342648 0.109574
0.859981 0.345164 0.117489
0.881854 0.347680 0.125404
0.902098 0.350130 0.133725
0.914198 0.352249 0.144076
0.926298 0.354367 0.154427
0.938398 0.356486 0.164779
0.950498 0.358605 0.175130
0.962598 0.360724 0.185481
0.177650 0.365463 0.184581
0.198198 0.363087 0.177183
0.218746 0.360711 0.169784
0.239294 0.358335 0.162385
0.259842 0.355959 0.154987
0.280390 0.353583 0.147588
0.310572 0.352363 0.139223
0.342681 0.351375 0.130665
0.374790 0.350386 0.122106
0.406899 0.349397 0.113548
0.439008 0.348409 0.104989
0.472326 0.348368 0.099255
0.506248 0.348802 0.094932
0.540170 0.349237 0.090610
0.574093 0.349671 0.086287
0.608015 0.350105 0.081965
0.639913 0.351115 0.080892
0.669787 0.352702 0.083069
0.699661 0.354289 0.085246
0.729535 0.355876 0.087423
0.759409 0.357462 0.089600
0.786898 0.359253 0.093752
0.809617 0.361452 0.101854
0.832335 0.363650 0.109957
0.855054 0.365849 0.118059
0.877772 0.368047 0.126162
0.898854 0.370198 0.134763
0.911751 0.372112 0.145861
0.924648 0.374026 0.156958
0.937545 0.375940 0.168056
0.950442 0.377854 0.179153
0.963340 0.379768 0.190251
0.187567 0.400896 0.193848
0.206788 0.397888 0.186197
0.226009 0.394881 0.178546
0.245230 0.391873 0.170895
0.264451 0.388865 0.163243
0.283672 0.385857 0.155592
0.312371 0.383865 0.146711
0.342966 0.382076 0.137584
0.373561 0.380287 0.128457
0.404155 0.378497 0.119330
0.434750 0.376708 0.110203
0.467046 0.375928 0.103858
0.500192 0.375653 0.098904
0.533339 0.375378 0.093950
0.566485 0.375103 0.088996
0.599632 0.374828 0.084042
0.631241 0.375229 0.082478
0.661314 0.376308 0.084303
0.691387 0.377387 0.086129
0.721459 0.378465 0.087954
0.751532 0.379544 0.089779
0.779435 0.380890 0.093760
0.802999 0.382771 0.102050
0.826563 0.384652 0.110339
0.850127 0.386533 0.118629
0.873690 0.388414 0.126919
0.895609 0.390267 0.135801
0.909304 0.391976 0.147645
0.922998 0.393685 0.159489
0.936692 0.395394 0.171333
0.950387 0.397103 0.183176
0.964081 0.398812 0.195020
0.200839 0.437906 0.203170
0.218820 0.434466 0.195436
0.236800 0.431025 0.187701
0.254780 0.427584 0.179966
0.272760 0.424143 0.172232
0.290740 0.420703 0.164497
0.318144 0.418187 0.155331
0.347433 0.415856 0.145879
0.376721 0.413525 0.136426
0.406010 0.411194 0.126974
0.435298 0.408864 0.117522
0.466703 0.407575 0.110774
0.499166 0.406807 0.105380
0.531629 0.406039 0.099985
0.564092 0.405272 0.094590
0.596555 0.404504 0.089195
0.627840 0.404464 0.087261
0.657947 0.405152 0.088787
0.688053 0.405840 0.090314
0.718160 0.406528 0.091840
0.748267 0.407216 0.093367
0.776340 0.408196 0.097165
0.800346 0.409760 0.105507
0.824352 0.411324 0.113850
0.848358 0.412887 0.122192
0.872364 0.414451 0.130534
0.894719 0.415988 0.139529
0.908818 0.417390 0.151786
0.922917 0.418791 0.164044
0.937016 0.420193 0.176301
0.951115 0.421594 0.188558
0.965214 0.422996 0.200816
0.215791 0.475706 0.212520
0.232573 0.471931 0.204786
0.249355 0.468157 0.197053
0.266137 0.464382 0.189319
0.282919 0.460608 0.181586
0.299701 0.456833 0.173852
0.325903 0.453918 0.164517
0.353990 0.451175 0.154861
0.382076 0.448433 0.145204
0.410162 0.445690 0.135548
0.438249 0.442947 0.125892
0.468828 0.441264 0.118847
0.500654 0.440113 0.113107
0.532480 0.438961 0.107366
0.564306 0.437809 0.101626
0.596132 0.436657 0.095886
0.627074 0.436259 0.093643
0.657133 0.436615 0.094896
0.687191 0.436972 0.096150
0.717249 0.437328 0.097404
0.747308 0.437685 0.098658
0.775429 0.438338 0.102270
0.799676 0.439584 0.110597
0.823923 0.440830 0.118924
0.848170 0.442077 0.127251
0.872417 0.443323 0.135577
0.895007 0.444535 0.144601
0.909314 0.445578 0.157105
0.923621 0.446621 0.169610
0.937928 0.447664 0.182115
0.952236 0.448707 0.194620
0.966543 0.449749 0.207125
0.230742 0.513505 0.221870
0.246326 0.509397 0.214137
0.261910 0.505289 0.206405
0.277494 0.501180 0.198672
0.293078 0.497072 0.190940
0.308662 0.492964 0.183207
0.333663 0.489650 0.173702
0.360547 0.486495 0.163842
0.387431 0.483340 0.153983
0.414315 0.480185 0.144123
0.441199 0.477030 0.134263
0.470953 0.474954 0.126919
0.502142 0.473418 0.120834
0.533331 0.471882 0.114748
0.564520 0.470346 0.108662
0.595709 0.468809 0.102577
0.626309 0.468054 0.100024
0.656319 0.468079 0.101006
0.686329 0.468104 0.101987
0.716339 0.468129 0.102968
0.746349 0.468154 0.103950
0.774518 0.468480 0.107374
0.799006 0.469408 0.115686
0.823493 0.470337 0.123998
0.847981 0.471266 0.132309
0.872469 0.472195 0.140621
0.895294 0.473082 0.149673
0.909810 0.473767 0.162425
0.924325 0.474451 0.175177
0.938841 0.475135 0.187929
0.953356 0.475819 0.200682
0.967872 0.476503 0.213434
0.245693 0.551304 0.231219
0.260079 0.546862 0.223488
0.274465 0.542420 0.215757
0.288851 0.537978 0.208025
0.303237 0.533537 0.200294
0.317623 0.529095 0.192563
0.341422 0.525382 0.182888
0.367104 0.521815 0.172824
0.392786 0.518247 0.162761
0.418468 0.514680 0.152697
0.444150 0.511113 0.142634
0.473078 0.508644 0.134992
0.503630 0.506723 0.128561
0.534182 0.504803 0.122129
0.564734 0.502883 0.115698
0.595286 0.500962 0.109267
0.625543 0.499849 0.106406
0.655505 0.499542 0.107115
0.685466 0.499235 0.107824
0.715428 0.498929 0.108532
0.745390 0.498622 0.109241
0.773607 0.498621 0.112479
0.798335 0.499233 0.120775
0.823064 0.499844 0.129072
0.847792 0.500455 0.137368
0.872521 0.501066 0.145664
0.895582 0.501630 0.154745
0.910306 0.501955 0.167744
0.925029 0.502280 0.180744
0.939753 0.502606 0.193743
0.954477 0.502931 0.206743
0.969201 0.503257 0.219743
0.260644 0.589103 0.240569
0.273832 0.584328 0.232839
0.287020 0.579552 0.225109
0.300208 0.574777 0.217378
0.313396 0.570001 0.209648
0.326584 0.565225 0.201918
0.349182 0.561113 0.192073
0.373662 0.557134 0.181806
0.398141 0.553155 0.171539
0.422621 0.549176 0.161271
0.447100 0.545196 0.151004
0.475203 0.542334 0.143064
0.505118 0.540029 0.136288
0.535033 0.537724 0.129511
0.564948 0.535420 0.122735
0.594863 0.533115 0.115958
0.624777 0.531644 0.112788
0.654691 0.531005 0.113224
0.684604 0.530367 0.113660
0.714517 0.529729 0.114096
0.744430 0.529091 0.114532
0.772696 0.528763 0.117584
0.797665 0.529057 0.125865
0.822634 0.529350 0.134146
0.847604 0.529644 0.142427
0.872573 0.529938 0.150708
0.895869 0.530177 0.159816
0.910801 0.530144 0.173063
0.925733 0.530110 0.186311
0.940665 0.530077 0.199558
0.955597 0.530044 0.212805
0.970530 0.530010 0.226052
0.277041 0.623843 0.248986
0.289152 0.618940 0.241381
0.301264 0.614037 0.233776
0.313376 0.609135 0.226171
0.325487 0.604232 0.218566
0.337599 0.599329 0.210961
0.359118 0.595051 0.201144
0.382518 0.590897 0.190884
0.405918 0.586743 0.180625
0.429318 0.582589 0.170365
0.452718 0.578435 0.160106
0.480041 0.575388 0.152047
0.509324 0.572895 0.145087
0.538607 0.570402 0.138128
0.567891 0.567908 0.131169
0.597174 0.565415 0.124210
0.626681 0.563748 0.120827
0.656410 0.562907 0.121020
0.686140 0.562066 0.121213
0.715870 0.561225 0.121407
0.745599 0.560384 0.121600
0.773750 0.559839 0.124444
0.798743 0.559886 0.132591
0.823736 0.559932 0.140738
0.848729 0.559979 0.148885
0.873722 0.560026 0.157032
0.897046 0.560006 0.166035
0.912021 0.559650 0.179321
0.926997 0.559294 0.192608
0.941973 0.558938 0.205894
0.956948 0.558582 0.219180
0.971924 0.558226 0.232466
0.294883 0.655522 0.256470
0.306039 0.650699 0.249114
0.317196 0.645876 0.241758
0.328353 0.641053 0.234403
0.339510 0.636230 0.227047
0.350667 0.631406 0.219692
0.371229 0.627193 0.210099
0.393673 0.623102 0.200059
0.416117 0.619011 0.190019
0.438561 0.614920 0.179979
0.461004 0.610829 0.169939
0.487590 0.607808 0.161939
0.516247 0.605322 0.154960
0.544905 0.602835 0.147981
0.573562 0.600349 0.141002
0.602219 0.597862 0.134023
0.631253 0.596162 0.130523
0.660664 0.595247 0.130503
0.690075 0.594331 0.130483
0.719485 0.593416 0.130463
0.748896 0.592501 0.130443
0.776770 0.591848 0.133061
0.801570 0.591719 0.140955
0.826369 0.591590 0.148849
0.851169 0.591461 0.156743
0.875969 0.591332 0.164636
0.899111 0.591117 0.173401
0.913966 0.590474 0.186518
0.928820 0.589832 0.199635
0.943675 0.589189 0.212752
0.958529 0.588546 0.225869
0.973384 0.587904 0.238986
0.312724 0.687202 0.263953
0.322926 0.682458 0.256847
0.333128 0.677714 0.249741
0.343331 0.672971 0.242635
0.353533 0.668227 0.235529
0.363735 0.663483 0.228423
0.383341 0.659336 0.219055
0.404829 0.655308 0.209234
0.426316 0.651280 0.199413
0.447803 0.647252 0.189592
0.469290 0.643223 0.179772
0.495140 0.640228 0.171832
0.523171 0.637748 0.164833
0.551202 0.635269 0.157834
0.579233 0.632789 0.150835
0.607264 0.630310 0.143836
0.635825 0.628575 0.140219
0.664917 0.627586 0.139986
0.694009 0.626597 0.139753
0.723101 0.625608 0.139520
0.752193 0.624619 0.139286
0.779790 0.623858 0.141678
0.804396 0.623553 0.149319
0.829003 0.623247 0.156959
0.853609 0.622942 0.164600
0.878216 0.622637 0.172241
0.901177 0.622228 0.180766
0.915910 0.621298 0.193714
0.930644 0.620369 0.206662
0.945377 0.619440 0.219611
0.960110 0.618511 0.232559
0.974844 0.617582 0.245507
0.330566 0.718881 0.271437
0.339813 0.714217 0.264580
0.349061 0.709553 0.257724
0.358308 0.704889 0.250867
0.367556 0.700225 0.244010
0.376803 0.695560 0.237154
0.395453 0.691479 0.228010
0.415984 0.687513 0.218409
0.436515 0.683548 0.208807
0.457045 0.679583 0.199206
0.477576 0.675618 0.189604
0.502689 0.672647 0.181725
0.530094 0.670175 0.174706
0.557499 0.667702 0.167687
0.584904 0.665229 0.160668
0.612308 0.662757 0.153648
0.640397 0.660989 0.149916
0.669170 0.659926 0.149469
0.697944 0.658863 0.149023
0.726717 0.657800 0.148576
0.755490 0.656737 0.148130
0.782809 0.655867 0.150295
0.807223 0.655386 0.157682
0.831636 0.654905 0.165070
0.856049 0.654423 0.172458
0.880462 0.653942 0.179846
0.903242 0.653338 0.188132
0.917855 0.652123 0.200911
0.932467 0.650907 0.213690
0.947079 0.649691 0.226469
0.961691 0.648476 0.239248
0.976304 0.647260 0.252027
0.348408 0.750560 0.278921
0.356700 0.745976 0.272314
0.364993 0.741391 0.265706
0.373286 0.736807 0.259099
0.381578 0.732222 0.252492
0.389871 0.727638 0.245885
0.407565 0.723621 0.236965
0.427139 0.719719 0.227583
0.446713 0.715817 0.218201
0.466288 0.711914 0.208819
0.485862 0.708012 0.199437
0.510239 0.705067 0.191617
0.537018 0.702601 0.184578
0.563796 0.700136 0.177539
0.590575 0.697670 0.170500
0.617353 0.695204 0.163461
0.644970 0.693403 0.159612
0.673424 0.692266 0.158952
0.701878 0.691128 0.158292
0.730332 0.689991 0.157633
0.758786 0.688854 0.156973
0.785829 0.687877 0.158911
0.810049 0.687220 0.166046
0.834269 0.686562 0.173181
0.858489 0.685905 0.180316
0.882709 0.685247 0.187450
0.905308 0.684449 0.195497
0.919799 0.682947 0.208107
0.934290 0.681445 0.220717
0.948781 0.679942 0.233327
0.963273 0.678440 0.245937
0.977764 0.676938 0.258547
0.366259 0.778554 0.285421
0.373702 0.774153 0.279105
0.381145 0.769752 0.272789
0.388589 0.765350 0.266472
0.396032 0.760949 0.260156
0.403475 0.756548 0.253840
0.420261 0.752706 0.245225
0.438916 0.748975 0.236151
0.457570 0.745244 0.227076
0.476225 0.741514 0.218001
0.494879 0.737783 0.208927
0.518501 0.734964 0.201249
0.544606 0.732601 0.194271
0.570711 0.730237 0.187292
0.596816 0.727874 0.180313
0.622921 0.725511 0.173334
0.649999 0.723762 0.169420
0.678049 0.722629 0.168571
0.706100 0.721495 0.167721
0.734150 0.720362 0.166872
0.762200 0.719229 0.166022
0.788891 0.718219 0.167737
0.812863 0.717458 0.174580
0.836835 0.716697 0.181423
0.860807 0.715936 0.188266
0.884779 0.715175 0.195109
0.907153 0.714257 0.202877
0.921537 0.712557 0.215273
0.935921 0.710857 0.227669
0.950305 0.709158 0.240065
0.964690 0.707458 0.252460
0.979074 0.705758 0.264856
0.384130 0.799175 0.289953
0.390934 0.795166 0.284011
0.397738 0.791156 0.278070
0.404542 0.787146 0.272128
0.411347 0.783136 0.266186
0.418151 0.779126 0.260244
0.434125 0.775673 0.252095
0.451934 0.772332 0.243504
0.469743 0.768991 0.234912
0.487552 0.765650 0.226321
0.505360 0.762309 0.217730
0.528188 0.759815 0.210360
0.553524 0.757745 0.203602
0.578861 0.755675 0.196844
0.604198 0.753606 0.190086
0.629534 0.751536 0.183327
0.655941 0.750014 0.179452
0.683418 0.749039 0.178460
0.710895 0.748065 0.177468
0.738372 0.747091 0.176476
0.765849 0.746116 0.175484
0.792038 0.745226 0.176980
0.815652 0.744506 0.183454
0.839266 0.743786 0.189928
0.862881 0.743066 0.196402
0.886495 0.742345 0.202876
0.908557 0.741459 0.210286
0.922863 0.739740 0.222377
0.937168 0.738021 0.234469
0.951473 0.736302 0.246560
0.965779 0.734582 0.258651
0.980084 0.732863 0.270743
0.402002 0.819797 0.294485
0.408167 0.816178 0.288918
0.414331 0.812560 0.283351
0.420496 0.808941 0.277783
0.426661 0.805322 0.272216
0.432826 0.801704 0.266649
0.447990 0.798641 0.258964
0.464952 0.795689 0.250856
0.481915 0.792738 0.242748
0.498878 0.789786 0.234641
0.515841 0.786834 0.226533
0.537875 0.784666 0.219472
0.562443 0.782890 0.212934
0.587011 0.781114 0.206396
0.611579 0.779337 0.199858
0.636148 0.777561 0.193321
0.661883 0.776265 0.189484
0.688787 0.775450 0.188349
0.715690 0.774634 0.187215
0.742594 0.773819 0.186080
0.769497 0.773004 0.184945
0.795185 0.772234 0.186223
0.818441 0.771554 0.192328
0.841698 0.770875 0.198433
0.864954 0.770196 0.204538
0.888210 0.769516 0.210643
0.909962 0.768661 0.217695
0.924188 0.766922 0.229482
0.938415 0.765184 0.241269
0.952641 0.763445 0.253055
0.966868 0.761707 0.264842
0.981094 0.759969 0.276629
0.419873 0.840419 0.299018
0.425399 0.837191 0.293825
0.430925 0.833964 0.288632
0.436450 0.830736 0.283439
0.441976 0.827509 0.278246
0.447502 0.824282 0.273053
0.461854 0.821609 0.265834
0.477971 0.819046 0.258209
0.494088 0.816484 0.250585
0.510205 0.813922 0.242960
0.526322 0.811360 0.235336
0.547561 0.809517 0.228583
0.571361 0.808034 0.222265
0.595161 0.806552 0.215948
0.618961 0.805069 0.209631
0.642761 0.803586 0.203314
0.667826 0.802517 0.199516
0.694156 0.801860 0.198239
0.720486 0.801204 0.196961
0.746816 0.800548 0.195684
0.773146 0.799891 0.194406
0.798332 0.799241 0.195467
0.821230 0.798602 0.201202
0.844129 0.797964 0.206938
0.867028 0.797326 0.212674
0.889926 0.796687 0.218410
0.911366 0.795862 0.225103
0.925514 0.794105 0.236586
0.939661 0.792347 0.248068
0.953809 0.790589 0.259551
0.967956 0.788832 0.271033
0.982104 0.787074 0.282516
0.437744 0.861040 0.303550
0.442631 0.858204 0.298731
0.447518 0.855368 0.293913
0.452404 0.852532 0.289094
0.457291 0.849696 0.284276
0.462178 0.846860 0.279457
0.475718 0.844576 0.272703
0.490989 0.842403 0.265562
0.506261 0.840231 0.258421
0.521532 0.838058 0.251280
0.536803 0.835885 0.244138
0.557248 0.834368 0.237694
0.580280 0.833179 0.231597
0.603311 0.831990 0.225500
0.626343 0.830801 0.219404
0.649374 0.829612 0.213307
0.673768 0.828768 0.209548
0.699525 0.828271 0.208128
0.725281 0.827774 0.206708
0.751038 0.827276 0.205288
0.776794 0.826779 0.203868
0.801479 0.826248 0.204710
0.824020 0.825651 0.210076
0.846560 0.825053 0.215443
0.869101 0.824456 0.220810
0.891642 0.823858 0.226177
0.912771 0.823064 0.232512
0.926839 0.821287 0.243690
0.940908 0.819510 0.254868
0.954977 0.817733 0.266046
0.969045 0.815956 0.277224
0.983114 0.814179 0.288403
0.455240 0.879876 0.307786
0.459540 0.877432 0.303323
0.463841 0.874988 0.298860
0.468141 0.872544 0.294397
0.472441 0.870100 0.289934
0.476741 0.867655 0.285471
0.489474 0.865758 0.279168
0.503894 0.863970 0.272496
0.518314 0.862182 0.265824
0.532734 0.860394 0.259152
0.547154 0.858607 0.252480
0.566780 0.857417 0.246345
0.589008 0.856527 0.240478
0.611236 0.855638 0.234612
0.633464 0.854748 0.228746
0.655692 0.853858 0.222880
0.679385 0.853254 0.219178
0.704543 0.852937 0.217642
0.729701 0.852619 0.216106
0.754859 0.852301 0.214569
0.780018 0.851984 0.213033
0.804189 0.851599 0.213686
0.826385 0.851081 0.218716
0.848582 0.850562 0.223746
0.870778 0.850044 0.228776
0.892975 0.849526 0.233806
0.913811 0.848805 0.239815
0.927842 0.847071 0.250721
0.941874 0.845337 0.261627
0.955905 0.843603 0.272534
0.969936 0.841869 0.283440
0.983968 0.840135 0.294346
0.470859 0.889783 0.310543
0.474836 0.887735 0.306341
0.478813 0.885686 0.302140
0.482790 0.883638 0.297938
0.486767 0.881590 0.293736
0.490744 0.879541 0.289535
0.502691 0.878011 0.283607
0.516232 0.876585 0.277333
0.529773 0.875159 0.271059
0.543314 0.873733 0.264786
0.556855 0.872307 0.258512
0.575535 0.871457 0.252696
0.596784 0.870896 0.247110
0.618033 0.870334 0.241523
0.639283 0.869772 0.235937
0.660532 0.869210 0.230350
0.683374 0.868912 0.226797
0.707810 0.868878 0.225278
0.732245 0.868843 0.223759
0.756680 0.868809 0.222239
0.781115 0.868775 0.220720
0.804713 0.868669 0.221325
0.826634 0.868421 0.226180
