Assets/1__3DArt/KimSe/artstation_asset/LUTs_pasterls/CUBE/Cotton Candy 02 S.cube
# Enhanced with VOXCOLOR algorithms
LUT_3D_SIZE 5
DOMAIN_MIN 0.000000 0.000000 0.000000
DOMAIN_MAX 0.903226 0.903226 0.903226
0.164706 0.152941 0.125490
0.364639 0.184635 0.154880
0.571150 0.214623 0.182224
0.708329 0.232720 0.199706
0.759542 0.238462 0.206591
0.199796 0.295253 0.155665
0.340886 0.295338 0.148156
0.521272 0.298846 0.136718
0.675860 0.301293 0.142183
0.755209 0.303854 0.182008
0.248149 0.486473 0.191920
0.342292 0.464505 0.167138
0.496441 0.451397 0.135087
0.654963 0.442355 0.129487
0.751912 0.431288 0.171889
0.293970 0.667494 0.223416
0.356520 0.636744 0.202944
0.487363 0.615189 0.173101
0.640392 0.600975 0.157328
0.750343 0.586551 0.173935
0.329999 0.782468 0.243382
0.369733 0.760434 0.233580
0.476981 0.739701 0.216720
0.623321 0.726561 0.196499
0.746075 0.721097 0.181385
0.193980 0.194911 0.238497
0.376494 0.201664 0.257669
0.572858 0.209740 0.273280
0.711880 0.219634 0.281647
0.770433 0.233732 0.285131
0.203723 0.351377 0.263893
0.351996 0.331495 0.264784
0.522224 0.311099 0.262284
0.682706 0.302264 0.263374
0.788274 0.312958 0.277264
0.226958 0.542390 0.294859
0.330124 0.507462 0.283965
0.489648 0.477563 0.268329
0.668594 0.461635 0.261408
0.816596 0.459138 0.273467
0.255604 0.710555 0.318890
0.326045 0.677901 0.307767
0.471932 0.650761 0.290515
0.656136 0.637372 0.276108
0.829747 0.635014 0.274254
0.282812 0.814421 0.328205
0.331222 0.795607 0.323044
0.454695 0.776319 0.315377
0.628703 0.768505 0.301741
0.798366 0.776916 0.284044
0.231061 0.249430 0.398163
0.396646 0.240829 0.416244
0.583963 0.230781 0.428384
0.724842 0.227987 0.429883
0.787248 0.234314 0.426238
0.220841 0.410886 0.426280
0.357061 0.383442 0.434184
0.527825 0.350924 0.440444
0.694262 0.329934 0.441216
0.814524 0.330802 0.440264
0.221353 0.597785 0.462878
0.322870 0.559833 0.459557
0.488221 0.520890 0.455623
0.679023 0.493581 0.452001
0.854752 0.483381 0.451852
0.232242 0.754799 0.486009
0.304252 0.723368 0.479006
0.459042 0.693037 0.471167
0.663326 0.673755 0.463402
0.873383 0.668505 0.459054
0.247951 0.848295 0.486983
0.297835 0.833529 0.481977
0.430828 0.819451 0.480926
0.629301 0.817402 0.478354
0.840666 0.833287 0.468914
0.267608 0.305013 0.565940
0.417810 0.298471 0.593479
0.594848 0.277794 0.612810
0.735988 0.258356 0.615338
0.801058 0.246608 0.608373
0.248981 0.463965 0.594404
0.372053 0.446033 0.610290
0.541942 0.417755 0.626698
0.706533 0.387124 0.633271
0.824305 0.365719 0.631191
0.234143 0.640233 0.636777
0.331100 0.612378 0.638639
0.496585 0.580541 0.644900
0.685670 0.546517 0.650134
0.859788 0.518797 0.653466
0.230340 0.785407 0.663687
0.300908 0.760686 0.659713
0.455149 0.735491 0.660340
0.661317 0.711800 0.663711
0.875941 0.695555 0.668777
0.237452 0.870878 0.665212
0.284511 0.860690 0.661215
0.416696 0.853168 0.666298
0.620780 0.853163 0.676607
0.843830 0.863908 0.683843
0.295934 0.347282 0.696707
0.431256 0.356616 0.735362
0.595818 0.337566 0.767862
0.735909 0.305383 0.783501
0.805723 0.274758 0.778732
0.278388 0.499992 0.720971
0.391315 0.497304 0.742018
0.554203 0.485052 0.769791
0.710969 0.456601 0.790105
0.815311 0.420600 0.795517
0.257802 0.662526 0.760547
0.349441 0.646953 0.765929
0.508714 0.634181 0.782710
0.685885 0.613383 0.803164
0.832009 0.585633 0.821395
0.243911 0.796602 0.790294
0.311621 0.778121 0.789238
0.459734 0.765985 0.799198
0.653803 0.756050 0.818960
0.838861 0.747371 0.845143
0.243250 0.877350 0.798459
0.288032 0.870243 0.797585
0.416172 0.868610 0.809496
0.611156 0.873282 0.833815
0.811965 0.882973 0.863025
