Assets/1__3DArt/KimSe/artstation_asset/LUTs_pasterls/CUBE/Cotton Candy 04 S.cube
# Enhanced with VOXCOLOR algorithms
LUT_3D_SIZE 5
DOMAIN_MIN 0.000000 0.000000 0.000000
DOMAIN_MAX 0.903226 0.903226 0.903226
0.054902 0.058824 0.082353
0.383378 0.100238 0.050282
0.683522 0.142866 0.022652
0.834695 0.173970 0.016693
0.867112 0.186490 0.021784
0.058559 0.260652 0.144970
0.314640 0.273069 0.094544
0.587946 0.285165 0.044050
0.773867 0.296051 0.025032
0.862668 0.307192 0.035101
0.092993 0.506237 0.222376
0.285776 0.499915 0.159030
0.541528 0.497253 0.086284
0.757031 0.499249 0.050708
0.877864 0.505384 0.063162
0.187995 0.704163 0.281657
0.317324 0.696782 0.223011
0.547556 0.701503 0.146021
0.772820 0.711296 0.098171
0.900990 0.716327 0.106387
0.334766 0.800906 0.307142
0.410713 0.803821 0.268830
0.584808 0.820801 0.208587
0.784458 0.843068 0.161828
0.911277 0.854452 0.165702
0.094344 0.128734 0.279077
0.403204 0.153018 0.240102
0.679260 0.179062 0.203498
0.824234 0.203485 0.184820
0.867145 0.223896 0.178899
0.095332 0.345835 0.338594
0.357132 0.337296 0.284301
0.585188 0.319299 0.239573
0.753406 0.312762 0.217215
0.867163 0.330581 0.206039
0.148684 0.575879 0.411277
0.326758 0.547926 0.347895
0.536417 0.515156 0.282484
0.729436 0.496522 0.244006
0.884719 0.499568 0.231904
0.266537 0.745405 0.466590
0.369405 0.725485 0.410152
0.551352 0.708101 0.338456
0.744781 0.698579 0.283219
0.905030 0.695383 0.262676
0.415813 0.824472 0.491778
0.473119 0.823364 0.456566
0.612137 0.831315 0.405067
0.779318 0.845332 0.353106
0.913985 0.856742 0.323312
0.143287 0.232705 0.505478
0.437982 0.256819 0.477685
0.698707 0.279428 0.446865
0.838593 0.297968 0.423452
0.879612 0.311627 0.410944
0.155493 0.451245 0.565734
0.392058 0.436321 0.523337
0.610150 0.410077 0.483001
0.772553 0.392855 0.455678
0.883674 0.400450 0.439016
0.236684 0.657021 0.626817
0.390480 0.623573 0.576528
0.573716 0.579018 0.519779
0.744094 0.542075 0.477349
0.898714 0.527073 0.454855
0.373179 0.794744 0.665754
0.453826 0.772360 0.624039
0.595557 0.743562 0.565106
0.751009 0.715022 0.507055
0.912059 0.696294 0.470803
0.512848 0.854999 0.680741
0.555558 0.852028 0.656929
0.660568 0.853515 0.620391
0.790193 0.859836 0.571011
0.919940 0.870117 0.521681
0.200270 0.358509 0.695327
0.483056 0.401978 0.686969
0.729441 0.434782 0.675064
0.864251 0.451263 0.660718
0.900112 0.452231 0.649042
0.237011 0.560217 0.749992
0.450136 0.561738 0.729332
0.666699 0.554683 0.707277
0.820132 0.540291 0.687535
0.905997 0.527681 0.673239
0.346995 0.732761 0.794158
0.479507 0.714110 0.768173
0.647479 0.684973 0.735711
0.793450 0.645645 0.704398
0.915641 0.608231 0.682782
0.491452 0.838955 0.815790
0.555687 0.824761 0.795701
0.669733 0.801470 0.763182
0.790318 0.765940 0.722427
0.922251 0.730702 0.690389
0.611694 0.882852 0.821343
0.643808 0.880689 0.810924
0.723014 0.880195 0.794265
0.820839 0.880177 0.764906
0.927948 0.883175 0.728147
0.261178 0.484019 0.804858
0.531501 0.554718 0.812224
0.757433 0.604108 0.819807
0.884983 0.628512 0.822389
0.920789 0.625425 0.817340
0.335843 0.654275 0.848086
0.524918 0.675918 0.843168
0.724863 0.697480 0.843316
0.864227 0.705044 0.842990
0.924575 0.694002 0.838536
0.465768 0.789692 0.877333
0.573575 0.787271 0.869286
0.722617 0.787598 0.864406
0.849859 0.778768 0.860350
0.929925 0.758491 0.856609
0.603397 0.869494 0.890332
0.649698 0.863242 0.884861
0.744827 0.858282 0.879698
0.846774 0.847086 0.873936
0.933719 0.829933 0.870285
0.698093 0.901589 0.893811
0.720646 0.900211 0.891594
0.782951 0.902668 0.891367
0.862392 0.905689 0.891092
0.935955 0.908087 0.889147
