Assets/1__3DArt/KimSe/artstation_asset/LUTs_pasterls/CUBE/Cotton Candy 04.cube
# Enhanced with VOXCOLOR algorithms
LUT_3D_SIZE 8
DOMAIN_MIN 0.000000 0.000000 0.000000
DOMAIN_MAX 0.903226 0.903226 0.903226
0.054902 0.058824 0.082353
0.237641 0.081762 0.064894
0.433798 0.106667 0.045090
0.611481 0.131303 0.028282
0.746754 0.153634 0.018235
0.820364 0.170399 0.016687
0.853258 0.180959 0.019070
0.867112 0.186490 0.021784
0.054976 0.164840 0.114938
0.216213 0.179714 0.093366
0.402449 0.197019 0.068408
0.580579 0.214415 0.046087
0.724621 0.229912 0.030882
0.810379 0.241059 0.025993
0.852018 0.247274 0.027136
0.870834 0.248859 0.029966
0.060534 0.296039 0.156199
0.200551 0.303833 0.130970
0.374862 0.314506 0.100390
0.551126 0.325602 0.071352
0.702783 0.335090 0.049328
0.801445 0.340824 0.039712
0.853268 0.342416 0.039273
0.878288 0.339949 0.042455
0.077975 0.436578 0.200744
0.195532 0.438616 0.172850
0.354749 0.444384 0.137374
0.525594 0.451237 0.101870
0.682184 0.456955 0.072711
0.793125 0.459132 0.057647
0.855850 0.457303 0.055256
0.888057 0.451765 0.058971
0.112596 0.571817 0.243530
0.205569 0.569778 0.214475
0.345730 0.572881 0.175899
0.506556 0.578249 0.135494
0.663934 0.583330 0.100132
0.785086 0.584971 0.079589
0.858618 0.582076 0.074930
0.898660 0.575347 0.079311
0.173160 0.680047 0.276812
0.239962 0.676680 0.249266
0.356321 0.679793 0.211157
0.500401 0.686578 0.169466
0.651190 0.694356 0.130831
0.777255 0.699246 0.106060
0.859663 0.698894 0.099170
0.907480 0.694078 0.104318
0.252974 0.753289 0.297646
0.297153 0.751014 0.274155
0.388130 0.755355 0.240027
0.509972 0.764174 0.200976
0.646249 0.775216 0.162825
0.769950 0.784641 0.136295
0.857494 0.788899 0.128031
0.912028 0.788155 0.133969
0.336895 0.800374 0.309271
0.366359 0.800614 0.291438
0.434122 0.806255 0.263447
0.531468 0.816316 0.229688
0.647997 0.829458 0.194991
0.763449 0.842628 0.169261
0.852526 0.851534 0.160891
0.912562 0.855270 0.167623
0.076225 0.094310 0.188226
0.254595 0.111646 0.166732
0.445455 0.132279 0.142417
0.618246 0.153829 0.120470
0.750020 0.174131 0.104797
0.822130 0.190028 0.098438
0.854546 0.200220 0.097827
0.868419 0.205553 0.098763
0.072762 0.208546 0.219147
0.251135 0.221783 0.192454
0.436960 0.235731 0.164371
0.605569 0.249056 0.139423
0.738052 0.260638 0.121059
0.816447 0.268979 0.112432
0.855414 0.273402 0.110168
0.873666 0.273751 0.109863
0.079595 0.341554 0.259118
0.239058 0.349229 0.230113
0.414152 0.357373 0.197932
0.580764 0.364661 0.167814
0.719466 0.370046 0.143982
0.808992 0.372378 0.131119
0.857286 0.371492 0.126847
0.881653 0.367214 0.126135
0.101954 0.478332 0.302462
0.231725 0.480594 0.273087
0.390256 0.484517 0.237612
0.552682 0.488342 0.202227
0.697849 0.490607 0.172208
0.800093 0.489638 0.154257
0.859313 0.485295 0.147748
0.891140 0.477862 0.147210
0.143847 0.605534 0.344056
0.240036 0.603804 0.315562
0.376477 0.605557 0.278543
0.529229 0.608617 0.239526
0.676754 0.611032 0.204383
0.790271 0.610177 0.181534
0.860729 0.605219 0.172729
0.900847 0.596944 0.172717
0.211878 0.704487 0.376855
0.276594 0.701394 0.350618
0.386415 0.703339 0.315110
0.521360 0.708134 0.276097
0.662298 0.713633 0.239095
0.780986 0.716472 0.213106
0.860405 0.714525 0.202412
0.908470 0.708595 0.203062
0.296108 0.770720 0.398246
0.336350 0.768406 0.375773
0.419729 0.771590 0.344570
0.531896 0.778553 0.309111
0.658035 0.787435 0.273976
0.773936 0.794900 0.247591
0.857847 0.797722 0.236030
0.912075 0.796087 0.237122
0.380046 0.812867 0.410732
0.405477 0.812769 0.393146
0.466406 0.817339 0.367949
0.555014 0.825738 0.338285
0.661950 0.836819 0.307653
0.769174 0.847993 0.283298
0.853468 0.855501 0.272013
0.911914 0.858568 0.273008
0.100834 0.141866 0.311790
0.274748 0.155599 0.290309
0.459885 0.173100 0.265574
0.627416 0.191959 0.241998
0.755632 0.210020 0.223129
0.826484 0.224392 0.212702
0.858580 0.233529 0.208817
0.872296 0.237809 0.207515
0.096115 0.261799 0.342944
0.275348 0.272734 0.316617
0.456905 0.284080 0.289175
0.619344 0.294676 0.263983
0.746338 0.303582 0.243745
0.821972 0.309666 0.231644
0.860209 0.312432 0.225940
0.878506 0.311586 0.222889
0.106821 0.394632 0.382128
0.267985 0.400714 0.354109
0.438867 0.406731 0.323648
0.598523 0.411578 0.294673
0.730216 0.414418 0.270448
0.815415 0.414418 0.255055
0.862246 0.411728 0.247432
0.886640 0.406240 0.243639
0.136348 0.526155 0.423411
0.266084 0.527330 0.395884
0.419352 0.529544 0.363312
0.573798 0.531283 0.330540
0.710563 0.531318 0.301754
0.806958 0.528266 0.282479
0.863854 0.522300 0.272964
0.895557 0.513845 0.269203
0.186848 0.644239 0.461727
0.280380 0.641966 0.436055
0.409808 0.642345 0.403205
0.553165 0.643548 0.368346
0.690842 0.643938 0.336158
0.797097 0.641283 0.313386
0.864370 0.635055 0.302173
0.904136 0.626150 0.298995
0.261973 0.733147 0.491114
0.322396 0.729875 0.468165
0.423778 0.730585 0.437696
0.547969 0.733506 0.404131
0.677680 0.736894 0.371719
0.787784 0.737935 0.347378
0.863106 0.734915 0.335163
0.910436 0.728670 0.332885
0.348766 0.791788 0.510254
0.384626 0.789279 0.490681
0.459556 0.791242 0.464561
0.560808 0.796303 0.435157
0.675236 0.802958 0.405811
0.781606 0.808467 0.382604
0.860389 0.810144 0.370536
0.913152 0.808194 0.368904
0.430452 0.828685 0.521415
0.452163 0.828181 0.505749
0.506012 0.831592 0.485021
0.585106 0.838226 0.461379
0.681210 0.847147 0.437180
0.778663 0.856292 0.417223
0.856784 0.862539 0.406259
0.912604 0.865163 0.404304
0.128392 0.199869 0.441463
0.298097 0.213118 0.423318
0.477157 0.229567 0.401827
0.638986 0.246865 0.380178
0.763478 0.262970 0.361127
0.833232 0.275307 0.348321
0.865163 0.282640 0.341643
0.878703 0.285167 0.338086
0.125136 0.322750 0.473738
0.295351 0.332295 0.451708
0.469776 0.342586 0.428198
0.627448 0.352094 0.405504
0.752211 0.359620 0.385627
0.827796 0.363946 0.371477
0.866532 0.365065 0.363061
0.885285 0.362969 0.357872
0.142171 0.453018 0.511779
0.293543 0.457474 0.488207
0.456205 0.462421 0.462395
0.609698 0.466367 0.437071
0.737557 0.468177 0.414603
0.821405 0.466835 0.398288
0.868208 0.462908 0.388423
0.893135 0.456683 0.382553
0.180556 0.577500 0.549797
0.301599 0.577319 0.526670
0.445633 0.578474 0.499535
0.591498 0.579267 0.471838
0.721331 0.578335 0.446610
0.813769 0.574253 0.427999
0.869328 0.567507 0.417022
0.901210 0.558839 0.411331
0.240197 0.685406 0.583123
0.326399 0.682356 0.561990
0.445805 0.681724 0.535393
0.578236 0.681765 0.507011
0.705733 0.680948 0.480201
0.805040 0.677292 0.459839
0.869260 0.670620 0.448181
0.908539 0.661984 0.443393
0.321265 0.763802 0.607120
0.375545 0.760248 0.588794
0.466837 0.759947 0.565018
0.578886 0.761384 0.538843
0.696277 0.763094 0.513213
0.796997 0.762794 0.492921
0.867563 0.759305 0.481441
0.913558 0.753523 0.478065
0.408411 0.814587 0.622167
0.439573 0.811932 0.606732
0.505476 0.812849 0.586984
0.594996 0.816231 0.565087
0.696698 0.820881 0.543236
0.792421 0.824674 0.525366
0.865078 0.825597 0.515179
0.915562 0.823897 0.512983
0.485693 0.846153 0.630608
0.504068 0.845353 0.618056
0.550874 0.847732 0.602749
0.620148 0.852741 0.586061
0.704793 0.859652 0.569432
0.791552 0.866924 0.555619
0.862556 0.872131 0.547396
0.914999 0.874606 0.545213
0.158607 0.266523 0.566631
0.324530 0.283092 0.554238
0.497175 0.301199 0.538974
0.652787 0.318634 0.522542
0.773286 0.333549 0.506583
0.842035 0.343621 0.493798
0.873974 0.348495 0.485484
0.887474 0.348797 0.480130
0.159770 0.389277 0.599865
0.316669 0.399512 0.584470
0.482033 0.410835 0.567471
0.634704 0.421094 0.550051
0.758042 0.428610 0.533367
0.834593 0.431755 0.519486
0.874394 0.431247 0.509760
0.893823 0.427840 0.503279
0.185302 0.514270 0.635719
0.321068 0.518188 0.618669
0.472568 0.523580 0.599797
0.619148 0.528259 0.580599
0.743911 0.530526 0.562449
0.827655 0.528840 0.547494
0.875191 0.524220 0.537024
0.900943 0.517668 0.530261
0.233605 0.629776 0.669137
0.340795 0.628788 0.652039
0.472445 0.629911 0.632272
0.608369 0.631027 0.611815
0.731373 0.630424 0.592451
0.820753 0.626395 0.576744
0.875625 0.619708 0.566166
0.907926 0.611582 0.560025
0.302119 0.726561 0.696276
0.377695 0.722989 0.680737
0.484595 0.722000 0.661787
0.604553 0.721760 0.641572
0.721277 0.720697 0.622080
0.813787 0.716953 0.606273
0.875165 0.710692 0.596218
0.913967 0.703194 0.591557
0.387297 0.794319 0.713910
0.434065 0.790644 0.700856
0.514002 0.789778 0.684581
0.612861 0.790334 0.666841
0.717170 0.791024 0.649348
0.808053 0.790032 0.634941
0.873534 0.786746 0.626269
0.917863 0.782161 0.623683
0.472386 0.837325 0.724035
0.498684 0.834711 0.713297
0.555289 0.834930 0.700340
0.632711 0.837067 0.686400
0.721237 0.840175 0.672706
0.805777 0.842701 0.661435
0.871737 0.843337 0.654989
0.919404 0.842420 0.654227
0.543388 0.863738 0.729185
0.558828 0.862854 0.720400
0.598858 0.864478 0.710731
0.658432 0.868187 0.700990
0.731566 0.873436 0.691939
0.807299 0.879148 0.684836
0.870654 0.883597 0.680907
0.919189 0.886246 0.680864
0.191790 0.340054 0.671766
0.354121 0.364067 0.665827
0.519756 0.387022 0.658262
0.668385 0.407002 0.649409
0.784411 0.422441 0.639715
0.852211 0.430983 0.630197
0.884492 0.433404 0.622514
0.898361 0.431577 0.616861
0.200606 0.457920 0.703816
0.345241 0.471766 0.694990
0.500534 0.486638 0.685553
0.646332 0.499848 0.675556
0.766471 0.509265 0.665153
0.843074 0.512557 0.654920
0.883692 0.511013 0.646393
0.903781 0.506573 0.640168
0.236251 0.574083 0.735683
0.356713 0.579424 0.724977
0.495582 0.587161 0.713799
0.633106 0.594455 0.702435
0.752830 0.599029 0.691186
0.835430 0.598568 0.680660
0.883317 0.594259 0.672131
0.909700 0.588010 0.666194
0.294383 0.678528 0.763476
0.387036 0.677943 0.752265
0.504694 0.680397 0.740252
0.628843 0.683348 0.728100
0.743504 0.684704 0.716411
0.829043 0.682272 0.706095
0.882895 0.676831 0.698325
0.915360 0.670158 0.693594
0.370044 0.763636 0.784403
0.434039 0.760187 0.774161
0.527222 0.759760 0.762706
0.633548 0.760396 0.750930
0.738614 0.760417 0.739655
0.823852 0.757926 0.730158
0.882093 0.753207 0.723819
0.920118 0.747797 0.721151
0.456293 0.821353 0.796445
0.495184 0.817884 0.788108
0.563419 0.817084 0.778611
0.648812 0.817636 0.768761
0.739858 0.818352 0.759342
0.820728 0.817731 0.751704
0.880814 0.815546 0.747444
0.923083 0.812905 0.747316
0.536631 0.857359 0.802541
0.558211 0.854977 0.795914
0.605844 0.854958 0.788728
0.671606 0.856520 0.781615
0.747407 0.858888 0.775169
0.820955 0.860936 0.770414
0.879983 0.861916 0.768600
0.924369 0.862301 0.770626
0.600180 0.879388 0.805277
0.612953 0.878535 0.799857
0.646738 0.879738 0.794798
0.697319 0.882641 0.790586
0.759702 0.886811 0.787585
0.824896 0.891486 0.786234
0.880538 0.895527 0.786806
0.924664 0.898645 0.790047
0.226825 0.414305 0.749668
0.385486 0.447448 0.748993
0.543698 0.476843 0.748133
0.684752 0.501135 0.746588
0.795715 0.519170 0.743946
0.862369 0.528305 0.739593
0.895220 0.529715 0.734451
0.909796 0.526538 0.729873
0.246283 0.523394 0.778512
0.381180 0.542098 0.774293
0.526078 0.561512 0.771033
0.663060 0.578826 0.768000
0.777542 0.591721 0.764552
0.852478 0.597119 0.759846
0.893247 0.596076 0.754512
0.913798 0.591390 0.749868
0.292422 0.628197 0.805456
0.400371 0.635859 0.799052
0.526499 0.646592 0.793891
0.653108 0.657301 0.789450
0.765238 0.665402 0.785236
0.844651 0.667872 0.780567
0.891819 0.665374 0.775790
0.918252 0.660295 0.771994
0.358756 0.720484 0.827798
0.438794 0.720887 0.820652
0.542595 0.725122 0.814506
0.653944 0.730530 0.809218
0.758662 0.734843 0.804614
0.838865 0.735463 0.800402
0.890671 0.732637 0.796825
0.922528 0.728310 0.794693
0.438596 0.794175 0.843724
0.491898 0.791123 0.837188
0.571721 0.791574 0.831202
0.664411 0.793631 0.825961
0.757593 0.795634 0.821599
0.835134 0.795650 0.818298
0.889625 0.793646 0.816428
0.926101 0.791113 0.816600
0.522710 0.843079 0.852160
0.554115 0.839828 0.847053
0.611234 0.839320 0.842272
0.683946 0.840392 0.838149
0.762633 0.841986 0.834962
0.834114 0.842825 0.833178
0.888748 0.842664 0.833321
0.928330 0.842515 0.835947
0.596373 0.873295 0.856180
0.613490 0.871031 0.852318
0.652880 0.870960 0.848965
0.708128 0.872433 0.846478
0.772628 0.874814 0.845135
0.836379 0.877250 0.845356
0.888823 0.879214 0.847446
0.929450 0.881208 0.851935
0.652194 0.891814 0.857958
0.662444 0.890883 0.854865
0.690580 0.891838 0.852789
0.733190 0.894342 0.852075
0.786184 0.898011 0.852918
0.842173 0.902237 0.855414
0.890716 0.906217 0.859214
0.930075 0.909901 0.864708
0.261178 0.484019 0.804858
0.417531 0.526894 0.808853
0.568949 0.563204 0.813402
0.702293 0.592618 0.817808
0.807422 0.614725 0.821334
0.872247 0.626790 0.822348
0.905546 0.629278 0.820514
0.920873 0.625527 0.817317
0.295389 0.583895 0.830870
0.421687 0.607397 0.829939
0.555837 0.631058 0.831092
0.682682 0.652439 0.833319
0.789762 0.669402 0.835622
0.861763 0.678438 0.836327
0.902208 0.679472 0.834750
0.923004 0.675144 0.831967
0.352563 0.676831 0.853368
0.448795 0.686604 0.849725
0.561631 0.699812 0.848571
0.675983 0.713561 0.849057
0.778899 0.725319 0.850315
0.853929 0.731708 0.850968
0.899772 0.732220 0.850182
0.925797 0.728823 0.848692
0.425391 0.756849 0.871000
0.493119 0.758043 0.866439
0.582654 0.763588 0.864096
0.680453 0.771073 0.863498
0.774444 0.778356 0.864107
0.848768 0.782750 0.865029
0.898097 0.783510 0.865479
0.928729 0.781994 0.865897
0.506640 0.819694 0.883024
0.548977 0.816777 0.878875
0.615188 0.817742 0.876393
0.694249 0.821014 0.875492
0.775924 0.825152 0.875994
0.846301 0.828392 0.877540
0.897096 0.829979 0.879544
0.931369 0.830747 0.882186
0.586096 0.860916 0.889285
0.609453 0.857462 0.886225
0.655369 0.856984 0.884405
0.715978 0.858603 0.883982
0.783581 0.861479 0.885015
0.847181 0.864610 0.887541
0.897006 0.867295 0.891133
0.933277 0.869944 0.895711
0.651596 0.886243 0.892485
0.663871 0.883668 0.890378
0.695187 0.883414 0.889369
0.740775 0.885005 0.889746
0.795521 0.887942 0.891677
0.851327 0.891606 0.895335
0.898180 0.895258 0.900183
0.934516 0.899026 0.905929
0.699069 0.901629 0.893969
0.706745 0.900369 0.892511
0.729505 0.901076 0.892257
0.764900 0.903445 0.893568
0.809792 0.907119 0.896636
0.858234 0.911577 0.901504
0.900792 0.916032 0.907289
0.935247 0.920464 0.913597
