Assets/1__3DArt/KimSe/artstation_asset/LUTs_pasterls/CUBE/Cotton Candy 02 S.cube
# Enhanced with VOXCOLOR algorithms
LUT_3D_SIZE 32
0.164706 0.152941 0.125490
0.191996 0.157360 0.129627
0.219287 0.161780 0.133764
0.246577 0.166199 0.137901
0.273867 0.170619 0.142038
0.301158 0.175038 0.146175
0.332494 0.179802 0.150508
0.364639 0.184635 0.154880
0.396784 0.189468 0.159252
0.428929 0.194301 0.163624
0.461074 0.199134 0.167996
0.489855 0.203268 0.171775
0.516953 0.207053 0.175258
0.544051 0.210838 0.178741
0.571150 0.214623 0.182224
0.598248 0.218408 0.185707
0.620841 0.221468 0.188595
0.638929 0.223802 0.190888
0.657016 0.226136 0.193180
0.675104 0.228471 0.195473
0.693192 0.230805 0.197766
0.708329 0.232720 0.199706
0.717568 0.233795 0.200944
0.726806 0.234871 0.202181
0.736044 0.235946 0.203419
0.745282 0.237022 0.204656
0.753486 0.237960 0.205757
0.756514 0.238211 0.206174
0.759542 0.238462 0.206591
0.762570 0.238714 0.207008
0.765599 0.238965 0.207426
0.768627 0.239216 0.207843
0.169163 0.171260 0.129526
0.195101 0.174985 0.132888
0.221040 0.178710 0.136250
0.246978 0.182435 0.139612
0.272916 0.186160 0.142975
0.298855 0.189885 0.146337
0.329192 0.193989 0.149741
0.360409 0.198168 0.153154
0.391627 0.202347 0.156567
0.422844 0.206527 0.159980
0.454061 0.210706 0.163392
0.482425 0.214270 0.166347
0.509361 0.217526 0.169073
0.536298 0.220782 0.171799
0.563235 0.224037 0.174525
0.590172 0.227293 0.177250
0.612961 0.229940 0.179680
0.631601 0.231977 0.181812
0.650242 0.234014 0.183945
0.668883 0.236051 0.186077
0.687524 0.238088 0.188210
0.703299 0.239795 0.190251
0.713341 0.240842 0.192111
0.723383 0.241890 0.193972
0.733425 0.242937 0.195832
0.743467 0.243985 0.197692
0.752378 0.244920 0.199508
0.755635 0.245298 0.201100
0.758891 0.245676 0.202693
0.762148 0.246055 0.204286
0.765405 0.246433 0.205879
0.768661 0.246811 0.207472
0.173620 0.189579 0.133563
0.198206 0.192609 0.136150
0.222793 0.195640 0.138737
0.247379 0.198670 0.141324
0.271965 0.201701 0.143911
0.296552 0.204731 0.146498
0.325891 0.208175 0.148974
0.356180 0.211700 0.151428
0.386469 0.215226 0.153881
0.416759 0.218752 0.156335
0.447048 0.222278 0.158789
0.474995 0.225271 0.160920
0.501770 0.227998 0.162888
0.528545 0.230725 0.164856
0.555320 0.233452 0.166825
0.582096 0.236178 0.168793
0.605080 0.238412 0.170764
0.624274 0.240152 0.172736
0.643469 0.241891 0.174709
0.662663 0.243631 0.176681
0.681857 0.245371 0.178654
0.698268 0.246871 0.180796
0.709114 0.247890 0.183279
0.719960 0.248909 0.185762
0.730805 0.249928 0.188245
0.741651 0.250947 0.190728
0.751270 0.251881 0.193258
0.754755 0.252386 0.196027
0.758240 0.252891 0.198795
0.761725 0.253395 0.201564
0.765210 0.253900 0.204332
0.768696 0.254405 0.207101
0.178077 0.207897 0.137599
0.201311 0.210233 0.139411
0.224546 0.212570 0.141223
0.247780 0.214906 0.143035
0.271014 0.217242 0.144847
0.294249 0.219578 0.146659
0.322589 0.222361 0.148207
0.351951 0.225233 0.149701
0.381312 0.228105 0.151196
0.410674 0.230977 0.152691
0.440035 0.233849 0.154186
0.467565 0.236272 0.155492
0.494179 0.238470 0.156703
0.520792 0.240668 0.157914
0.547406 0.242866 0.159125
0.574019 0.245063 0.160336
0.597200 0.246884 0.161848
0.616947 0.248326 0.163661
0.636695 0.249769 0.165473
0.656442 0.251212 0.167285
0.676189 0.252654 0.169098
0.693237 0.253946 0.171341
0.704887 0.254937 0.174447
0.716537 0.255928 0.177553
0.728186 0.256919 0.180658
0.739836 0.257910 0.183764
0.750162 0.258841 0.187009
0.753876 0.259473 0.190953
0.757589 0.260105 0.194897
0.761303 0.260736 0.198841
0.765016 0.261368 0.202785
0.768730 0.262000 0.206729
0.182534 0.226216 0.141635
0.204416 0.227858 0.142672
0.226299 0.229499 0.143709
0.248181 0.231141 0.144746
0.270063 0.232783 0.145783
0.291946 0.234424 0.146820
0.319288 0.236547 0.147439
0.347721 0.238765 0.147975
0.376155 0.240984 0.148511
0.404589 0.243203 0.149047
0.433023 0.245421 0.149583
0.460135 0.247273 0.150064
0.486587 0.248942 0.150518
0.513039 0.250611 0.150972
0.539491 0.252280 0.151426
0.565943 0.253948 0.151879
0.589320 0.255356 0.152932
0.609620 0.256501 0.154585
0.629921 0.257647 0.156237
0.650221 0.258792 0.157889
0.670522 0.259937 0.159542
0.688207 0.261022 0.161886
0.700660 0.261985 0.165615
0.713113 0.262947 0.169343
0.725567 0.263910 0.173072
0.738020 0.264873 0.176800
0.749055 0.265802 0.180760
0.752997 0.266560 0.185880
0.756938 0.267319 0.190999
0.760880 0.268077 0.196119
0.764822 0.268836 0.201239
0.768764 0.269595 0.206358
0.186991 0.244535 0.145671
0.207521 0.245482 0.145933
0.228052 0.246429 0.146195
0.248582 0.247377 0.146457
0.269112 0.248324 0.146719
0.289643 0.249271 0.146981
0.315986 0.250733 0.146672
0.343492 0.252298 0.146249
0.370998 0.253863 0.145826
0.398504 0.255428 0.145403
0.426010 0.256993 0.144980
0.452705 0.258274 0.144636
0.478996 0.259414 0.144333
0.505286 0.260554 0.144029
0.531577 0.261694 0.143726
0.557867 0.262833 0.143422
0.581439 0.263827 0.144017
0.602293 0.264676 0.145509
0.623147 0.265524 0.147001
0.644001 0.266372 0.148493
0.664855 0.267221 0.149986
0.683176 0.268098 0.152431
0.696433 0.269032 0.156782
0.709690 0.269967 0.161133
0.722947 0.270901 0.165485
0.736204 0.271836 0.169836
0.747947 0.272762 0.174511
0.752117 0.273647 0.180806
0.756288 0.274533 0.187102
0.760458 0.275418 0.193397
0.764628 0.276304 0.199692
0.768798 0.277189 0.205987
0.193217 0.269254 0.150581
0.212557 0.269622 0.150295
0.231898 0.269991 0.150009
0.251238 0.270360 0.149724
0.270578 0.270728 0.149438
0.289919 0.271097 0.149153
0.315315 0.272037 0.148129
0.341923 0.273092 0.146959
0.368531 0.274147 0.145788
0.395138 0.275201 0.144618
0.421746 0.276256 0.143447
0.447989 0.277122 0.142472
0.474051 0.277894 0.141595
0.500112 0.278665 0.140718
0.526173 0.279437 0.139841
0.552234 0.280208 0.138963
0.575864 0.280885 0.139186
0.597063 0.281467 0.140510
0.618261 0.282048 0.141833
0.639460 0.282630 0.143157
0.660658 0.283211 0.144480
0.679393 0.283830 0.146913
0.693201 0.284522 0.151565
0.707009 0.285214 0.156217
0.720817 0.285906 0.160868
0.734625 0.286598 0.165520
0.746871 0.287277 0.170553
0.751304 0.287897 0.177492
0.755738 0.288517 0.184432
0.760172 0.289136 0.191371
0.764605 0.289756 0.198311
0.769039 0.290375 0.205250
0.199796 0.295253 0.155665
0.217979 0.295066 0.154877
0.236162 0.294879 0.154089
0.254345 0.294692 0.153302
0.272528 0.294505 0.152514
0.290711 0.294318 0.151726
0.315171 0.294765 0.150032
0.340886 0.295338 0.148156
0.366601 0.295911 0.146280
0.392317 0.296484 0.144405
0.418032 0.297057 0.142529
0.443816 0.297539 0.140961
0.469635 0.297974 0.139547
0.495453 0.298410 0.138132
0.521272 0.298846 0.136718
0.547090 0.299281 0.135304
0.570750 0.299660 0.135173
0.592252 0.299981 0.136326
0.613753 0.300302 0.137479
0.635255 0.300623 0.138632
0.656756 0.300944 0.139785
0.675860 0.301293 0.142183
0.690168 0.301700 0.147071
0.704477 0.302106 0.151958
0.718785 0.302513 0.156846
0.733093 0.302919 0.161733
0.745801 0.303304 0.167053
0.750505 0.303579 0.174530
0.755209 0.303854 0.182008
0.759912 0.304129 0.189485
0.764616 0.304405 0.196963
0.769320 0.304680 0.204440
0.206376 0.321252 0.160748
0.223401 0.320510 0.159459
0.240427 0.319767 0.158169
0.257452 0.319025 0.156879
0.274477 0.318282 0.155590
0.291503 0.317539 0.154300
0.315026 0.317492 0.151934
0.339849 0.317584 0.149353
0.364672 0.317675 0.146772
0.389495 0.317767 0.144191
0.414318 0.317859 0.141610
0.439643 0.317956 0.139449
0.465219 0.318055 0.137498
0.490795 0.318155 0.135547
0.516370 0.318255 0.133596
0.541946 0.318354 0.131645
0.565636 0.318434 0.131160
0.587441 0.318495 0.132143
0.609245 0.318555 0.133125
0.631050 0.318616 0.134107
0.652854 0.318676 0.135090
0.672327 0.318757 0.137453
0.687135 0.318878 0.142576
0.701944 0.318999 0.147700
0.716753 0.319120 0.152823
0.731561 0.319241 0.157947
0.744731 0.319330 0.163552
0.749705 0.319261 0.171568
0.754679 0.319192 0.179584
0.759653 0.319123 0.187599
0.764628 0.319053 0.195615
0.769602 0.318984 0.203631
0.212955 0.347251 0.165832
0.228823 0.345953 0.164041
0.244691 0.344655 0.162249
0.260559 0.343357 0.160457
0.276427 0.342059 0.158665
0.292295 0.340761 0.156874
0.314882 0.340220 0.153837
0.338812 0.339830 0.150550
0.362743 0.339440 0.147264
0.386674 0.339050 0.143978
0.410604 0.338660 0.140692
0.435470 0.338372 0.137938
0.460803 0.338136 0.135450
0.486136 0.337900 0.132962
0.511469 0.337664 0.130473
0.536802 0.337427 0.127985
0.560522 0.337209 0.127147
0.582630 0.337009 0.127959
0.604737 0.336809 0.128771
0.626845 0.336608 0.129583
0.648952 0.336408 0.130395
0.668793 0.336220 0.132722
0.684102 0.336056 0.138082
0.699411 0.335891 0.143441
0.714720 0.335727 0.148801
0.730029 0.335563 0.154160
0.743661 0.335357 0.160052
0.748905 0.334943 0.168606
0.754150 0.334530 0.177160
0.759394 0.334116 0.185713
0.764639 0.333702 0.194267
0.769884 0.333288 0.202821
0.219535 0.373251 0.170916
0.234245 0.371397 0.168623
0.248956 0.369543 0.166329
0.263666 0.367690 0.164035
0.278376 0.365836 0.161741
0.293087 0.363982 0.159447
0.314737 0.362947 0.155739
0.337775 0.362076 0.151748
0.360814 0.361204 0.147756
0.383852 0.360333 0.143765
0.406891 0.359461 0.139774
0.431297 0.358789 0.136427
0.456387 0.358217 0.133401
0.481477 0.357645 0.130376
0.506568 0.357073 0.127351
0.531658 0.356500 0.124326
0.555408 0.355984 0.123134
0.577819 0.355523 0.123775
0.600229 0.355062 0.124417
0.622640 0.354601 0.125058
0.645050 0.354140 0.125699
0.665260 0.353683 0.127992
0.681069 0.353234 0.133588
0.696879 0.352784 0.139183
0.712688 0.352334 0.144778
0.728497 0.351884 0.150374
0.742591 0.351383 0.156552
0.748106 0.350625 0.165644
0.753621 0.349867 0.174736
0.759135 0.349109 0.183827
0.764650 0.348351 0.192919
0.770165 0.347593 0.202011
0.226532 0.400927 0.176122
0.240275 0.398632 0.173565
0.254017 0.396337 0.171009
0.267760 0.394042 0.168452
0.281503 0.391747 0.165896
0.295245 0.389452 0.163339
0.316071 0.388023 0.159258
0.338314 0.386766 0.154872
0.360556 0.385510 0.150487
0.382799 0.384253 0.146101
0.405041 0.382996 0.141715
0.428989 0.382021 0.138008
0.453789 0.381186 0.134641
0.478590 0.380351 0.131273
0.503390 0.379516 0.127906
0.528190 0.378681 0.124539
0.551860 0.377928 0.123075
0.574400 0.377258 0.123514
0.596940 0.376588 0.123954
0.619479 0.375918 0.124394
0.642019 0.375248 0.124833
0.662424 0.374568 0.126974
0.678560 0.373868 0.132517
0.694696 0.373167 0.138059
0.710831 0.372467 0.143602
0.726967 0.371766 0.149145
0.741394 0.371003 0.155286
0.747280 0.369929 0.164422
0.753166 0.368854 0.173557
0.759051 0.367779 0.182692
0.764937 0.366705 0.191827
0.770822 0.365630 0.200962
0.233738 0.429442 0.181388
0.246608 0.426763 0.178688
0.259478 0.424084 0.175989
0.272348 0.421405 0.173289
0.285218 0.418726 0.170590
0.298088 0.416047 0.167890
0.318145 0.414273 0.163586
0.339640 0.412679 0.158961
0.361135 0.411086 0.154336
0.382629 0.409492 0.149711
0.404124 0.407899 0.145086
0.427614 0.406660 0.141136
0.452100 0.405599 0.137524
0.476587 0.404537 0.133912
0.501074 0.403476 0.130299
0.525560 0.402415 0.126687
0.549095 0.401458 0.124992
0.571677 0.400604 0.125215
0.594260 0.399751 0.125437
0.616842 0.398897 0.125659
0.639424 0.398044 0.125882
0.659937 0.397164 0.127812
0.676312 0.396230 0.133158
0.692687 0.395296 0.138503
0.709062 0.394362 0.143849
0.725437 0.393427 0.149195
0.740134 0.392420 0.155138
0.746441 0.391042 0.164069
0.752748 0.389665 0.173001
0.759054 0.388288 0.181932
0.765361 0.386911 0.190863
0.771668 0.385534 0.199795
0.240943 0.457958 0.186654
0.252941 0.454895 0.183811
0.264938 0.451831 0.180969
0.276935 0.448768 0.178126
0.288932 0.445705 0.175284
0.300930 0.442641 0.172441
0.320219 0.440522 0.167914
0.340966 0.438592 0.163050
0.361713 0.436662 0.158185
0.382460 0.434731 0.153321
0.403207 0.432801 0.148457
0.426238 0.431299 0.144264
0.450411 0.430012 0.140407
0.474584 0.428724 0.136550
0.498758 0.427437 0.132693
0.522931 0.426149 0.128836
0.546330 0.424987 0.126910
0.568954 0.423950 0.126915
0.591579 0.422913 0.126920
0.614204 0.421877 0.126925
0.636829 0.420840 0.126930
0.657450 0.419759 0.128650
0.674065 0.418592 0.133798
0.690679 0.417424 0.138947
0.707293 0.416256 0.144096
0.723908 0.415089 0.149245
0.738874 0.413836 0.154990
0.745602 0.412156 0.163717
0.752330 0.410477 0.172445
0.759058 0.408797 0.181172
0.765785 0.407118 0.189899
0.772513 0.405438 0.198627
0.248149 0.486473 0.191920
0.259274 0.483026 0.188934
0.270398 0.479578 0.185949
0.281523 0.476131 0.182963
0.292647 0.472683 0.179978
0.303772 0.469236 0.176992
0.322292 0.466772 0.172242
0.342292 0.464505 0.167138
0.362291 0.462237 0.162035
0.382291 0.459970 0.156932
0.402290 0.457703 0.151828
0.424863 0.455938 0.147392
0.448722 0.454424 0.143290
0.472582 0.452911 0.139189
0.496441 0.451397 0.135087
0.520301 0.449883 0.130985
0.543564 0.448516 0.128827
0.566232 0.447296 0.128615
0.588899 0.446076 0.128403
0.611566 0.444856 0.128191
0.634234 0.443635 0.127978
0.654963 0.442355 0.129487
0.671817 0.440954 0.134439
0.688671 0.439553 0.139391
0.705525 0.438151 0.144343
0.722378 0.436750 0.149295
0.737615 0.435252 0.154842
0.744763 0.433270 0.163365
0.751912 0.431288 0.171889
0.759061 0.429306 0.180412
0.766209 0.427324 0.188935
0.773358 0.425342 0.197459
0.255355 0.514988 0.197186
0.265607 0.511157 0.194057
0.275859 0.507325 0.190929
0.286110 0.503494 0.187800
0.296362 0.499662 0.184672
0.306614 0.495830 0.181543
0.324366 0.493022 0.176569
0.343618 0.490418 0.171227
0.362869 0.487813 0.165884
0.382121 0.485209 0.160542
0.401373 0.482605 0.155199
0.423487 0.480577 0.150520
0.447033 0.478837 0.146174
0.470579 0.477097 0.141827
0.494125 0.475357 0.137480
0.517671 0.473617 0.133133
0.540799 0.472046 0.130745
0.563509 0.470642 0.130315
0.586219 0.469238 0.129886
0.608929 0.467835 0.129456
0.631639 0.466431 0.129027
0.652476 0.464950 0.130325
0.669569 0.463316 0.135080
0.686662 0.461681 0.139835
0.703756 0.460046 0.144590
0.720849 0.458412 0.149345
0.736355 0.456669 0.154694
0.743924 0.454384 0.163013
0.751494 0.452100 0.171333
0.759064 0.449815 0.179652
0.766634 0.447531 0.187971
0.774203 0.445246 0.196291
0.262179 0.542018 0.202006
0.271694 0.537928 0.198874
0.281209 0.533838 0.195741
0.290724 0.529748 0.192609
0.300239 0.525659 0.189477
0.309754 0.521569 0.186345
0.326822 0.518505 0.181352
0.345401 0.515647 0.175987
0.363979 0.512789 0.170622
0.382558 0.509931 0.165257
0.401137 0.507073 0.159892
0.422808 0.504840 0.155137
0.446026 0.502921 0.150687
0.469244 0.501001 0.146237
0.492462 0.499081 0.141787
0.515680 0.497162 0.137337
0.538632 0.495435 0.134779
0.561316 0.493901 0.134113
0.584001 0.492368 0.133446
0.606685 0.490834 0.132780
0.629370 0.489300 0.132114
0.650252 0.487688 0.133128
0.667531 0.485918 0.137503
0.684809 0.484149 0.141878
0.702087 0.482379 0.146254
0.719366 0.480609 0.150629
0.735105 0.478727 0.155586
0.743153 0.476283 0.163447
0.751201 0.473839 0.171308
0.759249 0.471395 0.179169
0.767297 0.468951 0.187031
0.775345 0.466507 0.194892
0.268620 0.567561 0.206380
0.277534 0.563339 0.203383
0.286449 0.559117 0.200387
0.295363 0.554895 0.197391
0.304278 0.550673 0.194394
0.313192 0.546451 0.191398
0.329661 0.543223 0.186589
0.347641 0.540194 0.181419
0.365621 0.537165 0.176248
0.383601 0.534136 0.171077
0.401581 0.531107 0.165906
0.422825 0.528728 0.161242
0.445701 0.526675 0.156831
0.468576 0.524622 0.152419
0.491452 0.522569 0.148008
0.514328 0.520516 0.143597
0.537062 0.518684 0.140930
0.559653 0.517074 0.140007
0.582245 0.515464 0.139084
0.604836 0.513853 0.138162
0.627428 0.512243 0.137239
0.648292 0.510567 0.137895
0.665701 0.508761 0.141708
0.683110 0.506955 0.145522
0.700519 0.505149 0.149335
0.717929 0.503343 0.153148
0.733867 0.501428 0.157517
0.742450 0.498968 0.164666
0.751033 0.496507 0.171815
0.759617 0.494047 0.178964
0.768200 0.491586 0.186113
0.776783 0.489126 0.193262
0.275061 0.593104 0.210754
0.283375 0.588750 0.207893
0.291689 0.584396 0.205032
0.300002 0.580042 0.202172
0.308316 0.575688 0.199311
0.316630 0.571334 0.196451
0.332500 0.567941 0.191827
0.349882 0.564741 0.186850
0.367263 0.561541 0.181874
0.384644 0.558341 0.176897
0.402025 0.555140 0.171921
0.422841 0.552616 0.167347
0.445375 0.550429 0.162974
0.467909 0.548243 0.158601
0.490442 0.546057 0.154229
0.512976 0.543870 0.149856
0.535492 0.541933 0.147080
0.557990 0.540246 0.145901
0.580489 0.538559 0.144722
0.602987 0.536872 0.143544
0.625486 0.535186 0.142365
0.646331 0.533447 0.142662
0.663871 0.531604 0.145914
0.681412 0.529762 0.149165
0.698952 0.527919 0.152416
0.716492 0.526077 0.155667
0.732628 0.524129 0.159449
0.741747 0.521652 0.165886
0.750866 0.519175 0.172323
0.759984 0.516698 0.178759
0.769103 0.514221 0.185196
0.778221 0.511745 0.191632
0.281502 0.618647 0.215127
0.289215 0.614161 0.212403
0.296928 0.609675 0.209678
0.304642 0.605189 0.206953
0.312355 0.600703 0.204228
0.320068 0.596216 0.201504
0.335339 0.592659 0.197064
0.352122 0.589288 0.192282
0.368905 0.585917 0.187500
0.385687 0.582545 0.182717
0.402470 0.579174 0.177935
0.422858 0.576504 0.173452
0.445049 0.574184 0.169118
0.467241 0.571864 0.164784
0.489432 0.569544 0.160450
0.511623 0.567224 0.156116
0.533922 0.565183 0.153231
0.556327 0.563419 0.151796
0.578733 0.561655 0.150360
0.601138 0.559892 0.148925
0.623543 0.558128 0.147490
0.644371 0.556326 0.147430
0.662042 0.554447 0.150119
0.679713 0.552568 0.152808
0.697384 0.550690 0.155497
0.715055 0.548811 0.158186
0.731390 0.546829 0.161381
0.741044 0.544336 0.167106
0.750698 0.541843 0.172830
0.760351 0.539350 0.178554
0.770005 0.536856 0.184278
0.779659 0.534363 0.190002
0.287943 0.644190 0.219501
0.295056 0.639572 0.216912
0.302168 0.634954 0.214323
0.309281 0.630336 0.211734
0.316394 0.625717 0.209146
0.323506 0.621099 0.206557
0.338178 0.617377 0.202302
0.354362 0.613835 0.197714
0.370546 0.610292 0.193126
0.386730 0.606750 0.188538
0.402914 0.603207 0.183950
0.422875 0.600391 0.179557
0.444724 0.597938 0.175261
0.466573 0.595485 0.170966
0.488422 0.593032 0.166670
0.510271 0.590579 0.162375
0.532352 0.588432 0.159381
0.554664 0.586592 0.157690
0.576977 0.584751 0.155999
0.599289 0.582911 0.154307
0.621601 0.581071 0.152616
0.642410 0.579206 0.152197
0.660212 0.577290 0.154324
0.678014 0.575375 0.156451
0.695816 0.573460 0.158578
0.713618 0.571544 0.160705
0.730151 0.569530 0.163313
0.740341 0.567020 0.168325
0.750530 0.564511 0.173337
0.760719 0.562001 0.178349
0.770908 0.559492 0.183361
0.781097 0.556982 0.188373
0.293970 0.667494 0.223416
0.300539 0.662839 0.220991
0.307109 0.658184 0.218566
0.313679 0.653529 0.216142
0.320248 0.648874 0.213717
0.326818 0.644219 0.211293
0.340916 0.640399 0.207278
0.356520 0.636744 0.202944
0.372124 0.633090 0.198611
0.387728 0.629436 0.194277
0.403332 0.625782 0.189944
0.422866 0.622860 0.185699
0.444365 0.620303 0.181500
0.465864 0.617746 0.177301
0.487363 0.615189 0.173101
0.508862 0.612632 0.168902
0.530721 0.610410 0.165836
0.552940 0.608523 0.163904
0.575159 0.606637 0.161971
0.597378 0.604750 0.160039
0.619597 0.602863 0.158107
0.640392 0.600975 0.157328
0.658338 0.599084 0.158857
0.676285 0.597192 0.160385
0.694231 0.595301 0.161914
0.712177 0.593409 0.163442
0.728918 0.591427 0.165425
0.739630 0.588989 0.169680
0.750343 0.586551 0.173935
0.761055 0.584113 0.178190
0.771767 0.581675 0.182444
0.782479 0.579236 0.186699
0.299168 0.686318 0.226411
0.305310 0.681817 0.224208
0.311452 0.677317 0.222005
0.317594 0.672816 0.219802
0.323736 0.668316 0.217599
0.329878 0.663815 0.215395
0.343452 0.660026 0.211730
0.358514 0.656380 0.207771
0.373575 0.652733 0.203813
0.388636 0.649086 0.199855
0.403697 0.645440 0.195897
0.422806 0.642490 0.191918
0.443940 0.639888 0.187929
0.465073 0.637286 0.183941
0.486206 0.634684 0.179952
0.507340 0.632082 0.175963
0.528969 0.629845 0.172898
0.551094 0.627973 0.170756
0.573218 0.626100 0.168614
0.595343 0.624228 0.166472
0.617468 0.622356 0.164330
0.638257 0.620525 0.163188
0.656375 0.618778 0.164044
0.674493 0.617031 0.164901
0.692611 0.615284 0.165758
0.710729 0.613537 0.166615
0.727696 0.611716 0.167897
0.738906 0.609525 0.171305
0.750117 0.607335 0.174714
0.761328 0.605144 0.178122
0.772539 0.602953 0.181530
0.783750 0.600763 0.184939
0.304366 0.705142 0.229407
0.310080 0.700796 0.227425
0.315795 0.696450 0.225443
0.321509 0.692104 0.223461
0.327223 0.687758 0.221480
0.332938 0.683411 0.219498
0.345989 0.679654 0.216182
0.360507 0.676015 0.212599
0.375025 0.672376 0.209016
0.389544 0.668736 0.205433
0.404062 0.665097 0.201850
0.422747 0.662120 0.198137
0.443514 0.659473 0.194359
0.464282 0.656826 0.190581
0.485049 0.654179 0.186803
0.505817 0.651532 0.183025
0.527216 0.649280 0.179960
0.549247 0.647422 0.177609
0.571278 0.645564 0.175257
0.593309 0.643706 0.172905
0.615340 0.641848 0.170553
0.636123 0.640075 0.169047
0.654413 0.638472 0.169232
0.672702 0.636870 0.169417
0.690991 0.635267 0.169602
0.709280 0.633665 0.169787
0.726473 0.632005 0.170368
0.738182 0.630062 0.172930
0.749892 0.628119 0.175492
0.761601 0.626175 0.178054
0.773311 0.624232 0.180617
0.785020 0.622289 0.183179
0.309564 0.723966 0.232402
0.314851 0.719774 0.230642
0.320137 0.715583 0.228881
0.325424 0.711391 0.227121
0.330711 0.707199 0.225361
0.335997 0.703007 0.223600
0.348525 0.699282 0.220634
0.362500 0.695650 0.217426
0.376476 0.692018 0.214218
0.390451 0.688386 0.211011
0.404427 0.684755 0.207803
0.422687 0.681749 0.204356
0.443089 0.679058 0.200788
0.463491 0.676366 0.197221
0.483893 0.673674 0.193654
0.504295 0.670983 0.190087
0.525464 0.668715 0.187023
0.547401 0.666871 0.184461
0.569337 0.665028 0.181899
0.591274 0.663184 0.179338
0.613211 0.661340 0.176776
0.633989 0.659625 0.174906
0.652450 0.658167 0.174420
0.670910 0.656708 0.173933
0.689371 0.655250 0.173446
0.707832 0.653792 0.172960
0.725250 0.652294 0.172840
0.737459 0.650598 0.174556
0.749667 0.648903 0.176271
0.761875 0.647207 0.177987
0.774083 0.645511 0.179703
0.786291 0.643815 0.181418
0.314762 0.742790 0.235398
0.319621 0.738753 0.233859
0.324480 0.734716 0.232320
0.329339 0.730678 0.230781
0.334198 0.726641 0.229242
0.339057 0.722603 0.227703
0.351061 0.718910 0.225086
0.364494 0.715286 0.222254
0.377926 0.711661 0.219421
0.391359 0.708036 0.216589
0.404792 0.704412 0.213756
0.422627 0.701379 0.210574
0.442663 0.698643 0.207218
0.462700 0.695906 0.203861
0.482736 0.693170 0.200505
0.502772 0.690433 0.197149
0.523711 0.688150 0.194085
0.545554 0.686321 0.191313
0.567397 0.684491 0.188542
0.589240 0.682662 0.185771
0.611082 0.680832 0.182999
0.631855 0.679175 0.180766
0.650487 0.677861 0.179607
0.669119 0.676547 0.178449
0.687751 0.675233 0.177290
0.706383 0.673920 0.176132
0.724028 0.672583 0.175312
0.736735 0.671135 0.176181
0.749441 0.669687 0.177050
0.762148 0.668238 0.177919
0.774855 0.666790 0.178789
0.787561 0.665341 0.179658
0.319933 0.760322 0.238316
0.324365 0.756475 0.236976
0.328797 0.752628 0.235637
0.333229 0.748781 0.234297
0.337661 0.744935 0.232957
0.342093 0.741088 0.231617
0.353558 0.737454 0.229323
0.366430 0.733863 0.226838
0.379302 0.730271 0.224353
0.392174 0.726680 0.221868
0.405046 0.723089 0.219383
0.422439 0.720047 0.216458
0.442094 0.717280 0.213313
0.461749 0.714513 0.210168
0.481403 0.711746 0.207022
0.501058 0.708978 0.203877
0.521763 0.706690 0.200831
0.543517 0.704881 0.197883
0.565272 0.703071 0.194936
0.587027 0.701262 0.191989
0.608781 0.699453 0.189042
0.629557 0.697858 0.186483
0.648373 0.696693 0.184701
0.667189 0.695528 0.182920
0.686005 0.694362 0.181138
0.704821 0.693197 0.179357
0.722694 0.692026 0.177881
0.735852 0.690827 0.177932
0.749009 0.689629 0.177983
0.762166 0.688430 0.178034
0.775324 0.687232 0.178085
0.788481 0.686033 0.178136
0.324966 0.771395 0.240849
0.328974 0.767919 0.239597
0.332983 0.764442 0.238345
0.336992 0.760965 0.237093
0.341000 0.757489 0.235841
0.345009 0.754012 0.234589
0.355861 0.750576 0.232484
0.368081 0.747148 0.230209
0.380302 0.743721 0.227934
0.392522 0.740293 0.225658
0.404743 0.736865 0.223383
0.421612 0.733904 0.220669
0.440805 0.731177 0.217737
0.459999 0.728450 0.214804
0.479192 0.725723 0.211871
0.498386 0.722996 0.208939
0.518831 0.720753 0.205996
0.540528 0.718993 0.203042
0.562225 0.717234 0.200088
0.583922 0.715474 0.197134
0.605620 0.713715 0.194181
0.626439 0.712210 0.191491
0.645502 0.711213 0.189329
