Assets/1__3DArt/KimSe/artstation_asset/LUTs_pasterls/CUBE/Cotton Candy 01.cube
# Enhanced with VOXCOLOR algorithms
LUT_3D_SIZE 5
DOMAIN_MIN 0.000000 0.000000 0.000000
DOMAIN_MAX 0.903226 0.903226 0.903226
0.113725 0.101961 0.109804
0.370887 0.137435 0.082865
0.682967 0.190234 0.082152
0.889082 0.235693 0.116891
0.952181 0.257770 0.151564
0.157849 0.294598 0.166068
0.358276 0.294676 0.124749
0.635303 0.313177 0.102216
0.853905 0.335159 0.122930
0.945117 0.342619 0.165612
0.246352 0.551304 0.231658
0.385113 0.527601 0.184588
0.614683 0.518738 0.144531
0.830075 0.517967 0.149013
0.943799 0.509821 0.197883
0.369606 0.778554 0.287653
0.449691 0.752670 0.244985
0.622829 0.737428 0.198835
0.817697 0.728885 0.189533
0.945446 0.714619 0.239055
0.489670 0.899691 0.315429
0.531835 0.889864 0.285157
0.650119 0.886509 0.247480
0.810350 0.887580 0.233794
0.942712 0.884230 0.278621
0.157557 0.184768 0.288579
0.401017 0.203570 0.256351
0.694776 0.242657 0.244890
0.894944 0.280749 0.264556
0.959736 0.301123 0.290703
0.199750 0.387087 0.349669
0.409192 0.378858 0.305604
0.663530 0.385019 0.278746
0.862484 0.396035 0.285958
0.951813 0.399579 0.313701
0.284773 0.623774 0.422909
0.423695 0.599165 0.379849
0.637468 0.584220 0.337435
0.836484 0.575344 0.326506
0.948330 0.563631 0.353378
0.398226 0.814695 0.479927
0.472697 0.792605 0.445015
0.633180 0.776112 0.400373
0.817097 0.763959 0.377828
0.945756 0.749263 0.402286
0.509200 0.911856 0.499806
0.547700 0.904135 0.476746
0.655479 0.900065 0.445020
0.806263 0.898773 0.425261
0.939000 0.894235 0.444633
0.204086 0.306008 0.508504
0.432398 0.317146 0.480816
0.706215 0.341724 0.463837
0.898646 0.366102 0.466969
0.964572 0.378151 0.479074
0.247560 0.504492 0.567379
0.432761 0.493891 0.535858
0.671339 0.492355 0.510635
0.865247 0.493496 0.505134
0.956955 0.492186 0.517400
0.330902 0.708032 0.633386
0.454129 0.686485 0.603462
0.651061 0.670085 0.570446
0.839446 0.656787 0.554803
0.951825 0.644574 0.566434
0.437732 0.855536 0.677599
0.503894 0.838509 0.655353
0.648585 0.823422 0.625498
0.818779 0.810299 0.606787
0.946232 0.798422 0.619007
0.539786 0.925796 0.688470
0.573222 0.920262 0.674249
0.668949 0.916424 0.657391
0.807311 0.914128 0.647288
0.937300 0.911374 0.658886
0.245864 0.451116 0.707985
0.457456 0.470608 0.696214
0.709732 0.486888 0.683981
0.895358 0.496709 0.677984
0.965474 0.496075 0.676582
0.294042 0.626801 0.757983
0.451266 0.622807 0.743145
0.672071 0.621751 0.728033
0.862166 0.617602 0.719506
0.958707 0.611524 0.721741
0.376867 0.785980 0.805394
0.481241 0.771342 0.790129
0.659020 0.759924 0.773388
0.837755 0.748249 0.764094
0.952978 0.739275 0.771126
0.478578 0.890500 0.831522
0.536271 0.878746 0.820958
0.664778 0.868286 0.808883
0.820807 0.858619 0.803514
0.946734 0.853172 0.816733
0.571260 0.937548 0.834718
0.600648 0.933684 0.828799
0.686656 0.931308 0.826237
0.813701 0.930297 0.830020
0.938889 0.931395 0.847259
0.280444 0.596278 0.842889
0.472807 0.629695 0.844269
0.702903 0.648604 0.843446
0.884665 0.654818 0.842254
0.964471 0.645998 0.836856
0.335808 0.730220 0.877868
0.472565 0.734057 0.872356
0.673787 0.739959 0.868945
0.856133 0.740309 0.868292
0.957427 0.734500 0.870000
0.419288 0.843093 0.906356
0.508049 0.834003 0.898860
0.667980 0.830414 0.894508
0.836596 0.827327 0.896269
0.953025 0.826590 0.907379
0.516443 0.913325 0.919852
0.564760 0.905005 0.914698
0.680050 0.900123 0.913317
0.826064 0.898205 0.919894
0.949176 0.902213 0.939033
0.598295 0.944649 0.920112
0.624478 0.942307 0.917735
0.704853 0.941966 0.922188
0.825353 0.944174 0.934736
0.943931 0.950013 0.956846
