Assets/1__3DArt/KimSe/artstation_asset/LUTs_pasterls/CUBE/Cotton Candy 03.cube
# Enhanced with VOXCOLOR algorithms
LUT_3D_SIZE 32
0.141176 0.070588 0.090196
0.185261 0.076260 0.083969
0.229345 0.081931 0.077742
0.273430 0.087603 0.071515
0.317515 0.093275 0.065288
0.361600 0.098947 0.059061
0.405962 0.105222 0.053318
0.450381 0.111617 0.047673
0.494800 0.118013 0.042028
0.539218 0.124409 0.036382
0.583637 0.130804 0.030737
0.618258 0.136394 0.026757
0.647980 0.141582 0.023611
0.677702 0.146769 0.020464
0.707425 0.151957 0.017318
0.737147 0.157144 0.014171
0.759098 0.161330 0.012144
0.773277 0.164515 0.011236
0.787457 0.167700 0.010327
0.801636 0.170885 0.009419
0.815816 0.174070 0.008511
0.826767 0.176634 0.007988
0.831259 0.177958 0.008238
0.835752 0.179281 0.008488
0.840245 0.180605 0.008737
0.844738 0.181928 0.008987
0.848689 0.183072 0.009278
0.849932 0.183321 0.009775
0.851174 0.183569 0.010273
0.852417 0.183817 0.010770
0.853659 0.184066 0.011268
0.854902 0.184314 0.011765
0.142524 0.107321 0.096888
0.185048 0.111980 0.090305
0.227572 0.116639 0.083722
0.270095 0.121298 0.077140
0.312619 0.125957 0.070557
0.355142 0.130616 0.063974
0.398870 0.135909 0.057862
0.442838 0.141328 0.051844
0.486806 0.146746 0.045826
0.530774 0.152165 0.039807
0.574743 0.157584 0.033789
0.609547 0.162272 0.029495
0.639770 0.166595 0.026062
0.669993 0.170918 0.022629
0.700216 0.175241 0.019197
0.730438 0.179564 0.015764
0.753038 0.182972 0.013515
0.768013 0.185465 0.012449
0.782989 0.187958 0.011383
0.797964 0.190451 0.010317
0.812940 0.192945 0.009251
0.824597 0.194873 0.008601
0.829618 0.195670 0.008782
0.834639 0.196468 0.008964
0.839661 0.197266 0.009146
0.844682 0.198063 0.009328
0.849089 0.198696 0.009550
0.850428 0.198505 0.009976
0.851766 0.198314 0.010403
0.853104 0.198122 0.010829
0.854443 0.197931 0.011256
0.855781 0.197740 0.011682
0.143873 0.144054 0.103580
0.184835 0.147700 0.096641
0.225798 0.151347 0.089703
0.266760 0.154993 0.082765
0.307723 0.158640 0.075826
0.348685 0.162286 0.068888
0.391777 0.166596 0.062406
0.435295 0.171038 0.056014
0.478813 0.175480 0.049623
0.522331 0.179922 0.043232
0.565848 0.184364 0.036841
0.600837 0.188150 0.032232
0.631560 0.191608 0.028513
0.662283 0.195067 0.024794
0.693007 0.198525 0.021076
0.723730 0.201983 0.017357
0.746977 0.204613 0.014886
0.762749 0.206415 0.013662
0.778520 0.208216 0.012439
0.794292 0.210018 0.011215
0.810063 0.211820 0.009991
0.822428 0.213111 0.009213
0.827977 0.213383 0.009327
0.833527 0.213655 0.009441
0.839076 0.213927 0.009554
0.844626 0.214198 0.009668
0.849489 0.214320 0.009822
0.850924 0.213689 0.010178
0.852358 0.213058 0.010533
0.853792 0.212427 0.010889
0.855226 0.211797 0.011244
0.856661 0.211166 0.011600
0.145221 0.180786 0.110272
0.184622 0.183420 0.102978
0.224024 0.186054 0.095684
0.263425 0.188688 0.088389
0.302827 0.191322 0.081095
0.342228 0.193956 0.073801
0.384685 0.197283 0.066949
0.427752 0.200748 0.060185
0.470819 0.204213 0.053421
0.513887 0.207679 0.046657
0.556954 0.211144 0.039894
0.592126 0.214028 0.034969
0.623350 0.216622 0.030964
0.654574 0.219215 0.026960
0.685798 0.221809 0.022955
0.717022 0.224403 0.018950
0.740917 0.226254 0.016257
0.757485 0.227364 0.014876
0.774052 0.228474 0.013494
0.790620 0.229584 0.012113
0.807187 0.230694 0.010732
0.820258 0.231350 0.009826
0.826336 0.231096 0.009872
0.832414 0.230842 0.009917
0.838492 0.230588 0.009963
0.844570 0.230334 0.010009
0.849890 0.229944 0.010094
0.851420 0.228873 0.010379
0.852950 0.227803 0.010663
0.854480 0.226732 0.010948
0.856010 0.225662 0.011232
0.857540 0.224592 0.011517
0.146569 0.217519 0.116964
0.184409 0.219140 0.109314
0.222250 0.220762 0.101664
0.260090 0.222383 0.094014
0.297931 0.224004 0.086365
0.335771 0.225626 0.078715
0.377592 0.227970 0.071493
0.420209 0.230458 0.064356
0.462826 0.232947 0.057219
0.505443 0.235435 0.050083
0.548060 0.237924 0.042946
0.583415 0.239906 0.037706
0.615140 0.241635 0.033416
0.646864 0.243364 0.029125
0.678589 0.245093 0.024834
0.710313 0.246822 0.020543
0.734857 0.247896 0.017628
0.752221 0.248314 0.016089
0.769584 0.248732 0.014550
0.786947 0.249151 0.013011
0.804311 0.249569 0.011472
0.818089 0.249588 0.010438
0.824695 0.248808 0.010416
0.831301 0.248029 0.010394
0.837907 0.247249 0.010372
0.844514 0.246469 0.010349
0.850290 0.245567 0.010366
0.851916 0.244057 0.010580
0.853542 0.242547 0.010794
0.855167 0.241037 0.011007
0.856793 0.239527 0.011221
0.858419 0.238017 0.011434
0.147917 0.254252 0.123656
0.184197 0.254861 0.115650
0.220476 0.255469 0.107645
0.256755 0.256078 0.099639
0.293035 0.256687 0.091634
0.329314 0.257295 0.083628
0.370499 0.258657 0.076036
0.412666 0.260169 0.068527
0.454833 0.261680 0.061017
0.496999 0.263192 0.053508
0.539166 0.264704 0.045998
0.574705 0.265784 0.040444
0.606930 0.266648 0.035867
0.639155 0.267513 0.031290
0.671380 0.268377 0.026713
0.703605 0.269241 0.022136
0.728797 0.269537 0.018999
0.746956 0.269264 0.017302
0.765116 0.268991 0.015606
0.783275 0.268717 0.013909
0.801435 0.268444 0.012212
0.815919 0.267827 0.011051
0.823054 0.266521 0.010961
0.830188 0.265215 0.010870
0.837323 0.263910 0.010780
0.844457 0.262604 0.010690
0.850690 0.261191 0.010638
0.852412 0.259241 0.010781
0.854133 0.257292 0.010924
0.855855 0.255342 0.011066
0.857577 0.253393 0.011209
0.859298 0.251443 0.011352
0.155326 0.290901 0.129567
0.189844 0.291021 0.121504
0.224362 0.291141 0.113440
0.258880 0.291260 0.105376
0.293399 0.291380 0.097312
0.327917 0.291500 0.089248
0.368065 0.292331 0.081421
0.409340 0.293305 0.073642
0.450614 0.294278 0.065862
0.491889 0.295251 0.058082
0.533163 0.296225 0.050303
0.568513 0.296787 0.044443
0.600902 0.297143 0.039543
0.633290 0.297499 0.034643
0.665678 0.297855 0.029744
0.698067 0.298211 0.024844
0.723682 0.298019 0.021438
0.742523 0.297278 0.019526
0.761365 0.296537 0.017614
0.780206 0.295796 0.015702
0.799048 0.295055 0.013790
0.814180 0.293981 0.012470
0.821891 0.292241 0.012335
0.829603 0.290500 0.012200
0.837315 0.288760 0.012065
0.845027 0.287019 0.011929
0.851770 0.285178 0.011848
0.853674 0.282831 0.012040
0.855577 0.280485 0.012232
0.857480 0.278139 0.012423
0.859384 0.275793 0.012615
0.861287 0.273446 0.012806
0.163947 0.327534 0.135323
0.196664 0.327269 0.127260
0.229381 0.327005 0.119198
0.262098 0.326740 0.111135
0.294815 0.326476 0.103072
0.327531 0.326211 0.095010
0.366563 0.326603 0.086975
0.406857 0.327126 0.078945
0.447151 0.327648 0.070916
0.487445 0.328171 0.062887
0.527739 0.328694 0.054858
0.562826 0.328814 0.048695
0.595310 0.328733 0.043465
0.627795 0.328652 0.038235
0.660279 0.328572 0.033005
0.692763 0.328491 0.027775
0.718755 0.327869 0.024090
0.738256 0.326705 0.021952
0.757757 0.325541 0.019813
0.777258 0.324377 0.017674
0.796759 0.323214 0.015536
0.812526 0.321719 0.014051
0.820825 0.319562 0.013876
0.829124 0.317404 0.013700
0.837422 0.315247 0.013524
0.845721 0.313090 0.013348
0.852987 0.310837 0.013246
0.855089 0.308102 0.013510
0.857191 0.305368 0.013775
0.859293 0.302634 0.014039
0.861395 0.299899 0.014304
0.863497 0.297165 0.014568
0.172568 0.364167 0.141079
0.203484 0.363518 0.133017
0.234399 0.362869 0.124956
0.265315 0.362220 0.116894
0.296230 0.361572 0.108833
0.327146 0.360923 0.100771
0.365060 0.360875 0.092528
0.404373 0.360947 0.084249
0.443687 0.361019 0.075970
0.483001 0.361091 0.067692
0.522314 0.361163 0.059413
0.557139 0.360842 0.052946
0.589719 0.360324 0.047386
0.622299 0.359806 0.041826
0.654879 0.359288 0.036266
0.687459 0.358771 0.030706
0.713829 0.357719 0.026743
0.733989 0.356132 0.024377
0.754150 0.354545 0.022012
0.774310 0.352959 0.019646
0.794470 0.351372 0.017281
0.810873 0.349456 0.015632
0.819758 0.346882 0.015416
0.828644 0.344309 0.015200
0.837530 0.341735 0.014984
0.846416 0.339161 0.014767
0.854204 0.336496 0.014644
0.856504 0.333374 0.014981
0.858805 0.330251 0.015318
0.861106 0.327129 0.015655
0.863406 0.324006 0.015993
0.865707 0.320884 0.016330
0.181189 0.400799 0.146835
0.210304 0.399766 0.138774
0.239418 0.398733 0.130714
0.268532 0.397700 0.122653
0.297646 0.396667 0.114593
0.326761 0.395635 0.106532
0.363557 0.395147 0.098082
0.401890 0.394768 0.089553
0.440223 0.394389 0.081025
0.478557 0.394010 0.072496
0.516890 0.393632 0.063968
0.551451 0.392869 0.057198
0.584127 0.391914 0.051307
0.616803 0.390960 0.045417
0.649479 0.390005 0.039527
0.682155 0.389051 0.033636
0.708903 0.387568 0.029395
0.729723 0.385559 0.026803
0.750542 0.383549 0.024211
0.771362 0.381540 0.021619
0.792182 0.379530 0.019026
0.809219 0.377194 0.017213
0.818692 0.374203 0.016956
0.828165 0.371213 0.016700
0.837637 0.368223 0.016443
0.847110 0.365232 0.016187
0.855420 0.362155 0.016041
0.857920 0.358645 0.016451
0.860419 0.355134 0.016861
0.862918 0.351623 0.017272
0.865418 0.348113 0.017682
0.867917 0.344602 0.018092
0.189810 0.437432 0.152590
0.217123 0.436015 0.144531
0.244436 0.434598 0.136472
0.271749 0.433180 0.128412
0.299062 0.431763 0.120353
0.326375 0.430346 0.112294
0.362055 0.429419 0.103635
0.399407 0.428589 0.094857
0.436760 0.427760 0.086079
0.474113 0.426930 0.077301
0.511465 0.426101 0.068522
0.545764 0.424896 0.061449
0.578536 0.423505 0.055229
0.611308 0.422113 0.049008
0.644079 0.420722 0.042788
0.676851 0.419330 0.036567
0.703977 0.417418 0.032048
0.725456 0.414986 0.029229
0.746935 0.412553 0.026410
0.768414 0.410121 0.023591
0.789893 0.407689 0.020772
0.807566 0.404931 0.018794
0.817625 0.401524 0.018497
0.827685 0.398117 0.018200
0.837745 0.394710 0.017903
0.847804 0.391303 0.017606
0.856637 0.387815 0.017439
0.859335 0.383916 0.017922
0.862033 0.380017 0.018405
0.864731 0.376118 0.018888
0.867429 0.372220 0.019371
0.870127 0.368321 0.019854
0.204068 0.469615 0.157128
0.229544 0.468023 0.149195
0.255021 0.466431 0.141263
0.280498 0.464839 0.133330
0.305975 0.463247 0.125398
0.331452 0.461655 0.117465
0.365742 0.460570 0.108736
0.401796 0.459587 0.099847
0.437849 0.458604 0.090958
0.473903 0.457621 0.082070
0.509956 0.456638 0.073181
0.543633 0.455310 0.065902
0.576121 0.453810 0.059427
0.608609 0.452310 0.052952
0.641097 0.450810 0.046476
0.673585 0.449310 0.040001
0.700778 0.447287 0.035248
0.722675 0.444742 0.032217
0.744571 0.442197 0.029186
0.766468 0.439652 0.026155
0.788365 0.437107 0.023124
0.806496 0.434221 0.020995
0.817099 0.430652 0.020670
0.827701 0.427082 0.020345
0.838303 0.423513 0.020020
0.848905 0.419944 0.019695
0.858234 0.416286 0.019530
0.861197 0.412181 0.020165
0.864160 0.408076 0.020800
0.867123 0.403971 0.021436
0.870085 0.399866 0.022071
0.873048 0.395761 0.022706
0.221143 0.499574 0.161056
0.244766 0.497911 0.153313
0.268389 0.496249 0.145570
0.292012 0.494587 0.137827
0.315635 0.492924 0.130084
0.339259 0.491262 0.122341
0.372025 0.490162 0.113610
0.406620 0.489174 0.104680
0.441215 0.488186 0.095751
0.475810 0.487198 0.086821
0.510405 0.486210 0.077892
0.543280 0.484918 0.070454
0.575295 0.483473 0.063762
0.607310 0.482029 0.057071
0.639324 0.480584 0.050379
0.671339 0.479140 0.043687
0.698443 0.477166 0.038723
0.720636 0.474664 0.035487
0.742830 0.472161 0.032251
0.765023 0.469659 0.029016
0.787216 0.467156 0.025780
0.805719 0.464286 0.023507
0.816842 0.460682 0.023160
0.827964 0.457078 0.022813
0.839087 0.453474 0.022466
0.850210 0.449870 0.022119
0.860022 0.446163 0.021968
0.863282 0.441942 0.022795
0.866543 0.437722 0.023622
0.869803 0.433502 0.024450
0.873064 0.429281 0.025277
0.876324 0.425061 0.026104
0.238218 0.529532 0.164985
0.259988 0.527799 0.157431
0.281757 0.526067 0.149878
0.303527 0.524334 0.142324
0.325296 0.522602 0.134771
0.347066 0.520869 0.127217
0.378308 0.519753 0.118483
0.411444 0.518760 0.109513
0.444581 0.517767 0.100543
0.477718 0.516774 0.091573
0.510854 0.515782 0.082602
0.542927 0.514525 0.075007
0.574469 0.513136 0.068098
0.606010 0.511747 0.061190
0.637551 0.510358 0.054281
0.669092 0.508970 0.047373
0.696108 0.507045 0.042198
0.718598 0.504585 0.038757
0.741088 0.502125 0.035317
0.763578 0.499665 0.031876
0.786068 0.497205 0.028435
0.804942 0.494352 0.026019
0.816585 0.490713 0.025650
0.828228 0.487073 0.025281
0.839871 0.483434 0.024912
0.851514 0.479795 0.024544
0.861809 0.476040 0.024406
0.865368 0.471704 0.025425
0.868926 0.467368 0.026444
0.872484 0.463033 0.027464
0.876042 0.458697 0.028483
0.879601 0.454361 0.029502
0.255294 0.559490 0.168913
0.275210 0.557688 0.161549
0.295125 0.555885 0.154185
0.315041 0.554082 0.146821
0.334957 0.552279 0.139458
0.354873 0.550476 0.132094
0.384590 0.549344 0.123357
0.416269 0.548347 0.114346
0.447947 0.547349 0.105335
0.479625 0.546351 0.096324
0.511303 0.545353 0.087313
0.542575 0.544132 0.079559
0.573642 0.542799 0.072434
0.604710 0.541466 0.065309
0.635778 0.540132 0.058184
0.666846 0.538799 0.051059
0.693773 0.536924 0.045673
0.716560 0.534506 0.042028
0.739346 0.532089 0.038382
0.762133 0.529671 0.034736
0.784920 0.527254 0.031091
0.804165 0.524417 0.028530
0.816328 0.520743 0.028140
0.828492 0.517069 0.027749
0.840655 0.513395 0.027359
0.852818 0.509720 0.026968
0.863597 0.505917 0.026845
0.867453 0.501466 0.028056
0.871309 0.497015 0.029266
0.875165 0.492564 0.030477
0.879021 0.488113 0.031688
0.882877 0.483662 0.032899
0.272369 0.589449 0.172842
0.290431 0.587576 0.165667
0.308493 0.585703 0.158493
0.326555 0.583830 0.151319
0.344618 0.581957 0.144144
0.362680 0.580083 0.136970
0.390873 0.578936 0.128231
0.421093 0.577933 0.119179
0.451313 0.576930 0.110127
0.481533 0.575928 0.101076
0.511752 0.574925 0.092024
0.542222 0.573739 0.084112
0.572816 0.572462 0.076770
0.603411 0.571184 0.069428
0.634005 0.569907 0.062086
0.664599 0.568629 0.054744
0.691438 0.566803 0.049148
0.714522 0.564428 0.045298
0.737605 0.562053 0.041447
0.760688 0.559678 0.037597
0.783771 0.557303 0.033746
0.803388 0.554483 0.031042
0.816072 0.550774 0.030630
0.828755 0.547064 0.030217
0.841439 0.543355 0.029805
0.854122 0.539646 0.029393
0.865384 0.535794 0.029283
0.869538 0.531227 0.030686
0.873692 0.526661 0.032088
0.877845 0.522095 0.033491
0.881999 0.517528 0.034894
0.886153 0.512962 0.036297
0.292472 0.615013 0.175974
0.308788 0.613136 0.169025
0.325103 0.611258 0.162076
0.341418 0.609381 0.155127
0.357733 0.607504 0.148178
0.374049 0.605627 0.141229
0.400635 0.604547 0.132572
0.429276 0.603627 0.123575
0.457916 0.602707 0.114577
0.486557 0.601788 0.105579
0.515198 0.600868 0.096582
0.544651 0.599824 0.088598
0.574511 0.598719 0.081121
0.604371 0.597613 0.073644
0.634230 0.596508 0.066167
0.664090 0.595402 0.058690
0.690593 0.593760 0.052939
0.713739 0.591581 0.048916
0.736886 0.589402 0.044892
0.760032 0.587223 0.040868
0.783179 0.585044 0.036844
0.802980 0.582402 0.034015
0.816091 0.578834 0.033575
0.829202 0.575267 0.033136
0.842313 0.571700 0.032697
0.855424 0.568132 0.032258
0.867098 0.564405 0.032160
0.871588 0.559883 0.033774
0.876078 0.555360 0.035387
0.880569 0.550837 0.037001
0.885059 0.546314 0.038614
0.889549 0.541791 0.040228
0.315603 0.636182 0.178310
0.330278 0.634367 0.171622
0.344954 0.632552 0.164934
0.359629 0.630736 0.158246
0.374304 0.628921 0.151558
0.388980 0.627105 0.144870
0.413876 0.626178 0.136381
0.440817 0.625429 0.127533
0.467758 0.624680 0.118684
0.494699 0.623930 0.109836
0.521639 0.623181 0.100987
0.549862 0.622387 0.093018
0.578726 0.621570 0.085487
0.607590 0.620753 0.077957
0.636454 0.619936 0.070426
0.665318 0.619119 0.062896
0.691237 0.617796 0.057047
0.714213 0.615966 0.052881
0.737189 0.614136 0.048715
0.760165 0.612306 0.044549
0.783141 0.610477 0.040383
0.802940 0.608174 0.037448
0.816386 0.604925 0.036977
0.829831 0.601677 0.036506
0.843277 0.598428 0.036035
0.856722 0.595179 0.035563
0.868737 0.591752 0.035478
0.873603 0.587431 0.037320
0.878469 0.583111 0.039163
0.883334 0.578790 0.041006
0.888200 0.574470 0.042849
0.893065 0.570149 0.044691
0.338734 0.657352 0.180645
0.351769 0.655598 0.174218
0.364805 0.653845 0.167792
0.377840 0.652091 0.161365
0.390875 0.650338 0.154938
0.403910 0.648584 0.148511
0.427117 0.647810 0.140190
0.452358 0.647231 0.131491
0.477599 0.646652 0.122792
0.502840 0.646073 0.114092
0.528081 0.645494 0.105393
0.555074 0.644949 0.097437
0.582941 0.644421 0.089853
0.610809 0.643893 0.082269
0.638677 0.643364 0.074685
0.666545 0.642836 0.067101
0.691882 0.641832 0.061155
0.714687 0.640351 0.056847
0.737493 0.638871 0.052539
0.760298 0.637390 0.048230
0.783104 0.635910 0.043922
0.802901 0.633946 0.040882
0.816681 0.631016 0.040379
0.830461 0.628086 0.039876
0.844240 0.625156 0.039372
0.858020 0.622226 0.038869
0.870377 0.619098 0.038795
0.875618 0.614980 0.040867
0.880859 0.610862 0.042939
0.886100 0.606744 0.045011
0.891341 0.602626 0.047083
0.896581 0.598508 0.049155
0.361865 0.678521 0.182981
0.373260 0.676830 0.176815
0.384655 0.675138 0.170650
0.396051 0.673447 0.164484
0.407446 0.671755 0.158318
0.418841 0.670063 0.152152
0.440358 0.669441 0.144000
0.463899 0.669033 0.135449
0.487441 0.668624 0.126899
0.510982 0.668216 0.118349
0.534523 0.667808 0.109799
0.560285 0.667512 0.101857
0.587157 0.667272 0.094219
0.614029 0.667032 0.086582
0.640901 0.666793 0.078944
0.667773 0.666553 0.071307
0.692526 0.665868 0.065263
0.715161 0.664736 0.060813
0.737796 0.663605 0.056362
0.760432 0.662474 0.051912
0.783067 0.661343 0.047461
0.802861 0.659718 0.044316
0.816976 0.657107 0.043781
0.831090 0.654496 0.043245
0.845204 0.651884 0.042710
0.859319 0.649273 0.042175
0.872017 0.646444 0.042112
0.877633 0.642529 0.044414
0.883249 0.638613 0.046715
0.888865 0.634697 0.049016
0.894481 0.630782 0.051317
0.900098 0.626866 0.053619
0.384995 0.699691 0.185317
0.394751 0.698061 0.179412
0.404506 0.696432 0.173508
0.414262 0.694802 0.167603
0.424017 0.693172 0.161698
0.433772 0.691542 0.155794
0.453599 0.691073 0.147809
0.475441 0.690835 0.139407
0.497282 0.690597 0.131006
0.519123 0.690359 0.122605
0.540965 0.690121 0.114204
0.565496 0.690074 0.106276
0.591372 0.690123 0.098586
0.617248 0.690172 0.090895
0.643124 0.690221 0.083204
0.669000 0.690270 0.075513
0.693171 0.689904 0.069371
0.715635 0.689122 0.064778
0.738100 0.688340 0.060186
0.760565 0.687558 0.055593
0.783029 0.686776 0.051000
0.802822 0.685490 0.047750
0.817271 0.683198 0.047182
0.831719 0.680905 0.046615
0.846168 0.678613 0.046048
0.860617 0.676320 0.045481
0.873656 0.673791 0.045430
0.879648 0.670077 0.047960
0.885639 0.666364 0.050491
0.891631 0.662651 0.053021
0.897622 0.658938 0.055552
0.903614 0.655224 0.058082
0.408509 0.718230 0.187374
0.416794 0.716676 0.181733
0.425080 0.715122 0.176092
0.433365 0.713568 0.170451
0.441651 0.712015 0.164810
0.449936 0.710461 0.159169
0.468131 0.710130 0.151386
0.488307 0.710043 0.143175
0.508483 0.709956 0.134964
0.528659 0.709869 0.126753
0.548835 0.709783 0.118542
0.572080 0.709963 0.110676
0.596860 0.710276 0.102982
0.621639 0.710590 0.095288
0.646419 0.710904 0.087594
0.671198 0.711217 0.079900
0.694664 0.711159 0.073699
0.716814 0.710730 0.068993
0.738965 0.710301 0.064286
0.761116 0.709872 0.059579
0.783267 0.709442 0.054872
0.802933 0.708514 0.051532
0.817628 0.706587 0.050925
0.832323 0.704661 0.050319
0.847019 0.702735 0.049712
0.861714 0.700808 0.049105
0.875022 0.698631 0.049056
0.881391 0.695198 0.051797
0.887760 0.691766 0.054538
0.894130 0.688334 0.057278
0.900499 0.684902 0.060019
0.906868 0.681469 0.062760
0.432787 0.731507 0.188874
0.439943 0.730058 0.183502
0.447098 0.728608 0.178129
0.454254 0.727158 0.172756
0.461410 0.725708 0.167384
0.468566 0.724258 0.162011
0.485242 0.724038 0.154500
0.503822 0.724064 0.146561
0.522402 0.724090 0.138622
0.540982 0.724115 0.130683
0.559562 0.724141 0.122744
0.581410 0.724503 0.115034
0.604891 0.725034 0.107438
0.628373 0.725564 0.099842
0.651855 0.726095 0.092246
0.675337 0.726625 0.084650
0.697853 0.726855 0.078470
0.719403 0.726785 0.073705
0.740954 0.726716 0.068940
0.762505 0.726646 0.064175
0.784056 0.726576 0.059410
0.803345 0.726041 0.056013
0.818110 0.724575 0.055351
0.832876 0.723110 0.054689
0.847642 0.721644 0.054027
0.862408 0.720178 0.053366
0.875838 0.718458 0.053300
0.882590 0.715464 0.056213
0.889343 0.712470 0.059126
0.896095 0.709476 0.062039
0.902847 0.706482 0.064953
0.909599 0.703487 0.067866
0.457065 0.744785 0.190374
0.463091 0.743439 0.185270
0.469117 0.742093 0.180166
0.475144 0.740747 0.175062
0.481170 0.739401 0.169958
0.487196 0.738055 0.164854
0.502354 0.737946 0.157614
0.519337 0.738085 0.149947
0.536321 0.738223 0.142280
0.553305 0.738361 0.134613
0.570289 0.738500 0.126946
0.590739 0.739044 0.119392
0.612923 0.739791 0.111894
0.635107 0.740538 0.104396
0.657291 0.741286 0.096898
0.679475 0.742033 0.089400
0.701042 0.742551 0.083240
0.721992 0.742841 0.078417
0.742943 0.743130 0.073594
0.763893 0.743420 0.068771
0.784844 0.743710 0.063948
0.803756 0.743568 0.060493
0.818593 0.742563 0.059777
0.833429 0.741558 0.059060
0.848266 0.740553 0.058343
0.863102 0.739549 0.057626
0.876655 0.738285 0.057544
0.883790 0.735729 0.060629
0.890925 0.733173 0.063715
0.898060 0.730617 0.066801
0.905195 0.728061 0.069886
0.912330 0.725505 0.072972
0.481342 0.758063 0.191875
0.486239 0.756821 0.187039
0.491136 0.755579 0.182203
0.496033 0.754337 0.177368
0.500929 0.753094 0.172532
0.505826 0.751852 0.167696
0.519465 0.751855 0.160728
0.534853 0.752106 0.153333
0.550240 0.752356 0.145938
0.565628 0.752607 0.138544
0.581015 0.752858 0.131149
0.600069 0.753585 0.123750
0.620955 0.754549 0.116350
0.641841 0.755513 0.108950
0.662727 0.756477 0.101550
0.683613 0.757441 0.094150
0.704231 0.758247 0.088010
0.724581 0.758896 0.083129
0.744932 0.759545 0.078248
0.765282 0.760194 0.073366
0.785632 0.760843 0.068485
0.804168 0.761095 0.064974
0.819075 0.760551 0.064202
0.833982 0.760007 0.063431
0.848889 0.759463 0.062659
0.863796 0.758919 0.061887
0.877472 0.758113 0.061787
0.884989 0.755995 0.065045
0.892507 0.753877 0.068304
0.900025 0.751759 0.071562
0.907543 0.749641 0.074820
0.915061 0.747524 0.078078
0.505620 0.771340 0.193375
0.509388 0.770202 0.188808
0.513155 0.769064 0.184241
0.516922 0.767926 0.179673
0.520689 0.766788 0.175106
0.524456 0.765650 0.170539
0.536577 0.765763 0.163842
0.550368 0.766126 0.156719
0.564159 0.766490 0.149597
0.577951 0.766853 0.142474
0.591742 0.767217 0.135351
0.609398 0.768125 0.128109
0.628986 0.769306 0.120807
0.648575 0.770487 0.113505
0.668163 0.771668 0.106203
0.687751 0.772848 0.098901
0.707420 0.773943 0.092780
0.727170 0.774952 0.087841
0.746921 0.775960 0.082901
0.766671 0.776968 0.077962
0.786421 0.777977 0.073023
0.804580 0.778622 0.069454
0.819558 0.778538 0.068628
0.834535 0.778455 0.067801
0.849513 0.778372 0.066975
0.864490 0.778289 0.066148
0.878288 0.777940 0.066031
0.886189 0.776260 0.069462
0.894090 0.774581 0.072892
0.901990 0.772901 0.076323
0.909891 0.771221 0.079753
0.917791 0.769542 0.083184
0.529003 0.783605 0.194798
0.531775 0.782582 0.190501
0.534546 0.781559 0.186204
0.537318 0.780536 0.181906
0.540090 0.779513 0.177609
0.542861 0.778490 0.173312
0.553555 0.778705 0.166894
0.565832 0.779168 0.160053
0.578110 0.779631 0.153212
0.590387 0.780093 0.146371
0.602665 0.780556 0.139530
0.618958 0.781622 0.132462
0.637259 0.782990 0.125280
0.655560 0.784357 0.118099
0.673861 0.785725 0.110917
0.692163 0.787092 0.103735
0.710869 0.788443 0.097657
0.729980 0.789778 0.092681
0.749091 0.791112 0.087706
0.768203 0.792447 0.082730
0.787314 0.793781 0.077755
0.805055 0.794790 0.074145
0.820058 0.795149 0.073268
0.835060 0.795507 0.072390
0.850062 0.795865 0.071512
0.865064 0.796224 0.070635
0.878943 0.796317 0.070501
0.887203 0.795090 0.074083
0.895462 0.793862 0.077666
0.903722 0.792634 0.081248
0.911982 0.791406 0.084831
0.920242 0.790178 0.088413
0.547908 0.790806 0.195839
0.550355 0.789953 0.191818
0.552802 0.789101 0.187797
0.555250 0.788249 0.183776
0.557697 0.787396 0.179754
0.560144 0.786544 0.175733
0.569865 0.786815 0.169638
0.581041 0.787311 0.163127
0.592216 0.787807 0.156616
0.603392 0.788303 0.150106
0.614568 0.788799 0.143595
0.629671 0.789900 0.136792
0.646738 0.791304 0.129842
0.663806 0.792709 0.122892
0.680873 0.794113 0.115942
0.697940 0.795517 0.108992
0.715613 0.796966 0.103066
0.733893 0.798459 0.098164
0.752172 0.799952 0.093263
0.770451 0.801446 0.088361
0.788730 0.802939 0.083459
0.805849 0.804169 0.079888
0.820646 0.804871 0.078978
