Assets/1__3DArt/KimSe/artstation_asset/LUTs_pasterls/CUBE/Cotton Candy 01 S.cube
# Enhanced with VOXCOLOR algorithms
LUT_3D_SIZE 5
DOMAIN_MIN 0.000000 0.000000 0.000000
DOMAIN_MAX 0.903226 0.903226 0.903226
0.113725 0.101961 0.109804
0.370887 0.137435 0.082865
0.682967 0.190234 0.082152
0.889082 0.235693 0.116891
0.952181 0.257770 0.151564
0.157818 0.294598 0.166047
0.342111 0.289972 0.116825
0.589308 0.298806 0.080870
0.801824 0.315980 0.093737
0.927949 0.334708 0.151897
0.245693 0.551304 0.231219
0.367104 0.521815 0.172824
0.564734 0.502883 0.115698
0.773607 0.498621 0.112479
0.925029 0.502280 0.180744
0.366259 0.778554 0.285421
0.438916 0.748975 0.236151
0.596816 0.727874 0.180313
0.788891 0.718219 0.167737
0.935921 0.710857 0.227669
0.486477 0.899691 0.313299
0.528570 0.889201 0.282170
0.645102 0.884796 0.243127
0.805237 0.885739 0.228965
0.940993 0.883625 0.274740
0.157557 0.184768 0.288579
0.395524 0.199105 0.256557
0.677700 0.227521 0.244775
0.875820 0.262038 0.263540
0.954196 0.295089 0.290158
0.199724 0.387079 0.349655
0.374936 0.357437 0.297565
0.581493 0.333504 0.261252
0.774012 0.330823 0.259428
0.922442 0.358341 0.288690
0.284394 0.623738 0.422684
0.387489 0.573055 0.362298
0.549931 0.525029 0.300612
0.738038 0.500127 0.274223
0.914910 0.502803 0.293192
0.396455 0.814608 0.478845
0.451789 0.776008 0.428873
0.580111 0.736547 0.362990
0.750638 0.709721 0.317397
0.921712 0.696756 0.315381
0.507541 0.911792 0.498787
0.542435 0.900697 0.471684
0.641698 0.890972 0.430371
0.785162 0.885386 0.391338
0.930852 0.881686 0.379036
0.204086 0.306008 0.508504
0.427759 0.313164 0.481043
0.691847 0.328290 0.463959
0.882605 0.349543 0.466441
0.959928 0.372813 0.478732
0.247478 0.504445 0.567349
0.403314 0.468763 0.527199
0.600377 0.430609 0.491631
0.786963 0.411687 0.476841
0.930533 0.426809 0.484994
0.330336 0.707840 0.633152
0.421615 0.655800 0.585655
0.570766 0.595221 0.529260
0.744096 0.549689 0.490170
0.917936 0.534048 0.480587
0.435784 0.855164 0.676719
0.484039 0.819419 0.638869
0.594771 0.772413 0.579969
0.744261 0.727788 0.521040
0.917331 0.700191 0.487415
0.538102 0.925556 0.687692
0.567743 0.916182 0.668665
0.652162 0.904238 0.635739
0.777728 0.893184 0.588854
0.925576 0.888064 0.543349
0.245864 0.451116 0.707985
0.456039 0.469332 0.696262
0.705321 0.482573 0.683981
0.890447 0.491435 0.677824
0.964073 0.494412 0.676493
0.293896 0.626712 0.757934
0.438671 0.608684 0.737801
0.639367 0.583746 0.714804
0.823043 0.560550 0.698720
0.944662 0.550346 0.695006
0.376051 0.785626 0.805112
0.466145 0.753579 0.780234
0.617513 0.708773 0.745878
0.781278 0.658303 0.713868
0.930628 0.618403 0.696554
0.476206 0.889879 0.830681
0.525497 0.867429 0.811690
0.632440 0.830739 0.777342
0.768548 0.781487 0.733698
0.924189 0.738259 0.700884
0.569326 0.937175 0.834026
0.596805 0.931018 0.825198
0.674537 0.921539 0.809632
0.789902 0.908894 0.780529
0.928833 0.900281 0.745456
0.280444 0.596278 0.842889
0.472692 0.629590 0.844270
0.702544 0.648244 0.843440
0.884267 0.654383 0.842237
0.964360 0.645866 0.836849
0.335747 0.730183 0.877849
0.470726 0.731550 0.871385
0.668365 0.731982 0.866115
0.848590 0.725318 0.863064
0.954360 0.712357 0.861956
0.418942 0.842942 0.906251
0.505468 0.830534 0.897067
0.659618 0.817521 0.888276
0.822612 0.797588 0.882318
0.946595 0.774877 0.883152
0.515422 0.913051 0.919563
0.562146 0.902447 0.912866
0.671921 0.889122 0.905625
0.810569 0.869080 0.899564
0.941619 0.848143 0.900793
0.597458 0.944479 0.919883
0.623115 0.941515 0.916911
0.701254 0.938647 0.917985
0.817914 0.935096 0.920981
0.940437 0.933262 0.926406
