Assets/1__3DArt/KimSe/artstation_asset/LUTs_pasterls/CUBE/Cotton Candy 03 S.cube
# Enhanced with VOXCOLOR algorithms
LUT_3D_SIZE 8
DOMAIN_MIN 0.000000 0.000000 0.000000
DOMAIN_MAX 0.903226 0.903226 0.903226
0.141176 0.070588 0.090196
0.317515 0.093275 0.065288
0.494800 0.118013 0.042028
0.647980 0.141582 0.023611
0.759098 0.161330 0.012144
0.815816 0.174070 0.008511
0.840245 0.180605 0.008737
0.851174 0.183569 0.010273
0.146569 0.217519 0.116964
0.292186 0.221462 0.085688
0.446191 0.226042 0.055842
0.587199 0.230152 0.031510
0.699516 0.233092 0.015499
0.772225 0.235017 0.009465
0.817950 0.236736 0.008826
0.845766 0.237720 0.010037
0.172521 0.364175 0.141063
0.287038 0.356879 0.107284
0.417226 0.348533 0.072826
0.545292 0.339909 0.043104
0.657546 0.331879 0.022121
0.743141 0.326486 0.013142
0.805398 0.324055 0.011879
0.846327 0.322239 0.013813
0.220796 0.499632 0.160941
0.305284 0.487175 0.127823
0.411881 0.472916 0.091216
0.526109 0.458654 0.057633
0.635998 0.446020 0.032202
0.729972 0.437527 0.020102
0.803019 0.432692 0.018288
0.852580 0.428425 0.021582
0.291356 0.615199 0.175602
0.348229 0.602241 0.145598
0.432156 0.588388 0.109576
0.531552 0.575282 0.074407
0.635929 0.564285 0.045828
0.732748 0.557107 0.030752
0.810312 0.552296 0.028277
0.863742 0.546815 0.033144
0.382094 0.700174 0.184350
0.416275 0.690061 0.159187
0.479543 0.681307 0.126733
0.562839 0.674501 0.093049
0.657153 0.669977 0.063557
0.749710 0.667824 0.046039
0.824931 0.665597 0.042402
0.877581 0.660854 0.048342
0.476659 0.758844 0.190313
0.494632 0.752199 0.170243
0.539831 0.748497 0.142814
0.605929 0.747602 0.112654
0.686001 0.749154 0.084256
0.768930 0.752179 0.065267
0.838266 0.753691 0.060136
0.888694 0.751754 0.066377
0.563620 0.798539 0.195814
0.572015 0.795353 0.180638
0.602192 0.795208 0.158534
0.651039 0.797940 0.132782
0.714460 0.803160 0.106885
0.784845 0.809873 0.087791
0.847068 0.815308 0.081659
0.895027 0.817886 0.088007
0.161084 0.117002 0.231997
0.324999 0.124919 0.195112
0.490331 0.137154 0.158213
0.634736 0.150930 0.126406
0.742170 0.164075 0.103268
0.801604 0.175104 0.090855
0.831474 0.184129 0.084251
0.846448 0.190447 0.080489
0.163777 0.264517 0.247981
0.310550 0.255738 0.205856
0.452761 0.247447 0.168375
0.578964 0.240390 0.138433
0.681242 0.235365 0.117731
0.754525 0.234449 0.106584
0.807520 0.237927 0.098901
0.843463 0.243496 0.090849
0.189613 0.407767 0.265412
0.306485 0.388601 0.223419
0.424802 0.367530 0.184983
0.537132 0.347655 0.153589
0.638052 0.331636 0.131451
0.723611 0.323194 0.119462
0.794598 0.321941 0.111461
0.847931 0.324522 0.102803
0.238927 0.537010 0.282376
0.321560 0.513782 0.243815
0.416099 0.487710 0.205003
0.515862 0.462927 0.170981
0.615280 0.442812 0.145403
0.709117 0.431253 0.131000
0.791928 0.426938 0.122836
0.857910 0.426096 0.115861
0.310433 0.644785 0.297378
0.361318 0.623343 0.263848
0.433145 0.599514 0.226001
0.519481 0.577121 0.189945
0.614272 0.559177 0.160536
0.710571 0.548671 0.142665
0.798336 0.543557 0.133939
0.871342 0.540298 0.129600
0.400582 0.722353 0.309082
0.428180 0.707100 0.281110
0.480508 0.691249 0.246413
0.552064 0.677164 0.210637
0.637115 0.666603 0.178672
0.727979 0.660963 0.156837
0.812349 0.657817 0.146313
0.885010 0.654416 0.143714
0.491816 0.775056 0.317510
0.505285 0.766263 0.295167
0.542603 0.758672 0.265435
0.599667 0.753299 0.232511
0.671763 0.750764 0.200413
0.751824 0.751217 0.175578
0.827368 0.752104 0.162348
0.894154 0.751297 0.159512
0.571978 0.809861 0.322746
0.579165 0.806631 0.306144
0.605576 0.805244 0.282368
0.649228 0.806130 0.254172
0.707255 0.809475 0.224517
0.774505 0.815184 0.199022
0.839254 0.821040 0.183728
0.896974 0.825083 0.179600
0.180315 0.169458 0.372169
0.332010 0.166643 0.332375
0.487366 0.169055 0.290236
0.625632 0.174649 0.251671
0.731634 0.181863 0.221082
0.794026 0.190336 0.201818
0.827764 0.199473 0.189980
0.845480 0.206671 0.182580
0.182511 0.314083 0.385616
0.320569 0.296542 0.341400
0.452945 0.279131 0.300893
0.571494 0.263864 0.266979
0.670594 0.252568 0.241464
0.746144 0.248576 0.225091
0.803818 0.251852 0.212433
0.844904 0.259007 0.199720
0.209698 0.452058 0.401730
0.319399 0.425356 0.358243
0.428156 0.395872 0.318003
0.532074 0.368099 0.284211
0.628382 0.345798 0.258895
0.715017 0.333829 0.242843
0.791202 0.331668 0.230254
0.852657 0.335445 0.216683
0.260779 0.574365 0.418267
0.336812 0.544805 0.378726
0.422099 0.511256 0.338760
0.513032 0.479145 0.303096
0.606526 0.452875 0.275134
0.699969 0.437318 0.257196
0.788258 0.431246 0.244569
0.865335 0.430780 0.232633
0.333246 0.674335 0.433423
0.377972 0.648208 0.399430
0.440907 0.618218 0.360848
0.518096 0.589308 0.323455
0.605707 0.565413 0.291809
0.700050 0.550461 0.270227
0.793326 0.542874 0.256630
0.879829 0.539313 0.247024
0.422105 0.744645 0.445528
0.444715 0.726683 0.417572
0.489051 0.706436 0.382580
0.551599 0.687150 0.345681
0.628612 0.671367 0.311322
0.716080 0.661472 0.285034
0.805424 0.655932 0.268555
0.892398 0.652301 0.259705
0.509396 0.791523 0.453693
0.519818 0.781635 0.431721
0.551094 0.771542 0.402270
0.600538 0.762861 0.368774
0.665018 0.756810 0.334571
0.740867 0.754499 0.304878
0.819997 0.754336 0.284498
0.899603 0.754272 0.273815
0.583299 0.821781 0.457577
0.589573 0.818441 0.441422
0.612654 0.816099 0.418530
0.651334 0.815582 0.390760
0.703722 0.817522 0.360176
0.766994 0.822794 0.330516
0.833356 0.829943 0.307382
0.900259 0.836492 0.293446
0.197981 0.226471 0.501411
0.338228 0.217985 0.465429
0.485366 0.214253 0.424989
0.619616 0.214020 0.385807
0.726029 0.216335 0.352389
0.791710 0.221403 0.329005
0.828091 0.228260 0.313847
0.847338 0.233809 0.304325
0.201992 0.365262 0.517452
0.326522 0.343904 0.477905
0.451175 0.322052 0.439060
0.567045 0.302285 0.404155
0.667424 0.286892 0.375525
0.745934 0.279682 0.355050
0.805722 0.280629 0.339347
0.848847 0.286097 0.325211
0.232041 0.496012 0.535335
0.329843 0.466809 0.496139
0.431438 0.434056 0.457481
0.532141 0.402573 0.422866
0.628235 0.376417 0.394781
0.716107 0.360807 0.374964
0.793918 0.355622 0.359516
0.858865 0.357156 0.344743
0.285623 0.610338 0.552677
0.352917 0.579251 0.516672
0.431610 0.543238 0.478352
0.517972 0.507848 0.442390
0.608732 0.477644 0.412313
0.701116 0.457781 0.390965
0.790643 0.447859 0.375362
0.873022 0.444615 0.361848
0.359058 0.702208 0.567613
0.398091 0.675326 0.536650
0.454988 0.643452 0.500039
0.526290 0.611517 0.463071
0.608705 0.583544 0.430034
0.699809 0.563761 0.405225
0.794081 0.551853 0.388116
0.887567 0.545445 0.375925
0.445941 0.765404 0.578463
0.465039 0.747211 0.553444
0.504015 0.725529 0.520964
0.560091 0.703583 0.485317
0.630435 0.684024 0.450331
0.713276 0.669666 0.420912
0.803563 0.660456 0.400075
0.898597 0.654889 0.387142
0.528646 0.806756 0.584829
0.537260 0.796907 0.565639
0.564269 0.785849 0.539132
0.607734 0.775269 0.507742
0.665507 0.766563 0.473951
0.736402 0.761419 0.441688
0.816345 0.759509 0.416384
0.904044 0.759255 0.400119
0.596600 0.832916 0.586972
0.602298 0.829617 0.573025
0.622715 0.826761 0.553233
0.657112 0.825339 0.528476
0.704282 0.826231 0.499830
0.763262 0.831057 0.469026
0.829856 0.839205 0.441007
0.903424 0.847888 0.420073
0.213432 0.286642 0.612326
0.343425 0.278061 0.584529
0.483769 0.272465 0.551055
0.615486 0.269275 0.516568
0.723617 0.268053 0.484986
0.792960 0.269068 0.460746
0.831228 0.271548 0.444372
0.851073 0.273189 0.434069
0.221517 0.417002 0.633185
0.331970 0.397199 0.602859
0.450961 0.376076 0.570008
0.567057 0.356008 0.537927
0.670955 0.339121 0.509272
0.752296 0.328843 0.486872
0.811873 0.325514 0.469947
0.854080 0.326181 0.456412
0.255882 0.538544 0.653886
0.341131 0.512038 0.623384
0.437877 0.481539 0.590268
0.538553 0.451084 0.558083
0.636725 0.424154 0.529628
0.725240 0.405353 0.507597
0.801289 0.395351 0.490784
0.865056 0.391430 0.476868
0.312652 0.643656 0.672183
0.371288 0.615751 0.643698
0.445785 0.582542 0.610840
0.530515 0.548497 0.577795
0.620485 0.517402 0.547943
0.710875 0.493745 0.524627
0.797642 0.478411 0.507402
0.879376 0.469557 0.494174
0.387052 0.726985 0.686424
0.421353 0.703051 0.661840
0.474650 0.673688 0.630826
0.542663 0.642705 0.597630
0.621471 0.613338 0.565882
0.708277 0.589246 0.539692
0.799360 0.571790 0.520659
0.893168 0.560321 0.507677
0.471347 0.783259 0.695199
0.488220 0.767135 0.675731
0.524078 0.747000 0.648925
0.575970 0.725236 0.617824
0.641123 0.703928 0.585317
0.718594 0.685595 0.555445
0.806062 0.671870 0.532616
0.902620 0.662796 0.517822
0.548911 0.819541 0.699291
0.556667 0.810810 0.684803
0.581034 0.800347 0.663694
0.620285 0.789419 0.637284
0.672702 0.779184 0.607093
0.738452 0.771369 0.575683
0.816389 0.766945 0.548861
0.906591 0.765255 0.530204
0.611089 0.842160 0.699908
0.616500 0.839172 0.689571
0.635042 0.836323 0.674596
0.666183 0.834506 0.655034
0.709094 0.834602 0.631099
0.763924 0.838534 0.602785
0.829015 0.846469 0.574199
0.905146 0.855796 0.550787
0.225980 0.348643 0.695475
0.347362 0.345680 0.677217
0.481605 0.342942 0.653449
0.611017 0.340313 0.627440
0.721019 0.337697 0.602066
0.794392 0.335014 0.580866
0.834891 0.332282 0.565666
0.855438 0.329025 0.555806
0.240181 0.467229 0.719713
0.340022 0.454120 0.699582
0.454997 0.439184 0.675676
0.571758 0.423781 0.650544
0.678890 0.409169 0.626384
0.762196 0.397293 0.605809
0.819961 0.388970 0.589867
0.858929 0.383021 0.577942
0.280152 0.577231 0.741932
0.356158 0.557967 0.721384
0.450076 0.535371 0.697126
0.551690 0.511595 0.671777
0.651983 0.488571 0.647562
0.739898 0.468902 0.627010
0.811241 0.453881 0.611002
0.869218 0.442785 0.598925
0.340679 0.671855 0.760233
0.393018 0.650906 0.740870
0.465407 0.625737 0.716977
0.550059 0.598611 0.691357
0.639951 0.571526 0.666437
0.727270 0.546902 0.645058
0.807565 0.526548 0.628725
0.882285 0.510857 0.617120
0.415991 0.746383 0.773329
0.447051 0.728139 0.756704
0.498782 0.705518 0.734553
0.565520 0.680268 0.709464
0.642108 0.653976 0.683812
0.723989 0.628476 0.660720
0.807934 0.606262 0.643126
0.894716 0.588978 0.631540
0.497331 0.796291 0.780225
0.512927 0.783824 0.767377
0.547507 0.768015 0.748727
0.597393 0.749786 0.725891
0.659226 0.730059 0.700573
0.731305 0.710068 0.675496
0.812282 0.692494 0.655337
0.902906 0.679283 0.642224
0.569686 0.828332 0.782753
0.576995 0.821412 0.773460
0.600111 0.812964 0.759253
0.637116 0.803471 0.740554
0.686173 0.793473 0.718039
0.747276 0.783999 0.693004
0.820108 0.776812 0.670517
0.905710 0.772565 0.654568
0.626461 0.848269 0.782770
0.631490 0.845759 0.776182
0.648900 0.843379 0.766631
0.678137 0.841645 0.753755
0.718379 0.841133 0.737288
0.769742 0.843367 0.716321
0.831011 0.849017 0.693736
0.903363 0.856385 0.674654
0.236804 0.408961 0.754128
0.351163 0.414377 0.743763
0.479235 0.417191 0.728706
0.605297 0.417739 0.711280
0.715857 0.416238 0.693499
0.792938 0.412115 0.677512
0.836507 0.405911 0.664916
0.858574 0.398933 0.656050
0.258207 0.513936 0.778912
0.350738 0.508818 0.766315
0.461518 0.502010 0.750606
0.576991 0.493792 0.733387
0.685124 0.484417 0.716058
0.769533 0.473952 0.700182
0.825823 0.463116 0.687008
0.861481 0.452588 0.676933
0.304132 0.611189 0.800611
0.373812 0.599532 0.787290
0.464725 0.586290 0.771304
0.565623 0.571749 0.754068
0.666259 0.556182 0.736836
0.752898 0.539766 0.721117
0.819231 0.523493 0.708204
0.869712 0.508441 0.698540
0.368282 0.694798 0.817773
0.415940 0.680636 0.805188
0.486093 0.664609 0.789719
0.569870 0.646934 0.772752
0.659042 0.627825 0.755562
0.743225 0.607302 0.739845
0.816143 0.586834 0.727364
0.880359 0.568422 0.718765
0.444180 0.760673 0.829496
0.472329 0.747711 0.818929
0.522425 0.732622 0.805024
0.587989 0.715413 0.789012
0.662942 0.696143 0.772109
0.740585 0.674629 0.756157
0.816055 0.652982 0.743759
0.890842 0.634133 0.736048
0.522677 0.804936 0.835183
0.536631 0.795724 0.827349
0.569954 0.784751 0.816087
0.618525 0.771822 0.802123
0.678415 0.756854 0.786306
0.746271 0.739665 0.770170
0.819131 0.722547 0.757128
0.898004 0.708365 0.749198
0.590529 0.833569 0.837036
0.596800 0.828184 0.831594
0.618774 0.822039 0.823419
0.654435 0.815018 0.812613
0.701688 0.807102 0.799440
0.759314 0.798444 0.784466
0.825250 0.790600 0.770936
0.900241 0.785014 0.761828
0.642403 0.851468 0.836973
0.646546 0.849368 0.833063
0.662915 0.847600 0.827982
0.690961 0.846278 0.821391
0.729737 0.845588 0.812972
0.778528 0.846303 0.801841
0.834431 0.849070 0.789456
0.897683 0.853253 0.779199
0.247182 0.463924 0.795893
0.356229 0.479340 0.791896
0.478428 0.489102 0.783752
0.600420 0.494430 0.773515
0.710251 0.496173 0.762795
0.790061 0.493452 0.752478
0.836470 0.486359 0.742878
0.859839 0.477021 0.734693
0.276917 0.556774 0.819925
0.363318 0.558859 0.812437
0.468840 0.559475 0.802893
0.580856 0.558400 0.792349
0.687784 0.555342 0.781642
0.772617 0.549055 0.771302
0.828381 0.539398 0.761663
0.861653 0.527780 0.753283
0.328662 0.641720 0.840069
0.392427 0.635794 0.831221
0.478638 0.630156 0.821198
0.576352 0.624059 0.810642
0.675282 0.616805 0.800094
0.760560 0.607139 0.790111
0.823230 0.595036 0.781291
0.866755 0.581813 0.774217
0.395764 0.714367 0.855484
0.438325 0.704913 0.846992
0.504349 0.696022 0.837447
0.585151 0.686928 0.827384
0.672339 0.676949 0.817308
0.754059 0.665022 0.807978
0.820821 0.651487 0.800431
0.873680 0.637894 0.795405
0.471679 0.771745 0.865744
0.495789 0.762302 0.858869
0.542393 0.753036 0.850706
0.605320 0.743360 0.841775
0.678383 0.732767 0.832614
0.753213 0.720482 0.824172
0.820983 0.707292 0.817987
0.881057 0.695019 0.815053
0.547605 0.810889 0.870580
0.558534 0.803735 0.865897
0.589047 0.796528 0.859809
0.635472 0.788893 0.852726
0.693878 0.780515 0.845108
0.759237 0.770949 0.837822
0.824132 0.761110 0.832656
0.886992 0.752596 0.830889
0.611765 0.836652 0.871942
0.615912 0.832188 0.869125
0.635731 0.827893 0.865280
0.669686 0.823602 0.860594
0.715749 0.819191 0.855292
0.771291 0.814591 0.849748
0.830010 0.810395 0.845396
0.889925 0.807378 0.843727
0.658870 0.852590 0.871376
0.661713 0.850897 0.869661
0.676606 0.849769 0.867926
0.703345 0.849175 0.866113
0.741047 0.849120 0.864112
0.788039 0.849898 0.861474
0.838298 0.851704 0.858573
0.889737 0.854296 0.856944
