Assets/1__3DArt/KimSe/artstation_asset/LUTs_pasterls/CUBE/Cotton Candy 01 S.cube
# Enhanced with VOXCOLOR algorithms
LUT_3D_SIZE 8
DOMAIN_MIN 0.000000 0.000000 0.000000
DOMAIN_MAX 0.903226 0.903226 0.903226
0.113725 0.101961 0.109804
0.245502 0.119102 0.092710
0.418314 0.144708 0.080215
0.598973 0.174657 0.077722
0.759433 0.205061 0.088327
0.867198 0.230224 0.111154
0.924391 0.247166 0.134279
0.952181 0.257770 0.151564
0.133787 0.200808 0.140194
0.242926 0.204819 0.116421
0.388266 0.215205 0.093798
0.545157 0.229793 0.079258
0.692639 0.246571 0.077866
0.807127 0.263200 0.093935
0.885333 0.277663 0.120030
0.935763 0.289432 0.148230
0.167734 0.330031 0.175314
0.255234 0.323053 0.146730
0.376019 0.320485 0.115755
0.512304 0.321952 0.090960
0.648586 0.327001 0.079307
0.767287 0.335381 0.089421
0.859981 0.345164 0.117489
0.926298 0.354367 0.154427
0.215791 0.475706 0.212520
0.282919 0.460608 0.181586
0.382076 0.448433 0.145204
0.500654 0.440113 0.113107
0.627074 0.436259 0.093643
0.747308 0.437685 0.098658
0.848170 0.442077 0.127251
0.923621 0.446621 0.169610
0.277041 0.623843 0.248986
0.325487 0.604232 0.218566
0.405918 0.586743 0.180625
0.509324 0.572895 0.145087
0.626681 0.563748 0.120827
0.745599 0.560384 0.121600
0.848729 0.559979 0.148885
0.926997 0.559294 0.192608
0.348408 0.750560 0.278921
0.381578 0.732222 0.252492
0.446713 0.715817 0.218201
0.537018 0.702601 0.184578
0.644970 0.693403 0.159612
0.758786 0.688854 0.156973
0.858489 0.685905 0.180316
0.934290 0.681445 0.220717
0.419873 0.840419 0.299018
0.441976 0.827509 0.278246
0.494088 0.816484 0.250585
0.571361 0.808034 0.222265
0.667826 0.802517 0.199516
0.773146 0.799891 0.194406
0.867028 0.797326 0.212674
0.939661 0.792347 0.248068
0.486477 0.899691 0.313299
0.501093 0.893080 0.297539
0.541232 0.888136 0.276295
0.604561 0.885264 0.253741
0.687363 0.884570 0.234416
0.782213 0.885566 0.228407
0.870173 0.885804 0.243004
0.940993 0.883625 0.274740
0.138044 0.144302 0.204335
0.265111 0.154420 0.185368
0.428061 0.171504 0.170420
0.597754 0.192725 0.164330
0.749715 0.215677 0.170027
0.856271 0.238322 0.187653
0.918713 0.258811 0.207416
0.952690 0.274714 0.223285
0.157139 0.249043 0.236248
0.269363 0.245506 0.209442
0.404895 0.245548 0.186165
0.546644 0.249066 0.171210
0.680208 0.256053 0.167931
0.789616 0.267700 0.179051
0.872401 0.283841 0.198467
0.932473 0.302363 0.220544
0.190589 0.378879 0.274512
0.280299 0.363784 0.243028
0.391040 0.350162 0.211851
0.511955 0.339928 0.187314
0.633651 0.334688 0.174353
0.745980 0.337134 0.178578
0.842732 0.346940 0.196446
0.920934 0.361743 0.222118
0.237660 0.519696 0.315328
0.302851 0.496815 0.282161
0.391745 0.474110 0.245114
0.496451 0.454735 0.212293
0.609711 0.441197 0.190365
0.723518 0.436591 0.187602
0.828052 0.439660 0.202480
0.916870 0.447582 0.228700
0.296812 0.658054 0.354897
0.340052 0.632420 0.322915
0.410351 0.606159 0.283409
0.501505 0.582818 0.245372
0.607244 0.565148 0.216496
0.719886 0.556006 0.206986
0.826335 0.553304 0.217295
0.918885 0.553894 0.240852
0.364980 0.772863 0.386356
0.392922 0.751192 0.359063
0.449133 0.728798 0.322794
0.528691 0.708484 0.285374
0.626064 0.692390 0.253844
0.733425 0.682532 0.238618
0.835614 0.676744 0.242592
0.925191 0.672269 0.260331
0.433251 0.853287 0.405713
0.451813 0.839158 0.385082
0.497374 0.824975 0.356337
0.566273 0.812251 0.324776
0.653912 0.802089 0.295554
0.752977 0.795325 0.277563
0.847773 0.790129 0.276057
0.931268 0.784627 0.288301
0.496911 0.906203 0.416519
0.509958 0.899625 0.402068
0.546240 0.893656 0.381467
0.604121 0.888980 0.357825
0.680727 0.886018 0.334508
0.770505 0.884829 0.318439
0.857849 0.883727 0.315955
0.934857 0.881272 0.326650
0.164332 0.200104 0.319491
0.287023 0.204941 0.299872
0.442082 0.215473 0.283517
0.603371 0.229811 0.274494
0.748919 0.246551 0.275402
0.853856 0.265782 0.287150
0.918321 0.286301 0.302238
0.954937 0.303506 0.315224
0.182960 0.308734 0.351670
0.291524 0.299611 0.325361
0.419100 0.291803 0.302372
0.551825 0.286697 0.286426
0.678013 0.285717 0.280134
0.784709 0.292434 0.285785
0.869190 0.307830 0.298799
0.933476 0.328625 0.314883
0.216262 0.436877 0.391240
0.301979 0.416166 0.360667
0.404874 0.394284 0.330382
0.516762 0.374790 0.305584
0.630574 0.360793 0.290263
0.739038 0.357159 0.288677
0.836877 0.364773 0.298020
0.920665 0.380760 0.314221
0.262652 0.570531 0.433105
0.323353 0.542760 0.400973
0.404651 0.512426 0.364843
0.500541 0.484195 0.331706
0.605527 0.461934 0.307195
0.714298 0.450511 0.297605
0.819285 0.449889 0.301647
0.914985 0.457263 0.315153
0.320050 0.697046 0.472549
0.358795 0.668191 0.441766
0.421886 0.635955 0.403044
0.504392 0.605085 0.364250
0.601395 0.579428 0.331991
0.707867 0.563217 0.314130
0.814273 0.555793 0.311324
0.914927 0.554552 0.319611
0.385460 0.798316 0.502373
0.409713 0.775391 0.476584
0.459424 0.749264 0.441154
0.530608 0.723466 0.402650
0.618897 0.700865 0.366923
0.719206 0.684511 0.341858
0.820934 0.674009 0.330912
0.919230 0.667590 0.331827
0.450866 0.868093 0.519376
0.466862 0.853900 0.500444
0.507142 0.837897 0.472946
0.568690 0.821882 0.440753
0.647840 0.807323 0.407661
0.739743 0.795760 0.379702
0.833445 0.787069 0.362579
0.924746 0.780389 0.357060
0.511680 0.913805 0.527239
0.523297 0.907640 0.514431
0.555956 0.901173 0.495744
0.608393 0.895144 0.472905
0.678340 0.890139 0.447822
0.761950 0.886770 0.424020
0.847440 0.884504 0.406923
0.929643 0.882287 0.399352
0.191025 0.267761 0.444749
0.309795 0.270268 0.426641
0.458570 0.276962 0.410664
0.613478 0.286650 0.400037
0.754295 0.298565 0.396951
0.857426 0.313607 0.402798
0.921564 0.330942 0.412454
0.958149 0.345723 0.421448
0.209968 0.377780 0.476433
0.311685 0.366375 0.453632
0.433434 0.354518 0.432486
0.561763 0.344318 0.416165
0.685175 0.337901 0.407009
0.790516 0.339909 0.407419
0.873998 0.351980 0.414497
0.937732 0.370384 0.424848
0.243500 0.501362 0.515303
0.322539 0.478816 0.488817
0.420193 0.453085 0.461244
0.528091 0.428338 0.437064
0.638919 0.408318 0.419789
0.745003 0.398914 0.413192
0.840980 0.401976 0.415630
0.924538 0.414503 0.424080
0.289439 0.625258 0.555477
0.345122 0.596528 0.527369
0.421767 0.563056 0.494495
0.513214 0.529890 0.462749
0.613871 0.501355 0.436911
0.718527 0.483115 0.422142
0.820878 0.476531 0.418089
0.917316 0.479318 0.422047
0.345348 0.738062 0.591821
0.380931 0.709438 0.564909
0.439848 0.675257 0.529837
0.517187 0.640322 0.492978
0.608227 0.608689 0.459713
0.708804 0.585121 0.436206
0.812114 0.570900 0.424130
0.914894 0.564703 0.421651
0.408349 0.824844 0.617576
0.430553 0.802993 0.595444
0.476291 0.776082 0.563754
0.541711 0.747422 0.527372
0.622857 0.719873 0.490722
0.716152 0.696824 0.459588
0.814851 0.680151 0.438605
0.916695 0.669780 0.428297
0.471078 0.883494 0.631104
0.485538 0.870406 0.615246
0.522062 0.854221 0.591184
0.577836 0.836464 0.561165
0.649693 0.818525 0.527529
0.734504 0.802218 0.493843
0.825450 0.789395 0.466522
0.920880 0.780617 0.449348
0.528957 0.921708 0.636384
0.539473 0.916280 0.625743
0.569119 0.909907 0.610155
0.616783 0.903174 0.589971
0.680593 0.896644 0.565688
0.758033 0.891272 0.537809
0.840802 0.887764 0.510936
0.926257 0.885677 0.490662
0.216812 0.345274 0.570307
0.332064 0.349182 0.556340
0.475636 0.355170 0.542933
0.625522 0.362614 0.532506
0.762792 0.371152 0.526824
0.864164 0.381458 0.527435
0.926622 0.392987 0.531520
0.961533 0.402244 0.535880
0.236994 0.453661 0.600983
0.331561 0.444086 0.583994
0.449612 0.432800 0.566593
0.576657 0.421756 0.551455
0.700055 0.412979 0.540712
0.804560 0.410803 0.536874
0.884771 0.417191 0.538757
0.944123 0.428904 0.543832
0.271139 0.569445 0.637101
0.343683 0.549532 0.617054
0.438823 0.525385 0.594410
0.546420 0.500522 0.572818
0.657471 0.478247 0.555268
0.761810 0.464022 0.545217
0.853234 0.460484 0.542445
0.931520 0.465284 0.544863
0.316804 0.680942 0.672924
0.368538 0.655640 0.651268
0.443511 0.624518 0.624358
0.534118 0.591624 0.596661
0.633467 0.560600 0.571918
0.734581 0.536556 0.554360
0.831525 0.522313 0.544972
0.923145 0.516943 0.542387
0.371436 0.778525 0.703670
0.405577 0.753768 0.682903
0.463267 0.722401 0.654482
0.538676 0.687997 0.622850
0.626381 0.653759 0.591888
0.721557 0.623786 0.566213
0.819156 0.601479 0.548825
0.918480 0.587665 0.539800
0.432307 0.850575 0.723732
0.454049 0.832091 0.706978
0.498289 0.807708 0.681730
0.560657 0.779567 0.650891
0.636955 0.749715 0.617275
0.723891 0.720930 0.584746
0.817452 0.697371 0.559022
0.917746 0.681317 0.542878
0.492448 0.898307 0.733198
0.506358 0.887389 0.721455
0.540785 0.872796 0.702718
0.592768 0.855271 0.677691
0.659243 0.835676 0.647349
0.737893 0.815478 0.613244
0.824783 0.798306 0.582136
0.920250 0.786493 0.559885
0.547186 0.929249 0.736166
0.557033 0.924797 0.728242
0.584549 0.919128 0.716742
0.628648 0.912479 0.700938
0.687662 0.905202 0.680237
0.759866 0.898218 0.652993
0.839388 0.893257 0.623033
0.925383 0.890751 0.597684
0.240253 0.429918 0.682194
0.351674 0.439460 0.674520
0.489847 0.448026 0.665773
0.634706 0.455634 0.657793
0.768667 0.462329 0.651983
0.868772 0.468064 0.649499
0.930085 0.472710 0.649167
0.963693 0.475153 0.649361
0.262462 0.531942 0.710649
0.351795 0.528528 0.700350
0.467656 0.522930 0.688559
0.594522 0.516076 0.677173
0.718576 0.509061 0.667774
0.822141 0.504424 0.662296
0.897945 0.504119 0.660720
0.950906 0.506674 0.661706
0.297612 0.636077 0.741891
0.366222 0.623098 0.728989
0.461280 0.606629 0.713403
0.570646 0.588189 0.697464
0.683356 0.569397 0.683171
0.785992 0.553396 0.673028
0.870935 0.543069 0.667809
0.940221 0.538003 0.666617
0.343248 0.732803 0.771269
0.393375 0.714799 0.756956
0.469455 0.692122 0.738426
0.561978 0.666391 0.718289
0.662253 0.639254 0.698835
0.760392 0.613346 0.682881
0.849808 0.592246 0.672251
0.931774 0.577467 0.666951
0.396875 0.814587 0.795051
0.431388 0.796599 0.781308
0.490574 0.773163 0.761930
0.567134 0.745437 0.739242
0.654334 0.714657 0.715401
0.745306 0.682547 0.693195
0.835241 0.653673 0.676104
0.925721 0.631732 0.665689
0.455900 0.872898 0.809175
0.478436 0.859405 0.798279
0.523514 0.840952 0.781346
0.585822 0.817808 0.759521
0.660372 0.790478 0.734092
0.742737 0.759817 0.707027
0.829636 0.731059 0.683738
0.922982 0.709117 0.668131
0.513569 0.910997 0.814940
0.527674 0.902884 0.807424
0.561776 0.891654 0.795170
0.612545 0.876987 0.777892
0.676634 0.858848 0.755616
0.751298 0.837503 0.728460
0.833222 0.817231 0.702095
0.923788 0.802171 0.682683
0.564996 0.935705 0.816112
0.574528 0.932263 0.810963
0.601078 0.927870 0.803998
0.643506 0.922313 0.794121
0.700133 0.915558 0.780317
0.769222 0.907967 0.760247
0.845321 0.901598 0.736592
0.927918 0.897931 0.716242
0.261197 0.514937 0.772269
0.367781 0.531053 0.770028
0.499309 0.543349 0.766042
0.638010 0.552442 0.761710
0.768021 0.558757 0.758036
0.867581 0.561618 0.755323
0.929824 0.561154 0.752848
0.964251 0.558380 0.750454
0.285881 0.605976 0.796818
0.370878 0.609256 0.791689
0.483797 0.610719 0.785389
0.608992 0.610185 0.778975
0.732311 0.607669 0.773298
0.834855 0.603514 0.769168
0.907628 0.599170 0.766646
0.955797 0.595169 0.765494
0.322376 0.695931 0.822205
0.388121 0.689993 0.814713
0.482701 0.682713 0.805848
0.592848 0.673597 0.796689
0.706401 0.662436 0.788163
0.807592 0.649532 0.781424
0.887090 0.637060 0.777140
0.947858 0.626519 0.775331
0.368285 0.777258 0.844976
0.417198 0.766260 0.836274
0.494205 0.753475 0.825557
0.588515 0.738262 0.813938
0.690111 0.720242 0.802419
0.786508 0.699172 0.792306
0.869346 0.677889 0.785018
0.940790 0.659670 0.781263
0.421209 0.844214 0.862461
0.455702 0.832393 0.854077
0.516310 0.818023 0.842938
0.594711 0.800271 0.829950
0.683078 0.778569 0.815999
0.772216 0.752072 0.802298
0.855487 0.724489 0.791318
0.934974 0.700989 0.784910
0.478639 0.890750 0.871954
0.501312 0.881608 0.865396
0.547338 0.869801 0.855878
0.610832 0.854303 0.843678
0.686116 0.834385 0.829198
0.766975 0.808955 0.813100
0.848158 0.782170 0.798865
0.931460 0.759899 0.789830
0.533880 0.921013 0.875238
0.547740 0.915291 0.870730
0.581929 0.907842 0.864152
0.633004 0.897757 0.855080
0.697336 0.884379 0.843256
0.771034 0.866809 0.828250
0.848716 0.848328 0.813356
0.930899 0.833557 0.803089
0.581590 0.940719 0.875338
0.590709 0.938151 0.872131
0.616905 0.935219 0.868925
0.659078 0.931485 0.864940
0.715485 0.926648 0.859382
0.783860 0.920468 0.850458
0.857124 0.914493 0.839330
0.933257 0.910664 0.830541
0.280444 0.596278 0.842889
0.381881 0.617322 0.844207
0.506088 0.632933 0.844095
0.637890 0.644148 0.843574
0.763463 0.651643 0.843254
0.862889 0.654253 0.842570
0.927530 0.651639 0.840265
0.964360 0.645866 0.836849
0.308177 0.673791 0.863055
0.388290 0.681595 0.861071
0.496564 0.688419 0.858873
0.618011 0.693471 0.856932
0.738906 0.696095 0.855529
0.840481 0.695126 0.854493
0.912319 0.690943 0.853139
0.958387 0.684931 0.851541
0.346373 0.748611 0.882710
0.408165 0.747263 0.878527
0.499998 0.746836 0.874490
0.608482 0.745844 0.870952
0.721184 0.743101 0.868168
0.821472 0.737354 0.866362
0.898153 0.729460 0.865390
0.953113 0.721102 0.865299
0.392883 0.814942 0.899597
0.438843 0.808473 0.894404
0.514263 0.803141 0.889214
0.608172 0.797422 0.884432
0.710164 0.790084 0.880402
0.806402 0.779789 0.877657
0.885721 0.767822 0.876632
0.948564 0.756675 0.877669
0.445512 0.868523 0.912038
0.477702 0.860633 0.906993
0.537225 0.853212 0.901638
0.615877 0.844979 0.896389
0.705609 0.834879 0.891636
0.795747 0.821575 0.888074
0.875699 0.806804 0.886735
0.944789 0.793899 0.888478
0.501720 0.905169 0.918412
0.522287 0.898754 0.914430
0.567222 0.892183 0.910086
0.631086 0.884493 0.905629
0.708225 0.874888 0.901325
0.791117 0.862250 0.897738
0.869741 0.848443 0.896232
0.942151 0.836865 0.898180
0.554433 0.929020 0.920362
0.566539 0.924880 0.917501
0.599666 0.920557 0.914819
0.650937 0.915463 0.912331
0.716905 0.909122 0.910054
0.792776 0.900850 0.908085
0.868599 0.892051 0.907430
0.940779 0.885189 0.909758
0.597458 0.944479 0.919883
0.605707 0.942720 0.917663
0.631298 0.941138 0.916855
0.673511 0.939526 0.917296
0.730756 0.937722 0.918725
0.800312 0.935597 0.920512
0.872003 0.933771 0.922522
0.940437 0.933262 0.926406
