Assets/1__3DArt/KimSe/artstation_asset/LUTs_pasterls/CUBE/Cotton Candy 03.cube
# Enhanced with VOXCOLOR algorithms
LUT_3D_SIZE 5
DOMAIN_MIN 0.000000 0.000000 0.000000
DOMAIN_MAX 0.903226 0.903226 0.903226
0.141176 0.070588 0.090196
0.450381 0.111617 0.047673
0.707425 0.151957 0.017318
0.826767 0.176634 0.007988
0.851174 0.183569 0.010273
0.163947 0.327534 0.135323
0.406857 0.327126 0.078945
0.660279 0.328572 0.033005
0.812526 0.321719 0.014051
0.857191 0.305368 0.013775
0.255294 0.559490 0.168913
0.416269 0.548347 0.114346
0.635778 0.540132 0.058184
0.804165 0.524417 0.028530
0.871309 0.497015 0.029266
0.408509 0.718230 0.187374
0.488307 0.710043 0.143175
0.646419 0.710904 0.087594
0.802933 0.708514 0.051532
0.887760 0.691766 0.054538
0.566813 0.798006 0.196879
0.596249 0.795454 0.166201
0.687884 0.802501 0.120967
0.806642 0.813547 0.085630
0.896114 0.818198 0.089060
0.175577 0.155723 0.337294
0.452876 0.161295 0.264683
0.696995 0.182180 0.197474
0.821223 0.200388 0.160991
0.848788 0.205806 0.151711
0.195190 0.406684 0.362182
0.441855 0.388525 0.286779
0.668275 0.375148 0.222250
0.808033 0.360182 0.182882
0.855341 0.339777 0.168212
0.290262 0.618108 0.390716
0.446461 0.598221 0.329258
0.643236 0.580626 0.261834
0.798310 0.558929 0.214791
0.868677 0.528299 0.198902
0.440685 0.754607 0.413540
0.509575 0.743404 0.367704
0.648756 0.737610 0.305848
0.793800 0.729843 0.255281
0.882162 0.710769 0.239904
0.582088 0.818635 0.423654
0.608514 0.816363 0.392133
0.689167 0.820107 0.344911
0.798082 0.826804 0.300098
0.887482 0.827689 0.282596
0.205914 0.256426 0.558852
0.451679 0.246092 0.498372
0.685106 0.249730 0.431589
0.817310 0.256107 0.385512
0.852003 0.255938 0.368140
0.233289 0.486872 0.591886
0.439543 0.461714 0.533400
0.653252 0.440879 0.472918
0.800006 0.420664 0.425677
0.856910 0.398548 0.401550
0.335819 0.673238 0.622539
0.464533 0.650228 0.576111
0.640494 0.628239 0.519290
0.790078 0.604042 0.471514
0.867503 0.575441 0.447223
0.481726 0.787571 0.641829
0.536732 0.775237 0.609288
0.655108 0.765036 0.562803
0.786523 0.753567 0.519139
0.877294 0.736185 0.497861
0.605769 0.837768 0.646241
0.628070 0.835103 0.624424
0.696711 0.835950 0.592907
0.793568 0.838969 0.560358
0.880991 0.838607 0.540392
0.228944 0.363974 0.713813
0.447668 0.362294 0.681951
0.670875 0.360304 0.639303
0.813125 0.355254 0.602683
0.857273 0.345504 0.583647
0.273356 0.560594 0.755703
0.437103 0.542295 0.725040
0.636938 0.524711 0.686575
0.791898 0.504359 0.649718
0.860084 0.481471 0.626023
0.385917 0.716406 0.786298
0.483165 0.696786 0.761896
0.636734 0.677844 0.729213
0.781781 0.656773 0.696903
0.867494 0.634020 0.676637
0.525693 0.809623 0.800403
0.566327 0.798218 0.784552
0.664389 0.787751 0.761431
0.782169 0.776710 0.737701
0.874601 0.764795 0.724598
0.632631 0.849536 0.801207
0.650589 0.846809 0.791476
0.709203 0.846330 0.779158
0.795111 0.847321 0.766649
0.878699 0.847520 0.759149
0.247182 0.463924 0.795893
0.446618 0.487316 0.786195
0.657751 0.495862 0.768052
0.806951 0.492627 0.749873
0.859909 0.477110 0.734661
0.313522 0.621315 0.835452
0.450738 0.615535 0.820074
0.631931 0.610451 0.802322
0.786047 0.600241 0.784669
0.861844 0.582060 0.770081
0.434097 0.744418 0.861090
0.508623 0.730434 0.848023
0.640778 0.719953 0.833438
0.778045 0.709360 0.819799
0.867605 0.697804 0.811570
0.566587 0.819399 0.871645
0.594414 0.809462 0.864425
0.675985 0.802083 0.855892
0.783355 0.796880 0.848891
0.874464 0.794546 0.847855
0.659856 0.852604 0.871525
0.672962 0.850276 0.868805
0.724008 0.850190 0.867594
0.802568 0.852026 0.868265
0.880520 0.855310 0.871843
