Assets/1__3DArt/KimSe/artstation_asset/LUTs_pasterls/CUBE/Cotton Candy 02.cube
# Enhanced with VOXCOLOR algorithms
LUT_3D_SIZE 32
0.164706 0.152941 0.125490
0.191996 0.157360 0.129627
0.219287 0.161780 0.133764
0.246577 0.166199 0.137901
0.273867 0.170619 0.142038
0.301158 0.175038 0.146175
0.332494 0.179802 0.150508
0.364639 0.184635 0.154880
0.396784 0.189468 0.159252
0.428929 0.194301 0.163624
0.461074 0.199134 0.167996
0.489855 0.203268 0.171775
0.516953 0.207053 0.175258
0.544051 0.210838 0.178741
0.571150 0.214623 0.182224
0.598248 0.218408 0.185707
0.620841 0.221468 0.188595
0.638929 0.223802 0.190888
0.657016 0.226136 0.193180
0.675104 0.228471 0.195473
0.693192 0.230805 0.197766
0.708329 0.232720 0.199706
0.717568 0.233795 0.200944
0.726806 0.234871 0.202181
0.736044 0.235946 0.203419
0.745282 0.237022 0.204656
0.753486 0.237960 0.205757
0.756514 0.238211 0.206174
0.759542 0.238462 0.206591
0.762570 0.238714 0.207008
0.765599 0.238965 0.207426
0.768627 0.239216 0.207843
0.169163 0.171260 0.129526
0.195239 0.175049 0.133134
0.221316 0.178839 0.136741
0.247392 0.182628 0.140348
0.273469 0.186418 0.143955
0.299545 0.190207 0.147563
0.330125 0.194471 0.151500
0.361606 0.198830 0.155503
0.393086 0.203189 0.159506
0.424567 0.207548 0.163510
0.456048 0.211907 0.167513
0.484567 0.215655 0.171049
0.511605 0.219098 0.174352
0.538644 0.222540 0.177655
0.565682 0.225983 0.180958
0.592721 0.229426 0.184261
0.615460 0.232190 0.187054
0.633902 0.234275 0.189339
0.652343 0.236360 0.191623
0.670784 0.238445 0.193907
0.689225 0.240530 0.196192
0.704752 0.242212 0.198162
0.714450 0.243087 0.199505
0.724148 0.243962 0.200847
0.733846 0.244838 0.202189
0.743543 0.245713 0.203532
0.752172 0.246454 0.204744
0.755457 0.246526 0.205303
0.758741 0.246597 0.205862
0.762026 0.246668 0.206421
0.765310 0.246739 0.206980
0.768594 0.246811 0.207539
0.173620 0.189579 0.133563
0.198483 0.192738 0.136640
0.223345 0.195898 0.139717
0.248208 0.199057 0.142795
0.273070 0.202217 0.145872
0.297933 0.205377 0.148950
0.327757 0.209140 0.152492
0.358573 0.213025 0.156126
0.389389 0.216910 0.159761
0.420205 0.220795 0.163396
0.451021 0.224679 0.167030
0.479279 0.228041 0.170323
0.506258 0.231142 0.173446
0.533236 0.234242 0.176569
0.560215 0.237343 0.179691
0.587193 0.240443 0.182814
0.610080 0.242911 0.185513
0.628875 0.244747 0.187789
0.647670 0.246583 0.190066
0.666464 0.248419 0.192342
0.685259 0.250255 0.194618
0.701175 0.251704 0.196618
0.711332 0.252379 0.198065
0.721490 0.253054 0.199513
0.731647 0.253729 0.200960
0.741804 0.254404 0.202408
0.750859 0.254949 0.203731
0.754399 0.254840 0.204431
0.757940 0.254731 0.205132
0.761481 0.254623 0.205833
0.765021 0.254514 0.206534
0.768562 0.254405 0.207235
0.178077 0.207897 0.137599
0.201726 0.210427 0.140146
0.225374 0.212957 0.142694
0.249023 0.215486 0.145242
0.272672 0.218016 0.147789
0.296320 0.220546 0.150337
0.325388 0.223809 0.153483
0.355540 0.227220 0.156749
0.385692 0.230631 0.160015
0.415843 0.234042 0.163281
0.445995 0.237452 0.166547
0.473991 0.240428 0.169598
0.500910 0.243186 0.172540
0.527829 0.245944 0.175482
0.554747 0.248702 0.178425
0.581666 0.251461 0.181367
0.604700 0.253633 0.183972
0.623848 0.255220 0.186240
0.642996 0.256806 0.188508
0.662145 0.258393 0.190776
0.681293 0.259980 0.193044
0.697598 0.261196 0.195074
0.708214 0.261671 0.196626
0.718831 0.262146 0.198179
0.729448 0.262621 0.199731
0.740065 0.263096 0.201283
0.749545 0.263443 0.202718
0.753342 0.263155 0.203560
0.757139 0.262866 0.204403
0.760936 0.262577 0.205245
0.764733 0.262289 0.206088
0.768529 0.262000 0.206931
0.182534 0.226216 0.141635
0.204969 0.228116 0.143653
0.227404 0.230016 0.145671
0.249838 0.231915 0.147689
0.272273 0.233815 0.149706
0.294708 0.235715 0.151724
0.323020 0.238478 0.154475
0.352507 0.241415 0.157373
0.381994 0.244352 0.160270
0.411481 0.247288 0.163167
0.440968 0.250225 0.166065
0.468703 0.252814 0.168872
0.495562 0.255230 0.171634
0.522421 0.257646 0.174396
0.549280 0.260062 0.177158
0.576139 0.262478 0.179920
0.599319 0.264355 0.182431
0.618821 0.265692 0.184691
0.638323 0.267030 0.186951
0.657825 0.268367 0.189211
0.677327 0.269704 0.191471
0.694020 0.270688 0.193530
0.705097 0.270962 0.195187
0.716173 0.271237 0.196845
0.727250 0.271512 0.198502
0.738326 0.271787 0.200159
0.748232 0.271938 0.201704
0.752285 0.271469 0.202689
0.756338 0.271000 0.203673
0.760391 0.270532 0.204658
0.764444 0.270063 0.205642
0.768497 0.269595 0.206627
0.186991 0.244535 0.145671
0.208212 0.245805 0.147159
0.229433 0.247074 0.148647
0.250654 0.248344 0.150135
0.271875 0.249614 0.151623
0.293096 0.250884 0.153112
0.320651 0.253147 0.155467
0.349474 0.255610 0.157996
0.378297 0.258073 0.160524
0.407119 0.260535 0.163053
0.435942 0.262998 0.165582
0.463416 0.265201 0.168146
0.490215 0.267275 0.170728
0.517014 0.269348 0.173310
0.543813 0.271422 0.175891
0.570612 0.273495 0.178473
0.593939 0.275076 0.180890
0.613794 0.276165 0.183142
0.633650 0.277253 0.185394
0.653505 0.278341 0.187645
0.673361 0.279429 0.189897
0.690443 0.280180 0.191986
0.701979 0.280254 0.193748
0.713515 0.280329 0.195510
0.725051 0.280404 0.197273
0.736587 0.280478 0.199035
0.746918 0.280432 0.200691
0.751227 0.279784 0.201818
0.755537 0.279135 0.202944
0.759846 0.278486 0.204070
0.764155 0.277838 0.205196
0.768464 0.277189 0.206323
0.193226 0.269252 0.150588
0.213320 0.269938 0.151689
0.233413 0.270623 0.152790
0.253507 0.271309 0.153891
0.273600 0.271995 0.154992
0.293694 0.272681 0.156093
0.320393 0.274400 0.158034
0.348412 0.276326 0.160143
0.376432 0.278252 0.162252
0.404452 0.280178 0.164361
0.432472 0.282104 0.166469
0.459528 0.283858 0.168697
0.486103 0.285526 0.170985
0.512677 0.287195 0.173272
0.539251 0.288863 0.175560
0.565826 0.290531 0.177847
0.589156 0.291767 0.180059
0.609241 0.292570 0.182195
0.629327 0.293374 0.184331
0.649412 0.294177 0.186468
0.669497 0.294980 0.188604
0.686871 0.295468 0.190627
0.698822 0.295325 0.192426
0.710773 0.295183 0.194225
0.722724 0.295040 0.196023
0.734675 0.294898 0.197822
0.745406 0.294637 0.199527
0.750039 0.293783 0.200765
0.754672 0.292929 0.202004
0.759304 0.292076 0.203242
0.763937 0.291222 0.204480
0.768570 0.290368 0.205718
0.199817 0.295248 0.155680
0.218800 0.295359 0.156423
0.237784 0.295471 0.157165
0.256767 0.295582 0.157908
0.275751 0.295693 0.158651
0.294734 0.295805 0.159393
0.320556 0.296970 0.160916
0.347745 0.298347 0.162595
0.374934 0.299723 0.164273
0.402124 0.301100 0.165952
0.429313 0.302476 0.167631
0.455921 0.303769 0.169504
0.482237 0.305019 0.171474
0.508554 0.306270 0.173445
0.534871 0.307521 0.175415
0.561188 0.308771 0.177386
0.584492 0.309652 0.179370
0.604783 0.310163 0.181369
0.625073 0.310674 0.183368
0.645364 0.311185 0.185368
0.665654 0.311695 0.187367
0.683301 0.311915 0.189306
0.695658 0.311552 0.191128
0.708015 0.311189 0.192949
0.720372 0.310826 0.194770
0.732729 0.310463 0.196591
0.743855 0.309983 0.198333
0.748824 0.308920 0.199677
0.753794 0.307856 0.201021
0.758764 0.306792 0.202365
0.763733 0.305728 0.203710
0.768703 0.304664 0.205054
0.206408 0.321244 0.160772
0.224281 0.320781 0.161156
0.242154 0.320318 0.161541
0.260028 0.319854 0.161925
0.277901 0.319391 0.162309
0.295774 0.318928 0.162694
0.320719 0.319540 0.163798
0.347078 0.320367 0.165047
0.373436 0.321194 0.166295
0.399795 0.322022 0.167544
0.426154 0.322849 0.168792
0.452313 0.323680 0.170311
0.478372 0.324512 0.171964
0.504432 0.325345 0.173617
0.530491 0.326178 0.175271
0.556551 0.327011 0.176924
0.579828 0.327536 0.178681
0.600324 0.327755 0.180543
0.620820 0.327974 0.182405
0.641316 0.328192 0.184267
0.661812 0.328411 0.186130
0.679730 0.328362 0.187985
0.692493 0.327779 0.189829
0.705256 0.327195 0.191673
0.718019 0.326612 0.193516
0.730783 0.326029 0.195360
0.742303 0.325330 0.197138
0.747610 0.324056 0.198588
0.752916 0.322782 0.200039
0.758223 0.321508 0.201489
0.763530 0.320234 0.202939
0.768836 0.318960 0.204389
0.212998 0.347240 0.165864
0.229762 0.346203 0.165890
0.246525 0.345165 0.165916
0.263288 0.344127 0.165942
0.280051 0.343089 0.165968
0.296815 0.342051 0.165994
0.320882 0.342110 0.166680
0.346410 0.342388 0.167499
0.371938 0.342666 0.168317
0.397467 0.342943 0.169135
0.422995 0.343221 0.169954
0.448705 0.343590 0.171117
0.474507 0.344005 0.172454
0.500309 0.344420 0.173790
0.526111 0.344835 0.175126
0.551913 0.345250 0.176462
0.575165 0.345421 0.177993
0.595866 0.345347 0.179718
0.616567 0.345274 0.181442
0.637268 0.345200 0.183167
0.657969 0.345126 0.184892
0.676159 0.344809 0.186664
0.689328 0.344006 0.188531
0.702498 0.343202 0.190397
0.715667 0.342398 0.192263
0.728836 0.341594 0.194129
0.740751 0.340677 0.195944
0.746395 0.339193 0.197500
0.752039 0.337708 0.199056
0.757682 0.336224 0.200612
0.763326 0.334740 0.202169
0.768969 0.333256 0.203725
0.219589 0.373237 0.170957
0.235242 0.371624 0.170624
0.250895 0.370012 0.170292
0.266549 0.368400 0.169959
0.282202 0.366787 0.169627
0.297855 0.365175 0.169294
0.321045 0.364680 0.169562
0.345743 0.364408 0.169951
0.370441 0.364137 0.170339
0.395138 0.363865 0.170727
0.419836 0.363594 0.171115
0.445098 0.363501 0.171924
0.470642 0.363499 0.172943
0.496187 0.363496 0.173962
0.521731 0.363493 0.174981
0.547276 0.363490 0.176000
0.570501 0.363306 0.177304
0.591407 0.362940 0.178892
0.612313 0.362574 0.180479
0.633220 0.362208 0.182067
0.654126 0.361842 0.183655
0.672588 0.361257 0.185343
0.686164 0.360232 0.187232
0.699739 0.359208 0.189121
0.713315 0.358184 0.191009
0.726890 0.357159 0.192898
0.739200 0.356023 0.194749
0.745180 0.354329 0.196411
0.751161 0.352635 0.198074
0.757141 0.350940 0.199736
0.763122 0.349246 0.201398
0.769103 0.347552 0.203060
0.226659 0.400895 0.176217
0.241329 0.398811 0.175648
0.256000 0.396727 0.175080
0.270670 0.394643 0.174512
0.285340 0.392559 0.173944
0.300011 0.390475 0.173375
0.322347 0.389506 0.173300
0.346216 0.388760 0.173322
0.370086 0.388015 0.173345
0.393955 0.387269 0.173368
0.417825 0.386523 0.173391
0.442595 0.386032 0.173846
0.467817 0.385668 0.174517
0.493038 0.385304 0.175189
0.518259 0.384941 0.175860
0.543480 0.384577 0.176532
0.566605 0.384091 0.177546
0.587633 0.383483 0.178902
0.608661 0.382876 0.180259
0.629689 0.382268 0.181615
0.650718 0.381661 0.182972
0.669379 0.380858 0.184481
0.683309 0.379664 0.186296
0.697238 0.378470 0.188111
0.711167 0.377277 0.189926
0.725096 0.376083 0.191740
0.737766 0.374780 0.193540
0.744136 0.372931 0.195259
0.750506 0.371082 0.196979
0.756876 0.369233 0.198699
0.763246 0.367383 0.200418
0.769616 0.365534 0.202138
0.233969 0.429384 0.181561
0.247720 0.426880 0.180818
0.261471 0.424376 0.180075
0.275222 0.421872 0.179333
0.288973 0.419368 0.178590
0.302724 0.416864 0.177847
0.324218 0.415461 0.177465
0.347260 0.414278 0.177154
0.370303 0.413096 0.176844
0.393345 0.411913 0.176533
0.416387 0.410731 0.176223
0.440645 0.409872 0.176325
0.465510 0.409176 0.176634
0.490376 0.408480 0.176943
0.515241 0.407783 0.177252
0.540106 0.407087 0.177560
0.563093 0.406327 0.178254
0.584202 0.405503 0.179331
0.605310 0.404679 0.180409
0.626418 0.403855 0.181487
0.647527 0.403031 0.182565
0.666351 0.402036 0.183848
0.680608 0.400698 0.185541
0.694865 0.399361 0.187234
0.709122 0.398024 0.188926
0.723379 0.396686 0.190619
0.736391 0.395242 0.192322
0.743176 0.393266 0.194075
0.749962 0.391289 0.195828
0.756747 0.389313 0.197581
0.763533 0.387337 0.199334
0.770318 0.385360 0.201087
0.241279 0.457874 0.186905
0.254110 0.454949 0.185988
0.266942 0.452025 0.185070
0.279774 0.449101 0.184153
0.292606 0.446177 0.183236
0.305438 0.443253 0.182319
0.326089 0.441416 0.181629
0.348304 0.439796 0.180986
0.370520 0.438177 0.180342
0.392735 0.436558 0.179699
0.414950 0.434938 0.179055
0.438695 0.433713 0.178805
0.463204 0.432684 0.178751
0.487714 0.431655 0.178697
0.512223 0.430626 0.178643
0.536732 0.429597 0.178589
0.559581 0.428562 0.178961
0.580770 0.427522 0.179760
0.601959 0.426482 0.180559
0.623147 0.425441 0.181359
0.644336 0.424401 0.182158
0.663323 0.423214 0.183214
0.677908 0.421733 0.184785
0.692492 0.420251 0.186356
0.707077 0.418770 0.187927
0.721662 0.417289 0.189498
0.735016 0.415704 0.191105
0.742217 0.413601 0.192891
0.749418 0.411497 0.194677
0.756619 0.409393 0.196463
0.763820 0.407290 0.198249
0.771021 0.405186 0.200035
0.248588 0.486363 0.192249
0.260501 0.483019 0.191157
0.272414 0.479674 0.190065
0.284326 0.476330 0.188974
0.296239 0.472986 0.187882
0.308151 0.469641 0.186790
0.327960 0.467371 0.185794
0.349348 0.465314 0.184818
0.370737 0.463258 0.183841
0.392125 0.461202 0.182864
0.413513 0.459146 0.181888
0.436745 0.457553 0.181284
0.460898 0.456192 0.180867
0.485051 0.454830 0.180451
0.509205 0.453469 0.180034
0.533358 0.452107 0.179617
0.556069 0.450798 0.179669
0.577338 0.449541 0.180189
0.598607 0.448284 0.180710
0.619876 0.447028 0.181230
0.641145 0.445771 0.181751
0.660295 0.444392 0.182581
0.675207 0.442767 0.184030
0.690120 0.441142 0.185479
0.705032 0.439517 0.186928
0.719944 0.437892 0.188377
0.733641 0.436166 0.189888
0.741257 0.433936 0.191707
0.748874 0.431705 0.193527
0.756491 0.429474 0.195346
0.764107 0.427243 0.197165
0.771724 0.425012 0.198984
0.255898 0.514852 0.197593
0.266891 0.511088 0.196327
0.277885 0.507323 0.195060
0.288878 0.503559 0.193794
0.299871 0.499795 0.192528
0.310865 0.496030 0.191262
0.329831 0.493325 0.189959
0.350392 0.490832 0.188649
0.370953 0.488340 0.187340
0.391515 0.485847 0.186030
0.412076 0.483354 0.184720
0.434794 0.481394 0.183764
0.458592 0.479699 0.182984
0.482389 0.478005 0.182204
0.506187 0.476311 0.181425
0.529984 0.474617 0.180645
0.552558 0.473034 0.180376
0.573907 0.471560 0.180618
0.595256 0.470087 0.180860
0.616605 0.468614 0.181102
0.637954 0.467141 0.181344
0.657267 0.465570 0.181948
0.672507 0.463801 0.183275
0.687747 0.462032 0.184602
0.702987 0.460264 0.185929
0.718227 0.458495 0.187256
0.732266 0.456628 0.188671
0.740298 0.454270 0.190523
0.748330 0.451912 0.192376
0.756362 0.449554 0.194228
0.764394 0.447196 0.196080
0.772427 0.444838 0.197933
0.262922 0.541831 0.202564
0.273105 0.537781 0.201201
0.283288 0.533731 0.199838
0.293470 0.529682 0.198475
0.303653 0.525632 0.197113
0.313836 0.521582 0.195750
0.332014 0.518557 0.194235
0.351792 0.515738 0.192689
0.371569 0.512919 0.191143
0.391347 0.510100 0.189597
0.411124 0.507281 0.188051
0.433336 0.505043 0.186806
0.456764 0.503096 0.185710
0.480193 0.501149 0.184615
0.503622 0.499201 0.183519
0.527050 0.497254 0.182424
0.549463 0.495469 0.181843
0.570861 0.493845 0.181776
0.592258 0.492222 0.181710
0.613655 0.490598 0.181643
0.635052 0.488975 0.181577
0.654499 0.487278 0.181906
0.670045 0.485435 0.183026
0.685590 0.483593 0.184146
0.701136 0.481751 0.185266
0.716681 0.479908 0.186387
0.731047 0.477972 0.187622
0.739516 0.475567 0.189429
0.747986 0.473163 0.191236
0.756455 0.470758 0.193044
0.764924 0.468353 0.194851
0.773393 0.465949 0.196659
0.269661 0.567300 0.207161
0.279142 0.563099 0.205779
0.288622 0.558899 0.204398
0.298103 0.554698 0.203017
0.307584 0.550497 0.201636
0.317064 0.546296 0.200254
0.334509 0.543067 0.198620
0.353546 0.540032 0.196936
0.372583 0.536997 0.195251
0.391621 0.533963 0.193566
0.410658 0.530928 0.191882
0.432368 0.528502 0.190410
0.455415 0.526381 0.189046
0.478462 0.524260 0.187681
0.501509 0.522139 0.186317
0.524556 0.520018 0.184952
0.546787 0.518104 0.184068
0.568200 0.516395 0.183663
0.589614 0.514687 0.183258
0.611027 0.512979 0.182853
0.632440 0.511271 0.182449
0.651992 0.509517 0.182455
0.667821 0.507670 0.183283
0.683650 0.505824 0.184112
0.699478 0.503977 0.184940
0.715307 0.502131 0.185768
0.729985 0.500197 0.186740
0.738913 0.497826 0.188424
0.747840 0.495456 0.190109
0.756768 0.493085 0.191793
0.765695 0.490715 0.193478
0.774623 0.488345 0.195163
0.276399 0.592769 0.211758
0.285178 0.588417 0.210358
0.293957 0.584066 0.208958
0.302736 0.579714 0.207558
0.311514 0.575362 0.206159
0.320293 0.571010 0.204759
0.337004 0.567576 0.203006
0.355301 0.564326 0.201182
0.373598 0.561075 0.199359
0.391895 0.557825 0.197535
0.410192 0.554574 0.195712
0.431401 0.551961 0.194015
0.454066 0.549666 0.192382
0.476732 0.547372 0.190748
0.499397 0.545077 0.189114
0.522063 0.542782 0.187481
0.544110 0.540738 0.186292
0.565540 0.538946 0.185549
0.586969 0.537153 0.184806
0.608399 0.535360 0.184063
0.629828 0.533568 0.183320
0.649485 0.531756 0.183004
0.665597 0.529905 0.183541
0.681709 0.528055 0.184077
0.697821 0.526204 0.184614
0.713932 0.524354 0.185150
0.728923 0.522422 0.185858
0.738309 0.520086 0.187419
0.747695 0.517749 0.188981
0.757081 0.515413 0.190543
0.766467 0.513077 0.192104
0.775853 0.510740 0.193666
0.283138 0.618238 0.216355
0.291215 0.613735 0.214937
0.299292 0.609233 0.213518
0.307368 0.604730 0.212100
0.315445 0.600227 0.210682
0.323522 0.595725 0.209263
0.339499 0.592086 0.207391
0.357055 0.588620 0.205429
0.374612 0.585153 0.203467
0.392169 0.581687 0.201505
0.409726 0.578221 0.199542
0.430434 0.575420 0.197620
0.452718 0.572952 0.195717
0.475001 0.570483 0.193815
0.497285 0.568015 0.191912
0.519569 0.565546 0.190009
0.541433 0.563373 0.188517
0.562879 0.561496 0.187436
0.584325 0.559619 0.186355
0.605771 0.557742 0.185274
0.627216 0.555864 0.184192
0.646978 0.553995 0.183553
0.663373 0.552140 0.183798
0.679768 0.550285 0.184043
0.696163 0.548431 0.184287
0.712558 0.546576 0.184532
0.727861 0.544647 0.184976
0.737706 0.542345 0.186414
0.747550 0.540043 0.187853
0.757394 0.537740 0.189292
0.767239 0.535438 0.190731
0.777083 0.533136 0.192170
0.289877 0.643707 0.220952
0.297251 0.639053 0.219515
0.304626 0.634400 0.218078
0.312001 0.629746 0.216641
0.319376 0.625093 0.215205
0.326750 0.620439 0.213768
0.341993 0.616595 0.211777
0.358810 0.612913 0.209676
0.375627 0.609232 0.207575
0.392443 0.605550 0.205474
0.409260 0.601868 0.203373
0.429467 0.598879 0.201225
0.451369 0.596237 0.199053
0.473271 0.593595 0.196881
0.495173 0.590952 0.194710
0.517075 0.588310 0.192538
0.538757 0.586008 0.190742
0.560219 0.584046 0.189323
0.581681 0.582085 0.187903
0.603142 0.580123 0.186484
0.624604 0.578161 0.185064
0.644472 0.576234 0.184102
0.661150 0.574375 0.184055
0.677828 0.572516 0.184008
0.694506 0.570658 0.183961
0.711184 0.568799 0.183914
0.726799 0.566872 0.184094
0.737102 0.564604 0.185410
0.747405 0.562336 0.186726
0.757707 0.560068 0.188042
0.768010 0.557800 0.189358
0.778313 0.555532 0.190674
0.296201 0.666936 0.225090
0.302936 0.662234 0.223663
0.309672 0.657531 0.222236
0.316408 0.652829 0.220809
0.323144 0.648127 0.219382
0.329879 0.643424 0.217955
0.344422 0.639457 0.215902
0.360525 0.635636 0.213724
0.376629 0.631816 0.211546
0.392733 0.627995 0.209368
0.408837 0.624174 0.207190
0.428549 0.621055 0.204880
0.450066 0.618287 0.202505
0.471584 0.615519 0.200130
0.493101 0.612751 0.197755
0.514618 0.609983 0.195380
0.536113 0.607593 0.193328
0.557585 0.605583 0.191599
0.579058 0.603572 0.189869
0.600531 0.601562 0.188140
0.622003 0.599551 0.186411
0.641973 0.597605 0.185134
0.658935 0.595786 0.184763
0.675898 0.593968 0.184391
0.692861 0.592150 0.184020
0.709823 0.590331 0.183649
0.725750 0.588453 0.183526
0.736500 0.586275 0.184645
0.747249 0.584097 0.185765
0.757998 0.581919 0.186885
0.768747 0.579741 0.188005
0.779497 0.577563 0.189124
0.301696 0.685686 0.228308
0.307918 0.681139 0.226948
0.314141 0.676592 0.225588
0.320363 0.672045 0.224229
0.326586 0.667498 0.222869
0.332808 0.662951 0.221509
0.346717 0.659022 0.219507
0.362163 0.655217 0.217375
0.377608 0.651412 0.215244
0.393054 0.647606 0.213112
0.408500 0.643801 0.210981
0.427732 0.640667 0.208639
0.448858 0.637868 0.206192
0.469983 0.635070 0.203744
0.491109 0.632271 0.201297
0.512234 0.629473 0.198850
0.533533 0.627080 0.196635
0.555006 0.625092 0.194653
0.576479 0.623104 0.192670
0.597952 0.621117 0.190688
0.619425 0.619129 0.188706
0.639490 0.617241 0.187131
0.656740 0.615551 0.186370
0.673990 0.613862 0.185610
0.691240 0.612172 0.184850
0.708491 0.610482 0.184090
0.724728 0.608745 0.183586
0.735900 0.606769 0.184362
0.747072 0.604794 0.185139
0.758244 0.602818 0.185916
0.769416 0.600843 0.186692
0.780588 0.598867 0.187469
0.307191 0.704436 0.231526
0.312900 0.700045 0.230233
0.318610 0.695653 0.228941
0.324319 0.691261 0.227649
0.330028 0.686870 0.226356
0.335737 0.682478 0.225064
0.349012 0.678587 0.223111
0.363800 0.674797 0.221026
0.378588 0.671007 0.218941
0.393375 0.667217 0.216857
0.408163 0.663427 0.214772
0.426915 0.660278 0.212397
0.447649 0.657449 0.209878
0.468383 0.654621 0.207359
0.489117 0.651792 0.204839
0.509851 0.648963 0.202320
0.530954 0.646566 0.199942
0.552427 0.644601 0.197707
0.573900 0.642636 0.195472
0.595373 0.640672 0.193236
0.616846 0.638707 0.191001
0.637007 0.636877 0.189127
0.654545 0.635316 0.187978
0.672083 0.633755 0.186829
0.689620 0.632194 0.185680
0.707158 0.630634 0.184531
0.723705 0.629037 0.183646
0.735300 0.627264 0.184080
0.746895 0.625491 0.184513
0.758489 0.623717 0.184947
0.770084 0.621944 0.185380
0.781679 0.620171 0.185814
0.312686 0.723187 0.234744
0.317882 0.718950 0.233519
0.323078 0.714714 0.232294
0.328274 0.710477 0.231068
0.333470 0.706241 0.229843
0.338666 0.702005 0.228618
0.351307 0.698153 0.226715
0.365437 0.694378 0.224677
0.379567 0.690603 0.222639
0.393697 0.686829 0.220601
0.407826 0.683054 0.218563
0.426098 0.679890 0.216156
0.446440 0.677031 0.213564
0.466783 0.674171 0.210973
0.487125 0.671312 0.208381
0.507467 0.668453 0.205790
0.528375 0.666053 0.203250
0.549848 0.664111 0.200761
0.571321 0.662169 0.198273
0.592795 0.660226 0.195784
0.614268 0.658284 0.193296
0.634525 0.656512 0.191124
0.652350 0.655080 0.189586
0.670175 0.653649 0.188048
0.688000 0.652217 0.186510
0.705825 0.650785 0.184973
0.722683 0.649330 0.183706
0.734700 0.647758 0.183797
0.746718 0.646187 0.183887
0.758735 0.644616 0.183978
0.770752 0.643045 0.184068
0.782770 0.641474 0.184159
0.318182 0.741937 0.237962
0.322864 0.737856 0.236804
0.327547 0.733775 0.235646
0.332230 0.729694 0.234488
0.336912 0.725612 0.233330
0.341595 0.721531 0.232172
0.353602 0.717718 0.230319
0.367074 0.713959 0.228328
0.380546 0.710199 0.226337
0.394018 0.706440 0.224345
0.407490 0.702680 0.222354
0.425281 0.699501 0.219914
0.445232 0.696612 0.217250
0.465182 0.693722 0.214587
0.485133 0.690833 0.211923
0.505084 0.687944 0.209259
0.525796 0.685539 0.206557
0.547269 0.683620 0.203815
0.568743 0.681701 0.201074
0.590216 0.679781 0.198332
0.611689 0.677862 0.195591
0.632042 0.676148 0.193121
0.650155 0.674845 0.191194
0.668268 0.673542 0.189267
0.686380 0.672239 0.187341
0.704493 0.670936 0.185414
0.721660 0.669622 0.183766
0.734100 0.668253 0.183514
0.746540 0.666884 0.183261
0.758981 0.665515 0.183008
0.771421 0.664147 0.182756
0.783861 0.662778 0.182503
0.323482 0.759437 0.240977
0.327674 0.755548 0.239882
0.331866 0.751660 0.238786
0.336059 0.747771 0.237691
0.340251 0.743883 0.236595
0.344444 0.739994 0.235500
0.355823 0.736250 0.233704
0.368640 0.732535 0.231768
0.381457 0.728819 0.229832
0.394274 0.725104 0.227896
0.407090 0.721389 0.225960
0.424397 0.718215 0.223513
0.443948 0.715311 0.220810
0.463499 0.712408 0.218107
0.483050 0.709504 0.215404
0.502601 0.706601 0.212700
0.523113 0.704205 0.209872
0.544586 0.702315 0.206919
0.566060 0.700426 0.203966
0.587533 0.698537 0.201012
0.609006 0.696647 0.198059
0.629457 0.694999 0.195325
0.647864 0.693831 0.193028
0.666271 0.692664 0.190731
0.684678 0.691496 0.188434
0.703085 0.690328 0.186137
0.720564 0.689163 0.184118
0.733402 0.688005 0.183489
0.746241 0.686847 0.182860
0.759079 0.685689 0.182231
0.771917 0.684531 0.181603
0.784755 0.683373 0.180974
0.327805 0.770687 0.242978
0.331622 0.767177 0.241921
0.335439 0.763667 0.240865
0.339256 0.760157 0.239808
0.343073 0.756647 0.238752
0.346890 0.753137 0.237695
0.357673 0.749613 0.235989
0.369849 0.746086 0.234153
0.382026 0.742559 0.232317
0.394202 0.739032 0.230480
0.406378 0.735505 0.228644
0.423178 0.732438 0.226313
0.442288 0.729602 0.223734
0.461399 0.726766 0.221155
0.480510 0.723930 0.218576
0.499620 0.721094 0.215998
0.519912 0.718764 0.213229
0.541383 0.716941 0.210270
0.562855 0.715117 0.207312
0.584327 0.713294 0.204353
0.605799 0.711471 0.201395
0.626359 0.709922 0.198564
0.645095 0.708924 0.195990
