Assets/1__3DArt/KimSe/artstation_asset/LUTs_pasterls/CUBE/Cotton Candy 01.cube
# Enhanced with VOXCOLOR algorithms
LUT_3D_SIZE 8
DOMAIN_MIN 0.000000 0.000000 0.000000
DOMAIN_MAX 0.903226 0.903226 0.903226
0.113725 0.101961 0.109804
0.245502 0.119102 0.092710
0.418314 0.144708 0.080215
0.598973 0.174657 0.077722
0.759433 0.205061 0.088327
0.867198 0.230224 0.111154
0.924391 0.247166 0.134279
0.952181 0.257770 0.151564
0.133787 0.200808 0.140194
0.247164 0.206005 0.118469
0.402278 0.219275 0.099675
0.570946 0.237752 0.089995
0.728485 0.258533 0.093586
0.843704 0.277004 0.112585
0.911324 0.289073 0.136547
0.947434 0.295195 0.157096
0.167782 0.330031 0.175346
0.261959 0.325032 0.150739
0.397922 0.326870 0.126705
0.552421 0.334010 0.110242
0.704224 0.344636 0.106617
0.824119 0.355293 0.120986
0.900562 0.361437 0.145189
0.944608 0.362533 0.169378
0.216138 0.475706 0.212751
0.290513 0.462984 0.186940
0.406061 0.455714 0.159180
0.544275 0.453404 0.137015
0.687406 0.455114 0.126610
0.808947 0.458368 0.135824
0.892310 0.458642 0.159468
0.943593 0.454827 0.187128
0.278157 0.623843 0.249730
0.332619 0.606594 0.224338
0.426893 0.593727 0.194773
0.546936 0.585272 0.168609
0.678455 0.580770 0.152468
0.798418 0.578387 0.156328
0.886539 0.573917 0.178483
0.944102 0.566037 0.208966
0.351309 0.750560 0.280855
0.387743 0.733975 0.257848
0.461266 0.720945 0.229360
0.561861 0.711556 0.202150
0.678621 0.705480 0.182546
0.792918 0.701242 0.181537
0.882846 0.695151 0.201129
0.945286 0.685793 0.233091
0.424556 0.840419 0.302140
0.447347 0.828406 0.282894
0.502760 0.819114 0.257919
0.584407 0.812609 0.232581
0.684696 0.808638 0.212305
0.790021 0.806065 0.207893
0.879071 0.801823 0.224541
0.945111 0.794420 0.256536
0.489670 0.899691 0.315429
0.504010 0.893360 0.300034
0.544731 0.888964 0.279492
0.609048 0.886703 0.257731
0.692764 0.886486 0.239065
0.787495 0.887465 0.233241
0.873950 0.887149 0.247505
0.942712 0.884230 0.278621
0.138044 0.144302 0.204335
0.266497 0.155463 0.185284
0.433258 0.175687 0.170294
0.607779 0.201196 0.164339
0.764002 0.228367 0.170403
0.870691 0.251950 0.188463
0.928324 0.268481 0.208219
0.956727 0.279015 0.223725
0.157139 0.249043 0.236248
0.278818 0.250463 0.211324
0.431520 0.259260 0.190671
0.592147 0.273099 0.179053
0.740415 0.289598 0.179636
0.849697 0.305058 0.194321
0.915429 0.315692 0.214183
0.951610 0.321273 0.231575
0.190623 0.378881 0.274533
0.294135 0.371622 0.247795
0.429129 0.370201 0.222657
0.576416 0.373421 0.204723
0.718533 0.379868 0.198230
0.831051 0.386983 0.207665
0.904567 0.391027 0.226377
0.948396 0.391090 0.245718
0.237894 0.519702 0.315480
0.317699 0.506078 0.289512
0.432207 0.496931 0.261485
0.564912 0.491882 0.237939
0.700174 0.490217 0.224278
0.815055 0.490162 0.227577
0.895543 0.488223 0.244196
0.946717 0.483221 0.265373
0.297554 0.658067 0.355381
0.353096 0.641364 0.331595
0.445441 0.627986 0.302627
0.561207 0.618045 0.275314
0.687005 0.611267 0.255709
0.802032 0.606372 0.252911
0.888140 0.600181 0.266797
0.946125 0.591487 0.289498
0.366892 0.772887 0.387606
0.402594 0.757711 0.366927
0.473539 0.745017 0.339753
0.570260 0.735033 0.312066
0.682539 0.727634 0.289549
0.793356 0.721809 0.282030
0.882262 0.714740 0.292883
0.945788 0.705229 0.316302
0.436326 0.853319 0.407724
0.458368 0.842590 0.390810
0.511311 0.833779 0.367649
0.589432 0.827056 0.342751
0.685860 0.822316 0.320759
0.788371 0.818733 0.310905
0.876800 0.813883 0.319070
0.944162 0.806528 0.341957
0.499005 0.906223 0.417889
0.512949 0.900760 0.404759
0.551584 0.896687 0.386413
0.612774 0.894225 0.365965
0.692998 0.893356 0.346903
0.785059 0.893448 0.337088
0.870715 0.892407 0.343411
0.940444 0.888978 0.364512
0.164332 0.200104 0.319491
0.288998 0.206476 0.299732
0.449459 0.221593 0.283256
0.617571 0.242177 0.274336
0.769122 0.265050 0.275673
0.874228 0.285647 0.288008
0.931911 0.300425 0.303168
0.960654 0.309802 0.315756
0.182964 0.308737 0.351671
0.303043 0.307087 0.327407
0.450608 0.311982 0.306814
0.604874 0.321492 0.293715
0.747495 0.333660 0.290729
0.853835 0.345616 0.299930
0.918954 0.354171 0.314568
0.955500 0.358732 0.328114
0.216305 0.436891 0.391261
0.318801 0.428007 0.366145
0.449565 0.424021 0.342116
0.591026 0.423949 0.323762
0.727223 0.426675 0.314630
0.835813 0.430394 0.318827
0.907992 0.432304 0.331650
0.952035 0.431407 0.346041
0.262866 0.570566 0.433223
0.341436 0.556677 0.409618
0.452290 0.546331 0.383541
0.579809 0.539212 0.360494
0.709327 0.534787 0.345091
0.819799 0.531899 0.343529
0.898467 0.528113 0.353747
0.949759 0.522393 0.368947
0.320666 0.697111 0.472903
0.374606 0.681445 0.452089
0.463539 0.668118 0.425879
0.574590 0.657273 0.400030
0.695038 0.648779 0.379696
0.805712 0.641879 0.372661
0.889934 0.634456 0.379958
0.948153 0.625594 0.395933
0.386959 0.798422 0.503255
0.421064 0.784925 0.485774
0.488686 0.772958 0.461977
0.580913 0.762797 0.436729
0.688197 0.754462 0.414713
0.795019 0.747385 0.404057
0.882322 0.739728 0.408728
0.946398 0.730673 0.425154
0.453223 0.868227 0.520774
0.473995 0.858937 0.506718
0.523898 0.850847 0.487073
0.597824 0.844151 0.465312
0.689591 0.838843 0.445060
0.788377 0.834421 0.433562
0.875347 0.829260 0.436455
0.943393 0.822507 0.452345
0.513276 0.913890 0.528188
0.526333 0.909325 0.517212
0.562431 0.905677 0.502093
0.619944 0.903137 0.485094
0.695938 0.901724 0.468761
0.784415 0.901052 0.458805
0.868438 0.899607 0.460829
0.938572 0.896347 0.474670
0.191025 0.267761 0.444749
0.311691 0.271787 0.426493
0.465632 0.282998 0.410357
0.627054 0.298827 0.399765
0.773585 0.316758 0.397014
0.876858 0.333129 0.403388
0.934527 0.344829 0.413171
0.963603 0.351916 0.421877
0.209981 0.377789 0.476438
0.322570 0.374714 0.455857
0.463124 0.376986 0.437321
0.611725 0.382965 0.423895
0.750659 0.391053 0.417822
0.855909 0.399134 0.421387
0.921393 0.404953 0.430345
0.958657 0.407896 0.439635
0.243582 0.501403 0.515335
0.338634 0.492121 0.494505
0.462735 0.486790 0.473615
0.598758 0.484470 0.456320
0.731100 0.484210 0.445558
0.838045 0.484804 0.445059
0.910231 0.484563 0.452248
0.955047 0.482704 0.461948
0.289724 0.625354 0.555602
0.362636 0.612111 0.536163
0.467673 0.601604 0.513968
0.589723 0.593444 0.493341
0.714619 0.587162 0.477985
0.822349 0.582082 0.473065
0.900329 0.576896 0.478032
0.952269 0.570936 0.488200
0.346055 0.738230 0.592151
0.396417 0.724129 0.575278
0.480556 0.711609 0.553545
0.586229 0.700713 0.531370
0.701397 0.691347 0.512772
0.808302 0.683171 0.503937
0.891134 0.675157 0.506684
0.949823 0.666850 0.517507
0.409899 0.825095 0.618334
0.441753 0.813463 0.604576
0.505390 0.802672 0.585564
0.592545 0.792925 0.564885
0.694406 0.784282 0.546046
0.796982 0.776543 0.535251
0.882501 0.768880 0.536456
0.946949 0.760979 0.547974
0.473407 0.883790 0.632266
0.492605 0.875976 0.621387
0.539127 0.868836 0.606294
0.608457 0.862510 0.589413
0.695094 0.857026 0.573318
0.789626 0.852174 0.563222
0.874620 0.847170 0.563933
0.942918 0.841626 0.575415
0.530514 0.921890 0.637165
0.542493 0.918171 0.628435
0.575935 0.915031 0.617181
0.629624 0.912596 0.604886
0.701135 0.910896 0.593204
0.785573 0.909765 0.585836
0.867400 0.908322 0.586775
0.937451 0.905865 0.596634
0.216812 0.345274 0.570307
0.333387 0.350275 0.556239
0.480571 0.359515 0.542721
0.635009 0.371376 0.532302
0.776270 0.384230 0.526823
0.877723 0.395463 0.527766
0.935649 0.402914 0.531945
0.965322 0.406657 0.536139
0.237019 0.453679 0.600992
0.339731 0.451463 0.586152
0.472211 0.452914 0.571528
0.615057 0.456595 0.559408
0.750852 0.461210 0.551604
0.855841 0.465295 0.550363
0.922374 0.467833 0.553891
0.960745 0.468550 0.558871
0.271284 0.569528 0.637152
0.356019 0.561437 0.622130
0.471929 0.556340 0.606040
0.602167 0.553148 0.591497
0.731258 0.550921 0.580720
0.837719 0.548867 0.576844
0.910906 0.546554 0.579300
0.957080 0.543714 0.584939
0.317232 0.681127 0.673086
0.382232 0.669564 0.658818
0.479913 0.660151 0.641981
0.595838 0.652233 0.625548
0.716384 0.645246 0.612158
0.822386 0.638806 0.605755
0.900685 0.632768 0.607081
0.953926 0.627056 0.613543
0.372386 0.778840 0.704047
0.417989 0.766797 0.691608
0.496246 0.755928 0.675505
0.595828 0.746008 0.658686
0.705565 0.736831 0.643904
0.809172 0.728305 0.635630
0.891256 0.720465 0.636108
0.950888 0.713470 0.643729
0.434206 0.851017 0.724522
0.463424 0.841336 0.714628
0.522601 0.832173 0.701116
0.604248 0.823525 0.686311
0.700383 0.815378 0.672546
0.798648 0.807771 0.664134
0.882453 0.800824 0.664578
0.947337 0.794801 0.673586
0.495176 0.898799 0.734359
0.512710 0.892393 0.726719
0.555756 0.886396 0.716547
0.620375 0.880832 0.705372
0.701736 0.875700 0.694838
0.791805 0.871009 0.688387
0.874554 0.866740 0.689701
0.942830 0.863010 0.699553
0.548984 0.929543 0.736936
0.559928 0.926545 0.730613
0.590882 0.923968 0.723437
0.640960 0.921857 0.716280
0.708156 0.920225 0.710079
0.788501 0.919068 0.706951
0.867798 0.918071 0.709449
0.937332 0.916956 0.718700
0.240253 0.429918 0.682194
0.352308 0.439996 0.674480
0.492226 0.450169 0.665694
0.639289 0.459960 0.657731
0.775184 0.468784 0.652019
0.875321 0.474953 0.649676
0.934426 0.477558 0.649369
0.965506 0.477293 0.649480
0.262498 0.531967 0.710662
0.356396 0.533334 0.701912
0.480734 0.536369 0.692363
0.617162 0.539782 0.683476
0.749053 0.542503 0.676480
0.853531 0.543408 0.672985
0.921451 0.542689 0.672777
0.961371 0.540853 0.674328
0.297808 0.636193 0.741957
0.373361 0.630980 0.732424
0.481043 0.628000 0.721807
0.604837 0.625854 0.711606
0.729893 0.623440 0.703168
0.835534 0.620010 0.698613
0.909924 0.616202 0.698521
0.957785 0.612565 0.701568
0.343788 0.733061 0.771456
0.401526 0.724054 0.761901
0.491741 0.717067 0.750765
0.601051 0.711004 0.739707
0.716721 0.705021 0.730266
0.820817 0.698674 0.725016
0.899651 0.692730 0.725256
0.954496 0.687888 0.730055
0.398007 0.815016 0.795454
0.439111 0.805264 0.786917
0.511413 0.796816 0.776408
0.604667 0.789047 0.765597
0.708721 0.781484 0.756097
0.808955 0.773996 0.750787
0.890444 0.767394 0.751742
0.951249 0.762524 0.758641
0.458038 0.873479 0.809954
0.484831 0.865617 0.803285
0.539707 0.858407 0.794815
0.615935 0.851580 0.785923
0.706359 0.844952 0.778019
0.800239 0.838601 0.773898
0.882262 0.833286 0.776200
0.947596 0.829842 0.785346
0.516546 0.911620 0.816040
0.532648 0.906390 0.811076
0.572589 0.901621 0.805161
0.632905 0.897210 0.799256
0.709323 0.893090 0.794375
0.794995 0.889361 0.792734
0.875294 0.886494 0.796820
0.943288 0.885082 0.807652
0.566939 0.936072 0.816833
0.577042 0.933562 0.812699
0.606024 0.931537 0.809038
0.653176 0.929968 0.806364
0.716746 0.928829 0.805186
0.793366 0.928176 0.806705
0.869993 0.928044 0.812442
0.938492 0.928561 0.823709
0.261197 0.514937 0.772269
0.368009 0.531248 0.770017
0.500168 0.544134 0.766021
0.639666 0.554027 0.761699
0.770380 0.561123 0.758062
0.869949 0.564136 0.755395
0.931386 0.562915 0.752922
0.964901 0.559153 0.750496
0.285911 0.605997 0.796828
0.372849 0.611537 0.792475
0.489559 0.617295 0.787398
0.619181 0.622097 0.782412
0.746322 0.624990 0.778168
0.849690 0.624751 0.775303
0.919095 0.622060 0.773837
0.960971 0.618243 0.773510
0.322541 0.696030 0.822259
0.391273 0.693803 0.816389
0.491710 0.693544 0.810188
0.608957 0.693613 0.804357
0.729126 0.692718 0.799525
0.832957 0.689828 0.796729
0.908087 0.685912 0.796521
0.957553 0.682182 0.798654
0.368740 0.777479 0.845124
0.420938 0.770784 0.838658
0.504694 0.766410 0.831876
0.607693 0.762939 0.825587
0.718153 0.759261 0.820556
0.819608 0.754658 0.818213
0.898380 0.750147 0.819544
0.954454 0.746960 0.824444
0.422162 0.844583 0.862766
0.459495 0.836687 0.856785
0.526562 0.830563 0.850364
0.614054 0.825328 0.844431
0.712726 0.820302 0.839886
0.809454 0.815175 0.838489
0.889952 0.810965 0.841639
0.951470 0.808941 0.849497
0.480433 0.891254 0.872521
0.504927 0.884795 0.867903
0.555948 0.879350 0.862943
0.627410 0.874525 0.858533
0.712838 0.870039 0.855558
0.802750 0.865922 0.855854
0.882902 0.863096 0.861051
0.948241 0.862708 0.871636
0.536376 0.921559 0.876020
0.551073 0.917240 0.872701
0.588339 0.913565 0.869624
0.645086 0.910412 0.867487
0.717461 0.907705 0.866970
0.799426 0.905589 0.869581
0.877362 0.904675 0.876725
0.944568 0.905787 0.889209
0.583219 0.941043 0.875847
0.592568 0.938944 0.873123
0.620090 0.937446 0.871779
0.665135 0.936510 0.872174
0.726064 0.936108 0.874608
0.799778 0.936340 0.879831
0.873918 0.937356 0.888519
0.940726 0.939494 0.901695
0.280444 0.596278 0.842889
0.381920 0.617356 0.844206
0.506237 0.633072 0.844094
0.638178 0.644430 0.843577
0.763875 0.652063 0.843264
0.863301 0.654698 0.842586
0.927799 0.651945 0.840279
0.964471 0.645998 0.836856
0.308192 0.673802 0.863060
0.388786 0.682253 0.861311
0.498087 0.690420 0.859526
0.620805 0.697262 0.858101
0.742891 0.701876 0.857248
0.844903 0.702729 0.856750
0.915916 0.699990 0.855925
0.960046 0.695189 0.854853
0.346457 0.748661 0.882737
0.409003 0.748399 0.879025
0.502524 0.750322 0.875883
0.613251 0.752752 0.873578
0.728299 0.754313 0.872298
0.829978 0.753637 0.872287
0.905679 0.751156 0.873352
0.956702 0.748116 0.875399
0.393115 0.815054 0.899669
0.439919 0.809857 0.895109
0.517380 0.807468 0.891243
0.614238 0.806429 0.888475
0.719642 0.805550 0.887155
0.818504 0.803895 0.888010
0.897100 0.802027 0.891263
0.954108 0.801116 0.896807
0.445998 0.868712 0.912182
0.478945 0.861993 0.907804
0.540526 0.857573 0.904047
0.622464 0.854595 0.901510
0.716405 0.852360 0.900740
0.810401 0.850486 0.902883
0.890158 0.849628 0.908488
0.951941 0.850919 0.917505
0.502640 0.905430 0.918674
0.523768 0.899855 0.915228
0.570400 0.895701 0.912458
0.637302 0.892673 0.911048
0.718732 0.890542 0.911625
0.806099 0.889387 0.915528
0.885064 0.889813 0.923368
0.949765 0.892705 0.935090
0.555716 0.929306 0.920717
0.568200 0.925673 0.918194
0.602454 0.922864 0.916758
0.655964 0.920896 0.917010
0.725369 0.919798 0.919483
0.805185 0.919865 0.925335
0.881584 0.921476 0.934895
0.947139 0.925111 0.948139
0.598295 0.944649 0.920112
0.606717 0.943095 0.918035
0.632827 0.942124 0.917902
0.676191 0.941820 0.920062
0.735348 0.942257 0.924752
0.807331 0.943703 0.932510
0.879578 0.946243 0.943131
0.943931 0.950013 0.956846
