Assets/1__3DArt/KimSe/artstation_asset/LUTs_pasterls/CUBE/Emerald Oasis 01.cube
# Enhanced with VOXCOLOR algorithms
LUT_3D_SIZE 5
DOMAIN_MIN 0.000000 0.000000 0.000000
DOMAIN_MAX 0.903226 0.903226 0.903226
0.019608 0.019608 0.058824
0.276075 0.057767 0.055115
0.626442 0.107589 0.044323
0.832866 0.146917 0.050741
0.872510 0.162369 0.061179
0.031510 0.218854 0.143363
0.247257 0.235339 0.111408
0.585844 0.262966 0.071793
0.820600 0.283437 0.055588
0.884481 0.277797 0.059564
0.107651 0.508853 0.288459
0.269072 0.502442 0.237407
0.573371 0.506423 0.165447
0.819233 0.504948 0.109869
0.904932 0.479943 0.081582
0.303668 0.737909 0.429956
0.398030 0.727101 0.380109
0.621884 0.726163 0.305157
0.830175 0.720508 0.232067
0.922837 0.695660 0.168022
0.578962 0.839076 0.527037
0.613240 0.835227 0.495825
0.722716 0.836830 0.441522
0.848176 0.837773 0.386747
0.926868 0.830577 0.345957
0.037722 0.068478 0.209030
0.228605 0.112774 0.237517
0.555178 0.190146 0.274190
0.805381 0.262219 0.310136
0.880468 0.289802 0.324315
0.062406 0.306373 0.341707
0.242149 0.325969 0.329147
0.546519 0.362862 0.312493
0.797172 0.397355 0.308409
0.890329 0.403287 0.312468
0.166850 0.584487 0.505056
0.289408 0.578688 0.461496
0.550539 0.583525 0.398287
0.795899 0.587375 0.343471
0.905740 0.572685 0.309776
0.366920 0.775321 0.615375
0.423314 0.764790 0.572697
0.603109 0.761241 0.506992
0.804203 0.757120 0.434501
0.916946 0.740227 0.364094
0.594315 0.848716 0.651728
0.614792 0.845326 0.629303
0.705772 0.846127 0.592952
0.827972 0.847879 0.549026
0.917959 0.843853 0.504467
0.058130 0.151576 0.409237
0.206306 0.210499 0.450875
0.502634 0.317817 0.508675
0.773591 0.427636 0.563731
0.879272 0.476705 0.587717
0.107314 0.414872 0.551698
0.229937 0.438385 0.557156
0.489479 0.490347 0.564936
0.753853 0.546730 0.578199
0.884063 0.572964 0.590041
0.251530 0.665377 0.687534
0.325195 0.661570 0.667054
0.526788 0.671318 0.634728
0.758086 0.684726 0.604981
0.894073 0.685326 0.587075
0.461897 0.813894 0.759423
0.485992 0.805008 0.737452
0.609604 0.800849 0.699645
0.779382 0.798673 0.654723
0.902737 0.791027 0.610990
0.646444 0.863778 0.769871
0.654424 0.860694 0.757953
0.715618 0.860081 0.738386
0.814460 0.861503 0.712997
0.905602 0.860869 0.683503
0.078347 0.266989 0.607469
0.202458 0.348610 0.649325
0.470978 0.465738 0.696349
0.744008 0.581073 0.739472
0.868670 0.636071 0.760009
0.161795 0.525976 0.722630
0.242368 0.557662 0.736002
0.457715 0.614856 0.750197
0.715264 0.675857 0.764771
0.867429 0.709337 0.776238
0.342171 0.734556 0.808479
0.376982 0.734527 0.804351
0.522707 0.747708 0.796051
0.725836 0.765863 0.788021
0.874222 0.776300 0.785999
0.551557 0.843202 0.843874
0.555590 0.836591 0.837180
0.634064 0.834015 0.824774
0.765391 0.834470 0.809759
0.885443 0.834731 0.798030
0.698672 0.876474 0.846284
0.701235 0.873938 0.842026
0.741320 0.873214 0.836327
0.814102 0.874668 0.829263
0.894618 0.876687 0.820813
0.095592 0.390567 0.743621
0.212054 0.497821 0.781515
0.459461 0.602624 0.808667
0.725333 0.692046 0.830206
0.858492 0.732908 0.840336
0.222690 0.617841 0.819344
0.285928 0.657538 0.831623
0.469826 0.708231 0.840537
0.703947 0.756917 0.848065
0.855817 0.782901 0.854247
0.426381 0.781347 0.864860
0.441027 0.783763 0.864644
0.552009 0.796995 0.863925
0.723364 0.814684 0.863918
0.863118 0.827343 0.867659
0.619878 0.859429 0.879358
0.613614 0.854129 0.877274
0.668769 0.853826 0.875563
0.772536 0.857622 0.874992
0.877787 0.863088 0.878059
0.735654 0.882321 0.879458
0.736112 0.880810 0.878632
0.767689 0.881216 0.879761
0.826029 0.883707 0.882516
0.891369 0.887237 0.885374
