Assets/1__3DArt/KimSe/artstation_asset/LUTs_pasterls/CUBE/Emerald Oasis 02 S.cube
# Enhanced with VOXCOLOR algorithms
LUT_3D_SIZE 32
0.109804 0.133333 0.149020
0.131902 0.136576 0.151152
0.154000 0.139819 0.153284
0.176097 0.143062 0.155416
0.198195 0.146305 0.157548
0.220293 0.149548 0.159680
0.259599 0.154795 0.161166
0.302346 0.160442 0.162524
0.345094 0.166089 0.163882
0.387841 0.171736 0.165240
0.430589 0.177384 0.166597
0.474834 0.184138 0.168167
0.519828 0.191445 0.169842
0.564822 0.198753 0.171517
0.609816 0.206061 0.173192
0.654810 0.213368 0.174867
0.693774 0.220469 0.176822
0.726707 0.227363 0.179059
0.759640 0.234257 0.181296
0.792573 0.241150 0.183533
0.825507 0.248044 0.185770
0.852685 0.254127 0.187942
0.868354 0.258587 0.189987
0.884023 0.263047 0.192031
0.899692 0.267508 0.194076
0.915361 0.271968 0.196120
0.928957 0.275900 0.197894
0.932185 0.277191 0.198315
0.935413 0.278481 0.198737
0.938642 0.279772 0.199158
0.941870 0.281062 0.199579
0.945098 0.282353 0.200000
0.109601 0.148092 0.158102
0.130981 0.151092 0.159366
0.152361 0.154092 0.160629
0.173742 0.157092 0.161893
0.195122 0.160092 0.163157
0.216502 0.163091 0.164420
0.254633 0.168050 0.164794
0.296113 0.173400 0.164990
0.337594 0.178750 0.165186
0.379075 0.184100 0.165382
0.420555 0.189450 0.165579
0.463790 0.195832 0.166094
0.507902 0.202728 0.166768
0.552014 0.209625 0.167443
0.596126 0.216522 0.168118
0.640238 0.223419 0.168792
0.678880 0.230176 0.170059
0.712054 0.236793 0.171919
0.745227 0.243411 0.173779
0.778400 0.250028 0.175638
0.811574 0.256646 0.177498
0.839352 0.262579 0.179580
0.856340 0.267144 0.182108
0.873328 0.271710 0.184636
0.890316 0.276275 0.187163
0.907304 0.280841 0.189691
0.922213 0.284928 0.192060
0.926730 0.286628 0.193635
0.931247 0.288328 0.195211
0.935765 0.290028 0.196786
0.940282 0.291728 0.198362
0.944799 0.293428 0.199937
0.109398 0.162852 0.167184
0.130060 0.165608 0.167579
0.150723 0.168365 0.167975
0.171386 0.171121 0.168370
0.192049 0.173878 0.168765
0.212712 0.176634 0.169161
0.249667 0.181305 0.168422
0.289881 0.186358 0.167456
0.330094 0.191411 0.166491
0.370308 0.196464 0.165525
0.410522 0.201517 0.164560
0.452746 0.207526 0.164021
0.495976 0.214012 0.163695
0.539206 0.220497 0.163369
0.582436 0.226983 0.163044
0.625665 0.233469 0.162718
0.663987 0.239883 0.163296
0.697400 0.246224 0.164779
0.730814 0.252565 0.166261
0.764227 0.258906 0.167744
0.797641 0.265247 0.169226
0.826018 0.271031 0.171218
0.844325 0.275702 0.174229
0.862632 0.280372 0.177240
0.880939 0.285043 0.180251
0.899246 0.289713 0.183262
0.915469 0.293957 0.186226
0.921275 0.296066 0.188955
0.927082 0.298175 0.191685
0.932888 0.300285 0.194415
0.938694 0.302394 0.197144
0.944500 0.304503 0.199874
0.109194 0.177611 0.176266
0.129140 0.180124 0.175793
0.149085 0.182638 0.175320
0.169030 0.185151 0.174847
0.188976 0.187664 0.174374
0.208921 0.190177 0.173901
0.244701 0.194559 0.172050
0.283648 0.199316 0.169922
0.322595 0.204072 0.167795
0.361541 0.208828 0.165668
0.400488 0.213584 0.163541
0.441702 0.219220 0.161948
0.484050 0.225295 0.160622
0.526398 0.231370 0.159296
0.568745 0.237445 0.157970
0.611093 0.243520 0.156644
0.649094 0.249589 0.156533
0.682747 0.255654 0.157639
0.716401 0.261719 0.158744
0.750054 0.267784 0.159849
0.783708 0.273849 0.160954
0.812685 0.279484 0.162856
0.832311 0.284259 0.166350
0.851936 0.289035 0.169844
0.871562 0.293810 0.173338
0.891188 0.298586 0.176833
0.908725 0.302985 0.180392
0.915820 0.305504 0.184276
0.922916 0.308023 0.188159
0.930011 0.310541 0.192043
0.937106 0.313060 0.195927
0.944201 0.315579 0.199811
0.108991 0.192371 0.185348
0.128219 0.194641 0.184007
0.147447 0.196910 0.182666
0.166675 0.199180 0.181324
0.185902 0.201450 0.179983
0.205130 0.203720 0.178642
0.239735 0.207814 0.175677
0.277415 0.212273 0.172389
0.315095 0.216733 0.169100
0.352775 0.221192 0.165811
0.390455 0.225651 0.162522
0.430658 0.230914 0.159875
0.472124 0.236578 0.157548
0.513590 0.242242 0.155222
0.555055 0.247906 0.152896
0.596521 0.253570 0.150569
0.634200 0.259296 0.149770
0.668094 0.265085 0.150498
0.701988 0.270873 0.151226
0.735881 0.276662 0.151954
0.769775 0.282450 0.152682
0.799352 0.287936 0.154494
0.820296 0.292816 0.158471
0.841241 0.297697 0.162449
0.862185 0.302578 0.166426
0.883130 0.307458 0.170403
0.901981 0.312014 0.174558
0.910365 0.314942 0.179596
0.918750 0.317870 0.184634
0.927134 0.320798 0.189672
0.935518 0.323726 0.194710
0.943903 0.326654 0.199748
0.108788 0.207130 0.194430
0.127298 0.209157 0.192221
0.145809 0.211183 0.190011
0.164319 0.213210 0.187802
0.182829 0.215236 0.185592
0.201340 0.217263 0.183382
0.234769 0.221069 0.179305
0.271182 0.225231 0.174855
0.307595 0.229394 0.170404
0.344008 0.233556 0.165953
0.380421 0.237718 0.161503
0.419614 0.242608 0.157802
0.460198 0.247861 0.154475
0.500781 0.253114 0.151148
0.541365 0.258367 0.147822
0.581948 0.263621 0.144495
0.619307 0.269003 0.143007
0.653441 0.274515 0.143358
0.687574 0.280027 0.143709
0.721708 0.285539 0.144060
0.755842 0.291051 0.144411
0.786019 0.296388 0.146131
0.808282 0.301374 0.150592
0.830545 0.306359 0.155053
0.852809 0.311345 0.159513
0.875072 0.316331 0.163974
0.895237 0.321042 0.168723
0.904910 0.324379 0.174916
0.914584 0.327717 0.181108
0.924257 0.331054 0.187300
0.933930 0.334392 0.193492
0.943604 0.337729 0.199685
0.109837 0.233795 0.211945
0.127717 0.235285 0.208976
0.145598 0.236776 0.206007
0.163478 0.238266 0.203038
0.181358 0.239756 0.200070
0.199238 0.241246 0.197101
0.231818 0.244527 0.191930
0.267338 0.248166 0.186319
0.302858 0.251806 0.180708
0.338377 0.255445 0.175096
0.373897 0.259084 0.169485
0.412409 0.263505 0.164680
0.452417 0.268316 0.160277
0.492425 0.273127 0.155875
0.532433 0.277938 0.151472
0.572441 0.282749 0.147070
0.609589 0.287765 0.144739
0.643877 0.292988 0.144479
0.678164 0.298210 0.144220
0.712452 0.303433 0.143961
0.746740 0.308655 0.143701
0.777292 0.313764 0.145016
0.800372 0.318644 0.149478
0.823452 0.323525 0.153940
0.846532 0.328406 0.158403
0.869613 0.333287 0.162865
0.890593 0.337914 0.167694
0.901073 0.341273 0.174356
0.911552 0.344632 0.181017
0.922032 0.347990 0.187679
0.932511 0.351349 0.194340
0.942991 0.354708 0.201002
0.111136 0.262842 0.231146
0.128404 0.263737 0.227440
0.145672 0.264632 0.223734
0.162940 0.265527 0.220027
0.180207 0.266422 0.216321
0.197475 0.267317 0.212615
0.229271 0.270026 0.206354
0.263972 0.273097 0.199583
0.298673 0.276168 0.192811
0.333374 0.279239 0.186040
0.368075 0.282310 0.179268
0.405972 0.286242 0.173348
0.445466 0.290605 0.167855
0.484959 0.294967 0.162361
0.524453 0.299330 0.156867
0.563947 0.303693 0.151374
0.600906 0.308339 0.148169
0.635331 0.313269 0.147253
0.669755 0.318199 0.146337
0.704180 0.323129 0.145420
0.738604 0.328059 0.144504
0.769486 0.332924 0.145349
0.793283 0.337658 0.149717
0.817080 0.342392 0.154085
0.840876 0.347125 0.158452
0.864673 0.351859 0.162820
0.886369 0.356354 0.167626
0.897558 0.359657 0.174620
0.908747 0.362960 0.181614
0.919937 0.366262 0.188608
0.931126 0.369565 0.195602
0.942316 0.372868 0.202596
0.112436 0.291888 0.250347
0.129091 0.292188 0.245903
0.145746 0.292488 0.241460
0.162401 0.292788 0.237016
0.179057 0.293088 0.232573
0.195712 0.293389 0.228129
0.226723 0.295524 0.220779
0.260606 0.298027 0.212847
0.294488 0.300530 0.204915
0.328371 0.303033 0.196983
0.362254 0.305536 0.189050
0.399534 0.308980 0.182017
0.438514 0.312894 0.175432
0.477494 0.316808 0.168847
0.516473 0.320722 0.162263
0.555453 0.324636 0.155678
0.592223 0.328912 0.151599
0.626785 0.333550 0.150026
0.661346 0.338188 0.148453
0.695907 0.342826 0.146880
0.730469 0.347463 0.145307
0.761680 0.352084 0.145683
0.786194 0.356671 0.149956
0.810707 0.361258 0.154229
0.835220 0.365845 0.158502
0.859734 0.370432 0.162775
0.882145 0.374795 0.167557
0.894044 0.378042 0.174884
0.905943 0.381288 0.182210
0.917842 0.384534 0.189536
0.929741 0.387781 0.196863
0.941640 0.391027 0.204189
0.113735 0.320934 0.269548
0.129778 0.320640 0.264367
0.145821 0.320345 0.259186
0.161863 0.320050 0.254005
0.177906 0.319755 0.248824
0.193948 0.319460 0.243644
0.224176 0.321023 0.235203
0.257240 0.322958 0.226111
0.290304 0.324893 0.217018
0.323368 0.326828 0.207926
0.356432 0.328762 0.198833
0.393097 0.331718 0.190685
0.431562 0.335183 0.183009
0.470028 0.338649 0.175334
0.508493 0.342115 0.167658
0.546959 0.345580 0.159982
0.583540 0.349486 0.155030
0.618239 0.353831 0.152800
0.652937 0.358177 0.150570
0.687635 0.362522 0.148340
0.722333 0.366868 0.146111
0.753875 0.371245 0.146017
0.779105 0.375684 0.150195
0.804334 0.380124 0.154374
0.829564 0.384564 0.158552
0.854794 0.389004 0.162730
0.877920 0.393236 0.167489
0.890529 0.396426 0.175148
0.903138 0.399616 0.182806
0.915747 0.402807 0.190465
0.928356 0.405997 0.198124
0.940965 0.409187 0.205783
0.115035 0.349981 0.288749
0.130465 0.349091 0.282831
0.145895 0.348201 0.276912
0.161325 0.347311 0.270994
0.176755 0.346421 0.265076
0.192185 0.345531 0.259158
0.221628 0.346522 0.249627
0.253874 0.347888 0.239375
0.286119 0.349255 0.229122
0.318365 0.350622 0.218869
0.350610 0.351989 0.208616
0.386659 0.354456 0.199354
0.424611 0.357473 0.190587
0.462562 0.360490 0.181820
0.500513 0.363507 0.173053
0.538464 0.366524 0.164286
0.574858 0.370059 0.158460
0.609692 0.374112 0.155573
0.644527 0.378165 0.152687
0.679362 0.382219 0.149800
0.714197 0.386272 0.146914
0.746069 0.390405 0.146350
0.772016 0.394698 0.150434
0.797962 0.398991 0.154518
0.823908 0.403284 0.158602
0.849855 0.407577 0.162685
0.873696 0.411676 0.167420
0.887015 0.414810 0.175411
0.900333 0.417945 0.183403
0.913652 0.421079 0.191394
0.926971 0.424213 0.199385
0.940289 0.427347 0.207377
0.119679 0.383384 0.312385
0.134516 0.381890 0.305968
0.149353 0.380396 0.299551
0.164191 0.378902 0.293135
0.179028 0.377408 0.286718
0.193865 0.375914 0.280301
0.222605 0.376266 0.270029
0.254127 0.376987 0.258986
0.285648 0.377708 0.247943
0.317169 0.378429 0.236900
0.348690 0.379151 0.225857
0.384169 0.381078 0.215779
0.421627 0.383608 0.206183
0.459086 0.386138 0.196586
0.496544 0.388667 0.186990
0.534002 0.391197 0.177394
0.570134 0.394335 0.170816
0.604939 0.398079 0.167257
0.639744 0.401824 0.163699
0.674549 0.405568 0.160140
0.709355 0.409313 0.156581
0.741331 0.413163 0.155414
0.767651 0.417226 0.159028
0.793970 0.421289 0.162642
0.820290 0.425351 0.166257
0.846609 0.429414 0.169871
0.870829 0.433278 0.174151
0.884545 0.436149 0.181758
0.898262 0.439019 0.189364
0.911979 0.441890 0.196971
0.925696 0.444761 0.204578
0.939412 0.447632 0.212185
0.125995 0.418965 0.338239
0.140250 0.416863 0.331443
0.154504 0.414760 0.324647
0.168758 0.412657 0.317851
0.183012 0.410555 0.311055
0.197266 0.408452 0.304259
0.225345 0.408132 0.293420
0.256189 0.408170 0.281772
0.287033 0.408207 0.270124
0.317877 0.408244 0.258476
0.348721 0.408281 0.246828
0.383653 0.409642 0.236082
0.420628 0.411665 0.225787
0.457604 0.413689 0.215492
0.494580 0.415712 0.205197
0.531556 0.417736 0.194902
0.567390 0.420461 0.187635
0.602082 0.423889 0.183397
0.636774 0.427317 0.179158
0.671466 0.430744 0.174920
0.706158 0.434172 0.170681
0.738127 0.437721 0.168841
0.764648 0.441512 0.171799
0.791169 0.445302 0.174757
0.817690 0.449093 0.177715
0.844212 0.452884 0.180673
0.868639 0.456460 0.184282
0.882598 0.458964 0.191145
0.896557 0.461468 0.198009
0.910517 0.463972 0.204872
0.924476 0.466476 0.211736
0.938435 0.468980 0.218599
0.132312 0.454547 0.364093
0.145983 0.451835 0.356918
0.159654 0.449124 0.349742
0.173325 0.446413 0.342567
0.186997 0.443702 0.335392
0.200668 0.440990 0.328217
0.228085 0.439999 0.316810
0.258252 0.439352 0.304557
0.288418 0.438705 0.292305
0.318585 0.438058 0.280052
0.348752 0.437411 0.267800
0.383136 0.438206 0.256386
0.419629 0.439723 0.245392
0.456123 0.441240 0.234398
0.492616 0.442757 0.223405
0.529109 0.444274 0.212411
0.564646 0.446588 0.204455
0.599225 0.449699 0.199536
0.633804 0.452810 0.194618
0.668383 0.455921 0.189700
0.702962 0.459032 0.184781
0.734922 0.462278 0.182269
0.761645 0.465797 0.184571
0.788368 0.469316 0.186872
0.815091 0.472834 0.189173
0.841814 0.476353 0.191474
0.866450 0.479642 0.194412
0.880651 0.481779 0.200532
0.894853 0.483916 0.206653
0.909054 0.486053 0.212773
0.923256 0.488190 0.218894
0.937458 0.490327 0.225014
0.138628 0.490128 0.389947
0.151717 0.486808 0.382392
0.164805 0.483488 0.374838
0.177893 0.480168 0.367283
0.190981 0.476849 0.359729
0.204069 0.473529 0.352174
0.230825 0.471866 0.340201
0.260314 0.470535 0.327343
0.289804 0.469203 0.314486
0.319293 0.467872 0.301628
0.348783 0.466541 0.288771
0.382620 0.466771 0.276690
0.418630 0.467781 0.264997
0.454641 0.468791 0.253305
0.490652 0.469802 0.241612
0.526663 0.470812 0.229919
0.561901 0.472715 0.221274
0.596368 0.475509 0.215676
0.630834 0.478303 0.210078
0.665300 0.481097 0.204479
0.699766 0.483891 0.198881
0.731718 0.486836 0.195697
0.758643 0.490083 0.197342
0.785567 0.493329 0.198987
0.812491 0.496576 0.200631
0.839416 0.499823 0.202276
0.864260 0.502824 0.204543
0.878704 0.504594 0.209920
0.893148 0.506364 0.215297
0.907592 0.508135 0.220674
0.922036 0.509905 0.226052
0.936480 0.511675 0.231429
0.144945 0.525709 0.415801
0.157450 0.521781 0.407867
0.169955 0.517852 0.399933
0.182460 0.513924 0.392000
0.194965 0.509996 0.384066
0.207471 0.506067 0.376132
0.233565 0.503733 0.363591
0.262377 0.501717 0.350129
0.291189 0.499702 0.336666
0.320001 0.497686 0.323204
0.348813 0.495671 0.309742
0.382103 0.495335 0.296993
0.417631 0.495839 0.284602
0.453160 0.496343 0.272211
0.488688 0.496847 0.259819
0.524217 0.497351 0.247428
0.559157 0.498841 0.238093
0.593510 0.501318 0.231815
0.627864 0.503796 0.225537
0.662217 0.506273 0.219259
0.696570 0.508750 0.212981
0.728514 0.511393 0.209125
0.755640 0.514368 0.210113
0.782766 0.517343 0.211101
0.809892 0.520318 0.212089
0.837018 0.523293 0.213077
0.862071 0.526005 0.214673
0.876757 0.527409 0.219307
0.891443 0.528812 0.223941
0.906130 0.530216 0.228575
0.920816 0.531620 0.233210
0.935503 0.533023 0.237844
0.155789 0.559060 0.441059
0.167651 0.554710 0.433012
0.179514 0.550361 0.424965
0.191376 0.546012 0.416918
0.203239 0.541663 0.408871
0.215101 0.537314 0.400824
0.240430 0.534439 0.388118
0.268451 0.531859 0.374480
0.296473 0.529278 0.360843
0.324494 0.526698 0.347205
0.352516 0.524118 0.333567
0.385103 0.523296 0.320536
0.419974 0.523353 0.307808
0.454844 0.523409 0.295081
0.489715 0.523466 0.282353
0.524585 0.523523 0.269625
0.559028 0.524651 0.259858
0.593043 0.526851 0.253051
0.627058 0.529050 0.246243
0.661073 0.531250 0.239436
0.695088 0.533449 0.232629
0.726801 0.535831 0.228171
0.753911 0.538577 0.228410
0.781021 0.541324 0.228650
0.808131 0.544070 0.228890
0.835241 0.546816 0.229129
0.860304 0.549283 0.229932
0.875129 0.550351 0.233552
0.889955 0.551419 0.237172
0.904781 0.552487 0.240792
0.919606 0.553555 0.244411
0.934432 0.554623 0.248031
0.171160 0.590179 0.465722
0.182321 0.585597 0.457828
0.193481 0.581015 0.449934
0.204641 0.576433 0.442039
0.215801 0.571851 0.434145
0.226961 0.567269 0.426251
0.251420 0.563984 0.413782
0.278537 0.560959 0.400398
0.305655 0.557933 0.387014
0.332773 0.554908 0.373630
0.359890 0.551882 0.360246
0.391621 0.550653 0.347317
0.425658 0.550322 0.334616
0.459695 0.549991 0.321914
0.493732 0.549661 0.309213
0.527769 0.549330 0.296511
0.561513 0.550145 0.286567
0.594965 0.552105 0.279382
0.628417 0.554066 0.272196
0.661868 0.556027 0.265011
0.695320 0.557988 0.257825
0.726580 0.560149 0.252834
0.753456 0.562710 0.252234
0.780333 0.565271 0.251633
0.807209 0.567832 0.251032
0.834086 0.570393 0.250431
0.858960 0.572655 0.250320
0.873821 0.573419 0.252654
0.888683 0.574183 0.254988
0.903544 0.574947 0.257323
0.918406 0.575712 0.259657
0.933267 0.576476 0.261991
0.186532 0.621298 0.490385
0.196990 0.616483 0.482643
0.207448 0.611668 0.474902
0.217906 0.606853 0.467161
0.228364 0.602039 0.459419
0.238821 0.597224 0.451678
0.262409 0.593529 0.439446
0.288623 0.590059 0.426316
0.314837 0.586588 0.413186
0.341051 0.583117 0.400056
0.367265 0.579647 0.386926
0.398138 0.578011 0.374099
0.431342 0.577292 0.361423
0.464545 0.576574 0.348748
0.497749 0.575855 0.336072
0.530952 0.575136 0.323397
0.563998 0.575638 0.313277
0.596887 0.577360 0.305713
0.629775 0.579082 0.298149
0.662664 0.580804 0.290585
0.695552 0.582526 0.283021
0.726359 0.584466 0.277498
0.753002 0.586842 0.276057
0.779645 0.589218 0.274616
0.806287 0.591595 0.273175
0.832930 0.593971 0.271734
0.857615 0.596027 0.270707
0.872513 0.596488 0.271756
0.887410 0.596948 0.272805
0.902308 0.597408 0.273854
0.917206 0.597868 0.274902
0.932103 0.598328 0.275951
0.201904 0.652417 0.515047
0.211659 0.647369 0.507459
0.221415 0.642322 0.499870
0.231170 0.637274 0.492282
0.240926 0.632227 0.484693
0.250681 0.627179 0.477104
0.273399 0.623074 0.465110
0.298709 0.619159 0.452234
0.324019 0.615243 0.439357
0.349329 0.611327 0.426481
0.374639 0.607411 0.413605
0.404656 0.605368 0.400880
0.437026 0.604262 0.388231
0.469396 0.603156 0.375581
0.501766 0.602049 0.362932
0.534136 0.600943 0.350282
0.566483 0.601132 0.339987
0.598809 0.602615 0.332044
0.631134 0.604098 0.324102
0.663459 0.605582 0.316159
0.695785 0.607065 0.308217
0.726138 0.608784 0.302162
0.752547 0.610975 0.299880
0.778956 0.613166 0.297599
0.805365 0.615357 0.295317
0.831775 0.617548 0.293036
0.856271 0.619400 0.291095
0.871205 0.619556 0.290858
0.886138 0.619712 0.290622
0.901072 0.619868 0.290385
0.916005 0.620025 0.290148
0.930939 0.620181 0.289911
0.217275 0.683536 0.539710
0.226329 0.678256 0.532274
0.235382 0.672975 0.524839
0.244435 0.667695 0.517403
0.253488 0.662414 0.509967
0.262541 0.657134 0.502531
0.284389 0.652620 0.490773
0.308795 0.648258 0.478151
0.333201 0.643897 0.465529
0.357607 0.639536 0.452907
0.382013 0.635175 0.440285
0.411173 0.632725 0.427662
0.442710 0.631232 0.415038
0.474246 0.629738 0.402415
0.505783 0.628244 0.389792
0.537319 0.626750 0.377168
0.568969 0.626625 0.366696
0.600731 0.627870 0.358375
0.632493 0.629114 0.350055
0.664255 0.630359 0.341734
0.696017 0.631603 0.333413
0.725917 0.633102 0.326825
0.752092 0.635108 0.323703
0.778268 0.637113 0.320582
0.804444 0.639119 0.317460
0.830619 0.641125 0.314338
0.854927 0.642772 0.311483
0.869896 0.642624 0.309960
0.884866 0.642477 0.308438
0.899835 0.642329 0.306916
0.914805 0.642181 0.305394
0.929774 0.642034 0.303871
0.236220 0.710604 0.561852
0.244528 0.705248 0.554694
0.252836 0.699892 0.547536
0.261144 0.694536 0.540378
0.269452 0.689180 0.533221
0.277760 0.683824 0.526063
0.298595 0.679054 0.514739
0.321935 0.674402 0.502582
0.345275 0.669749 0.490425
0.368616 0.665097 0.478269
0.391956 0.660444 0.466112
0.420065 0.657699 0.453805
0.450559 0.655907 0.441422
0.481053 0.654116 0.429039
0.511547 0.652324 0.416657
0.542041 0.650533 0.404274
0.572792 0.650164 0.393816
0.603800 0.651219 0.385282
0.634809 0.652274 0.376747
0.665817 0.653328 0.368213
0.696825 0.654383 0.359679
0.726109 0.655716 0.352712
0.751942 0.657605 0.348881
0.777776 0.659494 0.345050
0.803609 0.661384 0.341219
0.829443 0.663273 0.337388
0.853474 0.664791 0.333758
0.868494 0.664454 0.331133
0.883514 0.664117 0.328508
0.898534 0.663780 0.325883
0.913553 0.663442 0.323258
0.928573 0.663105 0.320633
0.262313 0.729568 0.578951
0.269790 0.724451 0.572321
0.277266 0.719334 0.565692
0.284743 0.714217 0.559063
0.292220 0.709100 0.552433
0.299696 0.703983 0.545804
0.319234 0.699267 0.535309
0.341184 0.694631 0.524040
0.363135 0.689995 0.512772
0.385085 0.685358 0.501503
0.407035 0.680722 0.490234
0.433707 0.677904 0.478670
0.462740 0.675995 0.466958
0.491773 0.674086 0.455246
0.520806 0.672177 0.443534
0.549839 0.670268 0.431822
0.579292 0.669795 0.421756
0.609166 0.670758 0.413338
0.639039 0.671720 0.404920
0.668913 0.672683 0.396502
0.698786 0.673645 0.388084
0.727127 0.674924 0.381046
0.752401 0.676833 0.376768
0.777676 0.678743 0.372490
0.802950 0.680652 0.368212
0.828225 0.682562 0.363934
0.851803 0.684104 0.359808
0.866903 0.683806 0.356446
0.882002 0.683508 0.353084
0.897101 0.683210 0.349722
0.912200 0.682913 0.346360
0.927299 0.682615 0.342998
0.288405 0.748533 0.596050
0.295051 0.743655 0.589949
0.301696 0.738777 0.583848
0.308342 0.733899 0.577747
0.314987 0.729021 0.571646
0.321633 0.724143 0.565545
0.339873 0.719480 0.555878
0.360434 0.714860 0.545498
0.380994 0.710240 0.535118
0.401554 0.705620 0.524737
0.422114 0.701000 0.514357
0.447349 0.698109 0.503536
0.474921 0.696083 0.492494
0.502493 0.694056 0.481452
0.530065 0.692030 0.470410
0.557637 0.690004 0.459369
0.585792 0.689426 0.449697
0.614531 0.690296 0.441395
0.643270 0.691167 0.433093
0.672009 0.692037 0.424791
0.700747 0.692907 0.416489
0.728145 0.694131 0.409380
0.752860 0.696061 0.404655
0.777576 0.697991 0.399930
0.802291 0.699921 0.395205
0.827007 0.701851 0.390480
0.850133 0.703416 0.385859
0.865311 0.703158 0.381760
0.880490 0.702899 0.377660
0.895668 0.702641 0.373561
0.910847 0.702383 0.369462
0.926025 0.702125 0.365362
0.314498 0.767498 0.613149
0.320312 0.762859 0.607576
0.326126 0.758220 0.602004
0.331940 0.753581 0.596432
0.337755 0.748942 0.590859
0.343569 0.744303 0.585287
0.360513 0.739693 0.576448
0.379683 0.735089 0.566956
0.398853 0.730486 0.557464
0.418023 0.725882 0.547972
0.437193 0.721278 0.538480
0.460990 0.718314 0.528401
0.487101 0.716171 0.518030
0.513213 0.714027 0.507659
0.539324 0.711883 0.497287
0.565435 0.709739 0.486916
0.592293 0.709056 0.477637
0.619897 0.709835 0.469452
0.647500 0.710613 0.461266
0.675104 0.711391 0.453080
0.702708 0.712170 0.444895
0.729163 0.713339 0.437714
0.753319 0.715289 0.432542
0.777476 0.717239 0.427370
0.801632 0.719189 0.422198
0.825789 0.721140 0.417026
0.848462 0.722728 0.411909
0.863720 0.722510 0.407073
0.878978 0.722291 0.402236
0.894235 0.722072 0.397400
0.909493 0.721853 0.392564
0.924751 0.721634 0.387727
0.340590 0.786463 0.630248
0.345573 0.782063 0.625204
0.350556 0.777663 0.620160
0.355539 0.773263 0.615116
0.360522 0.768863 0.610072
0.365505 0.764462 0.605028
0.381152 0.759906 0.597018
0.398932 0.755319 0.588414
0.416712 0.750731 0.579810
0.434492 0.746144 0.571206
0.452272 0.741556 0.562602
0.474632 0.738520 0.553267
0.499282 0.736258 0.543566
0.523933 0.733997 0.533865
0.548583 0.731736 0.524164
0.573233 0.729474 0.514463
0.598793 0.728687 0.505578
0.625262 0.729373 0.497508
0.651731 0.730059 0.489439
0.678200 0.730746 0.481369
0.704669 0.731432 0.473300
0.730181 0.732546 0.466047
0.753778 0.734517 0.460428
0.777376 0.736487 0.454809
0.800973 0.738458 0.449190
0.824571 0.740429 0.443571
0.846791 0.742041 0.437960
0.862128 0.741861 0.432386
0.877466 0.741682 0.426813
0.892803 0.741503 0.421239
0.908140 0.741323 0.415665
0.923477 0.741144 0.410092
0.367850 0.803459 0.646224
0.372020 0.799317 0.641683
0.376190 0.795175 0.637142
0.380360 0.791033 0.632601
0.384530 0.786891 0.628060
0.388700 0.782748 0.623519
0.402996 0.778291 0.616315
0.419316 0.773771 0.608580
0.435636 0.769251 0.600844
0.451957 0.764731 0.593109
0.468277 0.760211 0.585373
0.489115 0.757145 0.576784
0.512212 0.754807 0.567768
0.535308 0.752469 0.558752
0.558405 0.750131 0.549737
0.581502 0.747793 0.540721
0.605680 0.746931 0.532267
0.630939 0.747545 0.524375
0.656198 0.748160 0.516483
0.681458 0.748774 0.508591
0.706717 0.749389 0.500699
0.731225 0.750470 0.493461
0.754230 0.752486 0.487530
0.777236 0.754501 0.481599
0.800242 0.756517 0.475668
0.823247 0.758532 0.469737
0.844990 0.760198 0.463794
0.860419 0.760116 0.457784
0.875848 0.760034 0.451775
0.891277 0.759952 0.445766
0.906706 0.759870 0.439757
0.922135 0.759788 0.433748
0.400947 0.810610 0.656587
0.404396 0.806822 0.652421
0.407845 0.803033 0.648254
0.411295 0.799244 0.644087
0.414744 0.795455 0.639921
0.418193 0.791666 0.635754
0.430863 0.787537 0.629254
0.445375 0.783340 0.622287
0.459888 0.779143 0.615320
0.474401 0.774946 0.608353
0.488914 0.770749 0.601386
0.507805 0.767875 0.593559
0.528885 0.765662 0.585302
0.549964 0.763450 0.577045
0.571044 0.761237 0.568787
0.592124 0.759025 0.560530
0.614500 0.758241 0.552698
0.638175 0.758885 0.545290
0.661849 0.759530 0.537882
0.685523 0.760175 0.530475
0.709197 0.760820 0.523067
0.732397 0.761977 0.516273
0.754647 0.764160 0.510706
