Assets/1__3DArt/KimSe/artstation_asset/LUTs_pasterls/CUBE/Emerald Oasis 01.cube
# Enhanced with VOXCOLOR algorithms
LUT_3D_SIZE 8
DOMAIN_MIN 0.000000 0.000000 0.000000
DOMAIN_MAX 0.903226 0.903226 0.903226
0.019608 0.019608 0.058824
0.141653 0.039084 0.059293
0.329979 0.064860 0.052762
0.533341 0.093309 0.045930
0.709232 0.120976 0.043793
0.812946 0.142398 0.049198
0.856577 0.155461 0.056518
0.872510 0.162369 0.061179
0.021954 0.115519 0.097245
0.130622 0.128846 0.087808
0.308105 0.148118 0.072351
0.507024 0.170177 0.057316
0.687007 0.191945 0.047782
0.802046 0.208361 0.048339
0.855770 0.215944 0.054101
0.877906 0.215528 0.058976
0.036349 0.259961 0.162406
0.129414 0.265068 0.144984
0.293586 0.275535 0.119670
0.485856 0.288726 0.093226
0.668392 0.302019 0.071404
0.794366 0.310953 0.061141
0.858554 0.311450 0.059719
0.887209 0.303305 0.060236
0.074918 0.425410 0.243939
0.150459 0.422811 0.220790
0.297648 0.425173 0.187220
0.478421 0.430185 0.150070
0.658207 0.435509 0.115506
0.791084 0.437076 0.092078
0.864006 0.430774 0.079443
0.898737 0.416060 0.070793
0.147493 0.586984 0.331825
0.204028 0.579267 0.305601
0.329639 0.576492 0.267478
0.491895 0.576367 0.223553
0.660495 0.576567 0.179583
0.793133 0.573036 0.144129
0.871184 0.561995 0.118440
0.910825 0.543356 0.096506
0.269833 0.711379 0.411640
0.306822 0.703291 0.386547
0.404719 0.700004 0.350304
0.537919 0.699298 0.307324
0.682038 0.698936 0.262009
0.802396 0.695070 0.221393
0.878781 0.684429 0.186533
0.920802 0.667361 0.151177
0.424677 0.790092 0.475085
0.444749 0.784348 0.454603
0.511892 0.782471 0.424569
0.608743 0.782790 0.387836
0.718404 0.783614 0.347609
0.816531 0.782085 0.310016
0.884723 0.775637 0.275994
0.926181 0.764345 0.237626
0.578962 0.839076 0.527037
0.587460 0.836012 0.512568
0.625949 0.835285 0.488994
0.686109 0.836062 0.458723
0.759224 0.837463 0.424753
0.831650 0.837923 0.393801
0.888267 0.835728 0.369690
0.926868 0.830577 0.345957
0.029571 0.043662 0.136808
0.127501 0.062936 0.146976
0.294615 0.093018 0.156174
0.488269 0.129183 0.166414
0.670684 0.166660 0.178824
0.793523 0.197307 0.192287
0.852864 0.215586 0.201828
0.877817 0.223630 0.205700
0.033595 0.156000 0.193986
0.131437 0.170252 0.192503
0.293648 0.191943 0.187846
0.481718 0.217875 0.183769
0.661269 0.244731 0.183163
0.787506 0.266506 0.188359
0.853111 0.277879 0.195180
0.882922 0.279290 0.199076
0.054221 0.307797 0.276315
0.140446 0.313696 0.263387
0.291447 0.325145 0.243833
0.472122 0.339873 0.222926
0.650414 0.355458 0.205199
0.782585 0.367320 0.196239
0.855874 0.370619 0.194135
0.891416 0.364789 0.193040
0.100865 0.471681 0.368737
0.168375 0.469478 0.346936
0.301739 0.471842 0.315327
0.469849 0.477027 0.279847
0.643333 0.483115 0.245885
0.779668 0.486316 0.220901
0.860071 0.482338 0.205508
0.901521 0.470359 0.194142
0.180347 0.623890 0.457702
0.226110 0.616548 0.431382
0.335881 0.613221 0.393565
0.483943 0.612463 0.349605
0.644983 0.612621 0.304548
0.779918 0.610219 0.265624
0.864862 0.601455 0.235179
0.911561 0.585909 0.209163
0.301705 0.735148 0.525065
0.327560 0.727500 0.500331
0.409556 0.723449 0.465174
0.528556 0.721747 0.423133
0.664962 0.720938 0.377703
0.787109 0.717875 0.333943
0.869926 0.709247 0.293853
0.919052 0.695024 0.254044
0.444614 0.802874 0.567505
0.456572 0.797434 0.548171
0.511873 0.794959 0.520923
0.598086 0.794494 0.487530
0.701976 0.794925 0.449993
0.801577 0.793895 0.411717
0.874962 0.788792 0.374001
0.922471 0.779502 0.332547
0.581438 0.843538 0.596821
0.586378 0.840829 0.583969
0.619260 0.839999 0.564823
0.674422 0.840601 0.540442
0.745138 0.842051 0.512282
0.819134 0.842984 0.483567
0.879425 0.841586 0.457336
0.922395 0.837562 0.431091
0.040582 0.078187 0.236017
0.119977 0.098696 0.252480
0.268267 0.134577 0.272854
0.450900 0.180663 0.296386
0.635231 0.231279 0.321758
0.772898 0.275644 0.344855
0.846882 0.303472 0.359701
0.881070 0.316151 0.366023
0.048094 0.206357 0.306810
0.129826 0.221077 0.311571
0.273454 0.246302 0.316433
0.448780 0.278638 0.322998
0.627104 0.314284 0.332291
0.765544 0.345809 0.344387
0.845466 0.365107 0.354945
0.885338 0.372001 0.360804
0.077810 0.363212 0.397145
0.149868 0.369175 0.389792
0.282465 0.382505 0.378226
0.448455 0.400933 0.365989
0.621573 0.421874 0.356109
0.761611 0.440163 0.352292
0.847085 0.449574 0.352816
0.892443 0.449149 0.353213
0.135729 0.522806 0.490752
0.190478 0.520680 0.473909
0.305425 0.523807 0.449160
0.456896 0.530684 0.421035
0.621241 0.539528 0.393676
0.760682 0.546597 0.372866
0.850342 0.547129 0.359534
0.900746 0.540052 0.349551
0.225134 0.663503 0.573655
0.259168 0.656602 0.552103
0.350478 0.653363 0.520535
0.480335 0.652878 0.483192
0.629026 0.653939 0.444104
0.762930 0.653635 0.408987
0.854219 0.648210 0.380588
0.908743 0.636957 0.356427
0.348154 0.760842 0.628412
0.363958 0.753822 0.608268
0.428898 0.749475 0.578924
0.530110 0.747229 0.543087
0.653150 0.746226 0.503433
0.771790 0.744111 0.463559
0.858616 0.737818 0.425896
0.914308 0.726989 0.389005
0.481193 0.817848 0.656100
0.486111 0.812866 0.640543
0.528420 0.809974 0.618374
0.600428 0.808773 0.590765
0.692889 0.808645 0.559014
0.788360 0.807890 0.524897
0.863966 0.804145 0.489760
0.916542 0.797058 0.451710
0.600945 0.850831 0.670575
0.602498 0.848415 0.660306
0.628088 0.847326 0.645499
0.674708 0.847462 0.626670
0.737968 0.848546 0.604528
0.808623 0.849622 0.580286
0.869853 0.848991 0.555892
0.916251 0.846173 0.530947
0.052199 0.123903 0.349101
0.117928 0.147782 0.369345
0.250202 0.190142 0.396121
0.421521 0.245870 0.427482
0.604174 0.308890 0.461004
0.752054 0.366546 0.491063
0.838362 0.404372 0.510645
0.881018 0.422664 0.519875
0.065244 0.265299 0.427167
0.129675 0.281157 0.436477
0.254051 0.310378 0.448287
0.415604 0.349387 0.462734
0.590867 0.393959 0.479557
0.739675 0.435483 0.497254
0.833487 0.463367 0.511334
0.883842 0.476674 0.519633
0.106316 0.423729 0.516852
0.161199 0.429949 0.514974
0.273062 0.445567 0.511324
0.422331 0.468187 0.507823
0.588369 0.494975 0.506080
0.735141 0.520239 0.508040
0.833043 0.536505 0.512064
0.889144 0.542373 0.515006
0.177307 0.575878 0.603348
0.217118 0.573990 0.592821
0.311321 0.578318 0.576861
0.443581 0.587430 0.558415
0.596084 0.599563 0.540225
0.736804 0.611046 0.526274
0.835545 0.616745 0.517507
0.895611 0.615340 0.511162
0.277564 0.703115 0.674510
0.299700 0.696829 0.659769
0.371533 0.694153 0.637305
0.480978 0.694475 0.610054
0.613955 0.696874 0.580875
0.743616 0.699000 0.553935
0.839827 0.697316 0.531929
0.902027 0.690899 0.513572
0.402569 0.786273 0.716482
0.409673 0.780025 0.702656
0.457980 0.775817 0.681465
0.540095 0.773481 0.654787
0.646449 0.772570 0.624515
0.757415 0.771498 0.593151
0.845591 0.767691 0.563178
0.906695 0.760568 0.534397
0.526479 0.833216 0.733936
0.525884 0.828798 0.723202
0.555886 0.825756 0.707235
0.612725 0.824057 0.686829
0.690804 0.823452 0.662843
0.778034 0.822911 0.636175
0.852843 0.820538 0.608091
0.908894 0.815819 0.578166
0.630064 0.859407 0.739697
0.629039 0.857264 0.732399
0.647455 0.855954 0.721827
0.684435 0.855614 0.708344
0.737705 0.856216 0.692344
0.801536 0.857255 0.674053
0.860962 0.857334 0.654437
0.909236 0.855806 0.633991
0.064020 0.180901 0.468445
0.120231 0.210768 0.490729
0.239525 0.259550 0.519239
0.400073 0.322573 0.552075
0.578457 0.393934 0.586889
0.731970 0.460420 0.618287
0.827461 0.505446 0.639374
0.877114 0.528240 0.649920
0.084783 0.331047 0.546668
0.134070 0.349609 0.558910
0.240793 0.382734 0.574272
0.388440 0.426841 0.592192
0.558191 0.477586 0.611865
0.713387 0.525961 0.631323
0.818337 0.560177 0.646569
0.877939 0.578558 0.655936
0.138844 0.486662 0.627973
0.177280 0.494075 0.630537
0.268778 0.511994 0.632950
0.400504 0.537946 0.635890
0.557043 0.568991 0.639924
0.707179 0.599346 0.645826
0.815281 0.621025 0.652297
0.881221 0.632190 0.657201
0.223402 0.628063 0.700826
0.248484 0.626953 0.696141
0.321904 0.632655 0.688435
0.433966 0.643757 0.679186
0.572347 0.658531 0.669857
0.711332 0.673562 0.662873
0.817161 0.683734 0.659158
0.886087 0.687511 0.657057
0.333631 0.740275 0.756326
0.344582 0.734852 0.748136
0.397588 0.733063 0.734985
0.486270 0.734416 0.718497
0.601659 0.738159 0.700352
0.724061 0.742498 0.683288
0.822920 0.744334 0.669686
0.891676 0.742633 0.659098
0.459070 0.809546 0.785619
0.459095 0.804165 0.777793
0.492605 0.800478 0.765006
0.556389 0.798482 0.748312
0.644930 0.797955 0.728846
0.745215 0.797971 0.708265
0.831933 0.796601 0.688848
0.896710 0.793204 0.671067
0.573599 0.847442 0.795940
0.569296 0.843636 0.789756
0.589131 0.840755 0.780025
0.632032 0.838927 0.767207
0.695198 0.838120 0.751809
0.771582 0.837862 0.734313
0.842711 0.836853 0.715880
0.900163 0.834561 0.696869
0.662410 0.867933 0.797523
0.659989 0.866060 0.793047
0.672715 0.864697 0.786487
0.700955 0.864083 0.778126
0.743900 0.864325 0.768200
0.798868 0.865284 0.756567
0.853950 0.865984 0.743579
0.902104 0.865778 0.729971
0.075553 0.249462 0.581297
0.126109 0.288512 0.604314
0.235787 0.342674 0.630324
0.386932 0.408196 0.658406
0.559527 0.480116 0.687249
0.714482 0.546486 0.713205
0.815596 0.592214 0.731173
0.870333 0.616271 0.740492
0.106597 0.400170 0.651288
0.146207 0.423968 0.664811
0.239648 0.460349 0.679969
0.374890 0.506105 0.696296
0.536750 0.557341 0.713209
0.692496 0.605812 0.729382
0.803340 0.640805 0.742190
0.869033 0.660523 0.750245
0.174425 0.547098 0.717918
0.201371 0.557418 0.723045
0.276833 0.577343 0.728231
0.392762 0.604538 0.733560
0.537769 0.636267 0.739150
0.685540 0.667265 0.745415
0.798284 0.690315 0.751766
0.870467 0.703581 0.756779
0.271296 0.674544 0.773550
0.285384 0.675129 0.772648
0.342023 0.682200 0.770312
0.436116 0.694386 0.767053
0.559447 0.710067 0.763491
0.692107 0.726252 0.761057
0.799972 0.738433 0.760698
0.874216 0.745157 0.761525
0.388397 0.771208 0.812764
0.390972 0.766938 0.808926
0.429066 0.766231 0.802550
0.499965 0.768579 0.794297
0.598285 0.773289 0.784963
0.710392 0.778975 0.776206
0.807704 0.783123 0.769916
0.879753 0.784822 0.766093
0.510932 0.828081 0.831268
0.506351 0.823569 0.827377
0.529115 0.820690 0.820880
0.578273 0.819412 0.812224
0.650826 0.819560 0.801968
0.738850 0.820595 0.791170
0.820737 0.821178 0.781623
0.886149 0.820794 0.773966
0.615385 0.858656 0.837119
0.609373 0.855409 0.833923
0.622664 0.852967 0.828933
0.655300 0.851450 0.822343
0.705944 0.850877 0.814399
0.770949 0.851083 0.805413
0.835758 0.851268 0.796314
0.891758 0.851032 0.787666
0.691858 0.874948 0.837695
0.689094 0.873282 0.835083
0.698559 0.872066 0.831637
0.720810 0.871501 0.827510
0.755540 0.871701 0.822797
0.801676 0.872688 0.817292
0.850480 0.873840 0.811038
0.895931 0.874665 0.804646
0.086196 0.321884 0.673735
0.134074 0.371956 0.696829
0.236746 0.429958 0.719026
0.379983 0.493781 0.740609
0.546661 0.560168 0.761499
0.701016 0.619454 0.779923
0.805499 0.660197 0.792913
0.863884 0.682222 0.799801
0.129996 0.465860 0.731406
0.164833 0.496222 0.745152
0.249432 0.534773 0.758415
0.374681 0.579197 0.771204
0.528009 0.626561 0.783465
0.680318 0.670005 0.794729
0.792627 0.701187 0.803737
0.861308 0.718991 0.809470
0.211343 0.600226 0.782540
0.231911 0.614177 0.788634
0.296748 0.635399 0.794262
0.400425 0.661971 0.799419
0.534059 0.691643 0.804193
0.675370 0.719924 0.809008
0.787467 0.741019 0.813879
0.861754 0.753596 0.817917
0.318144 0.712697 0.822610
0.325529 0.715173 0.823459
0.370957 0.723193 0.823601
0.451577 0.735521 0.823134
0.561479 0.750726 0.822298
0.684976 0.766227 0.822008
0.789948 0.778303 0.823149
0.865090 0.785840 0.825270
0.438432 0.794964 0.848785
0.435652 0.791705 0.847107
0.463852 0.791871 0.844401
0.521923 0.794930 0.840855
0.606335 0.800216 0.836795
0.707393 0.806569 0.833237
0.799596 0.811918 0.831532
0.870991 0.815536 0.831791
0.555191 0.841591 0.859743
0.547782 0.837732 0.857827
0.563738 0.835602 0.854903
0.602915 0.835106 0.851125
0.663476 0.836056 0.846748
0.740419 0.838078 0.842472
0.815670 0.840135 0.839498
0.878722 0.841802 0.838293
0.649462 0.866488 0.862918
0.642566 0.863669 0.861251
0.652039 0.861722 0.859057
0.678153 0.860724 0.856411
0.720098 0.860685 0.853423
0.775836 0.861556 0.850340
0.833788 0.862760 0.847712
0.886126 0.863978 0.845940
0.715820 0.879683 0.863329
0.712837 0.878222 0.861742
0.720535 0.877280 0.860291
0.739264 0.876987 0.859027
0.768720 0.877411 0.857949
0.808247 0.878609 0.856885
0.850997 0.880114 0.855589
0.892063 0.881546 0.854301
0.095592 0.390567 0.743621
0.143720 0.452280 0.766976
0.241670 0.512844 0.785730
0.378359 0.572773 0.801520
0.539350 0.631256 0.815530
0.691854 0.681200 0.827552
0.797887 0.714742 0.836063
0.858492 0.732908 0.840336
0.155091 0.525662 0.789945
0.187873 0.562079 0.803275
0.266342 0.601385 0.814229
0.383306 0.642691 0.823470
0.528111 0.684440 0.831559
0.674910 0.721342 0.838772
0.786082 0.747294 0.844619
0.855776 0.761975 0.848198
0.250096 0.646628 0.828010
0.266424 0.663321 0.833887
0.323612 0.684625 0.838788
0.417439 0.709293 0.842860
0.540456 0.735756 0.846326
0.673616 0.760407 0.849730
0.782324 0.778688 0.853296
0.856271 0.789691 0.856295
0.365106 0.744502 0.855789
0.367090 0.748018 0.856923
0.404193 0.756107 0.857811
0.474353 0.767778 0.858398
0.572758 0.781869 0.858765
0.686636 0.796256 0.859565
0.786521 0.807781 0.861461
0.859961 0.815447 0.864068
0.485981 0.813730 0.872405
0.478201 0.810835 0.871385
0.498854 0.811312 0.870364
0.547319 0.814664 0.869269
0.620859 0.820289 0.868159
0.712106 0.827257 0.867669
0.798177 0.833678 0.868643
0.866605 0.838736 0.871063
0.595127 0.851718 0.878338
0.584512 0.848088 0.877103
0.595170 0.846394 0.875969
0.627178 0.846525 0.874901
0.679161 0.848297 0.873952
0.747593 0.851483 0.873593
0.816548 0.855084 0.874472
0.875566 0.858511 0.876745
0.678919 0.871848 0.879638
0.670607 0.869316 0.878655
0.677134 0.867790 0.877991
0.698813 0.867340 0.877641
0.735032 0.867980 0.877626
0.784415 0.869761 0.878168
0.836717 0.872121 0.879404
0.884342 0.874623 0.881365
0.735654 0.882321 0.879458
0.732304 0.881253 0.878759
0.738723 0.880737 0.878674
0.755211 0.880863 0.879221
0.781474 0.881680 0.880379
0.816895 0.883272 0.882085
0.855108 0.885234 0.883834
0.891369 0.887237 0.885374
