Assets/1__3DArt/KimSe/artstation_asset/LUTs_pasterls/CUBE/Emerald Oasis 04.cube
# Enhanced with VOXCOLOR algorithms
LUT_3D_SIZE 32
0.101961 0.156863 0.149020
0.123576 0.159471 0.151598
0.145191 0.162078 0.154176
0.166806 0.164686 0.156754
0.188421 0.167294 0.159331
0.210036 0.169901 0.161909
0.250590 0.174562 0.163656
0.294932 0.179633 0.165237
0.339273 0.184704 0.166818
0.383615 0.189775 0.168399
0.427956 0.194846 0.169980
0.473836 0.200738 0.171637
0.520485 0.207041 0.173333
0.567134 0.213343 0.175029
0.613783 0.219646 0.176724
0.660432 0.225949 0.178420
0.700459 0.231842 0.180276
0.733864 0.237326 0.182292
0.767268 0.242810 0.184308
0.800673 0.248294 0.186323
0.834077 0.253778 0.188339
0.861374 0.258499 0.190231
0.876456 0.261695 0.191874
0.891538 0.264891 0.193518
0.906621 0.268087 0.195162
0.921703 0.271283 0.196805
0.934747 0.274091 0.198234
0.937601 0.274959 0.198587
0.940456 0.275827 0.198940
0.943311 0.276695 0.199294
0.946165 0.277563 0.199647
0.949020 0.278431 0.200000
0.102317 0.172065 0.158372
0.123035 0.174284 0.160259
0.143752 0.176502 0.162146
0.164469 0.178721 0.164032
0.185186 0.180940 0.165919
0.205904 0.183159 0.167806
0.245462 0.187581 0.168946
0.288788 0.192445 0.169936
0.332115 0.197308 0.170926
0.375441 0.202171 0.171916
0.418768 0.207034 0.172906
0.464170 0.212829 0.174048
0.510609 0.219089 0.175266
0.557049 0.225350 0.176485
0.603488 0.231610 0.177703
0.649928 0.237870 0.178921
0.690167 0.243730 0.180406
0.724205 0.249189 0.182156
0.758243 0.254648 0.183907
0.792281 0.260107 0.185657
0.826319 0.265566 0.187408
0.854330 0.270210 0.189111
0.870287 0.273225 0.190717
0.886244 0.276240 0.192324
0.902200 0.279254 0.193930
0.918157 0.282269 0.195537
0.931999 0.284866 0.196944
0.935267 0.285376 0.197354
0.938535 0.285886 0.197764
0.941804 0.286395 0.198174
0.945072 0.286905 0.198584
0.948340 0.287415 0.198994
0.102674 0.187266 0.167724
0.122493 0.189096 0.168920
0.142313 0.190926 0.170115
0.162132 0.192756 0.171311
0.181951 0.194586 0.172507
0.201771 0.196416 0.173703
0.240334 0.200601 0.174235
0.282645 0.205256 0.174634
0.324957 0.209912 0.175034
0.367268 0.214567 0.175433
0.409580 0.219223 0.175832
0.454503 0.224920 0.176459
0.500733 0.231138 0.177200
0.546963 0.237356 0.177941
0.593193 0.243574 0.178682
0.639423 0.249792 0.179422
0.679874 0.255618 0.180536
0.714546 0.261052 0.182021
0.749218 0.266486 0.183506
0.783890 0.271920 0.184992
0.818561 0.277354 0.186477
0.847286 0.281922 0.187990
0.864118 0.284755 0.189560
0.880949 0.287588 0.191130
0.897780 0.290422 0.192699
0.914611 0.293255 0.194269
0.929250 0.295641 0.195655
0.932933 0.295793 0.196121
0.936615 0.295945 0.196588
0.940297 0.296096 0.197055
0.943979 0.296248 0.197521
0.947661 0.296399 0.197988
0.103030 0.202468 0.177076
0.121952 0.203909 0.177580
0.140873 0.205350 0.178085
0.159795 0.206791 0.178590
0.178716 0.208233 0.179095
0.197638 0.209674 0.179600
0.235205 0.213620 0.179524
0.276502 0.218068 0.179333
0.317798 0.222516 0.179141
0.359095 0.226963 0.178950
0.400391 0.231411 0.178758
0.444837 0.237011 0.178870
0.490857 0.243187 0.179133
0.536877 0.249362 0.179397
0.582898 0.255538 0.179660
0.628918 0.261714 0.179924
0.669581 0.267506 0.180665
0.704887 0.272915 0.181886
0.740192 0.278324 0.183106
0.775498 0.283734 0.184326
0.810803 0.289143 0.185546
0.840242 0.293633 0.186870
0.857948 0.296285 0.188403
0.875654 0.298937 0.189935
0.893359 0.301589 0.191468
0.911065 0.304241 0.193001
0.926502 0.306417 0.194365
0.930598 0.306210 0.194888
0.934694 0.306003 0.195412
0.938790 0.305797 0.195935
0.942886 0.305590 0.196458
0.946981 0.305383 0.196982
0.103386 0.217670 0.186427
0.121410 0.218722 0.186241
0.139434 0.219774 0.186055
0.157458 0.220827 0.185869
0.175481 0.221879 0.185683
0.193505 0.222931 0.185497
0.230077 0.226640 0.184814
0.270358 0.230880 0.184031
0.310640 0.235120 0.183249
0.350921 0.239360 0.182466
0.391203 0.243600 0.181684
0.435170 0.249102 0.181281
0.480981 0.255235 0.181067
0.526792 0.261369 0.180853
0.572603 0.267502 0.180639
0.618413 0.273635 0.180425
0.659288 0.279394 0.180795
0.695228 0.284778 0.181750
0.731167 0.290163 0.182705
0.767106 0.295547 0.183660
0.803046 0.300931 0.184615
0.833198 0.305344 0.185750
0.851779 0.307815 0.187246
0.870359 0.310286 0.188741
0.888939 0.312756 0.190237
0.907519 0.315227 0.191732
0.923754 0.317192 0.193075
0.928264 0.316627 0.193655
0.932773 0.316062 0.194235
0.937283 0.315497 0.194816
0.941792 0.314932 0.195396
0.946302 0.314368 0.195976
0.103743 0.232871 0.195779
0.120869 0.233535 0.194902
0.137995 0.234198 0.194025
0.155120 0.234862 0.193148
0.172246 0.235525 0.192271
0.189372 0.236189 0.191394
0.224949 0.239659 0.190103
0.264215 0.243692 0.188730
0.303481 0.247724 0.187356
0.342748 0.251756 0.185983
0.382014 0.255788 0.184610
0.425504 0.261193 0.183691
0.471105 0.267284 0.183000
0.516706 0.273375 0.182309
0.562307 0.279466 0.181617
0.607909 0.285557 0.180926
0.648996 0.291282 0.180925
0.685569 0.296641 0.181615
0.722142 0.302001 0.182304
0.758715 0.307360 0.182994
0.795288 0.312719 0.183684
0.826154 0.317055 0.184630
0.845609 0.319345 0.186088
0.865064 0.321634 0.187547
0.884519 0.323924 0.189005
0.903973 0.326213 0.190464
0.921006 0.327967 0.191786
0.925929 0.327044 0.192422
0.930853 0.326121 0.193059
0.935776 0.325198 0.193696
0.940699 0.324275 0.194333
0.945622 0.323352 0.194970
0.106674 0.258753 0.212179
0.123080 0.258880 0.210840
0.139486 0.259006 0.209502
0.155892 0.259133 0.208164
0.172298 0.259260 0.206825
0.188704 0.259387 0.205487
0.223433 0.262408 0.203672
0.261826 0.266009 0.201762
0.300219 0.269610 0.199852
0.338612 0.273211 0.197942
0.377006 0.276812 0.196031
0.419926 0.281877 0.194476
0.465109 0.287674 0.193099
0.510293 0.293471 0.191722
0.555477 0.299268 0.190344
0.600661 0.305065 0.188967
0.641659 0.310542 0.188291
0.678471 0.315700 0.188317
0.715283 0.320858 0.188344
0.752095 0.326016 0.188370
0.788907 0.331173 0.188397
0.820139 0.335304 0.188750
0.840211 0.337380 0.189758
0.860282 0.339456 0.190765
0.880354 0.341532 0.191772
0.900426 0.343608 0.192780
0.918041 0.345131 0.193693
0.923370 0.343887 0.194132
0.928700 0.342644 0.194571
0.934029 0.341400 0.195010
0.939358 0.340157 0.195449
0.944687 0.338913 0.195887
0.110120 0.286770 0.229988
0.125842 0.286331 0.228234
0.141564 0.285891 0.226480
0.157286 0.285452 0.224726
0.173008 0.285012 0.222973
0.188729 0.284573 0.221219
0.222640 0.287103 0.218897
0.260188 0.290228 0.216460
0.297736 0.293353 0.214024
0.335285 0.296478 0.211588
0.372833 0.299602 0.209152
0.415166 0.304279 0.206936
0.459890 0.309732 0.204831
0.504615 0.315184 0.202726
0.549340 0.320637 0.200621
0.594064 0.326090 0.198515
0.634913 0.331276 0.197104
0.671885 0.336198 0.196388
0.708857 0.341119 0.195671
0.745829 0.346040 0.194955
0.782801 0.350961 0.194238
0.814329 0.354860 0.193919
0.834966 0.356716 0.194392
0.855604 0.358573 0.194866
0.876241 0.360429 0.195339
0.896879 0.362285 0.195813
0.915033 0.363572 0.196239
0.920766 0.362016 0.196429
0.926500 0.360459 0.196619
0.932234 0.358903 0.196810
0.937968 0.357346 0.197000
0.943701 0.355790 0.197190
0.113566 0.314788 0.247797
0.128604 0.313782 0.245628
0.143641 0.312776 0.243459
0.158679 0.311770 0.241289
0.173717 0.310764 0.239120
0.188754 0.309759 0.236951
0.221847 0.311798 0.234121
0.258550 0.314447 0.231159
0.295254 0.317096 0.228197
0.331957 0.319744 0.225235
0.368661 0.322393 0.222273
0.410405 0.326682 0.219397
0.454671 0.331790 0.216563
0.498937 0.336898 0.213730
0.543202 0.342006 0.210897
0.587468 0.347115 0.208064
0.628167 0.352011 0.205917
0.665299 0.356695 0.204458
0.702431 0.361379 0.202999
0.739564 0.366064 0.201539
0.776696 0.370748 0.200080
0.808519 0.374416 0.199087
0.829722 0.376053 0.199027
0.850925 0.377689 0.198966
0.872128 0.379325 0.198906
0.893332 0.380962 0.198845
0.912024 0.382014 0.198785
0.918162 0.380144 0.198727
0.924301 0.378275 0.198668
0.930439 0.376405 0.198610
0.936577 0.374536 0.198551
0.942716 0.372666 0.198493
0.117012 0.342805 0.265606
0.131366 0.341233 0.263021
0.145719 0.339661 0.260437
0.160073 0.338089 0.257852
0.174426 0.336517 0.255268
0.188779 0.334945 0.252684
0.221054 0.336493 0.249346
0.256912 0.338666 0.245858
0.292771 0.340838 0.242370
0.328629 0.343011 0.238882
0.364488 0.345184 0.235393
0.405645 0.349084 0.231857
0.449452 0.353848 0.228296
0.493258 0.358612 0.224734
0.537065 0.363376 0.221173
0.580871 0.368139 0.217612
0.621421 0.372745 0.214731
0.658713 0.377193 0.212528
0.696006 0.381640 0.210326
0.733298 0.386088 0.208124
0.770591 0.390535 0.205922
0.802709 0.393973 0.204255
0.824477 0.395389 0.203661
0.846246 0.396806 0.203067
0.868015 0.398222 0.202472
0.889784 0.399639 0.201878
0.909016 0.400455 0.201331
0.915558 0.398273 0.201024
0.922101 0.396090 0.200717
0.928644 0.393908 0.200410
0.935187 0.391725 0.200102
0.941730 0.389543 0.199795
0.120458 0.370823 0.283415
0.134128 0.368684 0.280415
0.147797 0.366546 0.277415
0.161466 0.364407 0.274415
0.175135 0.362269 0.271416
0.188804 0.360131 0.268416
0.220261 0.361188 0.264571
0.255274 0.362885 0.260557
0.290288 0.364581 0.256542
0.325302 0.366278 0.252528
0.360315 0.367974 0.248514
0.400885 0.371486 0.244317
0.444232 0.375906 0.240028
0.487580 0.380325 0.235739
0.530927 0.384745 0.231450
0.574275 0.389164 0.227161
0.614675 0.393479 0.223544
0.652127 0.397690 0.220599
0.689580 0.401901 0.217654
0.727033 0.406112 0.214708
0.764485 0.410323 0.211763
0.796898 0.413529 0.209424
0.819233 0.414725 0.208295
0.841568 0.415922 0.207167
0.863902 0.417119 0.206039
0.886237 0.418315 0.204911
0.906007 0.418897 0.203878
0.912954 0.416401 0.203322
0.919902 0.413906 0.202766
0.926849 0.411410 0.202210
0.933796 0.408915 0.201654
0.940744 0.406419 0.201098
0.129953 0.401921 0.305205
0.142889 0.399332 0.301919
0.155826 0.396743 0.298634
0.168762 0.394154 0.295348
0.181699 0.391565 0.292063
0.194635 0.388976 0.288777
0.225173 0.389567 0.284587
0.259231 0.390795 0.280215
0.293290 0.392022 0.275843
0.327348 0.393249 0.271472
0.361406 0.394476 0.267100
0.401132 0.397559 0.262385
0.443693 0.401570 0.257498
0.486253 0.405581 0.252612
0.528813 0.409592 0.247725
0.571374 0.413603 0.242838
0.611252 0.417559 0.238542
0.648450 0.421460 0.234837
0.685647 0.425361 0.231132
0.722844 0.429262 0.227427
0.760041 0.433163 0.223721
0.792382 0.436083 0.220631
0.815010 0.437041 0.218770
0.837639 0.437999 0.216908
0.860267 0.438958 0.215047
0.882895 0.439916 0.213186
0.902974 0.440257 0.211450
0.910306 0.437516 0.210339
0.917638 0.434775 0.209229
0.924970 0.432034 0.208118
0.932301 0.429293 0.207008
0.939633 0.426552 0.205897
0.142471 0.434559 0.328986
0.154651 0.431578 0.325479
0.166830 0.428596 0.321973
0.179009 0.425615 0.318466
0.191189 0.422633 0.314959
0.203368 0.419652 0.311453
0.232938 0.419789 0.306998
0.265985 0.420550 0.302353
0.299033 0.421311 0.297708
0.332081 0.422072 0.293064
0.365128 0.422833 0.288419
0.403884 0.425467 0.283258
0.445493 0.429037 0.277839
0.487102 0.432607 0.272419
0.528711 0.436178 0.267000
0.570321 0.439748 0.261580
0.609492 0.443311 0.256634
0.646226 0.446865 0.252160
0.682960 0.450420 0.247686
0.719693 0.453975 0.243212
0.756427 0.457530 0.238738
0.788512 0.460137 0.234857
0.811298 0.460847 0.232163
0.834084 0.461557 0.229470
0.856870 0.462268 0.226776
0.879657 0.462978 0.224082
0.899930 0.463078 0.221534
0.907636 0.460125 0.219716
0.915342 0.457172 0.217899
0.923048 0.454219 0.216081
0.930754 0.451266 0.214263
0.938460 0.448313 0.212446
0.154990 0.467197 0.352767
0.166412 0.463823 0.349039
0.177834 0.460449 0.345311
0.189257 0.457075 0.341584
0.200679 0.453701 0.337856
0.212102 0.450327 0.334128
0.240703 0.450011 0.329409
0.272740 0.450305 0.324491
0.304777 0.450600 0.319574
0.336814 0.450895 0.314656
0.368851 0.451190 0.309738
0.406635 0.453375 0.304131
0.447293 0.456504 0.298179
0.487951 0.459634 0.292227
0.528609 0.462763 0.286274
0.569268 0.465893 0.280322
0.607732 0.469062 0.274725
0.644002 0.472271 0.269482
0.680273 0.475480 0.264240
0.716543 0.478688 0.258997
0.752813 0.481897 0.253754
0.784642 0.484191 0.249084
0.807586 0.484653 0.245557
0.830530 0.485115 0.242031
0.853474 0.485578 0.238505
0.876418 0.486040 0.234978
0.896885 0.485898 0.231619
0.904965 0.482733 0.229094
0.913046 0.479569 0.226569
0.921127 0.476404 0.224044
0.929207 0.473239 0.221519
0.937288 0.470074 0.218994
0.167508 0.499836 0.376548
0.178174 0.496069 0.372599
0.188839 0.492302 0.368650
0.199504 0.488536 0.364701
0.210169 0.484769 0.360753
0.220835 0.481003 0.356804
0.248468 0.480232 0.351820
0.279494 0.480061 0.346629
0.310520 0.479889 0.341439
0.341547 0.479718 0.336248
0.372573 0.479547 0.331057
0.409386 0.481282 0.325004
0.449093 0.483971 0.318519
0.488800 0.486660 0.312034
0.528507 0.489349 0.305549
0.568214 0.492038 0.299064
0.605971 0.494814 0.292816
0.641779 0.497677 0.286805
0.677586 0.500539 0.280793
0.713393 0.503402 0.274782
0.749200 0.506264 0.268771
0.780772 0.508244 0.263310
0.803874 0.508459 0.258951
0.826975 0.508673 0.254592
0.850077 0.508888 0.250234
0.873179 0.509103 0.245875
0.893840 0.508719 0.241704
0.902295 0.505342 0.238471
0.910750 0.501965 0.235239
0.919205 0.498589 0.232006
0.927660 0.495212 0.228774
0.936115 0.491835 0.225542
0.180027 0.532474 0.400329
0.189935 0.528315 0.396159
0.199843 0.524156 0.391989
0.209752 0.519996 0.387819
0.219660 0.515837 0.383649
0.229568 0.511678 0.379480
0.256232 0.510454 0.374231
0.286248 0.509816 0.368768
0.316264 0.509179 0.363304
0.346279 0.508541 0.357840
0.376295 0.507904 0.352376
0.412138 0.509190 0.345877
0.450894 0.511438 0.338859
0.489649 0.513687 0.331841
0.528405 0.515935 0.324824
0.567161 0.518183 0.317806
0.604211 0.520566 0.310907
0.639555 0.523082 0.304127
0.674899 0.525599 0.297347
0.710242 0.528115 0.290567
0.745586 0.530631 0.283787
0.776902 0.532298 0.277537
0.800161 0.532265 0.272345
0.823421 0.532231 0.267154
0.846681 0.532198 0.261962
0.869941 0.532165 0.256771
0.890795 0.531539 0.251788
0.899625 0.527951 0.247848
0.908454 0.524362 0.243909
0.917283 0.520774 0.239969
0.926113 0.517185 0.236030
0.934942 0.513596 0.232090
0.199171 0.563025 0.424671
0.208219 0.558648 0.420369
0.217267 0.554270 0.416067
0.226316 0.549893 0.411766
0.235364 0.545516 0.407464
0.244412 0.541138 0.403162
0.269894 0.539583 0.397777
0.298662 0.538592 0.392175
0.327430 0.537602 0.386573
0.356198 0.536611 0.380971
0.384966 0.535620 0.375369
0.419538 0.536536 0.368601
0.457013 0.538405 0.361251
0.494487 0.540274 0.353901
0.531962 0.542144 0.346551
0.569437 0.544013 0.339201
0.605443 0.546055 0.331850
0.639983 0.548269 0.324497
0.674522 0.550484 0.317144
0.709061 0.552698 0.309791
0.743601 0.554913 0.302438
0.774353 0.556318 0.295565
0.797533 0.556103 0.289650
0.820712 0.555889 0.283736
0.843892 0.555675 0.277821
0.867071 0.555460 0.271907
0.887915 0.554667 0.266197
0.897081 0.550977 0.261512
0.906247 0.547287 0.256827
0.915413 0.543597 0.252142
0.924579 0.539907 0.247457
0.933745 0.536217 0.242772
0.224940 0.591489 0.449575
0.233025 0.587068 0.445230
0.241111 0.582647 0.440886
0.249196 0.578226 0.436541
0.257282 0.573805 0.432196
0.265367 0.569383 0.427852
0.289451 0.567621 0.422456
0.316734 0.566389 0.416851
0.344018 0.565158 0.411245
0.371301 0.563927 0.405640
0.398585 0.562696 0.400034
0.431588 0.563320 0.393178
0.467451 0.564872 0.385695
0.503314 0.566423 0.378213
0.539177 0.567975 0.370731
0.575040 0.569527 0.363249
0.609668 0.571281 0.355643
0.643062 0.573238 0.347913
0.676456 0.575195 0.340184
0.709850 0.577152 0.332454
0.743244 0.579109 0.324724
0.773127 0.580304 0.317395
0.795988 0.579975 0.310867
0.818849 0.579647 0.304338
0.841711 0.579318 0.297810
0.864572 0.578989 0.291281
0.885200 0.578102 0.284930
0.894665 0.574421 0.279461
0.904130 0.570740 0.273993
0.913595 0.567059 0.268525
0.923060 0.563379 0.263056
0.932524 0.559698 0.257588
0.250709 0.619953 0.474479
0.257832 0.615488 0.470091
0.264954 0.611023 0.465704
0.272077 0.606558 0.461316
0.279199 0.602093 0.456929
0.286322 0.597629 0.452541
0.309008 0.595658 0.447136
0.334807 0.594186 0.441527
0.360606 0.592715 0.435918
0.386405 0.591243 0.430309
0.412204 0.589771 0.424700
0.443638 0.590104 0.417754
0.477889 0.591338 0.410140
0.512141 0.592572 0.402526
0.546392 0.593806 0.394911
0.580643 0.595040 0.387297
0.613893 0.596507 0.379437
0.646142 0.598207 0.371330
0.678390 0.599906 0.363224
0.710639 0.601606 0.355117
0.742887 0.603305 0.347011
0.771900 0.604290 0.339226
0.794443 0.603847 0.332083
0.816986 0.603404 0.324941
0.839529 0.602961 0.317799
0.862072 0.602518 0.310656
0.882486 0.601537 0.303663
0.892249 0.597865 0.297411
0.902013 0.594193 0.291159
0.911776 0.590522 0.284907
0.921540 0.586850 0.278656
0.931303 0.583178 0.272404
0.276478 0.648417 0.499383
0.282638 0.643908 0.494952
0.288798 0.639400 0.490522
0.294957 0.634891 0.486092
0.301117 0.630382 0.481661
0.307277 0.625874 0.477231
0.328565 0.623695 0.471815
0.352880 0.621983 0.466203
0.377194 0.620271 0.460590
0.401508 0.618559 0.454978
0.425823 0.616847 0.449365
0.455687 0.616888 0.442330
0.488327 0.617804 0.434584
0.520967 0.618721 0.426838
0.553607 0.619638 0.419091
0.586247 0.620554 0.411345
0.618118 0.621734 0.403230
0.649221 0.623175 0.394747
0.680324 0.624617 0.386264
0.711427 0.626059 0.377780
0.742530 0.627501 0.369297
0.770674 0.628277 0.361056
0.792899 0.627719 0.353300
0.815123 0.627162 0.345544
0.837348 0.626604 0.337787
0.859573 0.626047 0.330031
0.879771 0.624972 0.322395
0.889833 0.621309 0.315360
0.899895 0.617647 0.308325
0.909958 0.613984 0.301290
0.920020 0.610321 0.294255
0.930082 0.606659 0.287220
0.302248 0.676881 0.524286
0.307444 0.672329 0.519813
0.312641 0.667776 0.515340
0.317838 0.663224 0.510867
0.323035 0.658671 0.506394
0.328232 0.654119 0.501921
0.348123 0.651733 0.496495
0.370953 0.649780 0.490879
0.393782 0.647828 0.485263
0.416612 0.645875 0.479647
0.439442 0.643923 0.474031
0.467737 0.643671 0.466907
0.498765 0.644271 0.459028
0.529794 0.644870 0.451150
0.560822 0.645469 0.443272
0.591850 0.646068 0.435393
0.622343 0.646960 0.427024
0.652301 0.648144 0.418164
0.682258 0.649328 0.409303
0.712216 0.650513 0.400443
0.742173 0.651697 0.391583
0.769447 0.652263 0.382886
0.791354 0.651591 0.374516
0.813260 0.650919 0.366146
0.835167 0.650247 0.357776
0.857074 0.649576 0.349406
0.877056 0.648407 0.341128
0.887417 0.644753 0.333310
0.897778 0.641100 0.325491
0.908139 0.637446 0.317673
0.918500 0.633793 0.309854
0.928861 0.630139 0.302036
0.331451 0.702212 0.547934
0.335707 0.697712 0.543475
0.339963 0.693211 0.539015
0.344218 0.688711 0.534556
0.348474 0.684210 0.530096
0.352730 0.679710 0.525636
0.371099 0.677207 0.520260
0.392291 0.675104 0.514699
0.413483 0.673001 0.509139
0.434674 0.670899 0.503579
0.455866 0.668796 0.498018
0.482419 0.668328 0.490899
0.511652 0.668678 0.483000
0.540885 0.669027 0.475101
0.570118 0.669377 0.467202
0.599351 0.669727 0.459303
0.628289 0.670393 0.450819
0.656934 0.671375 0.441748
0.685579 0.672357 0.432678
0.714224 0.673339 0.423607
0.742869 0.674321 0.414537
0.769118 0.674733 0.405563
0.790575 0.674007 0.396781
0.812033 0.673280 0.387999
0.833490 0.672554 0.379217
0.854947 0.671828 0.370436
0.874598 0.670627 0.361719
0.885215 0.667053 0.353326
0.895831 0.663480 0.344934
0.906448 0.659906 0.336542
0.917064 0.656333 0.328149
0.927681 0.652759 0.319757
0.367522 0.721279 0.569071
0.370881 0.717022 0.564738
0.374239 0.712765 0.560405
0.377598 0.708508 0.556071
0.380957 0.704251 0.551738
0.384316 0.699994 0.547405
0.400914 0.697557 0.542194
0.420161 0.695483 0.536808
0.439408 0.693410 0.531422
0.458654 0.691336 0.526035
0.477901 0.689262 0.520649
0.502363 0.688729 0.513723
0.529433 0.688966 0.506027
0.556504 0.689202 0.498330
0.583574 0.689439 0.490634
0.610644 0.689676 0.482938
0.637678 0.690239 0.474616
0.664676 0.691129 0.465669
0.691674 0.692019 0.456722
0.718671 0.692909 0.447774
0.745669 0.693798 0.438827
0.770583 0.694171 0.429932
0.791329 0.693510 0.421143
0.812075 0.692849 0.412353
0.832822 0.692187 0.403563
0.853568 0.691526 0.394774
0.872654 0.690416 0.386024
0.883440 0.687065 0.377477
0.894226 0.683713 0.368930
0.905011 0.680361 0.360383
0.915797 0.677010 0.351836
0.926583 0.673658 0.343290
0.403593 0.740345 0.590207
0.406055 0.736332 0.586001
0.408516 0.732319 0.581794
0.410978 0.728305 0.577587
0.413440 0.724292 0.573380
0.415901 0.720278 0.569173
0.430729 0.717906 0.564129
0.448031 0.715862 0.558916
0.465333 0.713818 0.553704
0.482634 0.711773 0.548492
0.499936 0.709729 0.543280
0.522308 0.709130 0.536547
0.547215 0.709254 0.529053
0.572123 0.709377 0.521559
0.597030 0.709501 0.514066
0.621938 0.709624 0.506572
0.647067 0.710085 0.498414
0.672417 0.710883 0.489589
0.697768 0.711681 0.480765
0.723119 0.712479 0.471941
0.748469 0.713276 0.463117
0.772048 0.713610 0.454302
0.792083 0.713013 0.445504
0.812118 0.712417 0.436707
0.832153 0.711821 0.427909
0.852188 0.711224 0.419111
0.870710 0.710206 0.410330
0.881665 0.707076 0.401628
0.892620 0.703946 0.392927
0.903575 0.700817 0.384225
0.914530 0.697687 0.375524
0.925485 0.694557 0.366822
0.439664 0.759412 0.611344
0.441229 0.755642 0.607263
0.442793 0.751872 0.603183
0.444358 0.748102 0.599103
0.445922 0.744332 0.595022
0.447487 0.740562 0.590942
0.460545 0.738255 0.586063
0.475901 0.736240 0.581025
0.491258 0.734226 0.575987
0.506614 0.732211 0.570949
0.521971 0.730196 0.565910
0.542253 0.729531 0.559370
0.564997 0.729542 0.552080
0.587742 0.729552 0.544789
0.610487 0.729563 0.537498
0.633231 0.729573 0.530207
0.656455 0.729931 0.522211
0.680159 0.730637 0.513510
0.703863 0.731343 0.504809
0.727566 0.732049 0.496108
0.751270 0.732754 0.487407
0.773513 0.733048 0.478671
0.792837 0.732517 0.469866
0.812161 0.731985 0.461060
0.831485 0.731454 0.452255
0.850809 0.730923 0.443449
0.868766 0.729995 0.434635
0.879890 0.727087 0.425779
0.891014 0.724180 0.416923
0.902139 0.721272 0.408067
0.913263 0.718364 0.399211
0.924387 0.715456 0.390354
0.475736 0.778478 0.632480
0.476403 0.774952 0.628526
0.477070 0.771426 0.624572
0.477738 0.767899 0.620618
0.478405 0.764373 0.616664
0.479072 0.760846 0.612710
0.490360 0.758604 0.607998
0.503771 0.756619 0.603134
0.517183 0.754634 0.598269
0.530594 0.752648 0.593405
0.544005 0.750663 0.588541
0.562197 0.749933 0.582194
0.582779 0.749830 0.575106
0.603361 0.749727 0.568018
0.623943 0.749624 0.560930
0.644525 0.749522 0.553841
0.665844 0.749777 0.546008
0.687901 0.750391 0.537431
0.709957 0.751005 0.528853
0.732014 0.751619 0.520275
0.754070 0.752232 0.511697
0.774979 0.752486 0.503041
0.793591 0.752020 0.494228
0.812204 0.751554 0.485414
0.830816 0.751087 0.476601
0.849429 0.750621 0.467787
0.866822 0.749785 0.458941
0.878115 0.747099 0.449930
0.889409 0.744413 0.440919
0.900702 0.741727 0.431908
0.911996 0.739041 0.422898
0.923289 0.736355 0.413887
0.511111 0.796067 0.652526
0.511009 0.792801 0.648725
0.510907 0.789536 0.644924
0.510805 0.786271 0.641123
0.510703 0.783006 0.637322
0.510601 0.779740 0.633521
0.520172 0.777581 0.628986
0.531677 0.775644 0.624304
0.543183 0.773706 0.619622
0.554688 0.771768 0.614940
0.566193 0.769830 0.610258
0.582318 0.769051 0.604114
0.600752 0.768852 0.597240
0.619187 0.768653 0.590365
0.637621 0.768454 0.583491
0.656056 0.768254 0.576617
0.675479 0.768421 0.568967
0.695892 0.768953 0.560541
0.716305 0.769486 0.552115
0.736717 0.770018 0.543690
0.757130 0.770550 0.535264
0.776700 0.770771 0.526732
0.794583 0.770369 0.517986
0.812466 0.769967 0.509240
0.830349 0.769565 0.500495
0.848232 0.769163 0.491749
0.865041 0.768414 0.482970
0.876477 0.765936 0.474023
0.887913 0.763457 0.465076
0.899349 0.760978 0.456129
0.910785 0.758500 0.447182
0.922222 0.756021 0.438236
0.543006 0.806265 0.667119
0.542775 0.803349 0.663604
0.542543 0.800433 0.660089
0.542312 0.797517 0.656574
0.542080 0.794600 0.653059
0.541849 0.791684 0.649545
0.549971 0.789698 0.645243
0.559765 0.787899 0.640783
0.569559 0.786099 0.636323
0.579353 0.784300 0.631864
0.589146 0.782500 0.627404
0.603320 0.781758 0.621515
0.619683 0.781545 0.614910
0.636046 0.781332 0.608305
0.652409 0.781119 0.601701
0.668773 0.780906 0.595096
0.686347 0.781052 0.587729
0.705132 0.781556 0.579600
0.723918 0.782061 0.571472
0.742703 0.782565 0.563343
0.761489 0.783069 0.555214
0.779700 0.783291 0.547028
0.796762 0.782948 0.538729
