Assets/1__3DArt/KimSe/artstation_asset/LUTs_pasterls/CUBE/Emerald Oasis 03 S.cube
# Enhanced with VOXCOLOR algorithms
LUT_3D_SIZE 5
DOMAIN_MIN 0.000000 0.000000 0.000000
DOMAIN_MAX 0.903226 0.903226 0.903226
0.105882 0.121569 0.145098
0.296018 0.148881 0.157623
0.608268 0.194738 0.166800
0.854554 0.244235 0.184709
0.938131 0.270126 0.200483
0.110111 0.265234 0.243363
0.259586 0.271143 0.205038
0.525343 0.295349 0.158406
0.773200 0.327854 0.147158
0.910413 0.354404 0.183220
0.153461 0.514377 0.429942
0.270445 0.489478 0.358265
0.501049 0.482844 0.265929
0.739919 0.494377 0.216115
0.895814 0.507825 0.228744
0.292259 0.738900 0.612719
0.366383 0.703214 0.551540
0.543868 0.677873 0.466551
0.744890 0.675484 0.402884
0.889740 0.677569 0.367117
0.531873 0.835893 0.711672
0.552069 0.815526 0.684329
0.639271 0.797472 0.644767
0.764981 0.796275 0.606584
0.884008 0.803867 0.572270
0.120349 0.155750 0.229340
0.241445 0.182369 0.257901
0.497324 0.239499 0.307703
0.757528 0.314741 0.364222
0.881398 0.371725 0.401004
0.126200 0.317863 0.354677
0.242085 0.314558 0.329652
0.466456 0.323946 0.307152
0.708909 0.353017 0.311670
0.877518 0.407174 0.353355
0.153610 0.557728 0.539648
0.250884 0.527212 0.468444
0.456233 0.502600 0.382762
0.691985 0.498703 0.332353
0.885646 0.520407 0.334817
0.252814 0.763764 0.689951
0.315275 0.729783 0.624153
0.484227 0.695615 0.529194
0.697700 0.679376 0.444232
0.891268 0.681200 0.387631
0.445510 0.856489 0.750265
0.471887 0.840062 0.726805
0.572929 0.821406 0.684252
0.723473 0.815425 0.625030
0.882170 0.826886 0.557827
0.137792 0.200458 0.340106
0.220582 0.237107 0.382864
0.424697 0.315522 0.460628
0.665848 0.418018 0.545442
0.800262 0.491345 0.595367
0.147392 0.382359 0.478249
0.229596 0.379642 0.474553
0.417355 0.393694 0.483547
0.649710 0.431796 0.510049
0.828415 0.492310 0.552675
0.170395 0.606637 0.642020
0.242528 0.576668 0.597992
0.419637 0.550076 0.545790
0.651219 0.540230 0.511443
0.866282 0.553134 0.509447
0.250067 0.784550 0.756719
0.296710 0.755191 0.712729
0.445620 0.722540 0.641801
0.661347 0.699210 0.565188
0.886897 0.691981 0.511155
0.392068 0.870760 0.795931
0.417296 0.858791 0.780307
0.517275 0.845111 0.744851
0.681179 0.840689 0.682659
0.875368 0.854106 0.607032
0.157550 0.255393 0.464596
0.224535 0.311290 0.518826
0.393877 0.404630 0.600733
0.606721 0.511194 0.683478
0.735948 0.574301 0.727364
0.170004 0.447582 0.594669
0.227261 0.459384 0.609946
0.383218 0.493236 0.642238
0.599788 0.542364 0.682593
0.775402 0.583980 0.716117
0.194502 0.648966 0.724926
0.242851 0.631059 0.710531
0.389481 0.620954 0.698291
0.610123 0.618210 0.691984
0.830422 0.615873 0.694413
0.270349 0.796479 0.806668
0.302219 0.776169 0.788222
0.426040 0.755240 0.757532
0.630362 0.735580 0.718917
0.864784 0.720487 0.690595
0.379669 0.872952 0.834942
0.400358 0.865491 0.827646
0.489767 0.859021 0.810825
0.648274 0.858197 0.776726
0.850554 0.868523 0.734118
0.176730 0.311385 0.577010
0.242156 0.390344 0.637704
0.398593 0.486466 0.708491
0.595336 0.579453 0.773763
0.718841 0.622616 0.804754
0.190834 0.501468 0.683811
0.237158 0.528062 0.706921
0.374928 0.579276 0.745828
0.577023 0.638804 0.789223
0.739920 0.671130 0.817324
0.219359 0.676265 0.780931
0.252453 0.669795 0.780085
0.376547 0.682764 0.791259
0.578937 0.706994 0.810658
0.778302 0.721366 0.830465
0.300097 0.798819 0.839441
0.319249 0.785360 0.833484
0.422658 0.781972 0.831796
0.604335 0.787198 0.835039
0.811202 0.794448 0.845719
0.396763 0.865703 0.861823
0.410945 0.860371 0.859221
0.490299 0.860860 0.859298
0.633911 0.868229 0.860939
0.809777 0.881751 0.865802
