Assets/1__3DArt/KimSe/artstation_asset/LUTs_pasterls/CUBE/Emerald Oasis 02.cube
# Enhanced with VOXCOLOR algorithms
LUT_3D_SIZE 5
DOMAIN_MIN 0.000000 0.000000 0.000000
DOMAIN_MAX 0.903226 0.903226 0.903226
0.109804 0.133333 0.149020
0.302346 0.160442 0.162524
0.609816 0.206061 0.173192
0.852685 0.254127 0.187942
0.935413 0.278481 0.198737
0.111162 0.262837 0.231182
0.271484 0.277123 0.216468
0.554334 0.316452 0.197943
0.809638 0.359498 0.192937
0.923124 0.374646 0.200754
0.139178 0.490018 0.390716
0.266748 0.473104 0.352784
0.519092 0.483450 0.299241
0.772042 0.509733 0.257543
0.907965 0.516777 0.239461
0.239011 0.710046 0.565757
0.325799 0.674821 0.521877
0.524559 0.657227 0.455886
0.744606 0.664535 0.392641
0.890083 0.667808 0.345685
0.436704 0.817230 0.670676
0.473202 0.792512 0.642257
0.586140 0.772512 0.597485
0.736431 0.774163 0.548713
0.872275 0.786352 0.511824
0.126684 0.165906 0.221057
0.257590 0.192993 0.251190
0.520223 0.253904 0.304034
0.777957 0.325624 0.359698
0.892221 0.364171 0.387694
0.124653 0.316229 0.331793
0.250072 0.330873 0.335005
0.495201 0.372942 0.347003
0.751089 0.426447 0.370173
0.889851 0.456167 0.392101
0.135539 0.541526 0.500584
0.238964 0.530918 0.477166
0.466077 0.540497 0.446339
0.722022 0.565609 0.423165
0.883537 0.580446 0.415114
0.195248 0.745422 0.650804
0.269264 0.720310 0.621394
0.459451 0.702864 0.575183
0.694772 0.702978 0.525226
0.870533 0.708476 0.485309
0.336805 0.845449 0.719887
0.382712 0.827331 0.703885
0.513405 0.807141 0.675464
0.690401 0.799473 0.639569
0.852364 0.808404 0.607942
0.144111 0.210800 0.324520
0.237160 0.242234 0.368805
0.450556 0.313314 0.447605
0.693795 0.403356 0.530376
0.823970 0.457386 0.572707
0.144532 0.377789 0.450774
0.230648 0.392936 0.468038
0.428063 0.439320 0.506870
0.669804 0.503143 0.556880
0.829650 0.547726 0.594807
0.148731 0.591699 0.608893
0.223477 0.583974 0.600479
0.410342 0.597061 0.597987
0.652473 0.626354 0.604031
0.836649 0.651246 0.617013
0.185548 0.769947 0.728553
0.243645 0.751879 0.713294
0.408451 0.741562 0.692592
0.637256 0.743910 0.670773
0.836211 0.754646 0.656931
0.272661 0.861387 0.774432
0.318279 0.849818 0.766689
0.449349 0.836856 0.753949
0.638082 0.829650 0.737022
0.823408 0.836421 0.722568
0.163100 0.263845 0.447257
0.238933 0.310034 0.504656
0.414318 0.383697 0.586828
0.630836 0.469209 0.667286
0.764185 0.521080 0.708606
0.166787 0.439885 0.570402
0.228729 0.459134 0.595692
0.386888 0.506970 0.643614
0.603726 0.568690 0.699012
0.769685 0.611927 0.738771
0.169998 0.633700 0.701193
0.225073 0.627488 0.701235
0.375149 0.643727 0.715594
0.592309 0.675661 0.739786
0.784266 0.704760 0.766774
0.199719 0.781931 0.788016
0.247293 0.767768 0.781139
0.385932 0.765131 0.779146
0.593047 0.774766 0.782420
0.797722 0.792737 0.794704
0.255364 0.860944 0.819550
0.297044 0.854608 0.816249
0.419160 0.851282 0.815522
0.602350 0.852393 0.816710
0.795524 0.862338 0.823280
0.181342 0.314229 0.561278
0.254026 0.384800 0.631160
0.411476 0.459846 0.703525
0.605734 0.528910 0.766205
0.733243 0.561192 0.796500
0.188315 0.491077 0.668255
0.244161 0.517162 0.696670
0.385722 0.565465 0.740352
0.583328 0.619191 0.786675
0.740583 0.648532 0.817525
0.193907 0.660013 0.766680
0.241361 0.655662 0.768974
0.375481 0.675199 0.786853
0.575690 0.709788 0.814732
0.759810 0.738647 0.843782
0.227071 0.781778 0.827237
0.268108 0.769956 0.822862
0.394424 0.773619 0.828374
0.586557 0.792845 0.843876
0.782085 0.820150 0.869236
0.271631 0.848697 0.849780
0.310182 0.845459 0.848982
0.425966 0.849563 0.854340
0.602137 0.861609 0.866337
0.788271 0.880775 0.886270
