Assets/1__3DArt/KimSe/artstation_asset/LUTs_pasterls/CUBE/Emerald Oasis 03.cube
# Enhanced with VOXCOLOR algorithms
LUT_3D_SIZE 5
DOMAIN_MIN 0.000000 0.000000 0.000000
DOMAIN_MAX 0.903226 0.903226 0.903226
0.105882 0.121569 0.145098
0.296018 0.148881 0.157623
0.608268 0.194738 0.166800
0.854554 0.244235 0.184709
0.938131 0.270126 0.200483
0.110137 0.265234 0.243405
0.267581 0.275261 0.222312
0.557316 0.312725 0.200481
0.815851 0.354457 0.195950
0.925536 0.365880 0.202847
0.154010 0.514377 0.430821
0.277806 0.493596 0.385504
0.532511 0.499905 0.327668
0.783581 0.520217 0.281900
0.911621 0.518799 0.254113
0.295048 0.738900 0.617182
0.371375 0.705288 0.572766
0.559170 0.686049 0.509946
0.765566 0.687192 0.446851
0.896940 0.681938 0.385559
0.534535 0.835893 0.715930
0.554445 0.815621 0.691229
0.642458 0.798342 0.655576
0.768383 0.797563 0.617471
0.884887 0.804028 0.579017
0.120349 0.155750 0.229340
0.242973 0.187593 0.259939
0.504200 0.258028 0.315564
0.767203 0.338620 0.374991
0.884574 0.379677 0.404736
0.126217 0.317866 0.354698
0.243597 0.332980 0.353969
0.488915 0.379723 0.364425
0.748394 0.436741 0.387630
0.886683 0.464222 0.407379
0.153920 0.557744 0.540031
0.248658 0.547667 0.512157
0.473226 0.558520 0.478135
0.727695 0.581999 0.451860
0.884444 0.591052 0.436379
0.254326 0.763799 0.691829
0.312650 0.741641 0.661827
0.489197 0.726099 0.617007
0.712024 0.723984 0.567326
0.876229 0.723356 0.518574
0.446939 0.856512 0.752041
0.472005 0.842078 0.737816
0.573347 0.825834 0.714898
0.722904 0.818850 0.686213
0.864573 0.823465 0.655255
0.137792 0.200458 0.340106
0.221193 0.241784 0.384470
0.428527 0.332311 0.467160
0.672047 0.439901 0.554743
0.802465 0.498695 0.598677
0.147427 0.382382 0.478281
0.223932 0.400528 0.492730
0.416084 0.456394 0.530923
0.658250 0.529173 0.581260
0.817367 0.574548 0.617020
0.170732 0.606726 0.642291
0.233778 0.600162 0.631391
0.412449 0.616377 0.626815
0.651091 0.647526 0.630800
0.831859 0.669797 0.638627
0.251466 0.784695 0.757777
0.290409 0.768504 0.742174
0.435877 0.759854 0.721255
0.649655 0.761924 0.698845
0.838544 0.768984 0.679906
0.393342 0.870840 0.796877
0.416271 0.861051 0.789466
0.513135 0.850243 0.778089
0.669315 0.844065 0.763574
0.833553 0.848306 0.749217
0.157550 0.255393 0.464596
0.224551 0.312797 0.519275
0.394526 0.410106 0.602657
0.608069 0.518328 0.686292
0.736479 0.576658 0.728368
0.170061 0.447624 0.594717
0.222083 0.470550 0.616812
0.373498 0.528624 0.662699
0.589250 0.602474 0.717525
0.752495 0.650258 0.755180
0.194933 0.649124 0.725194
0.235984 0.644033 0.723472
0.373994 0.662739 0.735397
0.586054 0.698247 0.757321
0.775105 0.728451 0.780552
0.271943 0.796694 0.807439
0.297944 0.783548 0.800210
0.411912 0.780901 0.796620
0.600533 0.790144 0.797839
0.795753 0.806243 0.806430
0.381079 0.873048 0.835566
0.399730 0.866758 0.831971
0.484209 0.862863 0.829943
0.630343 0.863303 0.829821
0.801389 0.871117 0.834604
0.176730 0.311385 0.577010
0.242150 0.390471 0.637737
0.398620 0.486928 0.708638
0.595415 0.580048 0.773981
0.718876 0.622807 0.804830
0.190858 0.501486 0.683831
0.236145 0.529959 0.707776
0.372239 0.586103 0.748713
0.572407 0.652696 0.794847
0.729975 0.692035 0.825096
0.219548 0.676329 0.781020
0.251055 0.672200 0.781768
0.371639 0.692533 0.797047
0.567712 0.730937 0.822831
0.752032 0.764915 0.849611
0.300811 0.798896 0.839648
0.318527 0.786831 0.835118
0.417777 0.788981 0.838481
0.590153 0.806800 0.851188
0.777193 0.833437 0.873221
0.397398 0.865730 0.861974
0.410992 0.860646 0.859855
0.488323 0.862176 0.862882
0.626274 0.871557 0.872266
0.789351 0.887853 0.889406
