Assets/1__3DArt/KimSe/artstation_asset/LUTs_pasterls/CUBE/Emerald Oasis 04.cube
# Enhanced with VOXCOLOR algorithms
LUT_3D_SIZE 5
DOMAIN_MIN 0.000000 0.000000 0.000000
DOMAIN_MAX 0.903226 0.903226 0.903226
0.101961 0.156863 0.149020
0.294932 0.179633 0.165237
0.613783 0.219646 0.176724
0.861374 0.258499 0.190231
0.940456 0.275827 0.198940
0.110120 0.286770 0.229988
0.260188 0.290228 0.216460
0.549340 0.320637 0.200621
0.814329 0.354860 0.193919
0.926500 0.360459 0.196619
0.167508 0.499836 0.376548
0.279494 0.480061 0.346629
0.528507 0.489349 0.305549
0.780772 0.508244 0.263310
0.910750 0.501965 0.235239
0.331451 0.702212 0.547934
0.392291 0.675104 0.514699
0.570118 0.669377 0.467202
0.769118 0.674733 0.405563
0.895831 0.663480 0.344934
0.574902 0.816464 0.681712
0.587853 0.800154 0.657262
0.667197 0.793785 0.619910
0.782700 0.795811 0.567324
0.886021 0.789653 0.514996
0.111930 0.179010 0.205448
0.237498 0.205315 0.240982
0.505603 0.264484 0.297394
0.770352 0.330379 0.349306
0.882772 0.362600 0.372288
0.116708 0.328148 0.319312
0.235771 0.334481 0.322282
0.484158 0.371332 0.336204
0.747320 0.419585 0.356703
0.885625 0.440461 0.370461
0.149732 0.542201 0.478737
0.241934 0.526078 0.456065
0.467541 0.535374 0.432381
0.725363 0.559041 0.410439
0.883453 0.564419 0.393091
0.263332 0.731822 0.625201
0.313647 0.707427 0.596885
0.487934 0.698342 0.561098
0.712236 0.703549 0.515271
0.875840 0.700682 0.464848
0.462319 0.830934 0.711932
0.483868 0.816945 0.695842
0.582187 0.808455 0.672589
0.730730 0.808922 0.636558
0.867664 0.807145 0.592276
0.124089 0.209907 0.288939
0.208015 0.239288 0.334613
0.422533 0.314912 0.420038
0.672463 0.407464 0.503107
0.801082 0.457251 0.539783
0.129965 0.375034 0.423449
0.207687 0.379887 0.435091
0.404653 0.423908 0.474724
0.654296 0.490395 0.524767
0.816786 0.531895 0.555461
0.153722 0.583334 0.580246
0.216124 0.566008 0.566299
0.398147 0.576201 0.564194
0.644617 0.608814 0.571000
0.831475 0.631807 0.577233
0.238501 0.754842 0.702162
0.272907 0.731795 0.682288
0.419459 0.722081 0.661985
0.641531 0.730035 0.640906
0.837733 0.739900 0.619586
0.380330 0.843925 0.760377
0.401264 0.832572 0.749668
0.499461 0.824015 0.736139
0.663433 0.824126 0.717866
0.834470 0.829643 0.694521
0.137589 0.245768 0.392196
0.201539 0.282295 0.445895
0.379307 0.365842 0.539395
0.607599 0.469529 0.632139
0.741191 0.526747 0.674053
0.146188 0.419624 0.528951
0.196163 0.424962 0.545333
0.351715 0.472487 0.595269
0.580258 0.548274 0.658365
0.754403 0.601374 0.699000
0.170388 0.615073 0.667769
0.208772 0.597036 0.659877
0.348202 0.607868 0.671352
0.570918 0.647860 0.698298
0.773925 0.686984 0.726032
0.246503 0.765794 0.763828
0.268186 0.744446 0.750594
0.382011 0.736480 0.743386
0.580192 0.749840 0.745097
0.790521 0.775143 0.755986
0.350933 0.846022 0.806522
0.367218 0.837684 0.799336
0.453051 0.832656 0.793516
0.608820 0.836317 0.790829
0.794337 0.850783 0.793590
0.149097 0.278378 0.499912
0.208580 0.329056 0.561630
0.372183 0.417251 0.650028
0.589198 0.520090 0.736676
0.725639 0.572166 0.779001
0.162344 0.455971 0.623132
0.203474 0.464692 0.641645
0.342284 0.514969 0.690184
0.557718 0.592855 0.751956
0.733062 0.646158 0.794823
0.193449 0.635662 0.735445
0.219383 0.618775 0.730121
0.338425 0.632840 0.745427
0.544777 0.679196 0.779332
0.748070 0.728011 0.817786
0.274555 0.767503 0.806910
0.285496 0.747743 0.796833
0.381266 0.744732 0.796793
0.560769 0.766979 0.811822
0.765378 0.806545 0.842243
0.363700 0.838268 0.838673
0.374457 0.831355 0.833695
0.450206 0.832074 0.833963
0.593300 0.844456 0.842608
0.769184 0.868185 0.862564
