Assets/1__3DArt/KimSe/artstation_asset/LUTs_pasterls/CUBE/Emerald Oasis 02.cube
# Enhanced with VOXCOLOR algorithms
LUT_3D_SIZE 32
0.109804 0.133333 0.149020
0.131902 0.136576 0.151152
0.154000 0.139819 0.153284
0.176097 0.143062 0.155416
0.198195 0.146305 0.157548
0.220293 0.149548 0.159680
0.259599 0.154795 0.161166
0.302346 0.160442 0.162524
0.345094 0.166089 0.163882
0.387841 0.171736 0.165240
0.430589 0.177384 0.166597
0.474834 0.184138 0.168167
0.519828 0.191445 0.169842
0.564822 0.198753 0.171517
0.609816 0.206061 0.173192
0.654810 0.213368 0.174867
0.693774 0.220469 0.176822
0.726707 0.227363 0.179059
0.759640 0.234257 0.181296
0.792573 0.241150 0.183533
0.825507 0.248044 0.185770
0.852685 0.254127 0.187942
0.868354 0.258587 0.189987
0.884023 0.263047 0.192031
0.899692 0.267508 0.194076
0.915361 0.271968 0.196120
0.928957 0.275900 0.197894
0.932185 0.277191 0.198315
0.935413 0.278481 0.198737
0.938642 0.279772 0.199158
0.941870 0.281062 0.199579
0.945098 0.282353 0.200000
0.109601 0.148092 0.158102
0.131078 0.151149 0.159647
0.152556 0.154206 0.161192
0.174034 0.157263 0.162737
0.195511 0.160320 0.164282
0.216989 0.163377 0.165827
0.255548 0.168581 0.166732
0.297522 0.174214 0.167509
0.339497 0.179847 0.168286
0.381472 0.185480 0.169063
0.423447 0.191113 0.169841
0.467263 0.197863 0.170898
0.512000 0.205170 0.172094
0.556736 0.212477 0.173291
0.601473 0.219785 0.174488
0.646210 0.227092 0.175685
0.685256 0.234164 0.177276
0.718612 0.241001 0.179261
0.751967 0.247837 0.181247
0.785322 0.254674 0.183232
0.818678 0.261510 0.185217
0.846388 0.267503 0.187222
0.862806 0.271806 0.189267
0.879225 0.276110 0.191311
0.895643 0.280414 0.193356
0.912062 0.284718 0.195400
0.926359 0.288470 0.197197
0.930047 0.289461 0.197759
0.933735 0.290453 0.198320
0.937423 0.291445 0.198881
0.941111 0.292437 0.199443
0.944799 0.293428 0.200004
0.109398 0.162852 0.167184
0.130255 0.165722 0.168142
0.151113 0.168593 0.169100
0.171970 0.171464 0.170059
0.192828 0.174334 0.171017
0.213685 0.177205 0.171975
0.251497 0.182366 0.172298
0.292699 0.187985 0.172495
0.333901 0.193604 0.172691
0.375103 0.199224 0.172887
0.416305 0.204843 0.173084
0.459692 0.211587 0.173628
0.504171 0.218895 0.174347
0.548651 0.226202 0.175066
0.593131 0.233509 0.175785
0.637610 0.240817 0.176504
0.676739 0.247860 0.177730
0.710516 0.254639 0.179464
0.744294 0.261418 0.181197
0.778072 0.268197 0.182931
0.811849 0.274977 0.184665
0.840090 0.280878 0.186502
0.857258 0.285026 0.188546
0.874426 0.289173 0.190591
0.891594 0.293320 0.192635
0.908762 0.297468 0.194680
0.923760 0.301039 0.196501
0.927908 0.301732 0.197202
0.932056 0.302425 0.197904
0.936204 0.303118 0.198605
0.940352 0.303811 0.199307
0.944500 0.304503 0.200008
0.109194 0.177611 0.176266
0.129432 0.180296 0.176637
0.149669 0.182980 0.177009
0.169907 0.185665 0.177380
0.190144 0.188349 0.177751
0.210381 0.191033 0.178122
0.247445 0.196152 0.177864
0.287875 0.201757 0.177480
0.328304 0.207362 0.177095
0.368733 0.212967 0.176711
0.409162 0.218572 0.176327
0.452120 0.225312 0.176359
0.496343 0.232619 0.176600
0.540565 0.239926 0.176841
0.584788 0.247234 0.177082
0.629010 0.254541 0.177323
0.668222 0.261555 0.178184
0.702421 0.268277 0.179666
0.736621 0.274999 0.181148
0.770821 0.281721 0.182630
0.805021 0.288443 0.184112
0.833793 0.294254 0.185781
0.851710 0.298245 0.187826
0.869628 0.302236 0.189870
0.887545 0.306227 0.191915
0.905463 0.310217 0.193960
0.921162 0.313609 0.195804
0.925770 0.314003 0.196645
0.930378 0.314397 0.197487
0.934986 0.314791 0.198329
0.939594 0.315185 0.199170
0.944201 0.315579 0.200012
0.108991 0.192371 0.185348
0.128608 0.194869 0.185133
0.148226 0.197367 0.184917
0.167843 0.199865 0.184701
0.187460 0.202364 0.184486
0.207078 0.204862 0.184270
0.243394 0.209937 0.183430
0.283051 0.215529 0.182465
0.322707 0.221120 0.181500
0.362364 0.226711 0.180535
0.402020 0.232302 0.179570
0.444549 0.239037 0.179090
0.488515 0.246344 0.178853
0.532480 0.253651 0.178616
0.576445 0.260958 0.178378
0.620411 0.268265 0.178141
0.659704 0.275251 0.178638
0.694326 0.281915 0.179868
0.728948 0.288580 0.181099
0.763570 0.295244 0.182329
0.798192 0.301909 0.183559
0.827496 0.307630 0.185061
0.846163 0.311464 0.187106
0.864829 0.315299 0.189150
0.883496 0.319133 0.191195
0.902163 0.322967 0.193239
0.918564 0.326178 0.195107
0.923631 0.326273 0.196089
0.928699 0.326369 0.197071
0.933767 0.326464 0.198053
0.938835 0.326559 0.199034
0.943903 0.326654 0.200016
0.108788 0.207130 0.194430
0.127785 0.209442 0.193628
0.146782 0.211754 0.192825
0.165779 0.214066 0.192023
0.184777 0.216378 0.191220
0.203774 0.218690 0.190417
0.239343 0.223723 0.188996
0.278227 0.229300 0.187450
0.317111 0.234877 0.185904
0.355994 0.240454 0.184359
0.394878 0.246031 0.182813
0.436978 0.252762 0.181821
0.480686 0.260069 0.181106
0.524394 0.267375 0.180390
0.568103 0.274682 0.179675
0.611811 0.281989 0.178960
0.651187 0.288946 0.179092
0.686231 0.295553 0.180070
0.721275 0.302161 0.181049
0.756319 0.308768 0.182028
0.791363 0.315375 0.183007
0.821198 0.321006 0.184341
0.840615 0.324684 0.186385
0.860031 0.328361 0.188430
0.879447 0.332039 0.190475
0.898864 0.335717 0.192519
0.915965 0.338748 0.194410
0.921493 0.338544 0.195532
0.927021 0.338340 0.196654
0.932548 0.338137 0.197776
0.938076 0.337933 0.198898
0.943604 0.337729 0.200020
0.109849 0.233793 0.211961
0.128219 0.235561 0.210658
0.146590 0.237330 0.209355
0.164960 0.239098 0.208052
0.183331 0.240866 0.206749
0.201701 0.242635 0.205446
0.236563 0.247184 0.203349
0.274724 0.252290 0.201093
0.312884 0.257396 0.198837
0.351044 0.262501 0.196582
0.389204 0.267607 0.194326
0.430863 0.273965 0.192578
0.474271 0.280949 0.191084
0.517678 0.287932 0.189590
0.561086 0.294916 0.188097
0.604493 0.301900 0.186603
0.643858 0.308600 0.186027
0.679180 0.315015 0.186369
0.714503 0.321431 0.186711
0.749825 0.327846 0.187053
0.785147 0.334262 0.187394
0.815371 0.339718 0.188183
0.835400 0.343256 0.189864
0.855428 0.346793 0.191546
0.875456 0.350331 0.193227
0.895485 0.353868 0.194909
0.913169 0.356748 0.196477
0.919133 0.356340 0.197479
0.925097 0.355931 0.198480
0.931061 0.355523 0.199481
0.937025 0.355114 0.200483
0.942989 0.354706 0.201484
0.111162 0.262837 0.231182
0.128905 0.263990 0.229396
0.146647 0.265143 0.227610
0.164390 0.266296 0.225823
0.182132 0.267450 0.224037
0.199875 0.268603 0.222251
0.234038 0.272581 0.219460
0.271484 0.277123 0.216468
0.308931 0.281666 0.213476
0.346378 0.286209 0.210484
0.383825 0.290752 0.207492
0.425039 0.296663 0.204940
0.468137 0.303259 0.202608
0.511236 0.309856 0.200275
0.554334 0.316452 0.197943
0.597432 0.323048 0.195611
0.636767 0.329445 0.194259
0.672339 0.335642 0.193886
0.707910 0.341839 0.193514
0.743482 0.348036 0.193142
0.779053 0.354233 0.192770
0.809638 0.359498 0.192937
0.830251 0.362899 0.194183
0.850864 0.366299 0.195429
0.871477 0.369700 0.196675
0.892090 0.373100 0.197921
0.910333 0.375835 0.199097
0.916728 0.375241 0.199926
0.923124 0.374646 0.200754
0.929520 0.374051 0.201583
0.935915 0.373457 0.202411
0.942311 0.372862 0.203240
0.112476 0.291880 0.250403
0.129590 0.292418 0.248133
0.146705 0.292957 0.245864
0.163820 0.293495 0.243595
0.180934 0.294033 0.241325
0.198049 0.294571 0.239056
0.231512 0.297977 0.235571
0.268245 0.301957 0.231843
0.304978 0.305937 0.228115
0.341712 0.309916 0.224387
0.378445 0.313896 0.220659
0.419215 0.319362 0.217302
0.462004 0.325570 0.214131
0.504793 0.331779 0.210960
0.547582 0.337988 0.207790
0.590372 0.344196 0.204619
0.629676 0.350290 0.202490
0.665497 0.356268 0.201404
0.701318 0.362247 0.200318
0.737138 0.368226 0.199232
0.772959 0.374204 0.198146
0.803905 0.379278 0.197692
0.825103 0.382541 0.198502
0.846300 0.385805 0.199312
0.867497 0.389069 0.200122
0.888695 0.392332 0.200933
0.907497 0.394922 0.201717
0.914324 0.394141 0.202373
0.921151 0.393361 0.203028
0.927978 0.392580 0.203684
0.934805 0.391800 0.204340
0.941632 0.391019 0.204995
0.113790 0.320924 0.269623
0.130276 0.320847 0.266871
0.146763 0.320770 0.264118
0.163249 0.320693 0.261366
0.179736 0.320616 0.258613
0.196223 0.320539 0.255861
0.228987 0.323373 0.251682
0.265006 0.326790 0.247218
0.301026 0.330207 0.242754
0.337045 0.333624 0.238290
0.373065 0.337041 0.233826
0.413391 0.342060 0.229665
0.455871 0.347881 0.225655
0.498351 0.353702 0.221646
0.540831 0.359523 0.217636
0.583311 0.365344 0.213626
0.622586 0.371135 0.210722
0.658655 0.376895 0.208922
0.694725 0.382655 0.207122
0.730795 0.388415 0.205322
0.766865 0.394175 0.203522
0.798172 0.399057 0.202447
0.819954 0.402184 0.202821
0.841736 0.405311 0.203196
0.863518 0.408437 0.203570
0.885300 0.411564 0.203944
0.904661 0.414009 0.204337
0.911920 0.413042 0.204820
0.919178 0.412076 0.205303
0.926437 0.411109 0.205785
0.933696 0.410142 0.206268
0.940954 0.409176 0.206751
0.115103 0.349968 0.288844
0.130962 0.349276 0.285608
0.146820 0.348583 0.282373
0.162679 0.347891 0.279137
0.178538 0.347199 0.275901
0.194397 0.346507 0.272666
0.226461 0.348769 0.267793
0.261767 0.351623 0.262593
0.297073 0.354477 0.257393
0.332379 0.357331 0.252192
0.367685 0.360185 0.246992
0.407567 0.364759 0.242027
0.449738 0.370192 0.237179
0.491909 0.375626 0.232331
0.534079 0.381059 0.227482
0.576250 0.386493 0.222634
0.615495 0.391980 0.218953
0.651814 0.397522 0.216439
0.688133 0.403063 0.213925
0.724452 0.408605 0.211412
0.760771 0.414146 0.208898
0.792439 0.418837 0.207201
0.814806 0.421827 0.207140
0.837172 0.424817 0.207079
0.859538 0.427806 0.207017
0.881905 0.430796 0.206956
0.901825 0.433095 0.206957
0.909515 0.431943 0.207267
0.917205 0.430790 0.207577
0.924896 0.429638 0.207887
0.932586 0.428485 0.208197
0.940276 0.427333 0.208507
0.119839 0.383352 0.312608
0.135066 0.382035 0.308978
0.150293 0.380718 0.305347
0.165521 0.379400 0.301717
0.180748 0.378083 0.298086
0.195976 0.376765 0.294456
0.227275 0.378336 0.289002
0.261789 0.380483 0.283184
0.296303 0.382631 0.277366
0.330817 0.384779 0.271548
0.365332 0.386927 0.265730
0.404596 0.390899 0.260050
0.446235 0.395782 0.254438
0.487874 0.400666 0.248827
0.529513 0.405549 0.243215
0.571152 0.410433 0.237603
0.610126 0.415482 0.233160
0.646435 0.420697 0.229886
0.682744 0.425912 0.226612
0.719052 0.431128 0.223338
0.755361 0.436343 0.220064
0.787167 0.440758 0.217651
0.809968 0.443573 0.216961
0.832768 0.446389 0.216271
0.855569 0.449204 0.215580
0.878369 0.452020 0.214890
0.898725 0.454147 0.214290
0.906856 0.452838 0.214142
0.914987 0.451528 0.213994
0.923119 0.450219 0.213846
0.931250 0.448909 0.213698
0.939381 0.447600 0.213550
0.126285 0.418908 0.338644
0.140880 0.416960 0.334663
0.155474 0.415012 0.330682
0.170069 0.413065 0.326701
0.184663 0.411117 0.322720
0.199257 0.409169 0.318738
0.229759 0.409987 0.312761
0.263442 0.411357 0.306384
0.297125 0.412727 0.300007
0.330808 0.414097 0.293631
0.364491 0.415468 0.287254
0.403050 0.418759 0.280903
0.444046 0.423012 0.274566
0.485043 0.427264 0.268228
0.526039 0.431516 0.261890
0.567036 0.435769 0.255553
0.605618 0.440312 0.250355
0.641787 0.445147 0.246298
0.677956 0.449982 0.242240
0.714124 0.454817 0.238183
0.750293 0.459652 0.234125
0.782126 0.463750 0.230948
0.805285 0.466372 0.229532
0.828445 0.468994 0.228117
0.851604 0.471617 0.226701
0.874763 0.474239 0.225285
0.895493 0.476182 0.223980
0.904070 0.474730 0.223232
0.912647 0.473278 0.222483
0.921224 0.471826 0.221735
0.929801 0.470374 0.220986
0.938378 0.468921 0.220237
0.132732 0.454463 0.364680
0.146693 0.451885 0.360348
0.160655 0.449307 0.356017
0.174616 0.446729 0.351685
0.188578 0.444151 0.347353
0.202539 0.441573 0.343021
0.232243 0.441637 0.336520
0.265095 0.442230 0.329584
0.297947 0.442823 0.322649
0.330799 0.443416 0.315713
0.363651 0.444008 0.308777
0.401504 0.446620 0.301757
0.441858 0.450241 0.294693
0.482212 0.453862 0.287629
0.522566 0.457483 0.280566
0.562919 0.461104 0.273502
0.601111 0.465142 0.267550
0.637139 0.469597 0.262709
0.673168 0.474052 0.257868
0.709197 0.478507 0.253027
0.745225 0.482961 0.248187
0.777084 0.486741 0.244245
0.800602 0.489170 0.242104
0.824121 0.491600 0.239963
0.847639 0.494029 0.237821
0.871158 0.496458 0.235680
0.892260 0.498217 0.233670
0.901283 0.496622 0.232321
0.910306 0.495027 0.230972
0.919329 0.493433 0.229623
0.928352 0.491838 0.228274
0.937374 0.490243 0.226925
0.139178 0.490018 0.390716
0.152507 0.486810 0.386034
0.165835 0.483602 0.381351
0.179164 0.480394 0.376669
0.192493 0.477185 0.371986
0.205821 0.473977 0.367304
0.234727 0.473288 0.360278
0.266748 0.473104 0.352784
0.298769 0.472919 0.345290
0.330790 0.472734 0.337795
0.362811 0.472549 0.330301
0.399959 0.474480 0.322610
0.439670 0.477470 0.314820
0.479381 0.480460 0.307031
0.519092 0.483450 0.299241
0.558803 0.486440 0.291452
0.596603 0.489973 0.284745
0.632491 0.494047 0.279121
0.668380 0.498122 0.273496
0.704269 0.502196 0.267872
0.740157 0.506271 0.262248
0.772042 0.509733 0.257543
0.795920 0.511969 0.254676
0.819797 0.514205 0.251809
0.843675 0.516441 0.248942
0.867552 0.518678 0.246075
0.889028 0.520252 0.243361
0.898497 0.518514 0.241411
0.907965 0.516777 0.239461
0.917434 0.515040 0.237512
0.926902 0.513302 0.235562
0.936371 0.511565 0.233612
0.145625 0.525573 0.416752
0.158320 0.521735 0.411719
0.171016 0.517897 0.406686
0.183712 0.514058 0.401653
0.196407 0.510220 0.396620
0.209103 0.506381 0.391587
0.237211 0.504939 0.384037
0.268401 0.503977 0.375984
0.299591 0.503014 0.367931
0.330781 0.502052 0.359878
0.361971 0.501089 0.351825
0.398413 0.502341 0.343463
0.437482 0.504700 0.334948
0.476550 0.507059 0.326432
0.515618 0.509418 0.317917
0.554687 0.511776 0.309401
0.592095 0.514803 0.301940
0.627844 0.518497 0.295532
0.663592 0.522192 0.289125
0.699341 0.525886 0.282717
0.735089 0.529580 0.276309
0.767000 0.532724 0.270840
0.791237 0.534767 0.267247
0.815473 0.536811 0.263655
0.839710 0.538854 0.260062
0.863946 0.540897 0.256470
0.885796 0.542286 0.253051
0.895710 0.540407 0.250501
0.905624 0.538527 0.247950
0.915539 0.536647 0.245400
0.925453 0.534767 0.242850
0.935368 0.532887 0.240299
0.156720 0.558873 0.442362
0.168720 0.554599 0.437127
0.180721 0.550325 0.431893
0.192721 0.546050 0.426659
0.204722 0.541776 0.421425
0.216723 0.537502 0.416190
0.243888 0.535434 0.408330
0.274086 0.533808 0.399945
0.304285 0.532181 0.391559
0.334483 0.530555 0.383174
0.364681 0.528929 0.374788
0.400189 0.529560 0.365992
0.438351 0.531320 0.356990
0.476513 0.533079 0.347988
0.514675 0.534839 0.338987
0.552837 0.536599 0.329985
0.589584 0.539142 0.321981
0.624917 0.542468 0.314975
0.660250 0.545793 0.307969
0.695583 0.549119 0.300962
0.730916 0.552445 0.293956
0.762614 0.555295 0.287874
0.787043 0.557192 0.283640
0.811472 0.559089 0.279406
0.835901 0.560986 0.275172
0.860330 0.562883 0.270939
0.882415 0.564140 0.266878
0.892781 0.562200 0.263685
0.903148 0.560259 0.260492
0.913514 0.558318 0.257299
0.923880 0.556378 0.254106
0.934247 0.554437 0.250913
0.172463 0.589918 0.467545
0.183707 0.585402 0.462259
0.194950 0.580887 0.456973
0.206193 0.576371 0.451687
0.217437 0.571855 0.446401
0.228680 0.567339 0.441115
0.254759 0.564773 0.433158
0.283805 0.562596 0.424666
0.312851 0.560420 0.416174
0.341896 0.558244 0.407683
0.370942 0.556067 0.399191
0.405286 0.556137 0.390195
0.442277 0.557330 0.380947
0.479269 0.558522 0.371699
0.516261 0.559715 0.362451
0.553253 0.560908 0.353203
0.589070 0.562989 0.344869
0.623712 0.565958 0.337449
0.658353 0.568927 0.330029
0.692995 0.571897 0.322609
0.727637 0.574866 0.315189
0.758883 0.577444 0.308645
0.783338 0.579242 0.303854
0.807793 0.581040 0.299063
0.832248 0.582838 0.294272
0.856703 0.584636 0.289481
0.878886 0.585814 0.284843
0.889711 0.583894 0.280965
0.900535 0.581974 0.277087
0.911359 0.580055 0.273209
0.922183 0.578135 0.269331
0.933008 0.576215 0.265453
0.188207 0.620963 0.492728
0.198693 0.616206 0.487391
0.209179 0.611448 0.482053
0.219665 0.606691 0.476715
0.230151 0.601934 0.471377
0.240637 0.597176 0.466039
0.265630 0.594111 0.457985
0.293523 0.591385 0.449387
0.321417 0.588658 0.440790
0.349310 0.585932 0.432192
0.377203 0.583206 0.423595
0.410382 0.582714 0.414399
0.446204 0.583340 0.404905
0.482026 0.583965 0.395410
0.517848 0.584591 0.385915
0.553669 0.585217 0.376421
0.588555 0.586836 0.367757
0.622506 0.589449 0.359923
0.656457 0.592061 0.352089
0.690407 0.594674 0.344255
0.724358 0.597286 0.336422
0.755152 0.599594 0.329416
0.779633 0.601293 0.324068
0.804114 0.602991 0.318720
0.828595 0.604690 0.313372
0.853076 0.606388 0.308024
0.875358 0.607487 0.302807
0.886640 0.605589 0.298244
0.897922 0.603690 0.293681
0.909204 0.601791 0.289118
0.920487 0.599892 0.284556
0.931769 0.597994 0.279993
0.203951 0.652008 0.517912
0.213679 0.647009 0.512522
0.223408 0.642010 0.507133
0.233137 0.637011 0.501743
0.242866 0.632012 0.496353
0.252595 0.627014 0.490964
0.276500 0.623450 0.482813
0.303241 0.620173 0.474109
0.329982 0.616897 0.465405
0.356723 0.613620 0.456702
0.383464 0.610344 0.447998
0.415479 0.609291 0.438603
0.450131 0.609350 0.428862
0.484782 0.609409 0.419121
0.519434 0.609467 0.409380
0.554086 0.609526 0.399639
0.588041 0.610683 0.390644
0.621301 0.612939 0.382397
0.654560 0.615195 0.374149
0.687819 0.617451 0.365902
0.721079 0.619707 0.357654
0.751421 0.621744 0.350188
0.775928 0.623343 0.344282
0.800435 0.624942 0.338377
0.824943 0.626542 0.332472
0.849450 0.628141 0.326567
0.871829 0.629161 0.320771
0.883569 0.627283 0.315524
0.895309 0.625405 0.310276
0.907050 0.623527 0.305028
0.918790 0.621650 0.299781
0.930530 0.619772 0.294533
0.219694 0.683052 0.543095
0.228666 0.677812 0.537654
0.237637 0.672572 0.532212
0.246609 0.667331 0.526771
0.255581 0.662091 0.521330
0.264552 0.656851 0.515888
0.287371 0.652789 0.507640
0.312960 0.648962 0.498830
0.338548 0.645136 0.490021
0.364137 0.641309 0.481211
0.389726 0.637482 0.472401
0.420576 0.635868 0.462806
0.454057 0.635360 0.452819
0.487539 0.634852 0.442831
0.521020 0.634343 0.432844
0.554502 0.633835 0.422856
0.587527 0.634531 0.413532
0.620095 0.636430 0.404871
0.652663 0.638329 0.396209
0.685232 0.640228 0.387548
0.717800 0.642127 0.378887
0.747690 0.643893 0.370959
0.772223 0.645393 0.364496
0.796756 0.646893 0.358034
0.821290 0.648393 0.351572
0.845823 0.649893 0.345110
0.868300 0.650834 0.338736
0.880498 0.648977 0.332803
0.892697 0.647120 0.326871
0.904895 0.645264 0.320938
0.917093 0.643407 0.315005
0.929291 0.641550 0.309073
0.239011 0.710046 0.565757
0.247188 0.704723 0.560369
0.255365 0.699400 0.554981
0.263542 0.694076 0.549593
0.271719 0.688753 0.544205
0.279896 0.683430 0.538817
0.301504 0.679033 0.530627
0.325799 0.674821 0.521877
0.350093 0.670610 0.513127
0.374387 0.666398 0.504377
0.398682 0.662186 0.495627
0.428194 0.660136 0.486015
0.460316 0.659166 0.475972
0.492437 0.658197 0.465929
0.524559 0.657227 0.455886
0.556680 0.656257 0.445843
0.588585 0.656573 0.436379
0.620273 0.658175 0.427495
0.651961 0.659776 0.418610
0.683649 0.661378 0.409726
0.715337 0.662980 0.400842
0.744606 0.664535 0.392641
0.769037 0.665998 0.385807
0.793467 0.667461 0.378972
0.817898 0.668924 0.372138
0.842328 0.670387 0.365304
0.864795 0.671314 0.358538
0.877439 0.669561 0.352111
0.890083 0.667808 0.345685
0.902727 0.666054 0.339258
0.915371 0.664301 0.332831
0.928016 0.662547 0.326405
0.265474 0.728937 0.583375
0.272782 0.723848 0.578251
0.280090 0.718760 0.573127
0.287398 0.713671 0.568002
0.294706 0.708583 0.562878
0.302013 0.703494 0.557754
0.322162 0.699090 0.549934
0.344878 0.694822 0.541574
0.367595 0.690555 0.533215
0.390311 0.686287 0.524856
0.413027 0.682020 0.516497
0.440854 0.679784 0.507233
0.471237 0.678565 0.497516
0.501619 0.677345 0.487800
0.532001 0.676125 0.478084
0.562383 0.674906 0.468367
0.592789 0.675007 0.459146
0.623219 0.676429 0.450419
0.653648 0.677851 0.441693
0.684078 0.679273 0.432967
0.714508 0.680695 0.424240
0.742817 0.682160 0.416144
0.766888 0.683711 0.409308
0.790958 0.685262 0.402473
0.815028 0.686813 0.395637
0.839099 0.688364 0.388802
0.861335 0.689409 0.382016
0.874401 0.687924 0.375477
0.887468 0.686439 0.368938
0.900534 0.684953 0.362398
0.913601 0.683468 0.355859
0.926667 0.681983 0.349320
0.291938 0.747827 0.600994
0.298376 0.742973 0.596133
0.304815 0.738120 0.591272
0.311253 0.733266 0.586412
0.317692 0.728412 0.581551
0.324130 0.723558 0.576690
0.342819 0.719147 0.569240
0.363958 0.714823 0.561272
0.385096 0.710500 0.553304
0.406235 0.706177 0.545335
0.427373 0.701854 0.537367
0.453515 0.699433 0.528451
0.482158 0.697963 0.519061
0.510801 0.696494 0.509671
0.539443 0.695024 0.500281
0.568086 0.693554 0.490892
0.596993 0.693441 0.481912
0.626164 0.694683 0.473344
0.655336 0.695926 0.464776
0.684507 0.697168 0.456207
0.713678 0.698411 0.447639
0.741029 0.699785 0.439648
0.764739 0.701424 0.432810
0.788449 0.703063 0.425973
0.812159 0.704702 0.419136
0.835869 0.706341 0.412299
0.857875 0.707504 0.405493
0.871364 0.706287 0.398842
0.884853 0.705069 0.392190
0.898341 0.703852 0.385539
0.911830 0.702635 0.378888
0.925319 0.701418 0.372236
0.318401 0.766718 0.618612
0.323970 0.762099 0.614015
0.329540 0.757480 0.609418
0.335109 0.752861 0.604821
0.340678 0.748241 0.600224
0.346247 0.743622 0.595627
0.363476 0.739203 0.588547
0.383037 0.734824 0.580969
0.402598 0.730445 0.573392
0.422158 0.726067 0.565814
0.441719 0.721688 0.558237
0.466175 0.719082 0.549669
0.493079 0.717362 0.540606
0.519982 0.715642 0.531542
0.546886 0.713923 0.522479
0.573789 0.712203 0.513416
0.601197 0.711875 0.504679
0.629110 0.712938 0.496269
0.657023 0.714000 0.487858
0.684935 0.715063 0.479448
0.712848 0.716126 0.471037
0.739240 0.717410 0.463151
0.762589 0.719137 0.456312
0.785939 0.720864 0.449474
0.809289 0.722591 0.442636
0.832639 0.724317 0.435797
0.854415 0.725598 0.428971
0.868326 0.724649 0.422207
0.882237 0.723700 0.415443
0.896148 0.722751 0.408679
0.910059 0.721802 0.401916
0.923970 0.720854 0.395152
0.344864 0.785609 0.636231
0.349564 0.781224 0.631898
0.354264 0.776840 0.627564
0.358964 0.772455 0.623231
0.363664 0.768071 0.618897
0.368364 0.763686 0.614564
0.384134 0.759260 0.607853
0.402116 0.754825 0.600667
0.420099 0.750391 0.593480
0.438082 0.745956 0.586294
0.456065 0.741521 0.579107
0.478835 0.738730 0.570887
0.504000 0.736761 0.562150
0.529164 0.734791 0.553414
0.554328 0.732821 0.544677
0.579492 0.730852 0.535940
0.605401 0.730308 0.527446
0.632056 0.731192 0.519193
0.658710 0.732075 0.510941
0.685364 0.732958 0.502688
0.712018 0.733842 0.494436
0.737451 0.735036 0.486654
0.760440 0.736850 0.479814
0.783430 0.738665 0.472975
0.806419 0.740480 0.466135
0.829409 0.742294 0.459295
0.850956 0.743693 0.452449
0.865289 0.743012 0.445572
0.879622 0.742331 0.438696
0.893955 0.741650 0.431820
0.908288 0.740970 0.424944
0.922622 0.740289 0.418068
0.372285 0.802572 0.652433
0.376151 0.798442 0.648366
0.380017 0.794312 0.644299
0.383882 0.790181 0.640232
0.387748 0.786051 0.636165
0.391614 0.781920 0.632098
0.405896 0.777540 0.625783
0.422261 0.773110 0.619018
0.438626 0.768679 0.612253
0.454992 0.764249 0.605488
0.471357 0.759819 0.598723
0.492392 0.756900 0.590894
0.515761 0.754737 0.582534
0.539130 0.752575 0.574174
0.562500 0.750412 0.565814
0.585869 0.748249 0.557454
0.610223 0.747535 0.549256
0.635562 0.748270 0.541221
0.660901 0.749004 0.533186
0.686239 0.749739 0.525151
0.711578 0.750474 0.517116
0.735996 0.751603 0.509508
0.758574 0.753522 0.502755
0.781152 0.755441 0.496001
0.803729 0.757360 0.489248
0.826307 0.759279 0.482495
0.847577 0.760815 0.475740
0.862311 0.760432 0.468974
0.877045 0.760049 0.462208
0.891779 0.759666 0.455442
0.906513 0.759283 0.448677
0.921247 0.758901 0.441911
0.404495 0.809901 0.661554
0.407701 0.806122 0.657767
0.410907 0.802342 0.653980
0.414112 0.798563 0.650192
0.417318 0.794783 0.646405
0.420524 0.791004 0.642618
0.433183 0.786936 0.636828
0.447731 0.782811 0.630637
0.462280 0.778686 0.624447
0.476829 0.774561 0.618256
0.491378 0.770435 0.612066
0.510426 0.767679 0.604847
0.531724 0.765606 0.597115
0.553022 0.763534 0.589382
0.574320 0.761462 0.581650
0.595618 0.759390 0.573917
0.618135 0.758724 0.566290
0.641873 0.759465 0.558767
0.665611 0.760206 0.551245
0.689349 0.760947 0.543722
0.713086 0.761688 0.536200
0.736214 0.762883 0.529110
0.758121 0.764989 0.522885
