Assets/1__3DArt/KimSe/artstation_asset/LUTs_pasterls/CUBE/Emerald Oasis 03.cube
# Enhanced with VOXCOLOR algorithms
LUT_3D_SIZE 32
0.105882 0.121569 0.145098
0.127339 0.124872 0.147213
0.148795 0.128175 0.149329
0.170252 0.131478 0.151444
0.191708 0.134781 0.153560
0.213165 0.138084 0.155675
0.252776 0.143292 0.156753
0.296018 0.148881 0.157623
0.339259 0.154470 0.158494
0.382501 0.160059 0.159364
0.425743 0.165648 0.160234
0.470723 0.172461 0.161665
0.516571 0.179887 0.163377
0.562419 0.187313 0.165088
0.608268 0.194738 0.166800
0.654116 0.202164 0.168511
0.693714 0.209437 0.170763
0.727061 0.216558 0.173555
0.760408 0.223679 0.176347
0.793755 0.230800 0.179139
0.827102 0.237921 0.181931
0.854554 0.244235 0.184709
0.870219 0.248937 0.187459
0.885883 0.253639 0.190209
0.901548 0.258340 0.192958
0.917212 0.263042 0.195708
0.930871 0.267204 0.198191
0.934501 0.268665 0.199337
0.938131 0.270126 0.200483
0.941760 0.271587 0.201630
0.945390 0.273049 0.202776
0.949020 0.274510 0.203922
0.105900 0.137801 0.155796
0.126683 0.140789 0.157178
0.147467 0.143778 0.158560
0.168250 0.146766 0.159941
0.189033 0.149755 0.161323
0.209816 0.152743 0.162705
0.248729 0.157845 0.163150
0.291267 0.163370 0.163407
0.333806 0.168894 0.163665
0.376344 0.174419 0.163922
0.418883 0.179943 0.164179
0.463500 0.186722 0.165079
0.509156 0.194127 0.166299
0.554813 0.201533 0.167520
0.600469 0.208938 0.168740
0.646126 0.216343 0.169961
0.685841 0.223559 0.171826
0.719614 0.230584 0.174334
0.753387 0.237609 0.176843
0.787160 0.244634 0.179352
0.820933 0.251658 0.181860
0.848892 0.257827 0.184424
0.865224 0.262281 0.187099
0.881556 0.266735 0.189773
0.897888 0.271189 0.192448
0.914220 0.275643 0.195122
0.928486 0.279529 0.197537
0.932424 0.280573 0.198651
0.936362 0.281617 0.199765
0.940300 0.282662 0.200879
0.944238 0.283706 0.201993
0.948176 0.284750 0.203107
0.105919 0.154032 0.166493
0.126028 0.156706 0.167142
0.146138 0.159381 0.167790
0.166248 0.162055 0.168439
0.186357 0.164729 0.169087
0.206467 0.167403 0.169735
0.244681 0.172398 0.169547
0.286517 0.177858 0.169192
0.328352 0.183319 0.168836
0.370187 0.188779 0.168480
0.412022 0.194239 0.168125
0.456277 0.200982 0.168493
0.501742 0.208367 0.169222
0.547207 0.215753 0.169952
0.592671 0.223138 0.170681
0.638136 0.230523 0.171411
0.677968 0.237680 0.172888
0.712167 0.244609 0.175114
0.746366 0.251538 0.177339
0.780565 0.258467 0.179564
0.814764 0.265396 0.181790
0.843230 0.271418 0.184140
0.860229 0.275624 0.186739
0.877228 0.279831 0.189338
0.894228 0.284038 0.191937
0.911227 0.288244 0.194536
0.926101 0.291854 0.196882
0.930347 0.292481 0.197964
0.934593 0.293109 0.199046
0.938840 0.293736 0.200128
0.943086 0.294363 0.201210
0.947332 0.294991 0.202292
0.105937 0.170264 0.177191
0.125373 0.172624 0.177106
0.144809 0.174983 0.177021
0.164246 0.177343 0.176936
0.183682 0.179702 0.176850
0.203118 0.182062 0.176765
0.240634 0.186952 0.175944
0.281766 0.192347 0.174976
0.322898 0.197743 0.174007
0.364030 0.203139 0.173039
0.405162 0.208534 0.172070
0.449055 0.215243 0.171906
0.494328 0.222608 0.172145
0.539600 0.229972 0.172383
0.584873 0.237337 0.172622
0.630146 0.244702 0.172861
0.670095 0.251801 0.173951
0.704720 0.258634 0.175893
0.739345 0.265467 0.177835
0.773970 0.272301 0.179777
0.808595 0.279134 0.181719
0.837567 0.285009 0.183855
0.855234 0.288968 0.186379
0.872901 0.292927 0.188903
0.890567 0.296886 0.191426
0.908234 0.300845 0.193950
0.923715 0.304180 0.196228
0.928270 0.304390 0.197278
0.932825 0.304600 0.198328
0.937379 0.304810 0.199377
0.941934 0.305021 0.200427
0.946488 0.305231 0.201477
0.105956 0.186496 0.187888
0.124718 0.188541 0.187070
0.143481 0.190586 0.186251
0.162244 0.192631 0.185433
0.181006 0.194676 0.184614
0.199769 0.196722 0.183795
0.236587 0.201505 0.182341
0.277016 0.206836 0.180760
0.317444 0.212167 0.179178
0.357873 0.217499 0.177597
0.398302 0.222830 0.176016
0.441832 0.229503 0.175320
0.486913 0.236848 0.175068
0.531994 0.244192 0.174815
0.577075 0.251537 0.174563
0.622156 0.258881 0.174310
0.662222 0.265922 0.175013
0.697273 0.272659 0.176672
0.732324 0.279397 0.178331
0.767375 0.286134 0.179990
0.802426 0.292872 0.181649
0.831905 0.298600 0.183571
0.850239 0.302312 0.186019
0.868573 0.306023 0.188467
0.886907 0.309735 0.190916
0.905241 0.313446 0.193364
0.921330 0.316505 0.195574
0.926193 0.316298 0.196591
0.931056 0.316091 0.197609
0.935919 0.315885 0.198627
0.940782 0.315678 0.199644
0.945645 0.315471 0.200662
0.105974 0.202728 0.198586
0.124063 0.204458 0.197034
0.142152 0.206189 0.195482
0.160242 0.207920 0.193930
0.178331 0.209650 0.192378
0.196420 0.211381 0.190825
0.232539 0.216058 0.188738
0.272265 0.221325 0.186544
0.311991 0.226592 0.184350
0.351716 0.231859 0.182155
0.391442 0.237125 0.179961
0.434610 0.243764 0.178734
0.479499 0.251088 0.177990
0.524388 0.258412 0.177247
0.569277 0.265736 0.176503
0.614166 0.273060 0.175760
0.654349 0.280043 0.176076
0.689826 0.286685 0.177452
0.725303 0.293326 0.178827
0.760780 0.299968 0.180203
0.796257 0.306609 0.181578
0.826243 0.312192 0.183286
0.845244 0.315656 0.185659
0.864246 0.319120 0.188032
0.883247 0.322584 0.190405
0.902249 0.326048 0.192778
0.918945 0.328830 0.194919
0.924116 0.328206 0.195905
0.929287 0.327583 0.196890
0.934458 0.326959 0.197876
0.939630 0.326335 0.198861
0.944801 0.325711 0.199847
0.107868 0.232615 0.219931
0.125351 0.233747 0.217769
0.142833 0.234879 0.215606
0.160316 0.236010 0.213444
0.177799 0.237142 0.211282
0.195282 0.238274 0.209120
0.230699 0.242415 0.206291
0.269704 0.247159 0.203328
0.308709 0.251902 0.200365
0.347714 0.256646 0.197402
0.386718 0.261389 0.194439
0.429431 0.267591 0.192384
0.473998 0.274523 0.190782
0.518565 0.281454 0.189181
0.563131 0.288385 0.187579
0.607698 0.295317 0.185977
0.647837 0.301956 0.185488
0.683548 0.308303 0.186111
0.719259 0.314650 0.186734
0.754970 0.320997 0.187357
0.790682 0.327344 0.187980
0.821004 0.332639 0.189016
0.840551 0.335828 0.190880
0.860097 0.339017 0.192743
0.879643 0.342206 0.194606
0.899189 0.345396 0.196469
0.916396 0.347898 0.198138
0.921909 0.346967 0.198835
0.927421 0.346035 0.199532
0.932934 0.345104 0.200230
0.938447 0.344173 0.200927
0.943959 0.343242 0.201624
0.110137 0.265234 0.243405
0.127026 0.265710 0.240657
0.143916 0.266186 0.237910
0.160806 0.266661 0.235163
0.177696 0.267137 0.232415
0.194585 0.267613 0.229668
0.229301 0.271133 0.226075
0.267581 0.275261 0.222312
0.305862 0.279390 0.218549
0.344142 0.283518 0.214787
0.382423 0.287647 0.211024
0.424662 0.293332 0.208081
0.468880 0.299797 0.205548
0.513098 0.306261 0.203015
0.557316 0.312725 0.200481
0.601535 0.319189 0.197948
0.641597 0.325427 0.196570
0.677504 0.331440 0.196347
0.713411 0.337453 0.196123
0.749318 0.343466 0.195900
0.785224 0.349479 0.195676
0.815851 0.354457 0.195950
0.835917 0.357366 0.197216
0.855984 0.360275 0.198483
0.876050 0.363184 0.199750
0.896116 0.366093 0.201016
0.913815 0.368314 0.202131
0.919676 0.367097 0.202489
0.925536 0.365880 0.202847
0.931397 0.364664 0.203204
0.937258 0.363447 0.203562
0.943118 0.362230 0.203919
0.112406 0.297853 0.266878
0.128702 0.297673 0.263546
0.144999 0.297493 0.260213
0.161296 0.297312 0.256881
0.177592 0.297132 0.253548
0.193889 0.296952 0.250216
0.227902 0.299850 0.245859
0.265458 0.303364 0.241296
0.303015 0.306877 0.236734
0.340571 0.310391 0.232171
0.378127 0.313904 0.227609
0.419892 0.319074 0.223778
0.463762 0.325070 0.220313
0.507632 0.331067 0.216849
0.551501 0.337064 0.213384
0.595371 0.343061 0.209919
0.635357 0.348898 0.207652
0.671460 0.354577 0.206582
0.707562 0.360256 0.205512
0.743665 0.365934 0.204443
0.779767 0.371613 0.203373
0.810697 0.376275 0.202883
0.831284 0.378904 0.203553
0.851870 0.381533 0.204223
0.872457 0.384162 0.204893
0.893043 0.386790 0.205563
0.911233 0.388731 0.206124
0.917442 0.387228 0.206143
0.923651 0.385726 0.206161
0.929860 0.384223 0.206179
0.936068 0.382721 0.206197
0.942277 0.381218 0.206215
0.114675 0.330472 0.290352
0.130378 0.329636 0.286435
0.146082 0.328800 0.282517
0.161786 0.327964 0.278599
0.177489 0.327127 0.274682
0.193193 0.326291 0.270764
0.226503 0.328567 0.265642
0.263335 0.331466 0.260280
0.300167 0.334365 0.254918
0.336999 0.337263 0.249556
0.373831 0.340162 0.244194
0.415123 0.344815 0.239475
0.458644 0.350344 0.235079
0.502165 0.355874 0.230683
0.545686 0.361403 0.226286
0.589208 0.366933 0.221890
0.629117 0.372370 0.218734
0.665415 0.377714 0.216818
0.701714 0.383059 0.214901
0.738012 0.388403 0.212985
0.774310 0.393748 0.211069
0.805544 0.398093 0.209816
0.826651 0.400442 0.209890
0.847757 0.402791 0.209963
0.868864 0.405139 0.210037
0.889970 0.407488 0.210110
0.908652 0.409147 0.210118
0.915209 0.407359 0.209796
0.921766 0.405571 0.209475
0.928323 0.403783 0.209153
0.934879 0.401994 0.208832
0.941436 0.400206 0.208510
0.116944 0.363091 0.313826
0.132054 0.361599 0.309323
0.147165 0.360107 0.304820
0.162275 0.358615 0.300318
0.177386 0.357123 0.295815
0.192497 0.355630 0.291312
0.225105 0.357285 0.285426
0.261212 0.359568 0.279264
0.297320 0.361852 0.273102
0.333428 0.364136 0.266940
0.369535 0.366420 0.260779
0.410353 0.370556 0.255173
0.453526 0.375618 0.249845
0.496699 0.380680 0.244517
0.539871 0.385742 0.239189
0.583044 0.390804 0.233861
0.622877 0.395841 0.229816
0.659371 0.400851 0.227053
0.695865 0.405861 0.224291
0.732359 0.410872 0.221528
0.768852 0.415882 0.218765
0.800391 0.419912 0.216749
0.822017 0.421980 0.216226
0.843644 0.424048 0.215703
0.865271 0.426117 0.215180
0.886898 0.428185 0.214657
0.906071 0.429563 0.214111
0.912976 0.427489 0.213450
0.919881 0.425416 0.212789
0.926785 0.423342 0.212128
0.933690 0.421268 0.211467
0.940595 0.419195 0.210806
0.124302 0.399494 0.341500
0.138774 0.397410 0.336595
0.153246 0.395326 0.331689
0.167717 0.393242 0.326784
0.182189 0.391158 0.321878
0.196661 0.389074 0.316973
0.228426 0.390033 0.310520
0.263650 0.391601 0.303758
0.298874 0.393169 0.296996
0.334098 0.394738 0.290234
0.369322 0.396306 0.283472
0.409406 0.399794 0.277141
0.451920 0.404241 0.271026
0.494434 0.408689 0.264910
0.536947 0.413137 0.258795
0.579461 0.417585 0.252680
0.618901 0.422102 0.247813
0.655266 0.426687 0.244194
0.691631 0.431273 0.240576
0.727996 0.435859 0.236958
0.764362 0.440444 0.233339
0.795929 0.444099 0.230486
0.817899 0.445893 0.229161
0.839870 0.447686 0.227837
0.861840 0.449479 0.226513
0.883811 0.451273 0.225189
0.903330 0.452385 0.223864
0.910597 0.450096 0.222535
0.917865 0.447807 0.221206
0.925132 0.445518 0.219877
0.932399 0.443228 0.218549
0.939666 0.440939 0.217220
0.134205 0.437788 0.371274
0.148015 0.435144 0.366057
0.161825 0.432501 0.360841
0.175636 0.429857 0.355624
0.189446 0.427213 0.350407
0.203256 0.424569 0.345191
0.234108 0.424797 0.338269
0.268369 0.425599 0.331007
0.302629 0.426402 0.323745
0.336890 0.427204 0.316482
0.371150 0.428006 0.309220
0.410370 0.430780 0.302245
0.452069 0.434540 0.295414
0.493769 0.438300 0.288584
0.535468 0.442060 0.281753
0.577168 0.445820 0.274922
0.616055 0.449757 0.269267
0.652130 0.453873 0.264788
0.688205 0.457989 0.260310
0.724280 0.462105 0.255831
0.760354 0.466221 0.251352
0.791813 0.469472 0.247624
0.814039 0.470993 0.245396
0.836265 0.472513 0.243168
0.858491 0.474034 0.240941
0.880717 0.475555 0.238713
0.900511 0.476411 0.236497
0.908147 0.473941 0.234336
0.915783 0.471471 0.232175
0.923420 0.469001 0.230015
0.931056 0.466531 0.227854
0.938692 0.464061 0.225693
0.144107 0.476083 0.401048
0.157256 0.472879 0.395520
0.170405 0.469675 0.389992
0.183554 0.466472 0.384464
0.196703 0.463268 0.378936
0.209851 0.460065 0.373408
0.239790 0.459561 0.366018
0.273087 0.459597 0.358256
0.306384 0.459634 0.350493
0.339681 0.459670 0.342730
0.372978 0.459707 0.334968
0.411334 0.461767 0.327349
0.452219 0.464839 0.319803
0.493104 0.467911 0.312257
0.533990 0.470982 0.304711
0.574875 0.474054 0.297164
0.613210 0.477413 0.290722
0.648994 0.481059 0.285382
0.684778 0.484705 0.280043
0.720563 0.488352 0.274704
0.756347 0.491998 0.269365
0.787697 0.494845 0.264762
0.810179 0.496093 0.261631
0.832660 0.497341 0.258500
0.855141 0.498589 0.255369
0.877622 0.499837 0.252237
0.897691 0.500436 0.249130
0.905697 0.497785 0.246137
0.913702 0.495135 0.243144
0.921707 0.492485 0.240152
0.929713 0.489834 0.237159
0.937718 0.487184 0.234167
0.154010 0.514377 0.430821
0.166497 0.510614 0.424982
0.178985 0.506850 0.419143
0.191472 0.503087 0.413304
0.203959 0.499323 0.407465
0.216447 0.495560 0.401626
0.245472 0.494325 0.393767
0.277806 0.493596 0.385504
0.310139 0.492866 0.377241
0.342473 0.492137 0.368979
0.374806 0.491407 0.360716
0.412298 0.492753 0.352454
0.452369 0.495137 0.344192
0.492440 0.497521 0.335930
0.532511 0.499905 0.327668
0.572582 0.502289 0.319407
0.610364 0.505069 0.312176
0.645858 0.508245 0.305976
0.681352 0.511422 0.299777
0.716846 0.514598 0.293577
0.752340 0.517774 0.287377
0.783581 0.520217 0.281900
0.806318 0.521193 0.277865
0.829055 0.522168 0.273831
0.851792 0.523144 0.269796
0.874528 0.524120 0.265762
0.894872 0.524461 0.261762
0.903246 0.521630 0.257938
0.911621 0.518799 0.254113
0.919995 0.515968 0.250289
0.928370 0.513137 0.246464
0.936745 0.510306 0.242640
0.163913 0.552672 0.460595
0.175738 0.548348 0.454445
0.187564 0.544025 0.448295
0.199390 0.539702 0.442144
0.211216 0.535379 0.435994
0.223042 0.531055 0.429844
0.251154 0.529089 0.421516
0.282524 0.527594 0.412753
0.313894 0.526098 0.403990
0.345264 0.524603 0.395227
0.376634 0.523108 0.386464
0.413262 0.523740 0.377558
0.452519 0.525436 0.368581
0.491775 0.527132 0.359603
0.531032 0.528828 0.350626
0.570289 0.530524 0.341649
0.607519 0.532725 0.333631
0.642722 0.535431 0.326570
0.677926 0.538138 0.319510
0.713129 0.540844 0.312450
0.748333 0.543551 0.305390
0.779466 0.545590 0.299038
0.802458 0.546293 0.294100
0.825450 0.546996 0.289162
0.848442 0.547699 0.284224
0.871434 0.548402 0.279286
0.892052 0.548486 0.274395
0.900796 0.545475 0.269739
0.909539 0.542463 0.265082
0.918283 0.539452 0.260426
0.927027 0.536440 0.255770
0.935771 0.533429 0.251113
0.179982 0.587432 0.488658
0.191041 0.582779 0.482406
0.202101 0.578125 0.476154
0.213161 0.573471 0.469902
0.224221 0.568817 0.463650
0.235281 0.564164 0.457398
0.262267 0.561635 0.448880
0.292438 0.559531 0.439908
0.322610 0.557427 0.430937
0.352781 0.555323 0.421965
0.382953 0.553219 0.412993
0.418413 0.553242 0.403757
0.456518 0.554329 0.394389
0.494624 0.555415 0.385020
0.532729 0.556502 0.375652
0.570834 0.557588 0.366283
0.607179 0.559280 0.357778
0.641765 0.561576 0.350136
0.676351 0.563872 0.342494
0.710936 0.566168 0.334852
0.745522 0.568464 0.327210
0.776265 0.570170 0.320222
0.799320 0.570695 0.314541
0.822376 0.571220 0.308860
0.845432 0.571745 0.303179
0.868488 0.572270 0.297498
0.889219 0.572193 0.291844
0.898330 0.569106 0.286324
0.907440 0.566020 0.280804
0.916550 0.562934 0.275284
0.925661 0.559848 0.269764
0.934771 0.556761 0.264244
0.202217 0.618659 0.515009
0.212406 0.613904 0.508865
0.222596 0.609149 0.502721
0.232785 0.604395 0.496577
0.242975 0.599640 0.490433
0.253164 0.594885 0.484289
0.278811 0.591963 0.475858
0.307549 0.589407 0.466970
0.336287 0.586852 0.458081
0.365024 0.584296 0.449193
0.393762 0.581741 0.440304
0.427752 0.581260 0.431051
0.464369 0.581815 0.421616
0.500985 0.582371 0.412180
0.537601 0.582927 0.402745
0.574217 0.583483 0.393309
0.609346 0.584733 0.384619
0.642986 0.586679 0.376674
0.676627 0.588624 0.368729
0.710268 0.590569 0.360783
0.743909 0.592515 0.352838
0.773978 0.593959 0.345453
0.796906 0.594400 0.339189
0.819834 0.594840 0.332925
0.842761 0.595281 0.326661
0.865689 0.595722 0.320397
0.886374 0.595580 0.314107
0.895848 0.592525 0.307692
0.905322 0.589470 0.301277
0.914796 0.586414 0.294862
0.924270 0.583359 0.288447
0.933744 0.580304 0.282032
0.224452 0.649886 0.541360
0.233771 0.645030 0.535324
0.243090 0.640174 0.529288
0.252409 0.635318 0.523252
0.261729 0.630462 0.517216
0.271048 0.625606 0.511180
0.295354 0.622291 0.502836
0.322659 0.619284 0.494031
0.349963 0.616277 0.485226
0.377268 0.613270 0.476421
0.404572 0.610263 0.467616
0.437092 0.609277 0.458346
0.472219 0.609302 0.448843
0.507346 0.609327 0.439341
0.542473 0.609352 0.429838
0.577600 0.609377 0.420335
0.611512 0.610187 0.411460
0.644208 0.611782 0.403211
0.676904 0.613376 0.394963
0.709599 0.614971 0.386714
0.742295 0.616565 0.378466
0.771692 0.617747 0.370684
0.794492 0.618104 0.363837
0.817291 0.618461 0.356990
0.840090 0.618817 0.350143
0.862890 0.619174 0.343296
0.883529 0.618967 0.336371
0.893367 0.615943 0.329061
0.903204 0.612919 0.321751
0.913042 0.609895 0.314441
0.922880 0.606870 0.307131
0.932718 0.603846 0.299821
0.246687 0.681113 0.567711
0.255136 0.676156 0.561783
0.263585 0.671199 0.555855
0.272034 0.666241 0.549927
0.280482 0.661284 0.543999
0.288931 0.656327 0.538071
0.311898 0.652618 0.529815
0.337769 0.649160 0.521093
0.363640 0.645702 0.512371
0.389511 0.642243 0.503649
0.415382 0.638785 0.494927
0.446431 0.637295 0.485640
0.480069 0.636789 0.476070
0.513707 0.636283 0.466501
0.547346 0.635778 0.456931
0.580984 0.635272 0.447361
0.613678 0.635641 0.438301
0.645429 0.636884 0.429749
0.677180 0.638128 0.421197
0.708931 0.639372 0.412645
0.740682 0.640616 0.404093
0.769406 0.641536 0.395915
0.792077 0.641808 0.388485
0.814748 0.642081 0.381055
0.837419 0.642354 0.373625
0.860091 0.642626 0.366195
0.880683 0.642355 0.358635
0.890885 0.639362 0.350430
0.901087 0.636368 0.342225
0.911288 0.633375 0.334019
0.921490 0.630382 0.325814
0.931692 0.627389 0.317609
0.268923 0.712340 0.594062
0.276501 0.707282 0.588242
0.284079 0.702223 0.582422
0.291658 0.697165 0.576602
0.299236 0.692106 0.570782
0.306814 0.687048 0.564962
0.328442 0.682946 0.556793
0.352879 0.679037 0.548154
0.377317 0.675127 0.539516
0.401754 0.671217 0.530877
0.426191 0.667307 0.522238
0.455770 0.665313 0.512934
0.487919 0.664276 0.503298
0.520069 0.663239 0.493661
0.552218 0.662203 0.484024
0.584367 0.661166 0.474387
0.615845 0.661094 0.465141
0.646651 0.661987 0.456286
0.677457 0.662880 0.447431
0.708262 0.663773 0.438576
0.739068 0.664666 0.429721
0.767120 0.665324 0.421147
0.789663 0.665513 0.413133
0.812206 0.665701 0.405120
0.834749 0.665890 0.397107
0.857292 0.666079 0.389094
0.877838 0.665742 0.380899
0.888404 0.662780 0.371799
0.898969 0.659818 0.362698
0.909534 0.656855 0.353598
0.920100 0.653893 0.344498
0.930665 0.650931 0.335397
0.295048 0.738900 0.617182
0.301717 0.733882 0.611565
0.308386 0.728863 0.605948
0.315055 0.723844 0.600331
0.321724 0.718826 0.594714
0.328393 0.713807 0.589097
0.348537 0.709479 0.581163
0.371375 0.705288 0.572766
0.394214 0.701098 0.564369
0.417053 0.696908 0.555972
0.439892 0.692718 0.547574
0.467807 0.690362 0.538443
0.498262 0.688924 0.528944
0.528716 0.687487 0.519445
0.559170 0.686049 0.509946
0.589624 0.684611 0.500447
0.619686 0.684205 0.491239
0.649354 0.684832 0.482321
0.679022 0.685459 0.473404
0.708690 0.686086 0.464487
0.738358 0.686713 0.455570
0.765566 0.687192 0.446851
0.787853 0.687377 0.438528
0.810141 0.687562 0.430206
0.832428 0.687747 0.421883
0.854716 0.687931 0.413561
0.875108 0.687613 0.405005
0.886024 0.684775 0.395282
0.896940 0.681938 0.385559
0.907855 0.679100 0.375837
0.918771 0.676263 0.366114
0.929687 0.673425 0.356391
0.328955 0.756127 0.633840
0.334637 0.751430 0.628617
0.340318 0.746733 0.623393
0.345999 0.742036 0.618169
0.351680 0.737339 0.612946
0.357362 0.732642 0.607722
0.375733 0.728419 0.600318
0.396643 0.724291 0.592479
0.417553 0.720162 0.584639
0.438463 0.716034 0.576799
0.459373 0.711905 0.568959
0.485241 0.709476 0.560378
0.513588 0.707896 0.551427
0.541935 0.706316 0.542475
0.570282 0.704736 0.533524
0.598630 0.703156 0.524572
0.626876 0.702631 0.515848
0.655020 0.703161 0.507351
0.683165 0.703692 0.498854
0.711309 0.704222 0.490357
0.739454 0.704753 0.481860
0.765476 0.705220 0.473501
0.787254 0.705561 0.465417
0.809032 0.705903 0.457333
0.830809 0.706244 0.449249
0.852587 0.706585 0.441165
0.872609 0.706449 0.432795
0.883848 0.703924 0.422995
0.895087 0.701398 0.413195
0.906326 0.698873 0.403395
0.917566 0.696348 0.393595
0.928805 0.693823 0.383795
0.362862 0.773354 0.650498
0.367556 0.768979 0.645668
0.372249 0.764604 0.640838
0.376943 0.760228 0.636008
0.381637 0.755853 0.631177
0.386330 0.751478 0.626347
0.402930 0.747360 0.619473
0.421911 0.743293 0.612191
0.440892 0.739226 0.604909
0.459873 0.735160 0.597626
0.478854 0.731093 0.590344
0.502674 0.728589 0.582314
0.528915 0.726867 0.573910
0.555155 0.725145 0.565506
0.581395 0.723422 0.557102
0.607635 0.721700 0.548698
0.634066 0.721056 0.540457
0.660686 0.721490 0.532381
0.687307 0.721924 0.524304
0.713928 0.722358 0.516228
0.740549 0.722792 0.508151
0.765386 0.723248 0.500152
0.786654 0.723745 0.492306
0.807922 0.724243 0.484460
0.829190 0.724741 0.476615
0.850458 0.725239 0.468769
0.870109 0.725285 0.460585
0.881672 0.723072 0.450708
0.893235 0.720859 0.440831
0.904797 0.718646 0.430954
0.916360 0.716433 0.421077
0.927923 0.714220 0.411200
0.396769 0.790581 0.667157
0.400475 0.786528 0.662720
0.404181 0.782474 0.658283
0.407887 0.778421 0.653846
0.411593 0.774367 0.649409
0.415299 0.770313 0.644972
0.430127 0.766300 0.638628
0.447179 0.762296 0.631903
0.464231 0.758291 0.625178
0.481283 0.754286 0.618453
0.498335 0.750281 0.611729
0.520108 0.747703 0.604249
0.544241 0.745838 0.596393
0.568374 0.743974 0.588536
0.592507 0.742109 0.580680
0.616640 0.740245 0.572823
0.641255 0.739482 0.565067
0.666353 0.739819 0.557411
0.691450 0.740157 0.549754
0.716548 0.740494 0.542098
0.741645 0.740832 0.534442
0.765296 0.741275 0.526802
0.786054 0.741930 0.519195
0.806813 0.742584 0.511588
0.827571 0.743238 0.503981
0.848330 0.743893 0.496373
0.867609 0.744121 0.488375
0.879496 0.742221 0.478421
0.891382 0.740320 0.468467
0.903268 0.738419 0.458513
0.915155 0.736518 0.448559
0.927041 0.734618 0.438604
0.430676 0.807808 0.683815
0.433394 0.804076 0.679771
0.436113 0.800345 0.675728
0.438831 0.796613 0.671684
0.441549 0.792881 0.667640
0.444268 0.789149 0.663597
0.457323 0.785241 0.657783
0.472447 0.781298 0.651616
0.487570 0.777355 0.645448
0.502693 0.773412 0.639281
0.517816 0.769468 0.633113
0.537541 0.766816 0.626185
0.559567 0.764810 0.618876
0.581594 0.762803 0.611567
0.603620 0.760796 0.604258
0.625646 0.758790 0.596949
0.648445 0.757907 0.589676
0.672019 0.758148 0.582440
0.695593 0.758389 0.575204
0.719167 0.758630 0.567968
0.742741 0.758872 0.560733
0.765206 0.759303 0.553452
0.785455 0.760114 0.546084
0.805703 0.760925 0.538715
0.825952 0.761736 0.531346
0.846201 0.762547 0.523978
0.865110 0.762958 0.516165
0.877320 0.761369 0.506134
0.889530 0.759781 0.496103
0.901739 0.758192 0.486071
0.913949 0.756604 0.476040
0.926159 0.755015 0.466009
0.464748 0.823220 0.699100
0.466539 0.819808 0.695428
0.468330 0.816396 0.691756
0.470121 0.812984 0.688084
0.471913 0.809572 0.684412
0.473704 0.806161 0.680740
0.484997 0.802394 0.675445
0.498191 0.798555 0.669826
0.511385 0.794717 0.664207
0.524578 0.790879 0.658588
0.537772 0.787041 0.652969
0.555440 0.784361 0.646596
0.575345 0.782261 0.639844
0.595250 0.780160 0.633093
0.615155 0.778059 0.626342
0.635060 0.775958 0.619591
0.656025 0.774993 0.612829
0.678051 0.775163 0.606054
0.700077 0.775333 0.599280
0.722103 0.775504 0.592506
0.744129 0.775674 0.585731
0.765381 0.776113 0.578877
0.785087 0.777091 0.571864
0.804793 0.778070 0.564850
0.824499 0.779048 0.557837
0.844205 0.780026 0.550824
0.862713 0.780634 0.543345
0.875230 0.779394 0.533542
0.887747 0.778154 0.523739
0.900265 0.776914 0.513936
0.912782 0.775674 0.504132
0.925300 0.774434 0.494329
0.499641 0.829556 0.707515
0.500809 0.826456 0.704107
0.501976 0.823355 0.700699
0.503143 0.820254 0.697290
0.504311 0.817153 0.693882
0.505478 0.814052 0.690474
0.515057 0.810605 0.685643
0.526318 0.807088 0.680528
0.537579 0.803572 0.675412
0.548840 0.800055 0.670297
0.560101 0.796538 0.665181
0.575664 0.794063 0.659382
0.593378 0.792109 0.653241
0.611092 0.790155 0.647100
0.628806 0.788201 0.640959
0.646521 0.786246 0.634818
0.665556 0.785382 0.628695
0.685911 0.785609 0.622589
0.706267 0.785835 0.616482
0.726623 0.786061 0.610376
0.746979 0.786288 0.604270
0.766882 0.786838 0.598174
0.785879 0.788037 0.592101
