Assets/1__3DArt/KimSe/artstation_asset/LUTs_pasterls/CUBE/Emerald Oasis 04 S.cube
# Enhanced with VOXCOLOR algorithms
LUT_3D_SIZE 8
DOMAIN_MIN 0.000000 0.000000 0.000000
DOMAIN_MAX 0.903226 0.903226 0.903226
0.101961 0.156863 0.149020
0.188421 0.167294 0.159331
0.339273 0.184704 0.166818
0.520485 0.207041 0.173333
0.700459 0.231842 0.180276
0.834077 0.253778 0.188339
0.906621 0.268087 0.195162
0.940456 0.275827 0.198940
0.103386 0.217670 0.186427
0.174338 0.220939 0.181071
0.303636 0.230788 0.170592
0.464944 0.245693 0.159388
0.633377 0.263899 0.151522
0.773434 0.282219 0.153454
0.866490 0.297101 0.165387
0.922223 0.308119 0.181810
0.113518 0.314796 0.247741
0.172490 0.309684 0.230005
0.285814 0.311592 0.204121
0.431987 0.319251 0.176587
0.590500 0.331207 0.153665
0.732804 0.345201 0.146316
0.838379 0.357680 0.156986
0.908278 0.367208 0.177852
0.142124 0.434616 0.328581
0.190124 0.421802 0.302684
0.289965 0.416410 0.266316
0.422934 0.417475 0.226840
0.571201 0.423754 0.191538
0.711077 0.433228 0.173668
0.821600 0.441547 0.177211
0.898481 0.446561 0.193383
0.198054 0.563210 0.423369
0.234042 0.545038 0.394179
0.320003 0.534012 0.353998
0.438874 0.529712 0.309294
0.574518 0.531251 0.266721
0.706700 0.536579 0.239009
0.815040 0.540216 0.230715
0.892461 0.539494 0.233389
0.299346 0.677365 0.520902
0.320391 0.658678 0.494443
0.387811 0.645869 0.459228
0.486645 0.639201 0.418900
0.602778 0.638283 0.377599
0.719275 0.641146 0.344245
0.817461 0.641669 0.322866
0.889535 0.637052 0.306897
0.434980 0.760193 0.605881
0.441934 0.744865 0.585326
0.486317 0.733828 0.559171
0.557791 0.727712 0.528141
0.646361 0.726484 0.493655
0.740135 0.728545 0.460160
0.823168 0.728233 0.431321
0.887468 0.722993 0.403600
0.571708 0.816996 0.677987
0.570783 0.806646 0.663816
0.593318 0.798673 0.645857
0.635678 0.794018 0.623221
0.693773 0.793026 0.595740
0.762393 0.794755 0.564902
0.828999 0.794434 0.535423
0.885166 0.789678 0.508686
0.107391 0.168364 0.177931
0.170586 0.177847 0.192296
0.294450 0.194633 0.210116
0.455186 0.217549 0.229959
0.628503 0.245070 0.250447
0.773353 0.274219 0.269583
0.862807 0.299388 0.284715
0.909822 0.317041 0.294639
0.108558 0.236664 0.227091
0.169395 0.238097 0.226624
0.281665 0.244306 0.225176
0.426481 0.255219 0.224679
0.584924 0.270595 0.226987
0.727345 0.290387 0.235628
0.830755 0.312797 0.251039
0.898547 0.336046 0.270539
0.115096 0.338357 0.299173
0.170452 0.331020 0.283744
0.273416 0.327755 0.263428
0.407423 0.329061 0.243206
0.556302 0.335243 0.227677
0.697153 0.347202 0.224358
0.809855 0.364022 0.235083
0.892468 0.384456 0.255661
0.135518 0.459402 0.386364
0.182280 0.444518 0.359077
0.275875 0.433629 0.323796
0.400823 0.427646 0.287483
0.542272 0.427123 0.256473
0.680946 0.432872 0.240438
0.798377 0.443123 0.241639
0.890140 0.456310 0.254859
0.178010 0.585891 0.480608
0.213192 0.566304 0.447139
0.295288 0.550399 0.403720
0.409822 0.539559 0.357620
0.542893 0.534592 0.315454
0.677150 0.535942 0.286948
0.794657 0.540301 0.274454
0.890152 0.545322 0.272734
0.260602 0.695569 0.568673
0.281213 0.676323 0.537769
0.346743 0.659984 0.497397
0.444858 0.648271 0.452508
0.563417 0.642202 0.407754
0.687016 0.642038 0.369997
0.797902 0.643441 0.341965
0.890755 0.643350 0.320636
0.379021 0.773335 0.638772
0.386916 0.758238 0.616108
0.432383 0.745297 0.586687
0.507175 0.736138 0.551909
0.602676 0.731762 0.513323
0.707354 0.732501 0.473320
0.804856 0.734057 0.435266
0.889552 0.733059 0.400277
0.506393 0.824542 0.693480
0.508764 0.815082 0.680328
0.535987 0.806816 0.663050
0.585269 0.801177 0.640775
0.652922 0.799126 0.612938
0.733268 0.801270 0.578479
0.812980 0.803966 0.541020
0.885435 0.803719 0.505988
0.113541 0.182988 0.215859
0.159805 0.191711 0.232695
0.261223 0.209554 0.259023
0.402208 0.235929 0.291121
0.564765 0.269683 0.325377
0.713132 0.308279 0.356500
0.812479 0.343540 0.379693
0.867784 0.369049 0.394713
0.115168 0.258523 0.275546
0.164608 0.258058 0.278846
0.260612 0.262646 0.286201
0.390178 0.273126 0.297214
0.539054 0.290054 0.311492
0.682104 0.314760 0.329165
0.792105 0.344931 0.349292
0.867165 0.377233 0.371079
0.119756 0.364240 0.355797
0.167633 0.354461 0.343907
0.258975 0.347895 0.331387
0.381482 0.346138 0.321102
0.522480 0.350500 0.315557
0.662897 0.363524 0.318759
0.781024 0.384765 0.331307
0.872071 0.412262 0.351296
0.134902 0.485553 0.446581
0.176767 0.468362 0.421911
0.261990 0.453559 0.392540
0.378469 0.443189 0.363804
0.514169 0.438850 0.340326
0.653076 0.442924 0.328460
0.776639 0.454537 0.329339
0.879430 0.471920 0.340183
0.168061 0.608614 0.538447
0.199940 0.587500 0.506647
0.275800 0.568097 0.466816
0.384326 0.552808 0.425298
0.514207 0.543399 0.387606
0.650920 0.541728 0.360820
0.776795 0.545643 0.346667
0.886607 0.552862 0.342510
0.235804 0.712868 0.617636
0.254331 0.693114 0.587969
0.315436 0.674451 0.549137
0.410044 0.659349 0.505763
0.528586 0.649593 0.462004
0.658141 0.646758 0.423073
0.780617 0.647813 0.392222
0.890782 0.649734 0.369496
0.336168 0.786108 0.675757
0.343581 0.771290 0.654479
0.387399 0.757260 0.625830
0.462146 0.746164 0.591042
0.561325 0.739602 0.551379
0.675318 0.739193 0.508006
0.786888 0.741879 0.465401
0.890256 0.743950 0.428278
0.446319 0.833382 0.717120
0.450411 0.824753 0.705618
0.479796 0.816483 0.689647
0.533209 0.810340 0.668177
0.608080 0.807761 0.640277
0.699731 0.810731 0.603219
0.794042 0.816860 0.560251
0.884309 0.821770 0.519732
0.120387 0.200286 0.262326
0.154938 0.209116 0.281010
0.238519 0.229494 0.313881
0.361729 0.261116 0.355912
0.511654 0.302748 0.401977
0.658078 0.350840 0.443743
0.761841 0.393798 0.473529
0.821581 0.423950 0.491917
0.122903 0.282543 0.330488
0.161202 0.281084 0.336839
0.242263 0.286317 0.351955
0.357788 0.299458 0.373601
0.497261 0.321199 0.399500
0.639209 0.352635 0.426541
0.752736 0.389140 0.451394
0.831487 0.425806 0.474117
0.126738 0.391284 0.415749
0.165192 0.379987 0.408041
0.244155 0.372579 0.404032
0.355285 0.371119 0.404464
0.489015 0.377210 0.409791
0.629171 0.393570 0.420783
0.751292 0.418334 0.436218
0.847544 0.448198 0.455202
0.138934 0.511574 0.507007
0.173543 0.492978 0.487361
0.248573 0.476571 0.466631
0.355618 0.464859 0.448022
0.485572 0.459803 0.434170
0.625250 0.464146 0.428476
0.754234 0.476417 0.430994
0.864949 0.494068 0.440243
0.166299 0.629863 0.594388
0.193030 0.608041 0.567959
0.260563 0.587135 0.536136
0.361251 0.569902 0.503408
0.486745 0.558435 0.473618
0.625612 0.555036 0.451493
0.758941 0.557775 0.438635
0.879728 0.564250 0.434086
0.223228 0.727828 0.664845
0.238586 0.708199 0.639977
0.293335 0.688757 0.607356
0.381997 0.672153 0.570341
0.497958 0.660406 0.532000
0.631622 0.655603 0.496140
0.763929 0.655528 0.466891
0.887729 0.657408 0.446286
0.307110 0.796747 0.713322
0.313300 0.782567 0.695589
0.353566 0.768438 0.670810
0.425429 0.756625 0.639619
0.524889 0.748937 0.602781
0.645372 0.747637 0.560818
0.768912 0.750680 0.519378
0.887807 0.754464 0.485101
0.397342 0.841154 0.744970
0.401982 0.833485 0.735547
0.431406 0.825703 0.721698
0.486112 0.819690 0.702223
0.565002 0.817130 0.675965
0.665437 0.820926 0.639483
0.772989 0.829853 0.595985
0.879684 0.839188 0.555142
0.127845 0.219734 0.316458
0.154867 0.230042 0.337180
0.225174 0.254114 0.374606
0.333608 0.291674 0.423343
0.471010 0.341093 0.477582
0.612202 0.396903 0.526888
0.716501 0.444092 0.560927
0.777924 0.475130 0.580624
0.131434 0.307884 0.390312
0.160114 0.307048 0.399354
0.228084 0.315226 0.420565
0.330865 0.333514 0.450634
0.461035 0.362176 0.486045
0.600318 0.400720 0.521142
0.715050 0.440971 0.549782
0.795067 0.476637 0.571875
0.135335 0.418283 0.477062
0.164126 0.407219 0.473637
0.230563 0.401755 0.477551
0.330180 0.403825 0.487892
0.456422 0.414695 0.503484
0.595790 0.435926 0.522451
0.720678 0.462717 0.541278
0.819797 0.490127 0.558952
0.146399 0.536078 0.565544
0.172641 0.517786 0.551867
0.236166 0.502539 0.540601
0.332599 0.492725 0.532933
0.455998 0.490072 0.529676
0.596116 0.496583 0.531753
0.729696 0.508930 0.537805
0.845784 0.523451 0.546548
0.170968 0.648360 0.646282
0.191397 0.627278 0.626867
0.248970 0.607253 0.605201
0.340042 0.590852 0.583702
0.459532 0.579977 0.564437
0.599524 0.576533 0.550071
0.739074 0.577972 0.541717
0.867745 0.581633 0.538982
0.221151 0.739347 0.707903
0.232742 0.720842 0.689448
0.279827 0.702350 0.665718
0.360535 0.686269 0.638526
0.471349 0.674440 0.609647
0.606615 0.668780 0.581625
0.746288 0.667379 0.558684
0.879825 0.667822 0.543352
0.291997 0.803924 0.748582
0.296713 0.790909 0.735320
0.332264 0.777738 0.716491
0.398971 0.766471 0.692079
0.495347 0.758801 0.662336
0.618513 0.757021 0.627518
0.750423 0.759783 0.593454
0.880476 0.763975 0.566684
0.363858 0.846023 0.773659
0.368192 0.839521 0.766487
0.395954 0.832805 0.755599
0.449239 0.827618 0.739769
0.528441 0.825603 0.717832
0.633488 0.829925 0.686591
0.750447 0.840255 0.649168
0.869597 0.852249 0.614630
0.135681 0.240626 0.376938
0.158889 0.254283 0.400751
0.221017 0.282484 0.440721
0.319233 0.324893 0.491999
0.446662 0.379523 0.549070
0.581963 0.439146 0.601057
0.685032 0.486645 0.636343
0.746890 0.515456 0.655620
0.140317 0.332842 0.452182
0.162359 0.334860 0.463882
0.220311 0.348010 0.488841
0.312596 0.372896 0.523656
0.434245 0.408978 0.564506
0.569884 0.453346 0.604533
0.684420 0.494137 0.635313
0.764447 0.524394 0.655866
0.144923 0.442970 0.536224
0.165822 0.434486 0.536480
0.221047 0.433880 0.546185
0.309662 0.442469 0.563716
0.427953 0.460660 0.587105
0.565265 0.487743 0.612932
0.691474 0.515207 0.635393
0.791487 0.536915 0.652479
0.156500 0.556742 0.618622
0.174992 0.540917 0.610111
0.227082 0.529943 0.606766
0.312265 0.525603 0.608585
0.427739 0.528884 0.615249
0.566518 0.540054 0.626077
0.702759 0.552995 0.637838
0.821221 0.563054 0.648387
0.181171 0.662205 0.690892
0.195193 0.643536 0.677712
0.242294 0.627079 0.665455
0.322519 0.614822 0.655140
0.433915 0.608062 0.647577
0.572348 0.607553 0.643964
0.715213 0.609268 0.643929
0.847705 0.610174 0.646286
0.229072 0.746068 0.743896
0.236674 0.729667 0.731181
0.275631 0.713940 0.716377
0.347009 0.700759 0.700286
0.449965 0.691482 0.683760
0.582775 0.687299 0.668391
0.725313 0.685905 0.656838
0.863326 0.685143 0.650350
0.292196 0.806281 0.778552
0.295193 0.794806 0.769169
0.325507 0.783572 0.756779
0.385408 0.774211 0.741165
0.475342 0.768043 0.722359
0.595786 0.766847 0.700660
0.729794 0.769461 0.680276
0.864297 0.773481 0.665530
0.351226 0.846268 0.799835
0.354406 0.840876 0.794453
0.379206 0.835615 0.786955
0.428637 0.831840 0.776438
0.504093 0.830840 0.762062
0.607571 0.835244 0.741723
0.726440 0.845102 0.717801
0.849938 0.857203 0.696672
0.143008 0.260711 0.438799
0.164623 0.279207 0.466542
0.222253 0.311374 0.507897
0.314277 0.356966 0.559001
0.435148 0.413949 0.615209
0.566225 0.474250 0.666526
0.668657 0.520151 0.701460
0.731280 0.545840 0.720100
0.148806 0.355617 0.511946
0.167061 0.361438 0.526144
0.218445 0.379651 0.552952
0.303293 0.410398 0.589410
0.418352 0.452460 0.632017
0.550629 0.500888 0.673974
0.664638 0.541259 0.705835
0.744255 0.566557 0.725541
0.154647 0.464235 0.590475
0.170311 0.458972 0.593286
0.217272 0.463738 0.606223
0.297102 0.479246 0.627663
0.408203 0.505089 0.655554
0.542380 0.538481 0.686114
0.668091 0.567827 0.712099
0.766825 0.586255 0.730253
0.167874 0.573314 0.665029
0.180518 0.560346 0.659798
0.223422 0.554470 0.661373
0.298829 0.556919 0.669443
0.406254 0.567989 0.683341
0.541394 0.586414 0.701866
0.676844 0.603375 0.720236
0.793537 0.613106 0.734988
0.194560 0.672073 0.728312
0.203018 0.655910 0.719076
0.241085 0.643852 0.713133
0.311282 0.637440 0.711073
0.413826 0.637467 0.713251
0.547417 0.643795 0.720354
0.688688 0.650547 0.730316
0.819238 0.653587 0.740456
0.243241 0.749411 0.773384
0.246669 0.734905 0.764310
0.278187 0.722471 0.755890
0.340549 0.713604 0.748758
0.434535 0.709285 0.743514
0.560981 0.710211 0.741503
0.700384 0.713132 0.743246
0.835995 0.715259 0.747902
0.302760 0.805393 0.803017
0.303317 0.795094 0.796078
0.328509 0.786000 0.788653
0.381462 0.779385 0.780861
0.463564 0.776228 0.772919
0.577072 0.777867 0.765572
0.706409 0.782810 0.760744
0.837384 0.788781 0.759813
0.353854 0.843118 0.821537
0.355193 0.838320 0.817250
0.376657 0.834386 0.812651
0.421484 0.832266 0.807425
0.491384 0.832832 0.801265
0.589038 0.837900 0.793471
0.702711 0.847281 0.785248
0.821498 0.858748 0.779617
0.149097 0.278378 0.499912
0.170463 0.302825 0.531242
0.225979 0.339284 0.573192
0.314560 0.387697 0.622814
0.431381 0.446143 0.676428
0.559645 0.506148 0.725685
0.661994 0.549929 0.760194
0.725607 0.571988 0.778946
0.156574 0.376581 0.569571
0.172940 0.385726 0.585306
0.220591 0.407945 0.612520
0.300859 0.443071 0.648668
0.411470 0.489458 0.690698
0.541072 0.540952 0.732654
0.654360 0.581610 0.765183
0.733093 0.604171 0.784947
0.164266 0.483624 0.641263
0.176567 0.480458 0.645218
0.218135 0.489159 0.659337
0.291944 0.510080 0.682114
0.397608 0.542358 0.711631
0.528404 0.582270 0.744510
0.651952 0.616231 0.773111
0.747117 0.636163 0.792959
0.179922 0.587922 0.707138
0.188003 0.576568 0.703449
0.224174 0.574511 0.707388
0.292231 0.582801 0.718609
0.392970 0.601495 0.736424
0.523342 0.629125 0.759821
0.654635 0.655009 0.783381
0.764984 0.671250 0.802542
0.209625 0.680275 0.761302
0.212771 0.665449 0.754080
0.243434 0.656854 0.751585
0.305471 0.656048 0.754350
0.400181 0.663833 0.762664
0.527182 0.680569 0.777338
0.662004 0.698915 0.795442
0.783846 0.712079 0.813197
0.260466 0.751580 0.798709
0.258973 0.737985 0.791581
0.283829 0.728249 0.786943
0.338500 0.723939 0.785568
0.424353 0.726123 0.788113
0.542622 0.736178 0.796177
0.673371 0.749843 0.808952
0.798384 0.761998 0.824056
0.318150 0.803232 0.823163
0.315360 0.793447 0.817701
0.335869 0.786179 0.813535
0.382909 0.782684 0.811239
0.457966 0.783935 0.811357
0.563157 0.791591 0.815298
0.682742 0.803493 0.823373
0.801779 0.816052 0.834629
0.363083 0.838255 0.838535
0.362548 0.833580 0.835183
0.381227 0.830725 0.832806
0.422239 0.830494 0.831666
0.487182 0.833552 0.831980
0.578312 0.841272 0.834297
0.683313 0.852695 0.838912
0.790738 0.865514 0.846147
