Assets/1__3DArt/KimSe/artstation_asset/LUTs_pasterls/CUBE/Emerald Oasis 01 S.cube
# Enhanced with VOXCOLOR algorithms
LUT_3D_SIZE 8
DOMAIN_MIN 0.000000 0.000000 0.000000
DOMAIN_MAX 0.903226 0.903226 0.903226
0.019608 0.019608 0.058824
0.141653 0.039084 0.059293
0.329979 0.064860 0.052762
0.533341 0.093309 0.045930
0.709232 0.120976 0.043793
0.812946 0.142398 0.049198
0.856577 0.155461 0.056518
0.872510 0.162369 0.061179
0.021954 0.115519 0.097245
0.127308 0.128532 0.086268
0.295190 0.146673 0.068880
0.482224 0.166940 0.051997
0.652225 0.186588 0.041091
0.767614 0.201768 0.041182
0.832842 0.210395 0.048014
0.868352 0.212705 0.055807
0.036301 0.259961 0.162366
0.124718 0.263837 0.141247
0.274162 0.271491 0.111385
0.447649 0.281039 0.081058
0.613825 0.290767 0.057146
0.739474 0.298428 0.047410
0.821511 0.301560 0.048991
0.871690 0.298475 0.054921
0.074571 0.425410 0.243650
0.145566 0.420550 0.215046
0.276980 0.418442 0.174665
0.437081 0.418255 0.131933
0.598297 0.419170 0.094925
0.729985 0.420100 0.073494
0.822314 0.418092 0.065890
0.881202 0.410126 0.064303
0.146377 0.586984 0.330894
0.199420 0.576325 0.298657
0.311718 0.568049 0.252706
0.456095 0.561884 0.202362
0.608214 0.557456 0.155802
0.739272 0.554102 0.123438
0.834125 0.548531 0.104128
0.895225 0.537354 0.089679
0.266932 0.711379 0.409222
0.302061 0.700798 0.379519
0.391735 0.692880 0.336962
0.513643 0.687182 0.288672
0.647208 0.683155 0.241148
0.766589 0.679785 0.203291
0.854128 0.673921 0.173962
0.910552 0.662961 0.144483
0.419994 0.790092 0.471183
0.439677 0.783008 0.448249
0.503384 0.778622 0.414782
0.595296 0.776240 0.375120
0.700321 0.775101 0.333630
0.798366 0.773915 0.297572
0.872347 0.770174 0.266625
0.921280 0.762347 0.231450
0.575769 0.839076 0.524376
0.584424 0.835579 0.509097
0.622175 0.834026 0.484372
0.681146 0.833911 0.453099
0.753144 0.834664 0.418678
0.825776 0.835258 0.388245
0.884342 0.834010 0.365180
0.925447 0.830098 0.342528
0.029571 0.043662 0.136808
0.126573 0.062037 0.146707
0.290930 0.089327 0.154950
0.480972 0.121580 0.163752
0.660081 0.155079 0.174585
0.782718 0.184633 0.187449
0.845705 0.206449 0.198226
0.874835 0.219512 0.204036
0.033594 0.155999 0.193986
0.127541 0.166317 0.189007
0.277167 0.180566 0.180204
0.448919 0.197214 0.172061
0.613833 0.214882 0.168114
0.738732 0.232049 0.171622
0.819457 0.247474 0.179830
0.869604 0.260194 0.188938
0.054186 0.307795 0.276287
0.136082 0.306447 0.255232
0.269670 0.306171 0.227121
0.426695 0.307510 0.199372
0.582810 0.310887 0.177992
0.711465 0.317006 0.169201
0.805980 0.324980 0.170495
0.872597 0.332972 0.176739
0.100628 0.471677 0.368538
0.164790 0.459889 0.334533
0.280207 0.447722 0.290031
0.422627 0.437189 0.244793
0.570788 0.429872 0.206804
0.701338 0.427523 0.184407
0.804188 0.428579 0.175133
0.881626 0.430234 0.172852
0.179595 0.623883 0.457065
0.223441 0.606559 0.416666
0.318161 0.588306 0.363019
0.443383 0.571763 0.306600
0.580615 0.558946 0.256088
0.708269 0.551708 0.220638
0.812732 0.547731 0.198289
0.894471 0.543793 0.182819
0.299766 0.735138 0.523419
0.324619 0.720041 0.487013
0.396585 0.704513 0.437265
0.499644 0.690526 0.382306
0.618584 0.679525 0.329099
0.734108 0.672563 0.285387
0.830619 0.667253 0.250694
0.908081 0.661004 0.220002
0.441497 0.802861 0.564857
0.452957 0.793567 0.538722
0.503068 0.784889 0.502005
0.580716 0.777627 0.458833
0.674797 0.772282 0.413064
0.769999 0.768956 0.369687
0.851241 0.765738 0.330210
0.917996 0.761052 0.291584
0.579316 0.843531 0.595017
0.584077 0.839599 0.579640
0.615199 0.836693 0.556492
0.667303 0.835029 0.527129
0.734291 0.834669 0.493364
0.806230 0.835400 0.458315
0.869727 0.835891 0.425641
0.922570 0.835132 0.395184
0.040582 0.078187 0.236017
0.118773 0.097321 0.252042
0.263380 0.128874 0.270840
0.441109 0.168847 0.291978
0.620848 0.213191 0.314701
0.758068 0.255749 0.336758
0.836958 0.289078 0.353655
0.876898 0.309645 0.363223
0.048090 0.206354 0.306809
0.126975 0.214418 0.306509
0.259055 0.227163 0.304602
0.418283 0.244004 0.303929
0.580909 0.264325 0.306720
0.715929 0.287757 0.315181
0.810192 0.312423 0.327456
0.872047 0.335986 0.340883
0.077765 0.363199 0.397118
0.147078 0.357581 0.378664
0.264112 0.352070 0.354289
0.407304 0.348713 0.330444
0.557265 0.349245 0.312372
0.690836 0.356312 0.305614
0.796040 0.369765 0.308781
0.875322 0.387270 0.318066
0.135502 0.522777 0.490597
0.188468 0.506112 0.457565
0.287268 0.487074 0.414545
0.413777 0.469382 0.370776
0.551592 0.456107 0.333785
0.681954 0.450987 0.311296
0.792798 0.453689 0.301965
0.883935 0.461539 0.301221
0.224475 0.663457 0.573184
0.257775 0.642163 0.533281
0.335195 0.617369 0.480014
0.442229 0.593341 0.423578
0.565307 0.573518 0.372386
0.688515 0.561504 0.335033
0.798879 0.556385 0.311120
0.895342 0.555463 0.296530
0.346541 0.760783 0.627229
0.361905 0.743437 0.591962
0.417013 0.723154 0.542651
0.501314 0.703174 0.487063
0.604379 0.686084 0.431857
0.713077 0.674392 0.384176
0.814190 0.667168 0.346203
0.906771 0.662392 0.316434
0.478653 0.817789 0.654219
0.483127 0.807566 0.629827
0.519774 0.796176 0.594286
0.581742 0.785251 0.550978
0.661791 0.776078 0.503083
0.750080 0.769900 0.454195
0.834786 0.765965 0.408760
0.915312 0.762928 0.369016
0.599225 0.850797 0.669298
0.600498 0.846750 0.655725
0.623847 0.842877 0.634960
0.666309 0.839930 0.607480
0.724101 0.838507 0.573901
0.790976 0.839383 0.534430
0.856646 0.841875 0.493306
0.919872 0.844488 0.455722
0.052199 0.123903 0.349101
0.116881 0.146367 0.368871
0.245851 0.184222 0.393928
0.412688 0.233543 0.422667
0.591044 0.289944 0.453271
0.738349 0.345640 0.482165
0.829099 0.389226 0.503999
0.877089 0.415814 0.516796
0.065232 0.265291 0.427162
0.128472 0.273292 0.430806
0.244581 0.287560 0.434246
0.393306 0.307851 0.439247
0.554720 0.333697 0.447204
0.698665 0.364687 0.459712
0.803455 0.397353 0.475400
0.873443 0.428158 0.492088
0.106230 0.423690 0.516816
0.160337 0.416576 0.503085
0.261073 0.409790 0.484243
0.392202 0.405843 0.465532
0.537974 0.406857 0.451318
0.676576 0.416089 0.446677
0.789843 0.433294 0.451512
0.877427 0.455605 0.462924
0.176993 0.575794 0.603195
0.216592 0.557648 0.575913
0.298896 0.536235 0.539175
0.410912 0.515705 0.500782
0.540061 0.499560 0.467233
0.670293 0.492262 0.445671
0.786297 0.494350 0.436649
0.885943 0.503466 0.437055
0.276766 0.702985 0.674096
0.299069 0.681107 0.640826
0.360143 0.654149 0.594578
0.450417 0.626644 0.543927
0.560364 0.602364 0.496124
0.678332 0.585540 0.459042
0.791125 0.576811 0.434798
0.896300 0.574521 0.421409
0.400778 0.786120 0.715509
0.407856 0.768992 0.686665
0.447998 0.747282 0.643969
0.515073 0.724351 0.593650
0.602596 0.703020 0.541257
0.702711 0.686365 0.493158
0.804464 0.675245 0.454600
0.905934 0.668840 0.427077
0.523762 0.833080 0.732430
0.522915 0.823226 0.712980
0.547792 0.810952 0.682419
0.594950 0.798033 0.642946
0.660413 0.785999 0.596817
0.739471 0.776712 0.546590
0.823999 0.770836 0.499393
0.913112 0.767667 0.461195
0.628244 0.859335 0.738683
0.627002 0.855531 0.728131
0.643162 0.851259 0.710842
0.675678 0.847519 0.686414
0.722789 0.845219 0.654573
0.782012 0.845919 0.613627
0.846959 0.849724 0.568299
0.917279 0.854796 0.527199
0.064020 0.180901 0.468445
0.119573 0.209707 0.490359
0.236713 0.255062 0.517525
0.394280 0.313190 0.548307
0.569733 0.379473 0.580832
0.722748 0.444450 0.611324
0.821171 0.493908 0.634192
0.874425 0.523036 0.647529
0.084757 0.331030 0.546659
0.134283 0.342400 0.553911
0.236673 0.361460 0.561284
0.376268 0.387705 0.569854
0.536107 0.420254 0.580497
0.686349 0.457548 0.594414
0.797969 0.494162 0.610494
0.872226 0.525883 0.626629
0.138693 0.486583 0.627919
0.177947 0.481955 0.620441
0.263551 0.478579 0.608565
0.383728 0.478373 0.596013
0.525629 0.482897 0.586032
0.667829 0.494505 0.582944
0.785886 0.512119 0.587659
0.877101 0.532634 0.597905
0.222928 0.627896 0.700646
0.249029 0.612420 0.682189
0.315762 0.593877 0.655449
0.414503 0.575552 0.625954
0.535781 0.560252 0.598525
0.665091 0.551632 0.579139
0.783143 0.550576 0.570094
0.885935 0.555460 0.569651
0.332534 0.740022 0.755892
0.344313 0.721176 0.732883
0.390693 0.696900 0.698573
0.466085 0.670670 0.658822
0.564149 0.645479 0.618850
0.676238 0.624818 0.585048
0.788168 0.610673 0.561764
0.896052 0.603041 0.549018
0.456788 0.809266 0.784687
0.457138 0.794745 0.765091
0.485049 0.775097 0.733490
0.537609 0.752752 0.693719
0.611245 0.729875 0.649505
0.702064 0.709036 0.605788
0.800899 0.692796 0.569922
0.904888 0.682133 0.545545
0.570256 0.847214 0.794554
0.565987 0.838908 0.781583
0.581948 0.827649 0.758931
0.616977 0.814711 0.727350
0.669417 0.801310 0.687948
0.738493 0.789199 0.642231
0.819449 0.780378 0.598646
0.911144 0.775266 0.564933
0.660192 0.867818 0.796600
0.657715 0.864595 0.789590
0.668551 0.860587 0.776897
0.692785 0.856694 0.757447
0.730014 0.853823 0.730338
0.780639 0.853823 0.692903
0.842003 0.857546 0.649874
0.914580 0.863299 0.610986
0.075553 0.249462 0.581297
0.125818 0.287970 0.604122
0.234514 0.340364 0.629433
0.384276 0.403355 0.656448
0.555489 0.472647 0.684108
0.710174 0.538255 0.709609
0.812642 0.586304 0.728517
0.869064 0.613622 0.739275
0.106560 0.400145 0.651276
0.146832 0.419193 0.661646
0.238697 0.445911 0.671429
0.370111 0.479108 0.681281
0.526564 0.517152 0.691777
0.678909 0.556581 0.703729
0.793070 0.590751 0.716326
0.867800 0.616169 0.727717
0.174222 0.546985 0.717851
0.202353 0.549384 0.716790
0.275648 0.554284 0.712287
0.385913 0.562067 0.706386
0.522696 0.572847 0.701007
0.665031 0.586440 0.699090
0.783484 0.600505 0.701887
0.873153 0.612855 0.707840
0.270700 0.674311 0.773355
0.286063 0.665577 0.764162
0.339997 0.655413 0.749016
0.427235 0.645069 0.730819
0.540676 0.635557 0.712297
0.666801 0.627879 0.697373
0.782688 0.622368 0.688916
0.882402 0.618994 0.686423
0.387085 0.770862 0.812339
0.390636 0.758049 0.799786
0.425630 0.741339 0.779351
0.489181 0.722065 0.753889
0.577068 0.701400 0.726184
0.682346 0.680418 0.700221
0.789455 0.661383 0.680795
0.893095 0.646496 0.669314
0.508327 0.827716 0.830433
0.504258 0.817495 0.819739
0.523979 0.803233 0.800806
0.566340 0.785676 0.775106
0.629362 0.765582 0.744364
0.711148 0.743703 0.711407
0.803336 0.723228 0.683159
0.902427 0.707255 0.663896
0.611655 0.858382 0.835932
0.605928 0.852351 0.828819
0.616888 0.843877 0.815141
0.644339 0.833286 0.794550
0.687656 0.820998 0.767149
0.747772 0.807713 0.733327
0.821758 0.795954 0.700233
0.908469 0.787613 0.674878
0.689402 0.874820 0.836915
0.686746 0.872326 0.832830
0.694969 0.869194 0.825135
0.714368 0.865895 0.812572
0.744940 0.862977 0.794046
0.788083 0.861774 0.766923
0.843076 0.863469 0.734763
0.910831 0.867267 0.705545
0.086196 0.321884 0.673735
0.133976 0.371753 0.696757
0.236307 0.429087 0.718689
0.379058 0.491953 0.739870
0.545245 0.557346 0.760314
0.699497 0.616352 0.778572
0.804455 0.657982 0.791922
0.863435 0.681234 0.799349
0.129965 0.465839 0.731396
0.165232 0.493942 0.743705
0.249406 0.527693 0.754396
0.373216 0.565666 0.764004
0.524274 0.605934 0.773020
0.674969 0.643704 0.781956
0.788790 0.672486 0.790373
0.862203 0.690515 0.797011
0.211171 0.600131 0.782487
0.232472 0.610308 0.785799
0.296708 0.623806 0.786718
0.398151 0.639732 0.786102
0.528174 0.656951 0.784856
0.666881 0.672823 0.784561
0.782160 0.683999 0.786256
0.866956 0.689763 0.789108
0.317639 0.712502 0.822467
0.325819 0.710565 0.819642
0.370375 0.709538 0.813531
0.448112 0.708898 0.805181
0.553472 0.707994 0.795714
0.673823 0.705115 0.787113
0.783899 0.699304 0.781616
0.875747 0.691815 0.779381
0.437317 0.794677 0.848494
0.435176 0.787415 0.843014
0.462175 0.779022 0.833437
0.516893 0.769070 0.820655
0.596246 0.757107 0.805706
0.694002 0.741762 0.790465
0.793100 0.724082 0.778409
0.886633 0.707324 0.771136
0.552973 0.841297 0.859214
0.545963 0.834788 0.854370
0.560558 0.826436 0.845328
0.596358 0.815736 0.832287
0.652000 0.802264 0.815729
0.725903 0.784949 0.796799
0.808982 0.765922 0.780020
0.896783 0.749044 0.768694
0.646283 0.866282 0.862198
0.639669 0.862169 0.858855
0.648028 0.856839 0.852305
0.671412 0.849941 0.841951
0.709396 0.841222 0.827504
0.762750 0.830221 0.808754
0.827959 0.818723 0.789917
0.903246 0.809246 0.775575
0.713726 0.879592 0.862863
0.710878 0.877744 0.860646
0.717952 0.875691 0.857015
0.735123 0.873501 0.851066
0.762272 0.871307 0.841972
0.800339 0.869593 0.827892
0.847944 0.869207 0.810506
0.905188 0.870248 0.794417
0.095592 0.390567 0.743621
0.143704 0.452242 0.766962
0.241599 0.512681 0.785667
0.378208 0.572431 0.801383
0.539116 0.630729 0.815311
0.691602 0.680625 0.827304
0.797714 0.714336 0.835884
0.858417 0.732729 0.840256
0.155075 0.525651 0.789940
0.188011 0.561419 0.802888
0.266453 0.599244 0.813109
0.383120 0.638450 0.821412
0.527369 0.677727 0.828502
0.673721 0.712271 0.834909
0.785377 0.736489 0.840346
0.856754 0.749971 0.843855
0.250009 0.646580 0.827984
0.266597 0.662180 0.833131
0.323737 0.680964 0.836659
0.417048 0.701831 0.838921
0.539103 0.723391 0.840343
0.671530 0.742270 0.841752
0.781536 0.754688 0.843715
0.859847 0.760316 0.845615
0.364848 0.744405 0.855723
0.367111 0.746647 0.855916
0.404075 0.751678 0.854960
0.473485 0.758415 0.852980
0.570585 0.765659 0.850246
0.683575 0.770978 0.847622
0.785800 0.772217 0.846353
0.866787 0.769866 0.846495
0.485407 0.813587 0.872278
0.477832 0.809548 0.870317
0.498186 0.807040 0.867257
0.545663 0.805176 0.863071
0.617633 0.803042 0.857912
0.707956 0.798881 0.852520
0.797437 0.792026 0.848707
0.876468 0.783940 0.847358
0.593980 0.851575 0.878123
0.583418 0.847194 0.876211
0.593630 0.843261 0.873247
0.624530 0.839125 0.869014
0.674883 0.834155 0.863486
0.742491 0.827167 0.857069
0.815525 0.818414 0.851814
0.886843 0.809653 0.849307
0.677269 0.871752 0.879358
0.668896 0.868851 0.878042
0.674986 0.866068 0.876063
0.695715 0.863064 0.873043
0.730584 0.859524 0.868744
0.779363 0.854881 0.863024
0.835521 0.849505 0.857423
0.894599 0.844515 0.853764
0.734566 0.882280 0.879280
0.731150 0.881100 0.878480
0.737305 0.880154 0.877725
0.753236 0.879407 0.876637
0.778705 0.878841 0.874842
0.813762 0.878519 0.871558
0.854495 0.878577 0.866949
0.898520 0.879081 0.862435
