Assets/1__3DArt/KimSe/artstation_asset/LUTs_pasterls/CUBE/Emerald Oasis 02.cube
# Enhanced with VOXCOLOR algorithms
LUT_3D_SIZE 8
DOMAIN_MIN 0.000000 0.000000 0.000000
DOMAIN_MAX 0.903226 0.903226 0.903226
0.109804 0.133333 0.149020
0.198195 0.146305 0.157548
0.345094 0.166089 0.163882
0.519828 0.191445 0.169842
0.693774 0.220469 0.176822
0.825507 0.248044 0.185770
0.899692 0.267508 0.194076
0.935413 0.278481 0.198737
0.108991 0.192371 0.185348
0.187460 0.202364 0.184486
0.322707 0.221120 0.181500
0.488515 0.246344 0.178853
0.659704 0.275251 0.178638
0.798192 0.301909 0.183559
0.883496 0.319133 0.191195
0.928699 0.326369 0.197071
0.112476 0.291880 0.250403
0.180934 0.294033 0.241325
0.304978 0.305937 0.228115
0.462004 0.325570 0.214131
0.629676 0.350290 0.202490
0.772959 0.374204 0.198146
0.867497 0.389069 0.200122
0.921151 0.393361 0.203028
0.126285 0.418908 0.338644
0.184663 0.411117 0.322720
0.297125 0.412727 0.300007
0.444046 0.423012 0.274566
0.605618 0.440312 0.250355
0.750293 0.459652 0.234125
0.851604 0.471617 0.226701
0.912647 0.473278 0.222483
0.156720 0.558873 0.442362
0.204722 0.541776 0.421425
0.304285 0.532181 0.391559
0.438351 0.531320 0.356990
0.589584 0.539142 0.321981
0.730916 0.552445 0.293956
0.835901 0.560986 0.275172
0.903148 0.560259 0.260492
0.219694 0.683052 0.543095
0.255581 0.662091 0.521330
0.338548 0.645136 0.490021
0.454057 0.635360 0.452819
0.587527 0.634531 0.413532
0.717800 0.642127 0.378887
0.821290 0.648393 0.351572
0.892697 0.647120 0.326871
0.318401 0.766718 0.618612
0.340678 0.748241 0.600224
0.402598 0.730445 0.573392
0.493079 0.717362 0.540606
0.601197 0.711875 0.504679
0.712848 0.716126 0.471037
0.809289 0.722591 0.442636
0.882237 0.723700 0.415443
0.436704 0.817230 0.670676
0.446888 0.803516 0.656645
0.485934 0.788692 0.636641
0.547687 0.776475 0.611695
0.626047 0.769913 0.583323
0.714594 0.772901 0.555285
0.800144 0.781040 0.531623
0.872275 0.786352 0.511824
0.119478 0.150395 0.186208
0.186564 0.162076 0.197843
0.310876 0.183828 0.214148
0.469831 0.213984 0.234293
0.640268 0.249987 0.257047
0.782508 0.285216 0.279261
0.869881 0.310200 0.295439
0.915149 0.324139 0.304258
0.117673 0.217725 0.232770
0.183628 0.227187 0.236800
0.302259 0.246332 0.242825
0.454203 0.273371 0.251618
0.619369 0.305812 0.263601
0.763176 0.337789 0.278828
0.858209 0.360326 0.293057
0.911585 0.371510 0.302517
0.118386 0.322138 0.307570
0.178579 0.324937 0.303095
0.290161 0.336875 0.297289
0.435826 0.356657 0.292244
0.597378 0.382281 0.289843
0.743474 0.408804 0.293116
0.845709 0.427508 0.300162
0.906863 0.435526 0.306052
0.126352 0.449890 0.401228
0.178111 0.444267 0.389132
0.280855 0.446418 0.372440
0.419053 0.456176 0.354047
0.576112 0.472537 0.336818
0.723482 0.491947 0.325858
0.831982 0.505886 0.321834
0.900705 0.510537 0.319897
0.146879 0.586447 0.503432
0.189040 0.573118 0.486141
0.280808 0.565022 0.461696
0.408726 0.563625 0.433128
0.558146 0.569392 0.403606
0.703962 0.580782 0.378959
0.817009 0.589673 0.361930
0.892938 0.591191 0.348728
0.194398 0.705549 0.594628
0.226327 0.688835 0.576805
0.304158 0.673996 0.551018
0.416726 0.663943 0.519643
0.551786 0.660620 0.485339
0.689107 0.665044 0.453138
0.801985 0.670430 0.426495
0.883316 0.670754 0.402711
0.274863 0.786086 0.657635
0.296579 0.770963 0.643147
0.357779 0.755070 0.621704
0.449833 0.741757 0.594666
0.563326 0.733706 0.563783
0.683864 0.734098 0.532758
0.789834 0.738644 0.505009
0.872834 0.740731 0.478751
0.376319 0.834428 0.697324
0.389970 0.823250 0.687302
0.433589 0.809912 0.672249
0.502010 0.797380 0.652624
0.589431 0.788340 0.629300
0.687733 0.787139 0.604581
0.781522 0.792358 0.582202
0.862304 0.797895 0.563104
0.129077 0.171653 0.234150
0.180385 0.182596 0.248900
0.284777 0.205949 0.273586
0.426649 0.240345 0.305800
0.588150 0.283225 0.342594
0.733954 0.327350 0.377788
0.830221 0.360009 0.402688
0.882939 0.378744 0.416416
0.127710 0.246857 0.289698
0.180538 0.255702 0.297839
0.281486 0.275383 0.312087
0.417360 0.304663 0.331898
0.572952 0.341395 0.356288
0.718488 0.379970 0.382865
0.821571 0.409535 0.405141
0.882742 0.426453 0.419641
0.127186 0.355122 0.371082
0.176764 0.357960 0.370827
0.273235 0.370186 0.372754
0.404541 0.390980 0.377741
0.556777 0.418751 0.386408
0.703359 0.449266 0.399626
0.812759 0.473234 0.413917
0.882001 0.486507 0.424767
0.131462 0.481987 0.466482
0.174773 0.477503 0.458510
0.264944 0.480420 0.449068
0.390916 0.490753 0.439888
0.539809 0.507775 0.432648
0.687401 0.528797 0.430460
0.802609 0.545932 0.432959
0.879861 0.554776 0.436010
0.145086 0.613107 0.564240
0.180596 0.602238 0.551179
0.262147 0.595909 0.533689
0.380257 0.595353 0.513702
0.523534 0.601054 0.493282
0.670493 0.612275 0.476437
0.790493 0.622571 0.465386
0.875648 0.627234 0.457469
0.180496 0.725154 0.645368
0.207805 0.711554 0.631795
0.278186 0.699317 0.612576
0.384038 0.690662 0.589087
0.515943 0.687188 0.562985
0.656403 0.690370 0.537648
0.777086 0.695772 0.516414
0.868419 0.698315 0.498186
0.243590 0.801799 0.697740
0.263584 0.789384 0.686973
0.321422 0.776084 0.671141
0.411193 0.764280 0.650835
0.525525 0.756039 0.627000
0.651560 0.754494 0.601878
0.765921 0.757783 0.578747
0.859003 0.760989 0.557517
0.324858 0.848725 0.727954
0.340183 0.839723 0.721000
0.385556 0.828537 0.710289
0.457203 0.817215 0.695938
0.550202 0.807789 0.678366
0.656449 0.804161 0.658757
0.758661 0.806953 0.640137
0.848529 0.812299 0.624241
0.138955 0.196760 0.291890
0.179387 0.208524 0.310164
0.267166 0.233651 0.341454
0.392260 0.271317 0.382527
0.541516 0.319291 0.429496
0.685290 0.370457 0.474377
0.786368 0.409821 0.506241
0.844321 0.433037 0.524014
0.138882 0.279327 0.354428
0.179852 0.288206 0.366112
0.263985 0.308714 0.387060
0.383246 0.340006 0.415743
0.526801 0.380221 0.450123
0.670314 0.424136 0.485954
0.778790 0.459725 0.515043
0.846528 0.481837 0.534049
0.138110 0.390135 0.438833
0.176902 0.392913 0.442166
0.257696 0.405583 0.450935
0.373229 0.427539 0.464949
0.513711 0.457389 0.483698
0.657894 0.491413 0.506121
0.772659 0.520051 0.527286
0.849462 0.538215 0.543114
0.140304 0.514375 0.532195
0.174869 0.510347 0.527956
0.251344 0.513992 0.525498
0.363045 0.525274 0.525496
0.500913 0.543500 0.528507
0.645862 0.566455 0.535728
0.766179 0.586770 0.545513
0.851691 0.599778 0.554404
0.149554 0.638209 0.622627
0.178519 0.628735 0.613533
0.248818 0.624030 0.603069
0.354820 0.624915 0.592227
0.488537 0.631641 0.582068
0.633171 0.643730 0.574875
0.758123 0.655936 0.571824
0.851989 0.664021 0.571116
0.176303 0.741539 0.693036
0.199172 0.730045 0.683350
0.261151 0.720379 0.670662
0.357891 0.713973 0.655611
0.482833 0.711877 0.639051
0.622368 0.715383 0.622959
0.748325 0.721638 0.609972
0.848605 0.726790 0.600071
0.224624 0.813275 0.736167
0.242531 0.802955 0.728609
0.295615 0.792453 0.718064
0.380431 0.783195 0.704646
0.491725 0.776506 0.688739
0.619353 0.774853 0.671501
0.739734 0.777848 0.655650
0.841673 0.782418 0.642169
0.285927 0.858650 0.759348
0.301609 0.851550 0.754654
0.346619 0.842925 0.747664
0.418560 0.833943 0.738316
0.513608 0.825895 0.726731
0.624841 0.821721 0.713333
0.734065 0.823087 0.700304
0.832230 0.828221 0.689679
0.149353 0.225200 0.357946
0.183149 0.240105 0.380452
0.258071 0.267625 0.416468
0.368065 0.307353 0.462478
0.503726 0.357463 0.514309
0.641302 0.411505 0.563466
0.743520 0.454177 0.598626
0.804565 0.479857 0.618408
0.150920 0.314394 0.424782
0.182777 0.324555 0.439670
0.252608 0.346329 0.465293
0.356286 0.378965 0.499475
0.486554 0.420733 0.539537
0.624495 0.466836 0.580220
0.735059 0.505314 0.612857
0.807460 0.530230 0.634323
0.150419 0.426201 0.508419
0.180076 0.429275 0.514575
0.246541 0.442530 0.528396
0.346514 0.465306 0.548847
0.473813 0.496221 0.574561
0.612549 0.531863 0.603092
0.729884 0.562971 0.628758
0.812693 0.584110 0.648018
0.151663 0.546044 0.596067
0.178538 0.542140 0.594691
0.241890 0.546344 0.597800
0.338855 0.558440 0.605201
0.463898 0.577634 0.616540
0.603280 0.601895 0.631487
0.726174 0.624349 0.647366
0.818561 0.640434 0.661370
0.158619 0.661019 0.676592
0.181968 0.652153 0.670575
0.241349 0.648682 0.666040
0.334415 0.651032 0.663249
0.456316 0.659173 0.662460
0.595327 0.672573 0.664568
0.722496 0.686697 0.669593
0.823491 0.697902 0.676312
0.180108 0.754401 0.735730
0.199393 0.744172 0.729071
0.253270 0.736675 0.721988
0.339903 0.732714 0.714649
0.455228 0.732831 0.707338
0.589966 0.737854 0.701024
0.717949 0.745688 0.697345
0.825077 0.753610 0.696785
0.217512 0.820166 0.770697
0.233599 0.811378 0.765589
0.281656 0.803486 0.759538
0.360042 0.797200 0.752433
0.465309 0.793201 0.744321
0.590517 0.793076 0.735703
0.713612 0.796934 0.728509
0.822087 0.803200 0.724144
0.261939 0.863249 0.788862
0.277109 0.857814 0.785723
0.320349 0.851886 0.781805
0.390292 0.845958 0.776970
0.484119 0.840663 0.771167
0.596691 0.837798 0.764412
0.710235 0.839115 0.758116
0.814803 0.844392 0.754264
0.160352 0.256162 0.429579
0.191438 0.277400 0.457306
0.258150 0.308483 0.495917
0.356575 0.349083 0.542279
0.479699 0.397672 0.592686
0.608698 0.448648 0.639366
0.709060 0.489027 0.672803
0.771432 0.513521 0.691859
0.163353 0.350168 0.496435
0.190394 0.363629 0.514515
0.250736 0.387481 0.542412
0.342434 0.420720 0.577792
0.460509 0.461527 0.617901
0.590294 0.505251 0.657391
0.699084 0.541451 0.688679
0.773337 0.564906 0.709401
0.163273 0.460754 0.574876
0.187571 0.465151 0.583185
0.243988 0.479450 0.599595
0.331639 0.502677 0.622624
0.446748 0.533236 0.650498
0.577571 0.567576 0.680113
0.693410 0.597304 0.706071
0.778870 0.617757 0.725758
0.164431 0.574320 0.653349
0.186543 0.570772 0.653766
0.240256 0.575631 0.660068
0.325131 0.588389 0.671545
0.438059 0.608018 0.687305
0.569489 0.632260 0.706103
0.690939 0.654658 0.724828
0.786582 0.671345 0.741436
0.170985 0.679369 0.722242
0.190881 0.670767 0.718036
0.242071 0.668255 0.717253
0.324187 0.671952 0.719749
0.434489 0.681559 0.725306
0.565305 0.696246 0.733972
0.690643 0.711651 0.744829
0.794981 0.724766 0.757009
0.190738 0.762484 0.770521
0.207996 0.752931 0.765645
0.255839 0.747063 0.762297
0.333680 0.745342 0.760476
0.438971 0.747974 0.760197
0.565854 0.755315 0.761926
0.691529 0.765244 0.766276
0.801473 0.775720 0.773699
0.222263 0.821740 0.798772
0.237289 0.813943 0.795059
0.281378 0.808116 0.792071
0.353645 0.804632 0.789691
0.451648 0.803798 0.787868
0.570918 0.806507 0.786899
0.692234 0.812532 0.787888
0.803125 0.820992 0.792076
0.255763 0.861719 0.813802
0.270035 0.857501 0.811419
0.311015 0.853921 0.809651
0.377765 0.851130 0.808358
0.468022 0.849346 0.807418
0.578056 0.849472 0.806787
0.691670 0.852570 0.807264
0.798895 0.858961 0.810494
0.171332 0.286554 0.498912
0.201752 0.316453 0.532403
0.263823 0.352207 0.572289
0.354519 0.393569 0.616500
0.468078 0.439297 0.662381
0.588881 0.484244 0.703371
0.686059 0.518562 0.732416
0.748669 0.538609 0.749146
0.175452 0.383472 0.562623
0.200741 0.401611 0.583873
0.256007 0.428156 0.612525
0.340193 0.461866 0.646610
0.449412 0.500798 0.683761
0.571413 0.539991 0.718995
0.676345 0.570719 0.746263
0.750081 0.589514 0.764317
0.175803 0.490998 0.633305
0.197894 0.497509 0.643367
0.248907 0.513254 0.660679
0.329005 0.536954 0.683744
0.435559 0.566753 0.710783
0.558991 0.598544 0.738508
0.670903 0.624634 0.762161
0.755724 0.641756 0.780189
0.177376 0.597186 0.701297
0.197307 0.594398 0.702861
0.245667 0.600166 0.710557
0.323091 0.613722 0.723525
0.427627 0.633785 0.740698
0.551846 0.657576 0.760396
0.669419 0.678705 0.779393
0.764527 0.694169 0.796342
0.184677 0.692342 0.758866
0.202750 0.684107 0.755664
0.249180 0.682579 0.756810
0.324390 0.687683 0.762047
0.426591 0.698906 0.770979
0.550126 0.715037 0.783249
0.671423 0.731463 0.797294
0.775224 0.745559 0.812391
0.204896 0.766170 0.797955
0.220851 0.757168 0.794009
0.265025 0.752645 0.792737
0.337150 0.752935 0.794158
0.435238 0.758081 0.798230
0.555008 0.768140 0.805267
0.676300 0.780595 0.815076
0.785277 0.793513 0.827790
0.233961 0.819506 0.821032
0.248175 0.812452 0.818013
0.289691 0.808200 0.816806
0.357762 0.807057 0.817399
0.450262 0.809205 0.819776
0.563715 0.815228 0.824304
0.681031 0.824321 0.831419
0.790556 0.835557 0.841886
0.261031 0.856269 0.833875
0.274497 0.852867 0.831917
0.313622 0.851035 0.831540
0.377720 0.850851 0.832669
0.464797 0.852381 0.835214
0.571562 0.856103 0.839285
0.682831 0.862244 0.845209
0.789042 0.870881 0.854013
0.181342 0.314229 0.561278
0.212061 0.354090 0.600787
0.272028 0.395209 0.641441
0.358326 0.437838 0.682746
0.465567 0.481237 0.723488
0.579386 0.520322 0.758523
0.672141 0.547581 0.782789
0.733243 0.561192 0.796500
0.187024 0.413760 0.621547
0.211902 0.436788 0.645510
0.264760 0.465972 0.674024
0.344738 0.500130 0.705827
0.448297 0.537376 0.739212
0.564034 0.572314 0.769829
0.664316 0.597253 0.792818
0.735800 0.610301 0.807668
0.188115 0.517415 0.684145
0.209186 0.525909 0.695298
0.257407 0.542868 0.712467
0.333317 0.566913 0.734378
0.434711 0.596068 0.759462
0.552722 0.625701 0.784577
0.660376 0.648296 0.805462
0.742786 0.661573 0.821125
0.190493 0.615754 0.741884
0.208810 0.613591 0.743940
0.254056 0.620071 0.751938
0.327320 0.634333 0.765029
0.427107 0.654963 0.782147
0.546649 0.678793 0.801520
0.660525 0.699106 0.819858
0.753328 0.713204 0.836005
0.199191 0.701419 0.789208
0.215083 0.693447 0.786376
0.258278 0.692700 0.788338
0.329530 0.699089 0.794813
0.427393 0.712042 0.805356
0.546757 0.730161 0.819488
0.664746 0.748268 0.835172
0.766299 0.763465 0.851423
0.220983 0.767114 0.820653
0.234648 0.758528 0.817029
0.275976 0.755042 0.816800
0.344763 0.757081 0.820022
0.439132 0.764724 0.826653
0.555101 0.778004 0.837017
0.673089 0.793733 0.850270
0.779307 0.809350 0.865887
0.249172 0.815212 0.839330
0.261858 0.808813 0.836700
0.301357 0.805782 0.836536
0.366991 0.806600 0.838946
0.456718 0.811550 0.843995
0.567162 0.821261 0.852239
0.681447 0.834170 0.863512
0.787580 0.848522 0.877677
0.271631 0.848697 0.849780
0.284452 0.846037 0.848624
0.322176 0.845568 0.849361
0.384619 0.847521 0.852107
0.470135 0.852028 0.856931
0.575400 0.859505 0.864261
0.684866 0.869327 0.874024
0.788271 0.880775 0.886270
