Assets/1__3DArt/KimSe/artstation_asset/LUTs_pasterls/CUBE/Emerald Oasis 04 S.cube
# Enhanced with VOXCOLOR algorithms
LUT_3D_SIZE 32
0.101961 0.156863 0.149020
0.123576 0.159471 0.151598
0.145191 0.162078 0.154176
0.166806 0.164686 0.156754
0.188421 0.167294 0.159331
0.210036 0.169901 0.161909
0.250590 0.174562 0.163656
0.294932 0.179633 0.165237
0.339273 0.184704 0.166818
0.383615 0.189775 0.168399
0.427956 0.194846 0.169980
0.473836 0.200738 0.171637
0.520485 0.207041 0.173333
0.567134 0.213343 0.175029
0.613783 0.219646 0.176724
0.660432 0.225949 0.178420
0.700459 0.231842 0.180276
0.733864 0.237326 0.182292
0.767268 0.242810 0.184308
0.800673 0.248294 0.186323
0.834077 0.253778 0.188339
0.861374 0.258499 0.190231
0.876456 0.261695 0.191874
0.891538 0.264891 0.193518
0.906621 0.268087 0.195162
0.921703 0.271283 0.196805
0.934747 0.274091 0.198234
0.937601 0.274959 0.198587
0.940456 0.275827 0.198940
0.943311 0.276695 0.199294
0.946165 0.277563 0.199647
0.949020 0.278431 0.200000
0.102317 0.172065 0.158372
0.122963 0.174225 0.159970
0.143609 0.176385 0.161569
0.164255 0.178545 0.163168
0.184901 0.180705 0.164766
0.205546 0.182865 0.166365
0.244686 0.187049 0.166964
0.287525 0.191637 0.167363
0.330364 0.196225 0.167762
0.373203 0.200813 0.168161
0.416042 0.205401 0.168560
0.460833 0.210840 0.169154
0.506600 0.216704 0.169847
0.552367 0.222567 0.170539
0.598134 0.228431 0.171232
0.643902 0.234295 0.171925
0.683689 0.239856 0.173087
0.717496 0.245114 0.174720
0.751303 0.250372 0.176353
0.785110 0.255630 0.177985
0.818917 0.260888 0.179618
0.846968 0.265488 0.181407
0.863508 0.268772 0.183511
0.880048 0.272056 0.185615
0.896588 0.275340 0.187718
0.913128 0.278624 0.189822
0.927603 0.281556 0.191812
0.931750 0.282728 0.193235
0.935898 0.283900 0.194658
0.940045 0.285072 0.196081
0.944193 0.286243 0.197504
0.948340 0.287415 0.198927
0.102674 0.187266 0.167724
0.122350 0.188979 0.168343
0.142027 0.190691 0.168962
0.161703 0.192404 0.169582
0.181380 0.194116 0.170201
0.201056 0.195829 0.170820
0.238783 0.199535 0.170271
0.280119 0.203641 0.169488
0.321455 0.207746 0.168705
0.362791 0.211851 0.167922
0.404127 0.215956 0.167139
0.447829 0.220941 0.166671
0.492714 0.226367 0.166361
0.537600 0.231792 0.166050
0.582485 0.237217 0.165740
0.627371 0.242642 0.165429
0.666918 0.247871 0.165899
0.701127 0.252903 0.167148
0.735337 0.257935 0.168398
0.769546 0.262967 0.169647
0.803756 0.267999 0.170896
0.832562 0.272477 0.172584
0.850559 0.275849 0.175147
0.868557 0.279222 0.177711
0.886555 0.282594 0.180274
0.904553 0.285966 0.182838
0.920458 0.289022 0.185390
0.925899 0.290497 0.187882
0.931339 0.291973 0.190375
0.936780 0.293448 0.192868
0.942220 0.294924 0.195361
0.947661 0.296399 0.197854
0.103030 0.202468 0.177076
0.121737 0.203733 0.176716
0.140445 0.204998 0.176356
0.159152 0.206263 0.175996
0.177859 0.207528 0.175636
0.196566 0.208793 0.175276
0.232879 0.212022 0.173578
0.272712 0.215644 0.171613
0.312545 0.219267 0.169648
0.352379 0.222889 0.167683
0.392212 0.226512 0.165718
0.434825 0.231043 0.164188
0.478829 0.236030 0.162874
0.522833 0.241016 0.161561
0.566836 0.246002 0.160247
0.610840 0.250989 0.158934
0.650147 0.255885 0.158710
0.684759 0.260691 0.159576
0.719371 0.265497 0.160443
0.753983 0.270303 0.161309
0.788595 0.275109 0.162175
0.818155 0.279466 0.163760
0.837611 0.282927 0.166784
0.857067 0.286387 0.169807
0.876523 0.289847 0.172831
0.895979 0.293308 0.175854
0.913314 0.296488 0.178968
0.920048 0.298267 0.182530
0.926781 0.300046 0.186093
0.933514 0.301825 0.189655
0.940248 0.303604 0.193218
0.946981 0.305383 0.196780
0.103386 0.217670 0.186427
0.121124 0.218487 0.185088
0.138862 0.219304 0.183749
0.156600 0.220122 0.182410
0.174338 0.220939 0.181071
0.192076 0.221756 0.179731
0.226975 0.224509 0.176886
0.265305 0.227648 0.173739
0.303636 0.230788 0.170592
0.341967 0.233927 0.167445
0.380297 0.237067 0.164298
0.421822 0.241145 0.161705
0.464944 0.245693 0.159388
0.508065 0.250240 0.157071
0.551187 0.254788 0.154755
0.594309 0.259335 0.152438
0.633377 0.263899 0.151522
0.668391 0.268479 0.152005
0.703406 0.273059 0.152488
0.738420 0.277639 0.152971
0.773434 0.282219 0.153454
0.803749 0.286455 0.154937
0.824663 0.290004 0.158420
0.845576 0.293552 0.161904
0.866490 0.297101 0.165387
0.887404 0.300649 0.168871
0.906170 0.303953 0.172546
0.914196 0.306036 0.177178
0.922223 0.308119 0.181810
0.930249 0.310202 0.186442
0.938275 0.312285 0.191075
0.946302 0.314368 0.195707
0.103743 0.232871 0.195779
0.120511 0.233241 0.193461
0.137280 0.233611 0.191142
0.154049 0.233981 0.188824
0.170818 0.234350 0.186505
0.187586 0.234720 0.184187
0.221071 0.236996 0.180193
0.257899 0.239652 0.175864
0.294727 0.242309 0.171535
0.331555 0.244965 0.167206
0.368382 0.247622 0.162877
0.408818 0.251247 0.159221
0.451058 0.255356 0.155902
0.493298 0.259464 0.152582
0.535538 0.263573 0.149263
0.577778 0.267682 0.145943
0.616606 0.271913 0.144333
0.652023 0.276267 0.144433
0.687440 0.280621 0.144533
0.722857 0.284975 0.144633
0.758274 0.289329 0.144733
0.789342 0.293444 0.146114
0.811714 0.297081 0.150057
0.834086 0.300717 0.154000
0.856458 0.304354 0.157944
0.878829 0.307991 0.161887
0.899026 0.311419 0.166123
0.908345 0.313805 0.171826
0.917664 0.316192 0.177528
0.926984 0.318579 0.183230
0.936303 0.320965 0.188932
0.945622 0.323352 0.194634
0.106660 0.258755 0.212162
0.122719 0.258588 0.209106
0.138777 0.258420 0.206051
0.154836 0.258253 0.202995
0.170895 0.258085 0.199939
0.186954 0.257918 0.196883
0.219462 0.259699 0.191920
0.255260 0.261870 0.186575
0.291057 0.264042 0.181230
0.326855 0.266213 0.175885
0.362652 0.268384 0.170541
0.402277 0.271579 0.165886
0.443815 0.275285 0.161575
0.485354 0.278992 0.157265
0.526892 0.282698 0.152955
0.568430 0.286404 0.148645
0.606955 0.290296 0.146232
0.642466 0.294371 0.145717
0.677977 0.298447 0.145202
0.713488 0.302523 0.144687
0.748999 0.306599 0.144172
0.780402 0.310474 0.145125
0.803588 0.313946 0.149012
0.826774 0.317419 0.152899
0.849960 0.320892 0.156786
0.873146 0.324364 0.160673
0.894153 0.327634 0.164929
0.904260 0.329890 0.171024
0.914367 0.332147 0.177119
0.924475 0.334403 0.183215
0.934582 0.336659 0.189310
0.944690 0.338915 0.195405
0.110089 0.286775 0.229952
0.125490 0.286053 0.226207
0.140891 0.285330 0.222462
0.156292 0.284607 0.218717
0.171693 0.283884 0.214972
0.187093 0.283162 0.211227
0.218712 0.284446 0.205330
0.253574 0.286131 0.199003
0.288436 0.287817 0.192675
0.323298 0.289502 0.186348
0.358159 0.291188 0.180021
0.397029 0.293957 0.174379
0.437901 0.297268 0.169081
0.478774 0.300580 0.163783
0.519647 0.303891 0.158484
0.560519 0.307202 0.153186
0.598727 0.310751 0.149949
0.634271 0.314538 0.148772
0.669815 0.318326 0.147596
0.705358 0.322113 0.146420
0.740902 0.325900 0.145244
0.772555 0.329511 0.145702
0.796426 0.332769 0.149430
0.820298 0.336028 0.153158
0.844170 0.339286 0.156886
0.868041 0.342544 0.160614
0.889733 0.345599 0.164779
0.900528 0.347638 0.171132
0.911323 0.349677 0.177486
0.922117 0.351716 0.183839
0.932912 0.353755 0.190192
0.943706 0.355794 0.196546
0.113518 0.314796 0.247741
0.128261 0.313518 0.243307
0.143004 0.312240 0.238873
0.157747 0.310962 0.234439
0.172490 0.309684 0.230005
0.187233 0.308406 0.225571
0.217962 0.309193 0.218741
0.251888 0.310392 0.211431
0.285814 0.311592 0.204121
0.319740 0.312792 0.196811
0.353667 0.313992 0.189501
0.391780 0.316335 0.182873
0.431987 0.319251 0.176587
0.472194 0.322167 0.170300
0.512401 0.325083 0.164014
0.552609 0.327999 0.157727
0.590500 0.331207 0.153665
0.626076 0.334705 0.151828
0.661652 0.338204 0.149990
0.697228 0.341703 0.148153
0.732804 0.345201 0.146316
0.764707 0.348548 0.146280
0.789265 0.351592 0.149849
0.813822 0.354636 0.153417
0.838379 0.357680 0.156986
0.862936 0.360724 0.160554
0.885314 0.363564 0.164630
0.896796 0.365386 0.171241
0.908278 0.367208 0.177852
0.919760 0.369030 0.184464
0.931241 0.370852 0.191075
0.942723 0.372674 0.197686
0.116947 0.342816 0.265530
0.131032 0.340983 0.260407
0.145117 0.339149 0.255284
0.159202 0.337316 0.250161
0.173287 0.335483 0.245038
0.187372 0.333650 0.239915
0.217212 0.333939 0.232151
0.250202 0.334653 0.223859
0.283193 0.335367 0.215566
0.316183 0.336081 0.207273
0.349174 0.336795 0.198981
0.386531 0.338714 0.191367
0.426073 0.341234 0.184092
0.465615 0.343755 0.176818
0.505156 0.346276 0.169543
0.544698 0.348797 0.162268
0.582273 0.351662 0.157382
0.617881 0.354872 0.154883
0.653490 0.358082 0.152385
0.689098 0.361293 0.149886
0.724707 0.364503 0.147387
0.756860 0.367586 0.146858
0.782103 0.370415 0.150267
0.807346 0.373245 0.153676
0.832588 0.376075 0.157085
0.857831 0.378904 0.160495
0.880895 0.381530 0.164480
0.893064 0.383134 0.171350
0.905233 0.384739 0.178219
0.917402 0.386344 0.185088
0.929571 0.387948 0.191957
0.941740 0.389553 0.198826
0.120376 0.370836 0.283319
0.133803 0.368448 0.277507
0.147230 0.366059 0.271695
0.160657 0.363671 0.265883
0.174084 0.361283 0.260071
0.187511 0.358894 0.254260
0.216461 0.358686 0.245562
0.248516 0.358914 0.236286
0.280571 0.359142 0.227011
0.312626 0.359371 0.217736
0.344681 0.359599 0.208461
0.381283 0.361092 0.199861
0.420159 0.363218 0.191598
0.459035 0.365343 0.183335
0.497911 0.367469 0.175072
0.536787 0.369595 0.166809
0.574045 0.372118 0.161098
0.609686 0.375039 0.157938
0.645327 0.377961 0.154779
0.680968 0.380882 0.151619
0.716609 0.383804 0.148459
0.749013 0.386623 0.147436
0.774941 0.389238 0.150686
0.800869 0.391854 0.153935
0.826798 0.394469 0.157185
0.852726 0.397084 0.160435
0.876476 0.399495 0.164331
0.889332 0.400882 0.171458
0.902188 0.402270 0.178585
0.915044 0.403657 0.185713
0.927901 0.405045 0.192840
0.940757 0.406433 0.199967
0.129761 0.401952 0.304982
0.142485 0.399127 0.298767
0.155210 0.396301 0.292552
0.167935 0.393476 0.286338
0.180659 0.390650 0.280123
0.193384 0.387825 0.273908
0.221475 0.387192 0.264681
0.252640 0.386998 0.254852
0.283804 0.386805 0.245022
0.314969 0.386611 0.235193
0.346133 0.386417 0.225363
0.381947 0.387538 0.216130
0.420086 0.389317 0.207196
0.458225 0.391096 0.198261
0.496364 0.392874 0.189327
0.534503 0.394653 0.180392
0.571262 0.396864 0.174017
0.606641 0.399506 0.170202
0.642019 0.402149 0.166387
0.677398 0.404791 0.162572
0.712777 0.407434 0.158757
0.745083 0.409974 0.157114
0.771242 0.412309 0.159814
0.797401 0.414644 0.162515
0.823561 0.416979 0.165216
0.849720 0.419314 0.167916
0.873718 0.421431 0.171275
0.886907 0.422462 0.177926
0.900096 0.423492 0.184578
0.913286 0.424523 0.191229
0.926475 0.425553 0.197880
0.939665 0.426584 0.204531
0.142124 0.434616 0.328581
0.154124 0.431413 0.322106
0.166124 0.428209 0.315632
0.178124 0.425006 0.309158
0.190124 0.421802 0.302684
0.202124 0.418598 0.296209
0.229371 0.417578 0.286656
0.259668 0.416994 0.276486
0.289965 0.416410 0.266316
0.320262 0.415827 0.256146
0.350559 0.415243 0.245976
0.385568 0.416019 0.236288
0.422934 0.417475 0.226840
0.460301 0.418930 0.217392
0.497667 0.420386 0.207944
0.535033 0.421842 0.198496
0.571201 0.423754 0.191538
0.606170 0.426123 0.187071
0.641139 0.428491 0.182603
0.676108 0.430860 0.178135
0.711077 0.433228 0.173668
0.743111 0.435481 0.171341
0.769274 0.437503 0.173298
0.795437 0.439525 0.175255
0.821600 0.441547 0.177211
0.847763 0.443568 0.179168
0.871790 0.445354 0.181767
0.885135 0.445957 0.187575
0.898481 0.446561 0.193383
0.911827 0.447164 0.199190
0.925172 0.447767 0.204998
0.938518 0.448371 0.210806
0.154486 0.467281 0.352180
0.165762 0.463699 0.345446
0.177037 0.460117 0.338712
0.188313 0.456536 0.331978
0.199588 0.452954 0.325244
0.210863 0.449372 0.318511
0.237267 0.447964 0.308630
0.266696 0.446990 0.298120
0.296126 0.446016 0.287610
0.325555 0.445042 0.277099
0.354984 0.444068 0.266589
0.389189 0.444499 0.256445
0.425783 0.445632 0.246484
0.462376 0.446765 0.236522
0.498969 0.447898 0.226561
0.535563 0.449031 0.216600
0.571139 0.450645 0.209059
0.605699 0.452739 0.203939
0.640258 0.454834 0.198819
0.674818 0.456928 0.193699
0.709377 0.459023 0.188578
0.741139 0.460988 0.185569
0.767306 0.462697 0.186782
0.793472 0.464406 0.187994
0.819639 0.466114 0.189207
0.845806 0.467823 0.190420
0.869861 0.469276 0.192258
0.883363 0.469453 0.197223
0.896865 0.469629 0.202188
0.910367 0.469805 0.207152
0.923869 0.469981 0.212117
0.937371 0.470158 0.217082
0.166849 0.499945 0.375779
0.177400 0.495985 0.368785
0.187951 0.492025 0.361792
0.198501 0.488065 0.354798
0.209052 0.484106 0.347805
0.219603 0.480146 0.340812
0.245163 0.478349 0.330604
0.273725 0.476986 0.319754
0.302286 0.475622 0.308903
0.330848 0.474258 0.298053
0.359409 0.472894 0.287202
0.392810 0.472980 0.276602
0.428631 0.473790 0.266128
0.464451 0.474600 0.255653
0.500272 0.475410 0.245178
0.536093 0.476220 0.234704
0.571078 0.477536 0.226580
0.605228 0.479356 0.220807
0.639378 0.481176 0.215034
0.673528 0.482997 0.209262
0.707678 0.484817 0.203489
0.739168 0.486496 0.199797
0.765338 0.487891 0.200265
0.791508 0.489287 0.200734
0.817678 0.490682 0.201203
0.843849 0.492078 0.201672
0.867933 0.493199 0.202749
0.881592 0.492948 0.206871
0.895250 0.492697 0.210993
0.908908 0.492446 0.215114
0.922567 0.492195 0.219236
0.936225 0.491945 0.223358
0.179212 0.532609 0.399378
0.189038 0.528271 0.392125
0.198864 0.523933 0.384872
0.208690 0.519595 0.377619
0.218517 0.515257 0.370366
0.228343 0.510920 0.363113
0.253059 0.508735 0.352578
0.280753 0.506981 0.341388
0.308447 0.505227 0.330197
0.336141 0.503474 0.319006
0.363835 0.501720 0.307815
0.396431 0.501460 0.296760
0.431479 0.501947 0.285772
0.466527 0.502435 0.274784
0.501575 0.502922 0.263796
0.536622 0.503409 0.252807
0.571016 0.504426 0.244101
0.604757 0.505973 0.237676
0.638497 0.507519 0.231250
0.672238 0.509065 0.224825
0.705978 0.510611 0.218400
0.737196 0.512003 0.214024
0.763370 0.513085 0.213749
0.789544 0.514168 0.213474
0.815718 0.515250 0.213199
0.841891 0.516332 0.212923
0.866005 0.517121 0.213241
0.879820 0.516443 0.216519
0.893635 0.515765 0.219798
0.907449 0.515087 0.223076
0.921264 0.514409 0.226355
0.935078 0.513732 0.229633
0.198054 0.563210 0.423369
0.207051 0.558667 0.416071
0.216048 0.554124 0.408774
0.225045 0.549581 0.401477
0.234042 0.545038 0.394179
0.243039 0.540495 0.386882
0.266734 0.538054 0.376351
0.293369 0.536033 0.365174
0.320003 0.534012 0.353998
0.346637 0.531991 0.342821
0.373272 0.529971 0.331644
0.404840 0.529463 0.320469
0.438874 0.529712 0.309294
0.472909 0.529962 0.298120
0.506944 0.530211 0.286946
0.540978 0.530460 0.275772
0.574518 0.531251 0.266721
0.607564 0.532583 0.259793
0.640609 0.533915 0.252865
0.673654 0.535247 0.245937
0.706700 0.536579 0.239009
0.737361 0.537742 0.234023
0.763254 0.538567 0.232921
0.789147 0.539391 0.231818
0.815040 0.540216 0.230715
0.840933 0.541040 0.229613
0.864814 0.541555 0.229055
0.878638 0.540525 0.231222
0.892461 0.539494 0.233389
0.906285 0.538464 0.235555
0.920108 0.537433 0.237722
0.933932 0.536403 0.239889
0.223377 0.591749 0.447752
0.231440 0.587174 0.440625
0.239503 0.582599 0.433499
0.247566 0.578024 0.426372
0.255629 0.573448 0.419245
0.263692 0.568873 0.412118
0.286189 0.566307 0.401923
0.311572 0.564141 0.391114
0.336955 0.561976 0.380305
0.362338 0.559811 0.369496
0.387721 0.557646 0.358687
0.418036 0.556989 0.347729
0.450817 0.557084 0.336696
0.483598 0.557180 0.325663
0.516379 0.557276 0.314630
0.549160 0.557372 0.303597
0.581583 0.558009 0.294440
0.613648 0.559187 0.287160
0.645713 0.560365 0.279879
0.677779 0.561543 0.272599
0.709844 0.562721 0.265318
0.739663 0.563714 0.259793
0.764990 0.564336 0.257780
0.790318 0.564957 0.255767
0.815645 0.565579 0.253753
0.840972 0.566201 0.251740
0.864359 0.566501 0.250193
0.878045 0.565192 0.250979
0.891730 0.563883 0.251766
0.905415 0.562575 0.252552
0.919100 0.561266 0.253338
0.932785 0.559958 0.254125
0.248700 0.620288 0.472136
0.255829 0.615680 0.465179
0.262958 0.611073 0.458223
0.270088 0.606466 0.451267
0.277217 0.601858 0.444311
0.284346 0.597251 0.437355
0.305644 0.594559 0.427495
0.329775 0.592250 0.417054
0.353907 0.589941 0.406613
0.378039 0.587632 0.396172
0.402170 0.585322 0.385731
0.431232 0.584514 0.374989
0.462760 0.584457 0.364097
0.494287 0.584399 0.353206
0.525814 0.584341 0.342314
0.557342 0.584284 0.331422
0.588648 0.584767 0.322160
0.619733 0.585791 0.314527
0.650818 0.586815 0.306893
0.681903 0.587839 0.299260
0.712988 0.588863 0.291627
0.741965 0.589685 0.285563
0.766727 0.590104 0.282639
0.791489 0.590523 0.279715
0.816250 0.590943 0.276791
0.841012 0.591362 0.273867
0.863905 0.591446 0.271331
0.877451 0.589860 0.270737
0.890998 0.588273 0.270143
0.904545 0.586686 0.269549
0.918091 0.585099 0.268955
0.931638 0.583513 0.268361
0.274023 0.648826 0.496519
0.280218 0.644187 0.489733
0.286413 0.639547 0.482948
0.292609 0.634908 0.476163
0.298804 0.630268 0.469377
0.304999 0.625629 0.462592
0.325098 0.622811 0.453066
0.347979 0.620358 0.442993
0.370859 0.617905 0.432920
0.393739 0.615452 0.422847
0.416619 0.612998 0.412774
0.444429 0.612040 0.402249
0.474702 0.611829 0.391499
0.504976 0.611618 0.380748
0.535250 0.611406 0.369998
0.565524 0.611195 0.359247
0.595713 0.611525 0.349879
0.625817 0.612395 0.341893
0.655922 0.613265 0.333907
0.686027 0.614135 0.325922
0.716132 0.615005 0.317936
0.744267 0.615657 0.311334
0.768463 0.615873 0.307499
0.792659 0.616090 0.303664
0.816856 0.616306 0.299829
0.841052 0.616522 0.295994
0.863450 0.616392 0.292469
0.876858 0.614527 0.290494
0.890267 0.612662 0.288520
0.903675 0.610797 0.286545
0.917083 0.608932 0.284571
0.930491 0.607068 0.282597
0.299346 0.677365 0.520902
0.304607 0.672693 0.514288
0.309868 0.668022 0.507673
0.315130 0.663350 0.501058
0.320391 0.658678 0.494443
0.325652 0.654007 0.487828
0.344553 0.651064 0.478638
0.366182 0.648466 0.468933
0.387811 0.645869 0.459228
0.409440 0.643272 0.449523
0.431069 0.640674 0.439817
0.457625 0.639565 0.429509
0.486645 0.639201 0.418900
0.515665 0.638836 0.408291
0.544685 0.638472 0.397682
0.573705 0.638107 0.387072
0.602778 0.638283 0.377599
0.631902 0.638999 0.369260
0.661027 0.639715 0.360922
0.690151 0.640431 0.352583
0.719275 0.641146 0.344245
0.746569 0.641628 0.337104
0.770199 0.641642 0.332358
0.793830 0.641656 0.327612
0.817461 0.641669 0.322866
0.841091 0.641683 0.318121
0.862995 0.641338 0.313607
0.876265 0.639195 0.310252
0.889535 0.637052 0.306897
0.902805 0.634909 0.303542
0.916075 0.632766 0.300187
0.929345 0.630623 0.296832
0.328103 0.702771 0.544030
0.332452 0.698164 0.537665
0.336800 0.693557 0.531301
0.341149 0.688950 0.524936
0.345498 0.684343 0.518571
0.349846 0.679736 0.512206
0.367413 0.676755 0.503457
0.387623 0.674099 0.494232
0.407833 0.671443 0.485007
0.428043 0.668787 0.475781
0.448253 0.666132 0.466556
0.473364 0.664938 0.456594
0.500925 0.664475 0.446265
0.528487 0.664013 0.435936
0.556048 0.663550 0.425607
0.583610 0.663087 0.415277
0.611375 0.663158 0.405836
0.639343 0.663761 0.397282
0.667311 0.664365 0.388729
0.695280 0.664968 0.380175
0.723248 0.665571 0.371621
0.749543 0.665931 0.364080
0.772494 0.665802 0.358565
0.795444 0.665673 0.353050
0.818395 0.665544 0.347534
0.841345 0.665415 0.342019
0.862657 0.664921 0.336667
0.875773 0.662600 0.332130
0.888889 0.660279 0.327593
0.902006 0.657959 0.323057
0.915122 0.655638 0.318520
0.928239 0.653317 0.313984
0.363729 0.721912 0.564647
0.367207 0.717563 0.558691
0.370686 0.713214 0.552735
0.374165 0.708866 0.546779
0.377643 0.704517 0.540822
0.381122 0.700168 0.534866
0.397082 0.697324 0.526772
0.415538 0.694781 0.518250
0.433994 0.692238 0.509728
0.452450 0.689695 0.501206
0.470906 0.687152 0.492684
0.494187 0.686004 0.483329
0.519881 0.685554 0.473557
0.545574 0.685104 0.463785
0.571267 0.684655 0.454013
0.596960 0.684205 0.444242
0.623037 0.684267 0.435109
0.649497 0.684841 0.426615
0.675957 0.685415 0.418121
0.702417 0.685988 0.409628
0.728877 0.686562 0.401134
0.753864 0.686895 0.393471
0.775904 0.686743 0.387468
0.797945 0.686592 0.381466
0.819986 0.686440 0.375463
0.842027 0.686289 0.369461
0.862549 0.685780 0.363572
0.875482 0.683482 0.358250
0.888416 0.681184 0.352929
0.901349 0.678886 0.347608
0.914282 0.676588 0.342287
0.927215 0.674290 0.336965
0.399355 0.741052 0.585264
0.401963 0.736962 0.579717
0.404572 0.732872 0.574169
0.407180 0.728781 0.568622
0.409789 0.724691 0.563074
0.412397 0.720600 0.557526
0.426751 0.717893 0.550086
0.443453 0.715463 0.542268
0.460155 0.713033 0.534449
0.476858 0.710602 0.526631
0.493560 0.708172 0.518812
0.515011 0.707071 0.510063
0.538836 0.706633 0.500849
0.562661 0.706196 0.491635
0.586486 0.705759 0.482420
0.610311 0.705322 0.473206
0.634699 0.705375 0.464382
0.659651 0.705920 0.455948
0.684602 0.706464 0.447514
0.709554 0.707009 0.439081
0.734506 0.707554 0.430647
0.758184 0.707859 0.422861
0.779315 0.707685 0.416371
0.800446 0.707511 0.409882
0.821577 0.707337 0.403392
0.842708 0.707163 0.396902
0.862442 0.706639 0.390476
0.875192 0.704364 0.384371
0.887942 0.702089 0.378265
0.900691 0.699814 0.372159
0.913441 0.697539 0.366053
0.926191 0.695264 0.359947
0.434980 0.760193 0.605881
0.436719 0.756361 0.600742
0.438457 0.752529 0.595603
0.440196 0.748697 0.590465
0.441934 0.744865 0.585326
0.443673 0.741033 0.580187
0.456420 0.738463 0.573401
0.471368 0.736145 0.566286
0.486317 0.733828 0.559171
0.501265 0.731510 0.552056
0.516214 0.729192 0.544941
0.535835 0.728137 0.536798
0.557791 0.727712 0.528141
0.579748 0.727288 0.519484
0.601704 0.726863 0.510827
0.623661 0.726439 0.502170
0.646361 0.726484 0.493655
0.669804 0.726999 0.485281
0.693248 0.727514 0.476907
0.716692 0.728030 0.468533
0.740135 0.728545 0.460160
0.762505 0.728823 0.452251
0.782726 0.728626 0.445274
0.802947 0.728430 0.438298
0.823168 0.728233 0.431321
0.843390 0.728037 0.424344
0.862335 0.727497 0.417381
0.874901 0.725245 0.410491
0.887468 0.722993 0.403600
0.900034 0.720741 0.396710
0.912601 0.718489 0.389819
0.925167 0.716237 0.382929
0.470606 0.779334 0.626498
0.471474 0.775760 0.621768
0.472343 0.772186 0.617038
0.473211 0.768612 0.612308
0.474080 0.765039 0.607577
0.474948 0.761465 0.602847
0.486089 0.759032 0.596716
0.499283 0.756827 0.590304
0.512478 0.754622 0.583892
0.525673 0.752418 0.577481
0.538868 0.750213 0.571069
0.556658 0.749203 0.563532
0.576746 0.748791 0.555433
0.596835 0.748380 0.547333
0.616923 0.747968 0.539234
0.637011 0.747556 0.531135
0.658023 0.747593 0.522928
0.679958 0.748079 0.514614
0.701894 0.748564 0.506300
0.723829 0.749050 0.497986
0.745764 0.749536 0.489672
0.766825 0.749787 0.481642
0.786137 0.749568 0.474178
0.805448 0.749349 0.466714
0.824760 0.749129 0.459249
0.844071 0.748910 0.451785
0.862228 0.748356 0.444286
0.874611 0.746127 0.436611
0.886994 0.743898 0.428936
0.899377 0.741669 0.421261
0.911760 0.739439 0.413586
0.924143 0.737210 0.405911
0.505787 0.796954 0.646318
0.505902 0.793655 0.641994
0.506017 0.790356 0.637669
0.506131 0.787057 0.633344
0.506246 0.783758 0.629020
0.506360 0.780458 0.624695
0.515921 0.778173 0.619181
0.527371 0.776090 0.613428
0.538821 0.774007 0.607675
0.550271 0.771924 0.601923
0.561721 0.769841 0.596170
0.577667 0.768882 0.589208
0.595861 0.768485 0.581641
0.614055 0.768088 0.574074
0.632249 0.767691 0.566507
0.650443 0.767294 0.558941
0.669744 0.767325 0.551046
0.690151 0.767784 0.542825
0.710559 0.768243 0.534604
0.730966 0.768702 0.526383
0.751374 0.769161 0.518161
0.771112 0.769389 0.510072
0.789511 0.769156 0.502245
0.807910 0.768922 0.494419
0.826310 0.768689 0.486593
0.844709 0.768455 0.478766
0.862076 0.767894 0.470884
0.874282 0.765697 0.462722
0.886489 0.763500 0.454559
0.898695 0.761303 0.446397
0.910902 0.759106 0.438235
0.923108 0.756909 0.430073
0.538747 0.806975 0.662152
0.538689 0.804032 0.658219
0.538631 0.801088 0.654285
0.538573 0.798145 0.650351
0.538514 0.795202 0.646418
0.538456 0.792258 0.642484
0.546571 0.790171 0.637398
0.556320 0.788256 0.632082
0.566069 0.786340 0.626766
0.575819 0.784424 0.621450
0.585568 0.782508 0.616134
0.599599 0.781622 0.609590
0.615769 0.781251 0.602431
0.631940 0.780880 0.595273
0.648111 0.780509 0.588114
0.664282 0.780138 0.580955
0.681758 0.780176 0.573393
0.700540 0.780621 0.565428
0.719321 0.781067 0.557462
0.738102 0.781512 0.549497
0.756883 0.781958 0.541532
0.775229 0.782186 0.533700
0.792704 0.781978 0.526136
