Assets/1__3DArt/KimSe/artstation_asset/LUTs_pasterls/CUBE/Emerald Oasis 03.cube
# Enhanced with VOXCOLOR algorithms
LUT_3D_SIZE 8
DOMAIN_MIN 0.000000 0.000000 0.000000
DOMAIN_MAX 0.903226 0.903226 0.903226
0.105882 0.121569 0.145098
0.191708 0.134781 0.153560
0.339259 0.154470 0.158494
0.516571 0.179887 0.163377
0.693714 0.209437 0.170763
0.827102 0.237921 0.181931
0.901548 0.258340 0.192958
0.938131 0.270126 0.200483
0.105956 0.186496 0.187888
0.181006 0.194676 0.184614
0.317444 0.212167 0.179178
0.486913 0.236848 0.175068
0.662222 0.265922 0.175013
0.802426 0.292872 0.181649
0.886907 0.309735 0.190916
0.931056 0.316091 0.197609
0.112406 0.297853 0.266878
0.177592 0.297132 0.253548
0.303015 0.306877 0.236734
0.463762 0.325070 0.220313
0.635357 0.348898 0.207652
0.779767 0.371613 0.203373
0.872457 0.384162 0.204893
0.923651 0.385726 0.206161
0.134205 0.437788 0.371274
0.189446 0.427213 0.350407
0.302629 0.426402 0.323745
0.452069 0.434540 0.295414
0.616055 0.449757 0.269267
0.760354 0.466221 0.251352
0.858491 0.474034 0.240941
0.915783 0.471471 0.232175
0.179982 0.587432 0.488658
0.224221 0.568817 0.463650
0.322610 0.557427 0.430937
0.456518 0.554329 0.394389
0.607179 0.559280 0.357778
0.745522 0.568464 0.327210
0.845432 0.571745 0.303179
0.907440 0.566020 0.280804
0.268923 0.712340 0.594062
0.299236 0.692106 0.570782
0.377317 0.675127 0.539516
0.487919 0.664276 0.503298
0.615845 0.661094 0.465141
0.739068 0.664666 0.429721
0.834749 0.665890 0.397107
0.898969 0.659818 0.362698
0.396769 0.790581 0.667157
0.411593 0.774367 0.649409
0.464231 0.758291 0.625178
0.544241 0.745838 0.596393
0.641255 0.739482 0.565067
0.741645 0.740832 0.534442
0.827571 0.743238 0.503981
0.891382 0.740320 0.468467
0.534535 0.835893 0.715930
0.536709 0.824734 0.703353
0.563773 0.812426 0.686617
0.611411 0.801958 0.666638
0.675086 0.795772 0.644561
0.749829 0.796902 0.622808
0.823249 0.801820 0.602071
0.884887 0.804028 0.579017
0.113800 0.139965 0.189888
0.176373 0.152731 0.201528
0.298466 0.176456 0.217732
0.457740 0.209417 0.238365
0.630844 0.248819 0.262561
0.776561 0.287018 0.286734
0.866086 0.313643 0.304481
0.912706 0.328299 0.314725
0.115163 0.212298 0.243190
0.175985 0.221155 0.245318
0.293005 0.241049 0.249863
0.446187 0.269903 0.258066
0.614519 0.304783 0.270560
0.761299 0.338570 0.286998
0.857262 0.361230 0.301891
0.910470 0.371580 0.311306
0.120219 0.326360 0.330077
0.175560 0.327879 0.322315
0.285961 0.339729 0.313748
0.433060 0.360221 0.306807
0.597458 0.386856 0.303503
0.745502 0.413471 0.306487
0.847371 0.430539 0.312561
0.907101 0.436155 0.316525
0.136539 0.464325 0.436424
0.183594 0.457666 0.420607
0.284854 0.459475 0.400703
0.423669 0.469135 0.379792
0.582249 0.485162 0.360744
0.729860 0.502984 0.348112
0.836411 0.513767 0.341246
0.902425 0.514782 0.335145
0.171856 0.608222 0.547959
0.208565 0.594861 0.527688
0.297344 0.586864 0.500873
0.423767 0.585182 0.470491
0.572173 0.589826 0.439488
0.715675 0.598497 0.412691
0.824721 0.603328 0.391301
0.896394 0.600561 0.371603
0.244674 0.727789 0.640623
0.269044 0.712459 0.621608
0.340463 0.698859 0.595620
0.447324 0.689302 0.564778
0.576902 0.685243 0.531276
0.708030 0.687033 0.498586
0.814096 0.688474 0.467925
0.889112 0.684612 0.436439
0.355620 0.804181 0.699669
0.367818 0.791271 0.685459
0.418331 0.777628 0.665709
0.499201 0.765920 0.641540
0.601546 0.758261 0.614226
0.711340 0.757001 0.585836
0.807382 0.758355 0.556932
0.881719 0.756756 0.524620
0.481058 0.847980 0.734693
0.485181 0.839085 0.725587
0.515337 0.828389 0.712966
0.568274 0.818188 0.697258
0.639843 0.810556 0.679076
0.723640 0.808793 0.659667
0.804920 0.811669 0.640118
0.874823 0.814156 0.619343
0.122660 0.161433 0.243733
0.168568 0.174785 0.258556
0.268780 0.202749 0.284058
0.408849 0.243342 0.317982
0.571478 0.293190 0.357292
0.720564 0.343016 0.394840
0.819292 0.378585 0.421065
0.873274 0.398447 0.435658
0.125679 0.242556 0.306513
0.172706 0.251929 0.313120
0.270028 0.274404 0.326663
0.404838 0.308054 0.346705
0.561891 0.349891 0.372184
0.710206 0.392384 0.400024
0.814814 0.423187 0.422639
0.876173 0.439777 0.436730
0.130398 0.359576 0.397853
0.174400 0.362146 0.395060
0.267691 0.375899 0.395058
0.398185 0.399336 0.398869
0.551629 0.430101 0.407096
0.700031 0.462386 0.420128
0.809812 0.485829 0.433358
0.878231 0.497327 0.442226
0.143590 0.494772 0.502275
0.181277 0.490091 0.491567
0.268042 0.493915 0.479746
0.392595 0.505621 0.468694
0.541590 0.523838 0.460086
0.689403 0.544707 0.456557
0.803472 0.559853 0.456597
0.878744 0.565792 0.455948
0.172294 0.631213 0.605268
0.201202 0.620832 0.590144
0.277964 0.615460 0.570867
0.392824 0.615723 0.549435
0.533952 0.621560 0.527824
0.678694 0.631396 0.509332
0.795511 0.638835 0.494872
0.877196 0.639993 0.481658
0.233422 0.743089 0.685296
0.251796 0.730866 0.670917
0.314076 0.720202 0.651408
0.412716 0.712713 0.628105
0.538220 0.709482 0.602446
0.672595 0.711229 0.576769
0.787193 0.713776 0.552628
0.872962 0.712848 0.528529
0.328432 0.816295 0.733063
0.337488 0.805712 0.722425
0.383094 0.794512 0.707555
0.460274 0.784508 0.689026
0.562425 0.777246 0.667567
0.677427 0.774996 0.644379
0.782180 0.775985 0.620591
0.867075 0.776072 0.595083
0.436836 0.859243 0.758519
0.441542 0.852026 0.752053
0.472087 0.843087 0.742853
0.526660 0.833992 0.731103
0.602119 0.826289 0.717114
0.692556 0.822910 0.701398
0.781721 0.824197 0.685077
0.860583 0.826931 0.668428
0.132481 0.186404 0.305857
0.167281 0.201869 0.324008
0.249834 0.234131 0.356354
0.371542 0.281269 0.399632
0.520111 0.339723 0.449687
0.665673 0.399387 0.497323
0.768213 0.443077 0.530586
0.826707 0.467903 0.549113
0.137252 0.276603 0.375751
0.172384 0.286940 0.386036
0.251676 0.311945 0.406580
0.368081 0.349845 0.435845
0.511274 0.397657 0.471608
0.656470 0.447693 0.508804
0.766049 0.485890 0.538155
0.833688 0.508350 0.556639
0.142279 0.395958 0.467746
0.175288 0.399084 0.469045
0.251503 0.414361 0.476407
0.364347 0.440411 0.489699
0.504323 0.474963 0.508332
0.649609 0.512486 0.530718
0.764804 0.541924 0.550893
0.840834 0.559121 0.564812
0.154086 0.527201 0.566610
0.182513 0.523300 0.560370
0.254015 0.528441 0.556179
0.362400 0.541964 0.554816
0.498780 0.562528 0.556829
0.643504 0.586712 0.563024
0.763054 0.606302 0.570772
0.846895 0.617277 0.576453
0.179286 0.654710 0.658830
0.200861 0.645753 0.648374
0.264691 0.642179 0.636605
0.365544 0.644311 0.624620
0.495589 0.651931 0.613473
0.637655 0.663777 0.605011
0.759938 0.674294 0.599374
0.850829 0.679735 0.594463
0.232799 0.757211 0.726434
0.245837 0.746808 0.716287
0.298040 0.738491 0.703253
0.385694 0.733280 0.688056
0.502682 0.731842 0.671507
0.635638 0.734800 0.655015
0.755910 0.739176 0.639930
0.851171 0.741604 0.625682
0.314190 0.825990 0.765073
0.320366 0.817019 0.757607
0.359762 0.808086 0.747436
0.430249 0.800286 0.734799
0.527714 0.794605 0.720058
0.643398 0.792802 0.703850
0.754162 0.794244 0.687458
0.848289 0.796303 0.670948
0.404208 0.867990 0.784199
0.408782 0.862105 0.779699
0.437910 0.855031 0.773376
0.491229 0.847700 0.765315
0.566856 0.841118 0.755663
0.660632 0.837501 0.744556
0.756084 0.837990 0.732978
0.843218 0.841059 0.721916
0.143210 0.215026 0.374809
0.171457 0.234486 0.396580
0.240981 0.270994 0.433097
0.346872 0.322719 0.480887
0.480424 0.386136 0.535558
0.617759 0.451065 0.587416
0.719530 0.499313 0.623919
0.779782 0.526882 0.644426
0.149581 0.313505 0.448375
0.175831 0.325757 0.461710
0.240374 0.353104 0.486630
0.340199 0.393853 0.521052
0.468726 0.445081 0.562199
0.606933 0.499211 0.604060
0.717436 0.541651 0.636840
0.788814 0.567579 0.657723
0.155204 0.433806 0.537114
0.179089 0.437613 0.541488
0.240166 0.453978 0.553954
0.336186 0.481630 0.573607
0.461616 0.518398 0.599078
0.600542 0.559047 0.627496
0.717822 0.592334 0.652215
0.799354 0.613431 0.669682
0.166834 0.559651 0.627228
0.187234 0.556013 0.624338
0.244434 0.561806 0.625996
0.336548 0.576422 0.632156
0.458670 0.598594 0.642517
0.597199 0.625250 0.656521
0.719338 0.648281 0.670678
0.809939 0.663358 0.681936
0.190939 0.677069 0.707065
0.206293 0.668644 0.700162
0.257727 0.666097 0.694569
0.343841 0.669620 0.690695
0.460451 0.678927 0.688868
0.596274 0.692934 0.689813
0.721009 0.706477 0.692810
0.819228 0.715990 0.696226
0.240469 0.769227 0.762701
0.249353 0.759820 0.755814
0.291927 0.753210 0.748283
0.367530 0.750070 0.740429
0.473053 0.750782 0.732610
0.600301 0.755753 0.725607
0.722681 0.762498 0.720258
0.825105 0.768419 0.716468
0.311557 0.832570 0.793898
0.315651 0.824720 0.788871
0.348809 0.817729 0.782732
0.411103 0.812250 0.775558
0.500633 0.808853 0.767503
0.612576 0.808697 0.758935
0.725715 0.811481 0.750981
0.826595 0.815744 0.744313
0.384725 0.873013 0.809075
0.388904 0.868264 0.805983
0.415607 0.863082 0.802082
0.465614 0.857955 0.797421
0.538229 0.853444 0.792067
0.631597 0.850961 0.786052
0.730474 0.851700 0.780179
0.823987 0.855342 0.775687
0.154691 0.247254 0.446943
0.180387 0.273112 0.472994
0.242358 0.313725 0.511051
0.337240 0.367331 0.558147
0.458228 0.430640 0.610466
0.585806 0.494073 0.659224
0.683853 0.541067 0.693578
0.743773 0.567626 0.713035
0.162113 0.351240 0.519096
0.183705 0.367032 0.535240
0.238976 0.396606 0.561751
0.326920 0.438292 0.596575
0.443082 0.489281 0.637027
0.572487 0.542287 0.677230
0.680130 0.583742 0.708431
0.752132 0.608982 0.728405
0.168303 0.469892 0.600511
0.186725 0.475289 0.607072
0.237464 0.492601 0.621828
0.320767 0.520638 0.643592
0.433581 0.557342 0.670743
0.564275 0.597707 0.699979
0.679676 0.631028 0.724990
0.763148 0.652601 0.742964
0.180594 0.588599 0.679522
0.195792 0.585522 0.678686
0.242561 0.591727 0.683505
0.321670 0.606720 0.693524
0.430876 0.629347 0.708025
0.561201 0.656755 0.725748
0.681995 0.681061 0.742932
0.775629 0.698016 0.757147
0.205559 0.695393 0.746693
0.216788 0.687329 0.741875
0.258825 0.685409 0.740066
0.332581 0.689865 0.741325
0.436326 0.700444 0.745584
0.563479 0.716191 0.752937
0.686634 0.732032 0.762008
0.788336 0.744548 0.771464
0.254478 0.777442 0.791911
0.260807 0.768648 0.786918
0.296061 0.763220 0.782987
0.361204 0.761755 0.780297
0.455034 0.764546 0.779004
0.573489 0.771887 0.779611
0.693540 0.781267 0.782331
0.799006 0.790426 0.787126
0.319671 0.835044 0.817544
0.322598 0.827940 0.813887
0.350854 0.822423 0.810486
0.405550 0.819010 0.807432
0.486104 0.818094 0.804834
0.590772 0.820460 0.803060
0.701645 0.825538 0.802866
0.805053 0.832312 0.804976
0.380981 0.873297 0.830595
0.384429 0.869337 0.828227
0.408440 0.865759 0.826088
0.454274 0.862859 0.824227
0.521908 0.860948 0.822687
0.611251 0.860864 0.821585
0.709295 0.863259 0.821527
0.805444 0.868142 0.823635
0.166055 0.280308 0.515274
0.191335 0.314219 0.545517
0.249638 0.358848 0.583593
0.338162 0.412835 0.627521
0.451008 0.473423 0.674501
0.571172 0.531748 0.717110
0.665710 0.573869 0.746768
0.724845 0.596829 0.763450
0.174046 0.386740 0.582071
0.193881 0.407006 0.600688
0.244481 0.438668 0.627276
0.325637 0.480229 0.660181
0.433871 0.529124 0.697160
0.556340 0.578322 0.732910
0.660375 0.615763 0.760139
0.731392 0.637714 0.777396
0.180667 0.501447 0.654143
0.196587 0.508951 0.662285
0.241808 0.527188 0.677662
0.317679 0.555073 0.699140
0.422333 0.590678 0.725168
0.546365 0.629086 0.752472
0.658487 0.660278 0.775423
0.741379 0.680139 0.791972
0.193926 0.611998 0.721863
0.206382 0.609729 0.722266
0.247227 0.616406 0.728426
0.318450 0.631628 0.739793
0.419104 0.654323 0.755539
0.542651 0.681708 0.774152
0.660362 0.706065 0.791897
0.753904 0.723361 0.806845
0.220606 0.708625 0.777751
0.229281 0.700936 0.774111
0.265633 0.699618 0.774252
0.331563 0.704963 0.778146
0.426508 0.716756 0.785599
0.546367 0.734114 0.796451
0.666134 0.751874 0.808895
0.767890 0.766585 0.821695
0.270665 0.781925 0.814736
0.275068 0.773540 0.810779
0.305672 0.769042 0.808857
0.363963 0.769042 0.809189
0.449521 0.773825 0.811913
0.560345 0.783701 0.817502
0.676211 0.795956 0.825628
0.781133 0.808223 0.836019
0.333124 0.834450 0.836371
0.334832 0.827758 0.833395
0.359787 0.823310 0.831579
0.409320 0.821614 0.831131
0.483293 0.823020 0.832227
0.581296 0.828224 0.835396
0.687846 0.836282 0.840976
0.790030 0.846021 0.849374
0.387576 0.870383 0.848020
0.389655 0.866745 0.845993
0.411274 0.864273 0.844976
0.453803 0.863221 0.845090
0.517424 0.863807 0.846424
0.602587 0.866632 0.849298
0.697594 0.871698 0.854052
0.792715 0.878697 0.861396
0.176730 0.311385 0.577010
0.202660 0.354390 0.610291
0.259565 0.403309 0.647413
0.344936 0.457657 0.687557
0.453327 0.515502 0.729057
0.568889 0.568477 0.765924
0.660805 0.604727 0.791196
0.718876 0.622807 0.804830
0.185332 0.419314 0.637198
0.204624 0.443959 0.657210
0.253055 0.477373 0.682892
0.330733 0.518463 0.713128
0.434599 0.565065 0.746234
0.552753 0.610393 0.777687
0.654015 0.643507 0.801259
0.723709 0.661618 0.815736
0.192503 0.529136 0.699691
0.206992 0.538272 0.708502
0.249254 0.557012 0.723481
0.321137 0.584454 0.743683
0.421315 0.618854 0.767776
0.541331 0.655422 0.792797
0.650921 0.684540 0.813627
0.732624 0.702451 0.828467
0.206891 0.631233 0.756845
0.217192 0.629271 0.757741
0.254432 0.636096 0.764178
0.321227 0.651409 0.775653
0.417249 0.674228 0.791385
0.536937 0.701870 0.809911
0.652327 0.726544 0.827519
0.744817 0.744101 0.842368
0.235482 0.718379 0.802942
0.241416 0.710589 0.799850
0.273849 0.709583 0.800856
0.335218 0.715733 0.805970
0.425493 0.728879 0.815010
0.541445 0.748254 0.827788
0.658771 0.768375 0.842168
0.759273 0.785375 0.856718
0.287008 0.784211 0.833260
0.288694 0.775742 0.829807
0.315858 0.771823 0.828933
0.370194 0.773132 0.830965
0.451532 0.779991 0.836098
0.558421 0.792838 0.844879
0.671283 0.808546 0.856479
0.773916 0.824181 0.870116
0.347755 0.832310 0.851659
0.347520 0.825605 0.849014
0.370132 0.821875 0.848093
0.416924 0.821679 0.849256
0.487810 0.825388 0.852787
0.582563 0.833802 0.859407
0.685941 0.845473 0.868940
0.784720 0.858537 0.881068
0.397398 0.865730 0.861974
0.398023 0.862121 0.860220
0.417967 0.860416 0.859936
0.458824 0.860923 0.861378
0.520893 0.863862 0.864739
0.604458 0.869828 0.870569
0.697272 0.878169 0.878802
0.789351 0.887853 0.889406
