Assets/1__3DArt/KimSe/artstation_asset/LUTs_pasterls/CUBE/Emerald Oasis 03 S.cube
# Enhanced with VOXCOLOR algorithms
LUT_3D_SIZE 8
DOMAIN_MIN 0.000000 0.000000 0.000000
DOMAIN_MAX 0.903226 0.903226 0.903226
0.105882 0.121569 0.145098
0.191708 0.134781 0.153560
0.339259 0.154470 0.158494
0.516571 0.179887 0.163377
0.693714 0.209437 0.170763
0.827102 0.237921 0.181931
0.901548 0.258340 0.192958
0.938131 0.270126 0.200483
0.105956 0.186496 0.187888
0.179432 0.193891 0.180121
0.309437 0.208086 0.166789
0.469557 0.227558 0.153735
0.635189 0.250566 0.146019
0.772395 0.274066 0.150496
0.864495 0.293776 0.165815
0.920635 0.307918 0.184970
0.112366 0.297853 0.266814
0.175621 0.296048 0.244524
0.291724 0.301071 0.212783
0.438470 0.311724 0.180346
0.595164 0.326697 0.155097
0.734448 0.344280 0.148850
0.838257 0.360848 0.161998
0.907620 0.373748 0.184734
0.133916 0.437788 0.370810
0.187580 0.426092 0.338081
0.291411 0.420453 0.292108
0.426316 0.420892 0.243764
0.574414 0.427074 0.202936
0.712773 0.438335 0.184518
0.822247 0.450294 0.189614
0.898700 0.459312 0.206665
0.179052 0.587432 0.487169
0.222371 0.567783 0.450099
0.313487 0.552332 0.397699
0.435683 0.542901 0.341130
0.573212 0.540560 0.290590
0.706341 0.545787 0.261238
0.815416 0.552756 0.253797
0.893294 0.556461 0.256154
0.266505 0.712340 0.590193
0.296586 0.691422 0.558333
0.370635 0.671855 0.512622
0.474453 0.657059 0.461711
0.594603 0.649454 0.413563
0.714771 0.650862 0.379850
0.816246 0.654691 0.360011
0.890441 0.654465 0.342966
0.392866 0.790581 0.660912
0.407993 0.774197 0.639090
0.459295 0.757037 0.607613
0.536722 0.742857 0.571356
0.630649 0.734552 0.534944
0.730020 0.735017 0.505324
0.818945 0.738727 0.481380
0.887712 0.738491 0.454259
0.531873 0.835893 0.711672
0.534358 0.824781 0.697983
0.561334 0.812245 0.679059
0.608552 0.801356 0.656764
0.671646 0.794676 0.633091
0.746334 0.795604 0.611672
0.820781 0.800921 0.592924
0.884008 0.803867 0.572270
0.113800 0.139965 0.189888
0.176042 0.151546 0.201075
0.296639 0.171546 0.215709
0.453553 0.199254 0.234006
0.624007 0.233279 0.255671
0.768813 0.269956 0.278925
0.860550 0.301319 0.298713
0.910246 0.322737 0.312076
0.115163 0.212298 0.243190
0.175467 0.217313 0.239120
0.286437 0.227866 0.233671
0.429331 0.243674 0.230337
0.585536 0.264297 0.232086
0.726518 0.289465 0.243124
0.830109 0.316841 0.262533
0.898854 0.344170 0.286349
0.120191 0.326360 0.330037
0.175815 0.322251 0.309246
0.278602 0.321933 0.281937
0.411722 0.325969 0.255416
0.558962 0.334793 0.236047
0.698108 0.349767 0.232733
0.810149 0.370356 0.246093
0.892842 0.395014 0.270467
0.136339 0.464323 0.436137
0.184828 0.451250 0.401876
0.279253 0.440466 0.356330
0.404108 0.433729 0.309854
0.544646 0.432421 0.271427
0.682132 0.438690 0.252897
0.798992 0.451479 0.254974
0.890630 0.468652 0.270422
0.171216 0.608217 0.547043
0.210284 0.588757 0.506373
0.294599 0.569765 0.450842
0.410066 0.554362 0.391979
0.543197 0.544972 0.339771
0.677275 0.544365 0.306814
0.794965 0.550018 0.293461
0.890676 0.558330 0.291796
0.243021 0.727779 0.638251
0.269672 0.708085 0.602858
0.339215 0.687000 0.552455
0.439763 0.668408 0.496192
0.559682 0.655400 0.442105
0.684433 0.651427 0.400098
0.796881 0.653200 0.370674
0.890991 0.655590 0.347635
0.352958 0.804170 0.695850
0.366667 0.789109 0.672402
0.416841 0.771809 0.637778
0.495183 0.755799 0.596582
0.593233 0.744050 0.553005
0.700351 0.740459 0.512067
0.801104 0.742502 0.474893
0.888837 0.744368 0.438996
0.479244 0.847973 0.732091
0.484002 0.838445 0.719683
0.514318 0.826692 0.701162
0.566778 0.815384 0.677708
0.637360 0.806976 0.650496
0.720914 0.805516 0.620667
0.805292 0.810186 0.589652
0.882923 0.815477 0.558568
0.122660 0.161433 0.243733
0.168268 0.173053 0.257949
0.266793 0.195540 0.281268
0.404022 0.228364 0.311876
0.563278 0.270195 0.347504
0.710962 0.317627 0.383588
0.812274 0.360134 0.412649
0.870099 0.390076 0.431756
0.125677 0.242555 0.306511
0.173659 0.246107 0.306767
0.267516 0.255423 0.309832
0.394525 0.271090 0.317195
0.540821 0.293451 0.329953
0.682364 0.323665 0.349705
0.792566 0.359257 0.374705
0.868615 0.396733 0.402608
0.130371 0.359569 0.397822
0.176893 0.353460 0.381344
0.266526 0.349948 0.361733
0.387010 0.350697 0.344318
0.525809 0.357172 0.333611
0.664431 0.372462 0.335704
0.781864 0.397052 0.350986
0.872979 0.429213 0.376328
0.143428 0.494756 0.502086
0.185043 0.480151 0.471575
0.269256 0.465933 0.432463
0.384156 0.454800 0.393258
0.517939 0.449052 0.361174
0.655064 0.452327 0.345139
0.777619 0.465140 0.346050
0.880029 0.485861 0.359791
0.171798 0.631184 0.604688
0.205428 0.611491 0.567189
0.281594 0.590294 0.516536
0.389316 0.571187 0.462668
0.517659 0.557134 0.414056
0.652737 0.551915 0.380674
0.777658 0.554995 0.363895
0.887023 0.563848 0.359508
0.232172 0.743045 0.683830
0.254594 0.724258 0.651010
0.317809 0.702774 0.603652
0.412885 0.682303 0.549538
0.530560 0.665954 0.495494
0.658782 0.657647 0.449480
0.780730 0.656386 0.414531
0.890895 0.658566 0.389098
0.326440 0.816245 0.730725
0.337950 0.802378 0.709333
0.384740 0.785796 0.676421
0.460964 0.769486 0.635305
0.560071 0.756111 0.589088
0.673286 0.749673 0.541065
0.785103 0.749764 0.495607
0.889526 0.752150 0.455813
0.435482 0.859212 0.756930
0.441141 0.850995 0.746454
0.472386 0.840483 0.729504
0.527144 0.829869 0.706232
0.602386 0.821330 0.676802
0.693850 0.819049 0.640119
0.789193 0.823828 0.599020
0.881931 0.831262 0.559603
0.132481 0.186404 0.305857
0.167153 0.200163 0.323463
0.248503 0.226996 0.353769
0.367979 0.266390 0.393877
0.513697 0.316796 0.440334
0.657822 0.373964 0.486424
0.762306 0.424531 0.522350
0.823974 0.459463 0.545264
0.137248 0.276599 0.375746
0.174529 0.280503 0.380668
0.253482 0.291299 0.391827
0.366015 0.309890 0.409126
0.501992 0.336762 0.432125
0.641147 0.373021 0.460028
0.753794 0.414561 0.489588
0.832935 0.456530 0.519077
0.142241 0.395937 0.467710
0.179321 0.389331 0.457244
0.256196 0.385532 0.446969
0.364631 0.386547 0.440071
0.495248 0.394084 0.439122
0.632448 0.411427 0.447510
0.752779 0.438319 0.464869
0.848406 0.472168 0.489331
0.153914 0.527156 0.566453
0.187736 0.512147 0.543009
0.261086 0.497138 0.514122
0.365734 0.484949 0.485719
0.492781 0.477990 0.462776
0.629401 0.479998 0.451347
0.756080 0.491546 0.452456
0.865540 0.510953 0.464006
0.178801 0.654634 0.658401
0.206250 0.635400 0.628371
0.273179 0.614109 0.587992
0.372082 0.594062 0.544457
0.494827 0.578035 0.503936
0.630411 0.569629 0.473665
0.761099 0.569183 0.456255
0.880283 0.575084 0.450361
0.231640 0.757109 0.725421
0.249530 0.739595 0.699011
0.305245 0.719171 0.660099
0.393117 0.698861 0.614064
0.506577 0.681270 0.565776
0.636639 0.669844 0.521078
0.766093 0.664992 0.485403
0.888252 0.664724 0.460781
0.312381 0.825883 0.763504
0.321509 0.813381 0.746427
0.363567 0.798388 0.718834
0.435394 0.783138 0.682355
0.532704 0.769712 0.638733
0.649538 0.761529 0.589770
0.770284 0.759481 0.542493
0.887886 0.760977 0.503802
0.402986 0.867928 0.783141
0.408723 0.860974 0.774991
0.439133 0.852149 0.760767
0.493654 0.843115 0.739618
0.570581 0.835642 0.710798
0.667614 0.833559 0.671618
0.772614 0.838540 0.626040
0.878645 0.847215 0.583421
0.143210 0.215026 0.374809
0.171472 0.233263 0.396227
0.240436 0.265839 0.431362
0.345106 0.311926 0.476954
0.476937 0.369454 0.529078
0.613215 0.432531 0.579776
0.715982 0.485802 0.618110
0.778097 0.520740 0.641699
0.149573 0.313496 0.448367
0.178386 0.320165 0.458041
0.244911 0.335192 0.476026
0.344539 0.359153 0.501125
0.470030 0.392018 0.531782
0.604318 0.433367 0.565186
0.716071 0.476614 0.596455
0.795180 0.516013 0.623914
0.155145 0.433765 0.537061
0.183457 0.428991 0.533273
0.248315 0.428228 0.532511
0.345111 0.433044 0.535970
0.467313 0.444592 0.544429
0.601850 0.464773 0.558718
0.722915 0.491221 0.577217
0.820014 0.520391 0.598428
0.166612 0.559563 0.627057
0.192503 0.546164 0.612161
0.254669 0.533591 0.595196
0.348618 0.524009 0.579336
0.468381 0.519168 0.567208
0.603755 0.521527 0.562027
0.732987 0.530460 0.564401
0.846298 0.544094 0.573299
0.190367 0.676929 0.706661
0.211377 0.659609 0.686083
0.268377 0.640821 0.658851
0.357495 0.622933 0.629017
0.473543 0.607896 0.600147
0.608586 0.598076 0.576658
0.743351 0.593720 0.561665
0.868736 0.594102 0.555612
0.239175 0.769053 0.761844
0.252649 0.753618 0.743573
0.300333 0.735890 0.716212
0.379783 0.717840 0.682473
0.487183 0.701179 0.645032
0.616978 0.688149 0.607503
0.751397 0.679748 0.576323
0.881297 0.675590 0.555432
0.309583 0.832402 0.792634
0.316567 0.821604 0.780808
0.353335 0.809014 0.760840
0.419225 0.796004 0.732809
0.512196 0.783905 0.697181
0.629540 0.775071 0.654527
0.755895 0.770936 0.612746
0.882133 0.770484 0.580066
0.383400 0.872920 0.808235
0.388773 0.867298 0.802516
0.417162 0.860515 0.792012
0.469386 0.853691 0.775214
0.545070 0.848090 0.750792
0.644286 0.846764 0.715391
0.755630 0.851560 0.673282
0.870940 0.860134 0.634642
0.154691 0.247254 0.446943
0.180429 0.272513 0.472836
0.242228 0.311173 0.510249
0.336644 0.361970 0.556301
0.456906 0.422341 0.607393
0.583964 0.484864 0.655577
0.682364 0.534393 0.690803
0.743049 0.564609 0.711733
0.162102 0.351228 0.519084
0.185600 0.363470 0.533321
0.243141 0.385059 0.555933
0.332463 0.415709 0.585273
0.448380 0.454364 0.619283
0.576389 0.497977 0.653826
0.685007 0.537698 0.683018
0.762095 0.568237 0.705333
0.168226 0.469836 0.600446
0.189898 0.469686 0.602701
0.244667 0.475382 0.609815
0.330954 0.487351 0.621586
0.444672 0.505475 0.637479
0.575077 0.528790 0.656197
0.694708 0.552116 0.674654
0.790546 0.571878 0.691420
0.180330 0.588479 0.679339
0.199503 0.579108 0.672154
0.251355 0.572568 0.666098
0.334765 0.569717 0.662163
0.446473 0.570957 0.661047
0.578882 0.576124 0.663437
0.708217 0.582361 0.668655
0.821684 0.588067 0.675985
0.204912 0.695208 0.746305
0.220162 0.681481 0.734267
0.267613 0.668122 0.719734
0.346609 0.656120 0.704238
0.454654 0.646111 0.689154
0.586866 0.638250 0.676312
0.722618 0.631575 0.667727
0.849594 0.626277 0.664269
0.253066 0.777228 0.791170
0.262689 0.764668 0.780158
0.302740 0.751313 0.764385
0.373328 0.737944 0.744624
0.472941 0.725166 0.721820
0.599239 0.713451 0.697552
0.734420 0.703320 0.676777
0.866539 0.695694 0.663186
0.317550 0.834858 0.816509
0.322699 0.825941 0.809206
0.354381 0.816368 0.797250
0.413636 0.806704 0.779968
0.500091 0.797498 0.757080
0.613797 0.789746 0.728347
0.740325 0.784561 0.699825
0.868642 0.782184 0.678222
0.379564 0.873199 0.829919
0.384000 0.868716 0.826110
0.409643 0.863967 0.819692
0.458088 0.859561 0.809202
0.529808 0.856217 0.793337
0.626573 0.855873 0.769229
0.738041 0.859905 0.740077
0.855166 0.867009 0.713856
0.166055 0.280308 0.515274
0.191358 0.314000 0.545463
0.249622 0.357910 0.583313
0.338008 0.410861 0.626870
0.450618 0.470364 0.673411
0.570595 0.528360 0.715810
0.665229 0.571427 0.745780
0.724607 0.595730 0.762987
0.174036 0.386730 0.582060
0.194827 0.405342 0.599915
0.246784 0.433172 0.624843
0.329085 0.469293 0.655327
0.437856 0.511873 0.689357
0.560337 0.555605 0.722316
0.665484 0.590453 0.748127
0.739851 0.612508 0.765657
0.180602 0.501400 0.654089
0.198171 0.506282 0.660495
0.245842 0.518675 0.672528
0.324114 0.538011 0.689374
0.430617 0.563030 0.709875
0.556326 0.590103 0.731491
0.672785 0.611695 0.750056
0.764922 0.624815 0.764222
0.193701 0.611898 0.721727
0.208195 0.606652 0.719566
0.252198 0.606717 0.720900
0.326916 0.611868 0.725603
0.431008 0.621325 0.733309
0.558771 0.632532 0.743121
0.685003 0.640196 0.752844
0.794275 0.642822 0.761573
0.220053 0.708474 0.777484
0.230817 0.698124 0.770935
0.270591 0.690709 0.765361
0.340811 0.686234 0.761060
0.440775 0.684302 0.758224
0.567659 0.683204 0.757086
0.699958 0.679986 0.757691
0.822654 0.674775 0.760255
0.269456 0.781760 0.814268
0.275652 0.771624 0.807887
0.309372 0.762785 0.800544
0.372114 0.755309 0.792314
0.463672 0.749041 0.783361
0.583595 0.743115 0.774137
0.714325 0.736601 0.766868
0.841910 0.730441 0.763587
0.331307 0.834319 0.835751
0.334352 0.826789 0.831295
0.361644 0.820057 0.825438
0.414901 0.814240 0.817652
0.494472 0.809385 0.807605
0.601644 0.805500 0.794978
0.722762 0.802680 0.782825
0.845774 0.801412 0.774919
0.386361 0.870318 0.847622
0.389088 0.866442 0.845002
0.411863 0.863282 0.841894
0.456489 0.861110 0.837447
0.523657 0.860226 0.830870
0.615371 0.861571 0.820543
0.721490 0.865665 0.808000
0.832705 0.871838 0.797657
0.176730 0.311385 0.577010
0.202666 0.354351 0.610283
0.259570 0.403141 0.647367
0.344926 0.457303 0.687450
0.453284 0.514953 0.728876
0.568814 0.567873 0.765706
0.660738 0.604297 0.791031
0.718841 0.622616 0.804754
0.185326 0.419309 0.637193
0.204906 0.443490 0.657035
0.253825 0.475763 0.682312
0.332018 0.515156 0.711926
0.436310 0.559667 0.744232
0.554796 0.602875 0.774841
0.656768 0.634340 0.797805
0.728000 0.651286 0.812003
0.192470 0.529112 0.699665
0.207470 0.537493 0.708086
0.250650 0.554362 0.722212
0.323650 0.578832 0.741134
0.425018 0.609217 0.763575
0.546457 0.640780 0.786677
0.658625 0.664554 0.805694
0.744964 0.677393 0.819074
0.206774 0.631183 0.756782
0.217721 0.628359 0.757107
0.256192 0.632964 0.762284
0.324668 0.644500 0.771828
0.422786 0.661831 0.785002
0.545401 0.681784 0.800361
0.665791 0.697240 0.814657
0.766538 0.705351 0.826478
0.235195 0.718305 0.802824
0.241801 0.709748 0.799100
0.275609 0.706611 0.798583
0.339091 0.708839 0.801231
0.432327 0.715890 0.806846
0.552794 0.726012 0.815151
0.677496 0.734358 0.824645
0.789412 0.738868 0.834562
0.286377 0.784133 0.833070
0.288656 0.775164 0.829120
0.317112 0.769674 0.826769
0.373669 0.767843 0.826128
0.458431 0.769540 0.827256
0.570866 0.774133 0.830456
0.692444 0.778983 0.835777
0.807715 0.782802 0.843406
0.346805 0.832253 0.851419
0.347035 0.825309 0.848516
0.370653 0.820725 0.846466
0.419320 0.818723 0.845265
0.493299 0.819370 0.844914
0.593346 0.822791 0.845637
0.704976 0.827787 0.848115
0.815129 0.833354 0.853270
0.396763 0.865703 0.861823
0.397621 0.862027 0.859984
0.418076 0.860052 0.859097
0.459981 0.860014 0.859031
0.523921 0.862087 0.859624
0.610990 0.866827 0.860624
0.709598 0.873736 0.862271
0.809777 0.881751 0.865802
