Assets/1__3DArt/KimSe/artstation_asset/LUTs_pasterls/CUBE/Emerald Oasis 04 S.cube
# Enhanced with VOXCOLOR algorithms
LUT_3D_SIZE 5
DOMAIN_MIN 0.000000 0.000000 0.000000
DOMAIN_MAX 0.903226 0.903226 0.903226
0.101961 0.156863 0.149020
0.294932 0.179633 0.165237
0.613783 0.219646 0.176724
0.861374 0.258499 0.190231
0.940456 0.275827 0.198940
0.110089 0.286775 0.229952
0.253574 0.286131 0.199003
0.519647 0.303891 0.158484
0.772555 0.329511 0.145702
0.911323 0.349677 0.177486
0.166849 0.499945 0.375779
0.273725 0.476986 0.319754
0.500272 0.475410 0.245178
0.739168 0.486496 0.199797
0.895250 0.492697 0.210993
0.328103 0.702771 0.544030
0.387623 0.674099 0.494232
0.556048 0.663550 0.425607
0.749543 0.665931 0.364080
0.888889 0.660279 0.327593
0.571708 0.816996 0.677987
0.585269 0.800422 0.650737
0.663974 0.793328 0.609720
0.779347 0.794982 0.557328
0.885166 0.789678 0.508686
0.111930 0.179010 0.205448
0.235857 0.200082 0.239297
0.498261 0.246143 0.290956
0.760137 0.307045 0.340512
0.879468 0.354936 0.369244
0.116690 0.328146 0.319295
0.235088 0.318385 0.303221
0.462790 0.321960 0.290622
0.708145 0.345351 0.296503
0.876616 0.391676 0.329796
0.149404 0.542212 0.478408
0.245499 0.510422 0.421292
0.452573 0.490415 0.355842
0.690724 0.490047 0.315969
0.885128 0.508112 0.317294
0.261723 0.731924 0.623556
0.317160 0.699520 0.566186
0.484415 0.676313 0.489307
0.698612 0.669993 0.416522
0.891322 0.672030 0.364865
0.460798 0.831039 0.710371
0.483848 0.815930 0.686571
0.581936 0.806219 0.646970
0.730950 0.808993 0.586223
0.884734 0.816844 0.514603
0.124089 0.209907 0.288939
0.207304 0.234674 0.333423
0.418400 0.298594 0.415139
0.666017 0.386514 0.496052
0.798851 0.450315 0.537250
0.129931 0.375013 0.423440
0.214317 0.362861 0.424241
0.407312 0.371429 0.444607
0.646282 0.407364 0.476931
0.827795 0.462799 0.512149
0.153396 0.583262 0.580058
0.226308 0.548522 0.543493
0.407613 0.524757 0.508113
0.645827 0.522245 0.487811
0.865638 0.538240 0.488959
0.237159 0.754778 0.701227
0.280480 0.722824 0.660308
0.431567 0.696015 0.602520
0.654715 0.684483 0.541685
0.885941 0.685328 0.498327
0.379110 0.843919 0.759494
0.402688 0.831400 0.742356
0.504478 0.822300 0.709604
0.675788 0.827278 0.653225
0.875324 0.846297 0.583275
0.137589 0.245768 0.392196
0.201495 0.280824 0.445605
0.378597 0.360577 0.538066
0.606235 0.462771 0.630121
0.740674 0.524543 0.673317
0.146132 0.419582 0.528945
0.202172 0.416370 0.542560
0.362936 0.444167 0.585132
0.591627 0.498265 0.638106
0.777033 0.545402 0.674908
0.169972 0.614928 0.667645
0.216802 0.587736 0.652529
0.366212 0.576538 0.649447
0.597105 0.584303 0.658021
0.829083 0.594458 0.671712
0.244983 0.765646 0.763207
0.273497 0.739625 0.742487
0.398971 0.719293 0.717049
0.613675 0.710878 0.691852
0.860664 0.710115 0.678172
0.349594 0.845990 0.805932
0.368251 0.837115 0.796078
0.459978 0.831801 0.779186
0.629093 0.837954 0.750518
0.844145 0.858101 0.717273
0.149097 0.278378 0.499912
0.208584 0.328933 0.561611
0.372153 0.416809 0.649932
0.589120 0.519527 0.736524
0.725607 0.571988 0.778946
0.162321 0.455953 0.623131
0.204665 0.463285 0.641452
0.345369 0.509630 0.689156
0.562645 0.581339 0.749321
0.742938 0.628184 0.790749
0.193263 0.635602 0.735417
0.221069 0.617098 0.729383
0.344176 0.625593 0.742766
0.557154 0.660023 0.773400
0.774724 0.691015 0.807855
0.273860 0.767441 0.806765
0.286542 0.746820 0.795925
0.387318 0.740083 0.793163
0.577241 0.752661 0.803064
0.800904 0.774892 0.826742
0.363083 0.838255 0.838535
0.374580 0.831252 0.833300
0.452840 0.831690 0.831680
0.602481 0.843572 0.835106
0.790738 0.865514 0.846147
