Assets/1__3DArt/KimSe/artstation_asset/LUTs_pasterls/CUBE/Emerald Oasis 02 S.cube
# Enhanced with VOXCOLOR algorithms
LUT_3D_SIZE 5
DOMAIN_MIN 0.000000 0.000000 0.000000
DOMAIN_MAX 0.903226 0.903226 0.903226
0.109804 0.133333 0.149020
0.302346 0.160442 0.162524
0.609816 0.206061 0.173192
0.852685 0.254127 0.187942
0.935413 0.278481 0.198737
0.111136 0.262842 0.231146
0.263972 0.273097 0.199583
0.524453 0.299330 0.156867
0.769486 0.332924 0.145349
0.908747 0.362960 0.181614
0.138628 0.490128 0.389947
0.260314 0.470535 0.327343
0.490652 0.469802 0.241612
0.731718 0.486836 0.195697
0.893148 0.506364 0.215297
0.236220 0.710604 0.561852
0.321935 0.674402 0.502582
0.511547 0.652324 0.416657
0.726109 0.655716 0.352712
0.883514 0.664117 0.328508
0.434043 0.817762 0.666950
0.471435 0.792909 0.635994
0.583683 0.772344 0.587838
0.733569 0.773484 0.539085
0.871557 0.786343 0.505565
0.126684 0.165906 0.221057
0.255646 0.188097 0.249451
0.512338 0.236490 0.297238
0.767401 0.303097 0.350246
0.888840 0.356657 0.384389
0.124638 0.316227 0.331774
0.247708 0.314161 0.314275
0.472007 0.321817 0.297513
0.711770 0.348570 0.303641
0.880573 0.402305 0.344101
0.135289 0.541534 0.500245
0.241433 0.514314 0.439905
0.450914 0.493432 0.364705
0.689005 0.492521 0.320045
0.885482 0.516538 0.325565
0.194030 0.745518 0.649148
0.273149 0.711705 0.588816
0.457830 0.679963 0.499432
0.684692 0.667834 0.418563
0.887678 0.674210 0.369200
0.335654 0.845552 0.718323
0.383287 0.826121 0.694153
0.514529 0.804862 0.648479
0.693378 0.799649 0.585331
0.871961 0.816124 0.520163
0.144111 0.210800 0.324520
0.236099 0.237964 0.367513
0.445592 0.297964 0.442232
0.686586 0.383260 0.522565
0.821535 0.450610 0.569891
0.144502 0.377767 0.450742
0.234955 0.374226 0.453762
0.426605 0.382995 0.468437
0.658799 0.414681 0.496951
0.838852 0.471601 0.538335
0.148471 0.591625 0.608631
0.231720 0.563906 0.572838
0.416944 0.539604 0.530032
0.652335 0.531183 0.501843
0.869432 0.544869 0.502308
0.184534 0.769877 0.727543
0.250722 0.741047 0.687822
0.420302 0.711019 0.623467
0.652008 0.691584 0.553119
0.885467 0.688084 0.504433
0.271751 0.861379 0.773531
0.319944 0.848166 0.758469
0.455119 0.833894 0.724054
0.653103 0.830888 0.663622
0.868082 0.848386 0.591793
0.163100 0.263845 0.447257
0.238756 0.308684 0.504307
0.413252 0.378787 0.585283
0.629117 0.462773 0.664968
0.763572 0.518937 0.707764
0.166735 0.439843 0.570354
0.233159 0.449143 0.590579
0.394723 0.475310 0.627431
0.612035 0.514407 0.669765
0.790393 0.550920 0.704107
0.169664 0.633554 0.700926
0.231489 0.616092 0.690659
0.389416 0.606708 0.684443
0.614667 0.603645 0.683187
0.836411 0.601177 0.688898
0.198609 0.781783 0.787248
0.251999 0.761439 0.770701
0.400658 0.743042 0.744697
0.623499 0.727136 0.711704
0.865333 0.715442 0.687905
0.254415 0.860912 0.818927
0.298195 0.853620 0.812320
0.425735 0.848719 0.798088
0.622267 0.850529 0.767793
0.846217 0.864476 0.729256
0.181342 0.314229 0.561278
0.254018 0.384689 0.631134
0.411413 0.459438 0.703407
0.605623 0.528379 0.766025
0.733202 0.561020 0.796436
0.188293 0.491059 0.668237
0.245051 0.515455 0.696050
0.388043 0.559309 0.738098
0.587410 0.606551 0.781989
0.749850 0.629239 0.810569
0.193766 0.659953 0.766592
0.242684 0.653511 0.767614
0.380022 0.666370 0.782021
0.586226 0.687901 0.804220
0.784796 0.698202 0.826355
0.226603 0.781715 0.827032
0.269034 0.768662 0.821457
0.399368 0.767389 0.822522
0.600527 0.775191 0.829455
0.815039 0.784075 0.843709
0.271230 0.848684 0.849629
0.310375 0.845237 0.848419
0.428221 0.848546 0.851097
0.610154 0.859161 0.855906
0.808756 0.876056 0.864003
