Assets/1__3DArt/KimSe/artstation_asset/LUTs_pasterls/CUBE/Emerald Oasis 04.cube
# Enhanced with VOXCOLOR algorithms
LUT_3D_SIZE 8
DOMAIN_MIN 0.000000 0.000000 0.000000
DOMAIN_MAX 0.903226 0.903226 0.903226
0.101961 0.156863 0.149020
0.188421 0.167294 0.159331
0.339273 0.184704 0.166818
0.520485 0.207041 0.173333
0.700459 0.231842 0.180276
0.834077 0.253778 0.188339
0.906621 0.268087 0.195162
0.940456 0.275827 0.198940
0.103386 0.217670 0.186427
0.175481 0.221879 0.185683
0.310640 0.235120 0.183249
0.480981 0.255235 0.181067
0.659288 0.279394 0.180795
0.803046 0.300931 0.184615
0.888939 0.312756 0.190237
0.932773 0.316062 0.194235
0.113566 0.314788 0.247797
0.173717 0.310764 0.239120
0.295254 0.317096 0.228197
0.454671 0.331790 0.216563
0.628167 0.352011 0.205917
0.776696 0.370748 0.200080
0.872128 0.379325 0.198906
0.924301 0.378275 0.198668
0.142471 0.434559 0.328986
0.191189 0.422633 0.314959
0.299033 0.421311 0.297708
0.445493 0.429037 0.277839
0.609492 0.443311 0.256634
0.756427 0.457530 0.238738
0.856870 0.462268 0.226776
0.915342 0.457172 0.217899
0.199171 0.563025 0.424671
0.235364 0.545516 0.407464
0.327430 0.537602 0.386573
0.457013 0.538405 0.361251
0.605443 0.546055 0.331850
0.743601 0.554913 0.302438
0.843892 0.555675 0.277821
0.906247 0.547287 0.256827
0.302248 0.676881 0.524286
0.323035 0.658671 0.506394
0.393782 0.647828 0.485263
0.498765 0.644271 0.459028
0.622343 0.646960 0.427024
0.742173 0.651697 0.391583
0.835167 0.650247 0.357776
0.897778 0.641100 0.325491
0.439664 0.759412 0.611344
0.445922 0.744332 0.595022
0.491258 0.734226 0.575987
0.564997 0.729542 0.552080
0.656455 0.729931 0.522211
0.751270 0.732754 0.487407
0.831485 0.731454 0.452255
0.891014 0.724180 0.416923
0.574902 0.816464 0.681712
0.573457 0.806195 0.668797
0.595935 0.798492 0.653025
0.638613 0.794238 0.632580
0.697214 0.793683 0.606492
0.765847 0.795588 0.575164
0.831422 0.794960 0.543764
0.886021 0.789653 0.514996
0.107391 0.168364 0.177931
0.170929 0.179049 0.192690
0.296389 0.199576 0.211842
0.459645 0.227720 0.233650
0.635783 0.260531 0.256256
0.781572 0.291071 0.276147
0.868643 0.311466 0.289551
0.912401 0.322455 0.296856
0.108558 0.236664 0.227091
0.169617 0.241808 0.231991
0.287619 0.256900 0.239387
0.442610 0.280116 0.249092
0.613402 0.308800 0.260782
0.762083 0.336295 0.273791
0.858019 0.353673 0.284654
0.910200 0.360659 0.291053
0.115128 0.338354 0.299209
0.169614 0.335936 0.294883
0.279495 0.343482 0.290973
0.427073 0.359570 0.287947
0.593251 0.381881 0.286365
0.743721 0.404267 0.287889
0.846758 0.417330 0.291118
0.906546 0.419829 0.292752
0.135744 0.459378 0.386614
0.180315 0.449555 0.374913
0.279824 0.449069 0.361882
0.418117 0.457080 0.347834
0.577619 0.471805 0.333488
0.727194 0.487931 0.321638
0.835039 0.496099 0.313464
0.901485 0.494251 0.306242
0.178731 0.585810 0.481407
0.210810 0.570579 0.465101
0.296462 0.563103 0.446450
0.421300 0.563374 0.424975
0.569552 0.570400 0.400862
0.713866 0.580079 0.376488
0.823424 0.583561 0.355061
0.895198 0.578182 0.335601
0.262468 0.695355 0.570741
0.280264 0.678992 0.553659
0.347030 0.668074 0.534295
0.450998 0.663378 0.511257
0.579138 0.664751 0.483872
0.709515 0.669625 0.452851
0.814428 0.670338 0.421638
0.888238 0.663804 0.390752
0.382027 0.772990 0.642101
0.388117 0.759223 0.627346
0.433588 0.748823 0.610749
0.510692 0.742874 0.590546
0.610497 0.741735 0.565591
0.718109 0.744228 0.535292
0.811068 0.744415 0.502544
0.882142 0.739045 0.468619
0.508441 0.824306 0.695749
0.510072 0.815200 0.685480
0.537024 0.807617 0.673307
0.586734 0.802703 0.657644
0.655436 0.801089 0.637363
0.736211 0.802574 0.611264
0.812953 0.802857 0.582591
0.877496 0.798794 0.555071
0.113541 0.182988 0.215859
0.160132 0.193456 0.233193
0.263374 0.216743 0.261284
0.407394 0.250757 0.296050
0.573506 0.292288 0.333261
0.723267 0.333027 0.365560
0.819815 0.361371 0.386468
0.871075 0.377080 0.397855
0.115169 0.258524 0.275547
0.163384 0.263335 0.283495
0.262613 0.279894 0.298828
0.399928 0.306749 0.319697
0.559773 0.341387 0.344027
0.709945 0.376991 0.368119
0.814399 0.402154 0.386130
0.874674 0.414856 0.396493
0.119784 0.364245 0.355820
0.164602 0.361714 0.354166
0.259076 0.369904 0.356727
0.391346 0.387892 0.362962
0.547181 0.413745 0.372236
0.697964 0.441887 0.383784
0.808770 0.461561 0.393946
0.877140 0.469669 0.399652
0.135071 0.485556 0.446738
0.172286 0.476057 0.437145
0.259339 0.475775 0.429057
0.385076 0.484435 0.422409
0.536134 0.500781 0.417255
0.686443 0.520500 0.414522
0.802079 0.533794 0.413224
0.877836 0.536964 0.410554
0.168579 0.608602 0.538948
0.194958 0.594196 0.524471
0.270604 0.586762 0.509491
0.385789 0.586882 0.493739
0.528548 0.594170 0.477246
0.675667 0.605766 0.461114
0.794111 0.613068 0.446594
0.876365 0.612065 0.432515
0.237110 0.712808 0.618923
0.250980 0.697472 0.603798
0.310459 0.686520 0.587380
0.408203 0.681231 0.568834
0.534646 0.682030 0.547673
0.671021 0.687638 0.523846
0.786751 0.691093 0.499198
0.872495 0.688231 0.474249
0.338250 0.785995 0.677823
0.342891 0.773230 0.665198
0.385112 0.762780 0.651274
0.460566 0.756072 0.634919
0.562886 0.753917 0.615283
0.679213 0.756296 0.591255
0.784198 0.758213 0.564269
0.867863 0.755631 0.535752
0.447734 0.833302 0.718526
0.450773 0.825226 0.710326
0.479299 0.817848 0.700770
0.532448 0.812433 0.688834
0.607642 0.809870 0.673641
0.698679 0.810853 0.653522
0.787270 0.812169 0.629918
0.863658 0.810245 0.606195
0.120387 0.200286 0.262326
0.155100 0.210822 0.281427
0.240008 0.236546 0.315858
0.365604 0.275703 0.360325
0.518501 0.325047 0.409167
0.666311 0.375337 0.452156
0.767945 0.411508 0.479909
0.824372 0.431949 0.494908
0.122908 0.282547 0.330489
0.158748 0.286642 0.340021
0.239864 0.304326 0.361183
0.359160 0.334545 0.391046
0.506019 0.374946 0.426264
0.654352 0.418615 0.460623
0.764927 0.451720 0.485709
0.832172 0.470409 0.500239
0.126776 0.391302 0.415765
0.160596 0.387842 0.415714
0.238350 0.396196 0.423569
0.353622 0.415927 0.438022
0.496892 0.445455 0.457461
0.645748 0.479731 0.479031
0.763169 0.506524 0.496664
0.839934 0.520876 0.507281
0.139104 0.511610 0.507117
0.167589 0.501458 0.499336
0.240043 0.500859 0.495978
0.350426 0.510067 0.496655
0.489868 0.528305 0.500847
0.638439 0.552208 0.507955
0.761017 0.571377 0.514774
0.846333 0.580503 0.518227
0.166773 0.629911 0.594736
0.186839 0.615481 0.582419
0.250422 0.607757 0.571575
0.352541 0.607799 0.562102
0.485430 0.615730 0.553930
0.631653 0.629847 0.547362
0.757510 0.641739 0.541768
0.850326 0.646178 0.535509
0.224360 0.727861 0.665738
0.234211 0.713081 0.653024
0.284638 0.702135 0.640075
0.372522 0.696625 0.626587
0.492009 0.697389 0.612349
0.629370 0.704265 0.597200
0.753458 0.711065 0.581654
0.850698 0.712887 0.565781
0.308875 0.796747 0.714751
0.311744 0.784835 0.704403
0.348799 0.774612 0.693230
0.418903 0.767672 0.680761
0.518479 0.765106 0.666587
0.638430 0.767801 0.649853
0.752823 0.771845 0.630989
0.848544 0.772939 0.610971
0.398534 0.841144 0.745941
0.401881 0.834094 0.739405
0.429779 0.827209 0.731885
0.483086 0.821750 0.722979
0.560675 0.818730 0.712248
0.658286 0.819482 0.698349
0.757017 0.822038 0.681510
0.845292 0.823008 0.664058
0.127845 0.219734 0.316458
0.154879 0.231257 0.337426
0.225824 0.259171 0.375848
0.335565 0.302168 0.426197
0.474735 0.357177 0.482337
0.616919 0.414601 0.532556
0.720110 0.456878 0.565274
0.779612 0.480899 0.582678
0.131443 0.307892 0.390312
0.157205 0.311664 0.400948
0.222808 0.330247 0.425802
0.325577 0.362975 0.461496
0.458881 0.407712 0.504051
0.602483 0.457659 0.545773
0.716269 0.497156 0.576293
0.788707 0.520651 0.594118
0.135394 0.418322 0.477075
0.159158 0.413924 0.478108
0.221132 0.422147 0.489667
0.319552 0.443036 0.510046
0.449101 0.475388 0.537058
0.593565 0.514781 0.566538
0.715397 0.547814 0.590550
0.799337 0.567798 0.605763
0.146613 0.536157 0.565634
0.166632 0.525108 0.559342
0.224325 0.523879 0.559791
0.318332 0.533275 0.566425
0.444084 0.553031 0.578374
0.588213 0.580804 0.594123
0.715786 0.605717 0.608710
0.809803 0.620910 0.618654
0.171515 0.648471 0.646567
0.185529 0.633718 0.636277
0.236564 0.625518 0.629234
0.323893 0.625407 0.625497
0.443792 0.634016 0.624976
0.585407 0.650839 0.627666
0.716223 0.667706 0.631473
0.818625 0.678246 0.634118
0.222379 0.739451 0.708635
0.228754 0.725059 0.698226
0.269797 0.714200 0.688694
0.345836 0.708744 0.680169
0.454420 0.709882 0.672728
0.587742 0.718483 0.666558
0.716625 0.729167 0.661270
0.823757 0.736523 0.656213
0.293865 0.803981 0.749755
0.295314 0.792885 0.741474
0.326579 0.783188 0.732957
0.389002 0.776556 0.724266
0.481507 0.774249 0.715428
0.599560 0.777840 0.706302
0.719235 0.784493 0.696890
0.825011 0.790075 0.687449
0.365110 0.846042 0.774457
0.368103 0.840060 0.769276
0.393854 0.834069 0.763498
0.444547 0.829216 0.757211
0.520396 0.826504 0.750405
0.619725 0.827593 0.742530
0.724955 0.831676 0.733453
0.823409 0.836104 0.724390
0.135681 0.240626 0.376938
0.158860 0.254876 0.400850
0.221194 0.284975 0.441262
0.319909 0.330080 0.493281
0.448073 0.387488 0.551249
0.583853 0.447901 0.603693
0.686522 0.492937 0.638374
0.747602 0.518281 0.656581
0.140329 0.332854 0.452182
0.160170 0.337692 0.464425
0.215480 0.357373 0.491021
0.306140 0.391528 0.528752
0.428051 0.438253 0.573720
0.565451 0.491045 0.618116
0.679409 0.533561 0.650977
0.754602 0.559157 0.670322
0.144999 0.443025 0.536234
0.162157 0.438715 0.538423
0.212693 0.447126 0.551915
0.297826 0.468663 0.575015
0.415134 0.502441 0.605466
0.553329 0.544624 0.638846
0.676150 0.581333 0.666508
0.764414 0.604742 0.684778
0.156756 0.556854 0.618693
0.170689 0.545578 0.613652
0.216853 0.544085 0.616434
0.297018 0.553620 0.626540
0.409719 0.574345 0.643066
0.547017 0.604819 0.664332
0.675870 0.634038 0.684561
0.775528 0.654023 0.699839
0.181793 0.662366 0.691119
0.191212 0.647641 0.682403
0.231972 0.639323 0.678071
0.306056 0.639335 0.678381
0.412612 0.648731 0.683353
0.546360 0.668048 0.693146
0.677852 0.689477 0.704897
0.786503 0.705794 0.715660
0.230417 0.746220 0.744482
0.234254 0.732344 0.735795
0.267540 0.721915 0.728951
0.332471 0.716998 0.724411
0.428805 0.719047 0.722528
0.553671 0.729769 0.724087
0.682030 0.744548 0.728307
0.795094 0.757759 0.733776
0.294209 0.806368 0.779493
0.294690 0.796052 0.772650
0.320918 0.787219 0.766309
0.375382 0.781528 0.760875
0.458502 0.780306 0.756696
0.569416 0.785544 0.754463
0.688287 0.795275 0.754263
0.799566 0.805876 0.755794
0.352569 0.846299 0.800476
0.354640 0.841209 0.796132
0.377476 0.836410 0.791804
0.423790 0.832873 0.787812
0.494550 0.831476 0.784406
0.590154 0.833856 0.781857
0.695883 0.839917 0.780369
0.799846 0.847982 0.780557
0.143008 0.260711 0.438799
0.164605 0.279423 0.466573
0.222285 0.312287 0.508077
0.314456 0.358872 0.559439
0.435563 0.416878 0.615964
0.566812 0.477464 0.667449
0.669132 0.522449 0.702174
0.731510 0.546867 0.720439
0.148816 0.355627 0.511946
0.165958 0.362727 0.526268
0.215764 0.384005 0.553628
0.299302 0.419247 0.591226
0.413804 0.466706 0.635593
0.546277 0.520038 0.679620
0.659450 0.562877 0.712768
0.735921 0.588156 0.732482
0.154711 0.464282 0.590481
0.168461 0.460945 0.593932
0.212566 0.470160 0.608296
0.289640 0.492466 0.632050
0.398751 0.527109 0.663126
0.531533 0.570494 0.697477
0.653456 0.608646 0.726625
0.743470 0.633233 0.746510
0.168094 0.573409 0.665069
0.178382 0.562547 0.661092
0.217591 0.561505 0.665104
0.288952 0.571700 0.676753
0.392577 0.593475 0.695271
0.523653 0.625845 0.719258
0.651261 0.657816 0.742840
0.753123 0.680790 0.761699
0.195097 0.672210 0.728443
0.201148 0.657859 0.720883
0.235183 0.650071 0.718201
0.300361 0.650912 0.720870
0.397222 0.661625 0.729086
0.523581 0.683354 0.743387
0.652892 0.708560 0.760671
0.763773 0.729478 0.777418
0.244408 0.749540 0.773722
0.245779 0.736177 0.766183
0.273583 0.726583 0.761139
0.330645 0.722847 0.759315
0.417655 0.726513 0.761297
0.534253 0.739790 0.768443
0.658962 0.758553 0.779848
0.773439 0.777052 0.793471
0.304509 0.805467 0.803562
0.303549 0.795681 0.797588
0.325928 0.787884 0.792819
0.374379 0.783648 0.789880
0.449847 0.784257 0.789337
0.553109 0.791906 0.792513
0.667635 0.805057 0.799634
0.779287 0.820411 0.810009
0.355021 0.843145 0.821908
0.355633 0.838474 0.818015
0.375691 0.834784 0.814866
0.417963 0.832903 0.812878
0.483640 0.833563 0.812416
0.573937 0.838245 0.814283
0.676239 0.846872 0.818922
0.780100 0.858180 0.826628
0.149097 0.278378 0.499912
0.170458 0.302863 0.531245
0.225975 0.339447 0.573219
0.314573 0.388038 0.622882
0.431427 0.446668 0.676549
0.559721 0.506721 0.725835
0.662059 0.550333 0.760311
0.725639 0.572166 0.779001
0.156579 0.376586 0.569571
0.172607 0.386078 0.585298
0.219690 0.409183 0.612588
0.299376 0.445684 0.648966
0.409541 0.493838 0.691413
0.538883 0.547236 0.733947
0.651578 0.589444 0.766957
0.728871 0.613082 0.786954
0.164299 0.483647 0.641265
0.176000 0.481019 0.645309
0.216494 0.491112 0.659695
0.289030 0.514365 0.682987
0.393409 0.549956 0.713314
0.522852 0.594271 0.747316
0.644043 0.633122 0.777069
0.734835 0.657690 0.797849
0.180036 0.587970 0.707153
0.187361 0.577206 0.703682
0.222084 0.576741 0.708131
0.288201 0.587911 0.720207
0.386617 0.611023 0.739257
0.514018 0.645268 0.764339
0.640550 0.679460 0.789792
0.743106 0.704331 0.810764
0.209905 0.680344 0.761350
0.212263 0.666022 0.754437
0.241290 0.658893 0.752670
0.300850 0.660970 0.756629
0.392191 0.673493 0.766632
0.514392 0.697955 0.783592
0.641966 0.726736 0.804346
0.753062 0.751344 0.824809
0.261080 0.751645 0.798834
0.258878 0.738360 0.791966
0.282166 0.729630 0.788111
0.334170 0.727467 0.788150
0.416008 0.733390 0.792811
0.528117 0.749942 0.803846
0.650014 0.772926 0.820116
0.763215 0.795936 0.838857
0.319073 0.803269 0.823365
0.315714 0.793617 0.818013
0.334972 0.786814 0.814476
0.379710 0.784362 0.813539
0.451048 0.787492 0.815917
0.550160 0.798569 0.823339
0.661133 0.815758 0.835752
0.769623 0.835139 0.851649
0.363700 0.838268 0.838673
0.362874 0.833623 0.835343
0.380906 0.830857 0.833326
0.420615 0.830777 0.833146
0.483283 0.834048 0.835273
0.570349 0.842056 0.840847
0.669256 0.854046 0.850091
0.769184 0.868185 0.862564
