Assets/1__3DArt/KimSe/artstation_asset/LUTs_pasterls/CUBE/Emerald Oasis 01 S.cube
# Enhanced with VOXCOLOR algorithms
LUT_3D_SIZE 5
DOMAIN_MIN 0.000000 0.000000 0.000000
DOMAIN_MAX 0.903226 0.903226 0.903226
0.019608 0.019608 0.058824
0.276075 0.057767 0.055115
0.626442 0.107589 0.044323
0.832866 0.146917 0.050741
0.872510 0.162369 0.061179
0.031479 0.218854 0.143337
0.233244 0.232792 0.105496
0.541170 0.254745 0.060356
0.771056 0.272337 0.043703
0.870084 0.273385 0.054681
0.106992 0.508853 0.287909
0.254402 0.496170 0.225526
0.524306 0.490249 0.143735
0.762594 0.487065 0.090879
0.888121 0.473856 0.074889
0.300321 0.737909 0.427168
0.388548 0.721778 0.368953
0.595292 0.713006 0.286119
0.799698 0.707008 0.215823
0.913924 0.691741 0.161400
0.575769 0.839076 0.524376
0.609742 0.834214 0.491525
0.717100 0.834299 0.435603
0.842527 0.835222 0.381374
0.925447 0.830098 0.342528
0.037722 0.068478 0.209030
0.224923 0.108705 0.236127
0.542985 0.175798 0.268802
0.791286 0.243835 0.302738
0.876409 0.283716 0.321745
0.062379 0.306366 0.341690
0.228009 0.305145 0.312707
0.492628 0.309346 0.280454
0.729774 0.325245 0.270681
0.872821 0.354482 0.285728
0.166452 0.584460 0.504757
0.277033 0.550030 0.430155
0.493370 0.515970 0.341008
0.717928 0.499220 0.283237
0.889044 0.501552 0.264730
0.365050 0.775277 0.613917
0.415102 0.746263 0.544587
0.566664 0.716663 0.448561
0.750329 0.697763 0.361850
0.909676 0.688198 0.299572
0.592563 0.848691 0.650353
0.611325 0.841848 0.620794
0.694919 0.837591 0.570297
0.811178 0.838314 0.505108
0.920528 0.841704 0.439776
0.058130 0.151576 0.409237
0.203601 0.206528 0.449400
0.493280 0.303595 0.502896
0.762384 0.409250 0.555745
0.875950 0.470613 0.584947
0.107229 0.414828 0.551665
0.224652 0.412047 0.537895
0.458622 0.419447 0.520974
0.707923 0.445184 0.519541
0.875652 0.488839 0.540243
0.250893 0.665214 0.687257
0.319316 0.628313 0.634453
0.490050 0.586242 0.563772
0.700823 0.558931 0.510942
0.891354 0.556187 0.493729
0.459585 0.813674 0.758337
0.479638 0.785145 0.710072
0.580295 0.747809 0.631044
0.732349 0.715269 0.547255
0.907550 0.697329 0.489037
0.644414 0.863683 0.768898
0.650888 0.857089 0.749544
0.703960 0.850578 0.708901
0.795258 0.850316 0.643210
0.916005 0.859371 0.568323
0.078347 0.266989 0.607469
0.201739 0.347224 0.648795
0.468375 0.460724 0.694272
0.740787 0.574611 0.736628
0.867697 0.633971 0.759044
0.161643 0.525889 0.722581
0.242579 0.542620 0.725940
0.449942 0.570837 0.724262
0.699797 0.605753 0.726496
0.869932 0.634518 0.737631
0.341247 0.734252 0.808190
0.375889 0.715844 0.788298
0.510375 0.692031 0.754041
0.703411 0.666657 0.720648
0.886700 0.645108 0.704653
0.548638 0.842838 0.842995
0.551569 0.825640 0.823913
0.619310 0.797956 0.783944
0.741790 0.762554 0.731659
0.903522 0.731260 0.692248
0.696216 0.876347 0.845557
0.698228 0.871917 0.837511
0.733419 0.866508 0.817113
0.801982 0.863651 0.777577
0.909704 0.868160 0.728616
0.095592 0.390567 0.743621
0.212001 0.497699 0.781468
0.459263 0.602181 0.808485
0.725086 0.691480 0.829961
0.858417 0.732729 0.840256
0.222626 0.617805 0.819325
0.286104 0.654917 0.830105
0.469056 0.699401 0.836171
0.702085 0.739924 0.840796
0.858584 0.758440 0.845364
0.425984 0.781224 0.864766
0.440759 0.780299 0.862216
0.549997 0.783896 0.856278
0.719901 0.784593 0.849214
0.871578 0.776071 0.846849
0.618595 0.859291 0.879123
0.612050 0.851957 0.875243
0.665063 0.844123 0.867653
0.767594 0.832235 0.856821
0.889175 0.816996 0.850045
0.734566 0.882280 0.879280
0.734781 0.880366 0.877909
0.765285 0.879107 0.875846
0.823094 0.878477 0.870604
0.898520 0.879081 0.862435
