Assets/1__3DArt/KimSe/artstation_asset/LUTs_pasterls/CUBE/Emerald Oasis 03 S.cube
# Enhanced with VOXCOLOR algorithms
LUT_3D_SIZE 32
0.105882 0.121569 0.145098
0.127339 0.124872 0.147213
0.148795 0.128175 0.149329
0.170252 0.131478 0.151444
0.191708 0.134781 0.153560
0.213165 0.138084 0.155675
0.252776 0.143292 0.156753
0.296018 0.148881 0.157623
0.339259 0.154470 0.158494
0.382501 0.160059 0.159364
0.425743 0.165648 0.160234
0.470723 0.172461 0.161665
0.516571 0.179887 0.163377
0.562419 0.187313 0.165088
0.608268 0.194738 0.166800
0.654116 0.202164 0.168511
0.693714 0.209437 0.170763
0.727061 0.216558 0.173555
0.760408 0.223679 0.176347
0.793755 0.230800 0.179139
0.827102 0.237921 0.181931
0.854554 0.244235 0.184709
0.870219 0.248937 0.187459
0.885883 0.253639 0.190209
0.901548 0.258340 0.192958
0.917212 0.263042 0.195708
0.930871 0.267204 0.198191
0.934501 0.268665 0.199337
0.938131 0.270126 0.200483
0.941760 0.271587 0.201630
0.945390 0.273049 0.202776
0.949020 0.274510 0.203922
0.105900 0.137801 0.155796
0.126585 0.140740 0.156897
0.147270 0.143680 0.157998
0.167955 0.146619 0.159099
0.188639 0.149558 0.160200
0.209324 0.152498 0.161301
0.247781 0.157366 0.161215
0.289792 0.162620 0.160891
0.331804 0.167874 0.160567
0.373815 0.173128 0.160244
0.415827 0.178382 0.159920
0.459825 0.184802 0.160274
0.504817 0.191805 0.160966
0.549809 0.198808 0.161659
0.594801 0.205811 0.162351
0.639793 0.212813 0.163044
0.679082 0.219720 0.164577
0.712668 0.226529 0.166951
0.746254 0.233338 0.169324
0.779839 0.240148 0.171698
0.813425 0.246957 0.174072
0.841462 0.253067 0.176706
0.858403 0.257778 0.179862
0.875344 0.262489 0.183017
0.892285 0.267199 0.186173
0.909225 0.271910 0.189328
0.924144 0.276123 0.192315
0.928950 0.277849 0.194460
0.933757 0.279574 0.196605
0.938563 0.281299 0.198750
0.943370 0.283025 0.200895
0.948176 0.284750 0.203040
0.105919 0.154032 0.166493
0.125832 0.156608 0.166580
0.145745 0.159184 0.166667
0.165657 0.161760 0.166754
0.185570 0.164336 0.166841
0.205483 0.166912 0.166927
0.242786 0.171440 0.165677
0.283567 0.176359 0.164159
0.324348 0.181278 0.162641
0.365129 0.186197 0.161124
0.405911 0.191116 0.159606
0.448928 0.197142 0.158882
0.493064 0.203722 0.158556
0.537200 0.210302 0.158229
0.581335 0.216883 0.157903
0.625471 0.223463 0.157576
0.664451 0.230002 0.158391
0.698275 0.236500 0.160346
0.732100 0.242998 0.162302
0.765924 0.249496 0.164258
0.799748 0.255993 0.166213
0.828370 0.261899 0.168704
0.846587 0.266619 0.172265
0.864804 0.271338 0.175826
0.883021 0.276058 0.179387
0.901238 0.280778 0.182948
0.917416 0.285043 0.186439
0.923400 0.287033 0.189583
0.929383 0.289022 0.192727
0.935366 0.291012 0.195871
0.941349 0.293001 0.199015
0.947332 0.294991 0.202158
0.105937 0.170264 0.177191
0.125078 0.172477 0.176263
0.144219 0.174689 0.175336
0.163360 0.176901 0.174408
0.182501 0.179114 0.173481
0.201642 0.181326 0.172553
0.237791 0.185515 0.170139
0.277342 0.190098 0.167427
0.316893 0.194682 0.164715
0.356444 0.199266 0.162004
0.395994 0.203850 0.159292
0.438031 0.209483 0.157491
0.481310 0.215640 0.156145
0.524590 0.221797 0.154800
0.567869 0.227955 0.153454
0.611149 0.234112 0.152109
0.649820 0.240284 0.152205
0.683883 0.246470 0.153742
0.717946 0.252657 0.155280
0.752009 0.258843 0.156817
0.786072 0.265030 0.158354
0.815278 0.270730 0.160702
0.834771 0.275459 0.164668
0.854265 0.280188 0.168634
0.873758 0.284917 0.172601
0.893251 0.289646 0.176567
0.910689 0.293963 0.180563
0.917849 0.296216 0.184706
0.925009 0.298470 0.188849
0.932169 0.300724 0.192991
0.939329 0.302977 0.197134
0.946488 0.305231 0.201277
0.105956 0.186496 0.187888
0.124325 0.188345 0.185947
0.142694 0.190194 0.184005
0.161063 0.192042 0.182063
0.179432 0.193891 0.180121
0.197802 0.195740 0.178179
0.232797 0.199589 0.174601
0.271117 0.203838 0.170695
0.309437 0.208086 0.166789
0.347758 0.212335 0.162883
0.386078 0.216584 0.158978
0.427134 0.221823 0.156099
0.469557 0.227558 0.153735
0.511980 0.233292 0.151370
0.554403 0.239027 0.149006
0.596826 0.244761 0.146641
0.635189 0.250566 0.146019
0.669490 0.256441 0.147138
0.703792 0.262316 0.148257
0.738093 0.268191 0.149376
0.772395 0.274066 0.150496
0.802186 0.279562 0.152699
0.822955 0.284300 0.157071
0.843725 0.289038 0.161443
0.864495 0.293776 0.165815
0.885264 0.298515 0.170187
0.903962 0.302883 0.174687
0.912298 0.305400 0.179829
0.920635 0.307918 0.184970
0.928971 0.310436 0.190112
0.937308 0.312953 0.195253
0.945645 0.315471 0.200395
0.105974 0.202728 0.198586
0.123571 0.204213 0.195630
0.141169 0.205698 0.192674
0.158766 0.207184 0.189718
0.176363 0.208669 0.186761
0.193961 0.210154 0.183805
0.227802 0.213663 0.179063
0.264892 0.217577 0.173963
0.301982 0.221490 0.168863
0.339072 0.225404 0.163763
0.376162 0.229318 0.158664
0.416236 0.234163 0.154708
0.457803 0.239475 0.151324
0.499370 0.244787 0.147941
0.540937 0.250099 0.144557
0.582504 0.255410 0.141174
0.620558 0.260848 0.139833
0.655098 0.266412 0.140534
0.689638 0.271975 0.141235
0.724178 0.277539 0.141936
0.758718 0.283102 0.142637
0.789094 0.288394 0.144697
0.811140 0.293141 0.149474
0.833185 0.297888 0.154252
0.855231 0.302636 0.159029
0.877277 0.307383 0.163807
0.897234 0.311802 0.168811
0.906748 0.314584 0.174952
0.916261 0.317366 0.181092
0.925774 0.320148 0.187232
0.935287 0.322930 0.193373
0.944801 0.325711 0.199513
0.107856 0.232615 0.219912
0.124838 0.233488 0.216067
0.141820 0.234361 0.212222
0.158802 0.235234 0.208377
0.175784 0.236107 0.204531
0.192766 0.236980 0.200686
0.225741 0.239875 0.194745
0.261914 0.243174 0.188385
0.298088 0.246473 0.182025
0.334261 0.249773 0.175664
0.370435 0.253072 0.169304
0.409789 0.257354 0.164141
0.450734 0.262127 0.159577
0.491679 0.266900 0.155012
0.532624 0.271674 0.150448
0.573570 0.276447 0.145883
0.611367 0.281425 0.143594
0.646018 0.286609 0.143581
0.680669 0.291792 0.143567
0.715320 0.296976 0.143553
0.749971 0.302159 0.143540
0.780679 0.307133 0.145088
0.803502 0.311688 0.149760
0.826326 0.316244 0.154432
0.849149 0.320799 0.159104
0.871972 0.325354 0.163776
0.892700 0.329605 0.168749
0.902953 0.332333 0.175228
0.913205 0.335061 0.181707
0.923457 0.337788 0.188186
0.933709 0.340516 0.194665
0.943962 0.343244 0.201144
0.110111 0.265234 0.243363
0.126509 0.265445 0.238654
0.142907 0.265656 0.233945
0.159305 0.265867 0.229236
0.175702 0.266078 0.224528
0.192100 0.266288 0.219819
0.224266 0.268514 0.212672
0.259586 0.271143 0.205038
0.294906 0.273772 0.197404
0.330226 0.276401 0.189770
0.365546 0.279030 0.182136
0.404232 0.282714 0.175739
0.444602 0.286926 0.169961
0.484972 0.291137 0.164184
0.525343 0.295349 0.158406
0.565713 0.299561 0.152628
0.603266 0.304061 0.149346
0.638002 0.308851 0.148558
0.672738 0.313640 0.147770
0.707473 0.318430 0.146982
0.742209 0.323220 0.146195
0.773200 0.327854 0.147158
0.796701 0.332177 0.151622
0.820202 0.336500 0.156086
0.843703 0.340823 0.160551
0.867204 0.345146 0.165015
0.888605 0.349184 0.169850
0.899509 0.351794 0.176535
0.910413 0.354404 0.183220
0.921316 0.357015 0.189906
0.932220 0.359625 0.196591
0.943124 0.362235 0.203277
0.112366 0.297853 0.266814
0.128180 0.297402 0.261242
0.143994 0.296951 0.255669
0.159807 0.296499 0.250096
0.175621 0.296048 0.244524
0.191435 0.295597 0.238951
0.222792 0.297154 0.230599
0.257258 0.299112 0.221691
0.291724 0.301071 0.212783
0.326190 0.303030 0.203875
0.360656 0.304988 0.194967
0.398675 0.308074 0.187337
0.438470 0.311724 0.180346
0.478266 0.315374 0.173355
0.518061 0.319024 0.166364
0.557856 0.322674 0.159373
0.595164 0.326697 0.155097
0.629985 0.331093 0.153535
0.664806 0.335489 0.151973
0.699627 0.339885 0.150412
0.734448 0.344280 0.148850
0.765721 0.348575 0.149228
0.789900 0.352666 0.153484
0.814078 0.356757 0.157741
0.838257 0.360848 0.161998
0.862435 0.364939 0.166254
0.884510 0.368763 0.170950
0.896065 0.371256 0.177842
0.907620 0.373748 0.184734
0.919175 0.376241 0.191626
0.930730 0.378734 0.198518
0.942285 0.381226 0.205410
0.114621 0.330472 0.290266
0.129851 0.329359 0.283829
0.145080 0.328245 0.277393
0.160310 0.327132 0.270956
0.175539 0.326018 0.264520
0.190769 0.324905 0.258083
0.221318 0.325793 0.248526
0.254930 0.327081 0.238344
0.288542 0.328370 0.228162
0.322155 0.329658 0.217980
0.355767 0.330947 0.207798
0.393118 0.333435 0.198935
0.432338 0.336523 0.190731
0.471559 0.339611 0.182526
0.510779 0.342700 0.174322
0.549999 0.345788 0.166118
0.587062 0.349333 0.160848
0.621968 0.353335 0.158512
0.656874 0.357337 0.156176
0.691780 0.361339 0.153841
0.726686 0.365341 0.151505
0.758242 0.369295 0.151298
0.783098 0.373154 0.155347
0.807955 0.377013 0.159395
0.832811 0.380872 0.163444
0.857667 0.384731 0.167493
0.880415 0.388342 0.172051
0.892621 0.390717 0.179149
0.904828 0.393092 0.186248
0.917034 0.395467 0.193346
0.929241 0.397842 0.200444
0.941447 0.400217 0.207543
0.116876 0.363091 0.313717
0.131522 0.361315 0.306417
0.146167 0.359540 0.299116
0.160813 0.357764 0.291816
0.175458 0.355989 0.284516
0.190103 0.354213 0.277215
0.219843 0.354432 0.266452
0.252602 0.355050 0.254997
0.285361 0.355669 0.243541
0.318119 0.356287 0.232086
0.350878 0.356905 0.220630
0.387561 0.358795 0.210533
0.426206 0.361322 0.201115
0.464852 0.363848 0.191698
0.503497 0.366375 0.182280
0.542142 0.368902 0.172863
0.578960 0.371969 0.166599
0.613951 0.375577 0.163489
0.648943 0.379185 0.160380
0.683934 0.382794 0.157270
0.718925 0.386402 0.154160
0.750763 0.390016 0.153367
0.776297 0.393643 0.157209
0.801831 0.397270 0.161050
0.827365 0.400896 0.164891
0.852898 0.404523 0.168733
0.876319 0.407921 0.173151
0.889177 0.410179 0.180456
0.902035 0.412436 0.187761
0.914893 0.414694 0.195066
0.927751 0.416951 0.202371
0.940609 0.419209 0.209676
0.124143 0.399494 0.341245
0.138180 0.397126 0.333419
0.152217 0.394759 0.325593
0.166254 0.392391 0.317767
0.180291 0.390024 0.309941
0.194328 0.387657 0.302115
0.223278 0.387197 0.290585
0.255211 0.387120 0.278314
0.287144 0.387042 0.266044
0.319078 0.386965 0.253773
0.351011 0.386887 0.241502
0.387002 0.388161 0.230548
0.425024 0.390110 0.220252
0.463045 0.392059 0.209956
0.501066 0.394008 0.199660
0.539087 0.395957 0.189363
0.575521 0.398538 0.182284
0.610369 0.401750 0.178422
0.645217 0.404963 0.174559
0.680064 0.408175 0.170697
0.714912 0.411387 0.166834
0.746752 0.414642 0.165341
0.772577 0.417981 0.168584
0.798403 0.421321 0.171827
0.824228 0.424660 0.175070
0.850054 0.428000 0.178313
0.873772 0.431111 0.182139
0.886958 0.433083 0.188882
0.900143 0.435055 0.195625
0.913328 0.437027 0.202368
0.926513 0.438999 0.209111
0.939698 0.440971 0.215854
0.133916 0.437788 0.370810
0.147332 0.434864 0.362628
0.160748 0.431940 0.354446
0.174164 0.429016 0.346263
0.187580 0.426092 0.338081
0.200997 0.423167 0.329898
0.229167 0.422025 0.317821
0.260289 0.421239 0.304964
0.291411 0.420453 0.292108
0.322533 0.419667 0.279252
0.353654 0.418881 0.266395
0.388943 0.419529 0.254772
0.426316 0.420892 0.243764
0.463688 0.422256 0.232757
0.501060 0.423620 0.221749
0.538433 0.424984 0.210742
0.574414 0.427074 0.202936
0.609004 0.429889 0.198332
0.643594 0.432705 0.193727
0.678183 0.435520 0.189123
0.712773 0.438335 0.184518
0.744474 0.441220 0.182265
0.770399 0.444245 0.184715
0.796323 0.447270 0.187165
0.822247 0.450294 0.189614
0.848171 0.453319 0.192064
0.872000 0.456107 0.195072
0.885350 0.457709 0.200868
0.898700 0.459312 0.206665
0.912050 0.460914 0.212461
0.925400 0.462517 0.218258
0.938750 0.464120 0.224054
0.143688 0.476083 0.400376
0.156484 0.472602 0.391837
0.169279 0.469121 0.383298
0.182075 0.465640 0.374759
0.194870 0.462159 0.366220
0.207666 0.458678 0.357681
0.235057 0.456853 0.345057
0.265367 0.455358 0.331615
0.295677 0.453864 0.318172
0.325988 0.452370 0.304730
0.356298 0.450876 0.291288
0.390884 0.450897 0.278995
0.427607 0.451675 0.267277
0.464331 0.452454 0.255558
0.501055 0.453232 0.243839
0.537779 0.454011 0.232121
0.573306 0.455609 0.223588
0.607638 0.458028 0.218242
0.641970 0.460446 0.212895
0.676302 0.462865 0.207549
0.710634 0.465283 0.202202
0.742197 0.467799 0.199190
0.768220 0.470509 0.200846
0.794243 0.473219 0.202503
0.820266 0.475928 0.204159
0.846289 0.478638 0.205815
0.870227 0.481102 0.208004
0.883742 0.482335 0.212854
0.897257 0.483568 0.217704
0.910772 0.484802 0.222554
0.924287 0.486035 0.227405
0.937803 0.487268 0.232255
0.153461 0.514377 0.429942
0.165636 0.510340 0.421047
0.177810 0.506302 0.412151
0.189985 0.502264 0.403256
0.202160 0.498227 0.394360
0.214335 0.494189 0.385465
0.240946 0.491680 0.372292
0.270445 0.489478 0.358265
0.299944 0.487275 0.344237
0.329443 0.485073 0.330209
0.358941 0.482870 0.316181
0.392824 0.482265 0.303219
0.428899 0.482458 0.290789
0.464974 0.482651 0.278359
0.501049 0.482844 0.265929
0.537124 0.483037 0.253499
0.572199 0.484145 0.244240
0.606273 0.486166 0.238152
0.640347 0.488188 0.232063
0.674422 0.490210 0.225975
0.708496 0.492231 0.219886
0.739919 0.494377 0.216115
0.766041 0.496772 0.216978
0.792163 0.499167 0.217840
0.818284 0.501563 0.218703
0.844406 0.503958 0.219566
0.868454 0.506098 0.220936
0.882134 0.506961 0.224840
0.895814 0.507825 0.228744
0.909495 0.508689 0.232648
0.923175 0.509553 0.236551
0.936855 0.510416 0.240455
0.163234 0.552672 0.459508
0.174788 0.548077 0.450256
0.186342 0.543483 0.441004
0.197896 0.538889 0.431752
0.209450 0.534294 0.422500
0.221004 0.529700 0.413248
0.246835 0.526508 0.399528
0.275523 0.523597 0.384915
0.304210 0.520686 0.370301
0.332898 0.517775 0.355688
0.361585 0.514864 0.341074
0.394765 0.513632 0.327442
0.430191 0.513240 0.314301
0.465618 0.512848 0.301160
0.501044 0.512456 0.288019
0.536470 0.512064 0.274878
0.571091 0.512680 0.264892
0.604908 0.514305 0.258062
0.638724 0.515930 0.251231
0.672541 0.517554 0.244401
0.706357 0.519179 0.237570
0.737641 0.520956 0.233040
0.763862 0.523036 0.233109
0.790083 0.525116 0.233178
0.816303 0.527197 0.233248
0.842524 0.529277 0.233317
0.866682 0.531093 0.233868
0.880527 0.531587 0.236826
0.894372 0.532082 0.239783
0.908217 0.532576 0.242741
0.922062 0.533070 0.245698
0.935907 0.533565 0.248656
0.179052 0.587432 0.487169
0.189882 0.582520 0.477902
0.200711 0.577608 0.468634
0.211541 0.572695 0.459367
0.222371 0.567783 0.450099
0.233201 0.562870 0.440832
0.258089 0.559193 0.427055
0.285788 0.555763 0.412377
0.313487 0.552332 0.397699
0.341186 0.548902 0.383021
0.368885 0.545471 0.368342
0.401144 0.543757 0.354522
0.435683 0.542901 0.341130
0.470223 0.542046 0.327738
0.504762 0.541190 0.314347
0.539301 0.540334 0.300955
0.573212 0.540560 0.290590
0.606494 0.541867 0.283252
0.639777 0.543174 0.275914
0.673059 0.544481 0.268576
0.706341 0.545787 0.261238
0.737218 0.547268 0.256092
0.763284 0.549097 0.255327
0.789350 0.550927 0.254562
0.815416 0.552756 0.253797
0.841482 0.554585 0.253032
0.865518 0.556136 0.252684
0.879406 0.556298 0.254419
0.893294 0.556461 0.256154
0.907181 0.556623 0.257890
0.921069 0.556785 0.259625
0.934957 0.556947 0.261360
0.200915 0.618659 0.512925
0.210917 0.613668 0.503983
0.220920 0.608676 0.495041
0.230922 0.603684 0.486099
0.240925 0.598693 0.477158
0.250927 0.593701 0.468216
0.274706 0.589735 0.454874
0.301240 0.585974 0.440652
0.327774 0.582213 0.426430
0.354308 0.578452 0.412208
0.380842 0.574691 0.397986
0.411962 0.572639 0.384457
0.445376 0.571441 0.371275
0.478789 0.570243 0.358093
0.512203 0.569046 0.344911
0.545616 0.567848 0.331729
0.578559 0.567784 0.321333
0.611032 0.568852 0.313723
0.643504 0.569920 0.306112
0.675976 0.570988 0.298502
0.708449 0.572056 0.290891
0.738650 0.573315 0.285271
0.764308 0.574957 0.283631
0.789966 0.576598 0.281991
0.815624 0.578240 0.280350
0.841282 0.579881 0.278710
0.864964 0.581227 0.277383
0.878772 0.581094 0.277620
0.892581 0.580962 0.277857
0.906389 0.580829 0.278095
0.920197 0.580697 0.278332
0.934005 0.580564 0.278569
0.222778 0.649886 0.538681
0.231953 0.644815 0.530065
0.241128 0.639744 0.521449
0.250303 0.634673 0.512832
0.259479 0.629602 0.504216
0.268654 0.624532 0.495600
0.291323 0.620277 0.482692
0.316692 0.616185 0.468926
0.342061 0.612093 0.455161
0.367430 0.608002 0.441395
0.392799 0.603910 0.427629
0.422780 0.601520 0.414393
0.455068 0.599980 0.401420
0.487356 0.598441 0.388448
0.519644 0.596902 0.375476
0.551932 0.595362 0.362504
0.583907 0.595007 0.352077
0.615569 0.595837 0.344193
0.647232 0.596666 0.336310
0.678894 0.597495 0.328427
0.710556 0.598325 0.320544
0.740081 0.599362 0.314450
0.765331 0.600816 0.311935
0.790581 0.602270 0.309419
0.815831 0.603723 0.306904
0.841081 0.605177 0.304389
0.864411 0.606317 0.302082
0.878139 0.605890 0.300821
0.891867 0.605463 0.299560
0.905596 0.605036 0.298299
0.919324 0.604609 0.297038
0.933052 0.604181 0.295777
0.244641 0.681113 0.564437
0.252989 0.675963 0.556146
0.261337 0.670813 0.547856
0.269684 0.665663 0.539565
0.278032 0.660512 0.531274
0.286380 0.655362 0.522983
0.307941 0.650819 0.510510
0.332144 0.646396 0.497201
0.356348 0.641974 0.483891
0.380552 0.637552 0.470582
0.404755 0.633130 0.457272
0.433598 0.630401 0.444328
0.464761 0.628520 0.431566
0.495923 0.626639 0.418803
0.527085 0.624757 0.406041
0.558248 0.622876 0.393279
0.589255 0.622231 0.382820
0.620107 0.622821 0.374664
0.650959 0.623412 0.366508
0.681811 0.624003 0.358353
0.712664 0.624593 0.350197
0.741512 0.625409 0.343629
0.766354 0.626675 0.340239
0.791196 0.627941 0.336848
0.816038 0.629207 0.333458
0.840880 0.630473 0.330067
0.863857 0.631408 0.326782
0.877505 0.630686 0.324022
0.891154 0.629964 0.321263
0.904803 0.629242 0.318504
0.918451 0.628520 0.315745
0.932100 0.627798 0.312986
0.266505 0.712340 0.590193
0.274025 0.707111 0.582228
0.281545 0.701881 0.574263
0.289065 0.696652 0.566298
0.296586 0.691422 0.558333
0.304106 0.686193 0.550367
0.324558 0.681360 0.538329
0.347597 0.676608 0.525476
0.370635 0.671855 0.512622
0.393674 0.667102 0.499769
0.416712 0.662349 0.486916
0.444416 0.659283 0.474263
0.474453 0.657059 0.461711
0.504490 0.654836 0.449158
0.534527 0.652613 0.436606
0.564563 0.650390 0.424054
0.594603 0.649454 0.413563
0.624645 0.649806 0.405135
0.654687 0.650158 0.396706
0.684729 0.650510 0.388278
0.714771 0.650862 0.379850
0.742944 0.651456 0.372809
0.767378 0.652534 0.368543
0.791812 0.653613 0.364277
0.816246 0.654691 0.360011
0.840680 0.655770 0.355745
0.863303 0.656499 0.351481
0.876872 0.655482 0.347224
0.890441 0.654465 0.342966
0.904010 0.653449 0.338709
0.917579 0.652432 0.334452
0.931148 0.651415 0.330195
0.292259 0.738900 0.612719
0.298909 0.733737 0.605200
0.305559 0.728573 0.597681
0.312209 0.723409 0.590162
0.318859 0.718246 0.582643
0.325509 0.713082 0.575124
0.344692 0.708127 0.563721
0.366383 0.703214 0.551540
0.388073 0.698301 0.539360
0.409764 0.693388 0.527179
0.431454 0.688476 0.514999
0.457809 0.685208 0.502868
0.486495 0.682763 0.490762
0.515182 0.680318 0.478657
0.543868 0.677873 0.466551
0.572555 0.675428 0.454445
0.601416 0.674298 0.444147
0.630452 0.674483 0.435658
0.659488 0.674669 0.427168
0.688524 0.674854 0.418678
0.717560 0.675039 0.410189
0.744890 0.675484 0.402884
0.768807 0.676451 0.397949
0.792723 0.677418 0.393015
0.816640 0.678385 0.388080
0.840557 0.679352 0.383146
0.862738 0.679958 0.378117
0.876239 0.678764 0.372617
0.889740 0.677569 0.367117
0.903241 0.676374 0.361618
0.916743 0.675179 0.356118
0.930244 0.673984 0.350618
0.325794 0.756127 0.628783
0.331488 0.751319 0.621952
0.337182 0.746512 0.615121
0.342876 0.741704 0.608290
0.348570 0.736896 0.601459
0.354264 0.732088 0.594628
0.371860 0.727344 0.584260
0.391837 0.722612 0.573185
0.411814 0.717880 0.562111
0.431791 0.713148 0.551036
0.451767 0.708416 0.539961
0.476351 0.705221 0.528813
0.503237 0.702794 0.517627
0.530124 0.700368 0.506441
0.557011 0.697942 0.495256
0.583898 0.695515 0.484070
0.611161 0.694383 0.474413
0.638799 0.694545 0.466285
0.666437 0.694707 0.458157
0.694075 0.694869 0.450029
0.721713 0.695032 0.441900
0.747866 0.695476 0.434751
0.771047 0.696483 0.429561
0.794227 0.697491 0.424371
0.817408 0.698499 0.419180
0.840589 0.699507 0.413990
0.862149 0.700156 0.408626
0.875607 0.699016 0.402395
0.889064 0.697876 0.396165
0.902521 0.696736 0.389934
0.915979 0.695595 0.383703
0.929436 0.694455 0.377472
0.359330 0.773354 0.644848
0.364068 0.768902 0.638704
0.368806 0.764450 0.632561
0.373544 0.759998 0.626418
0.378282 0.755547 0.620274
0.383020 0.751095 0.614131
0.399029 0.746560 0.604800
0.417291 0.742009 0.594831
0.435554 0.737458 0.584862
0.453817 0.732907 0.574893
0.472080 0.728356 0.564924
0.494892 0.725234 0.554757
0.519980 0.722826 0.544491
0.545067 0.720418 0.534226
0.570154 0.718010 0.523960
0.595241 0.715602 0.513695
0.620905 0.714468 0.504679
0.647145 0.714607 0.496912
0.673386 0.714746 0.489145
0.699626 0.714885 0.481379
0.725867 0.715024 0.473612
0.750842 0.715467 0.466619
0.773287 0.716515 0.461173
0.795732 0.717564 0.455727
0.818176 0.718613 0.450280
0.840621 0.719661 0.444834
0.861561 0.720354 0.439135
0.874974 0.719269 0.432174
0.888388 0.718183 0.425212
0.901801 0.717098 0.418250
0.915215 0.716012 0.411288
0.928628 0.714927 0.404326
0.392866 0.790581 0.660912
0.396648 0.786485 0.655457
0.400430 0.782389 0.650001
0.404212 0.778293 0.644545
0.407993 0.774197 0.639090
0.411775 0.770101 0.633634
0.426197 0.765777 0.625339
0.442746 0.761407 0.616476
0.459295 0.757037 0.607613
0.475844 0.752667 0.598749
0.492393 0.748297 0.589886
0.513434 0.745247 0.580701
0.536722 0.742857 0.571356
0.560009 0.740468 0.562010
0.583297 0.738078 0.552665
0.606584 0.735689 0.543319
0.630649 0.734552 0.534944
0.655492 0.734668 0.527539
0.680334 0.734785 0.520134
0.705177 0.734901 0.512729
0.730020 0.735017 0.505324
0.753818 0.735458 0.498486
0.775527 0.736547 0.492784
0.797236 0.737637 0.487082
0.818945 0.738727 0.481380
0.840653 0.739816 0.475679
0.860973 0.740552 0.469645
0.874342 0.739521 0.461952
0.887712 0.738491 0.454259
0.901081 0.737460 0.446566
0.914451 0.736429 0.438873
0.927821 0.735398 0.431180
0.426402 0.807808 0.676977
0.429227 0.804068 0.672209
0.432053 0.800328 0.667441
0.434879 0.796588 0.662673
0.437705 0.792847 0.657905
0.440531 0.789107 0.653137
0.453365 0.784993 0.645878
0.468200 0.780804 0.638121
0.483035 0.776615 0.630363
0.497870 0.772426 0.622606
0.512706 0.768237 0.614849
0.531976 0.765260 0.606646
0.553464 0.762889 0.598220
0.574952 0.760518 0.589795
0.596439 0.758147 0.581370
0.617927 0.755776 0.572944
0.640394 0.754637 0.565210
0.663838 0.754730 0.558166
0.687283 0.754823 0.551123
0.710728 0.754917 0.544079
0.734173 0.755010 0.537035
0.756794 0.755449 0.530354
0.777767 0.756579 0.524396
0.798740 0.757710 0.518438
0.819713 0.758840 0.512481
0.840686 0.759971 0.506523
0.860384 0.760750 0.500154
0.873710 0.759774 0.491730
0.887036 0.758798 0.483306
0.900362 0.757822 0.474882
0.913687 0.756846 0.466458
0.927013 0.755869 0.458034
0.460311 0.823220 0.692003
0.462232 0.819828 0.687868
0.464153 0.816435 0.683732
0.466074 0.813043 0.679597
0.467995 0.809650 0.675462
0.469916 0.806258 0.671326
0.481143 0.802376 0.665041
0.494231 0.798396 0.658325
0.507320 0.794416 0.651610
0.520408 0.790436 0.644894
0.533497 0.786456 0.638179
0.550948 0.783581 0.630920
0.570580 0.781257 0.623389
0.590212 0.778933 0.615858
0.609844 0.776609 0.608327
0.629476 0.774285 0.600796
0.650293 0.773167 0.593712
0.672296 0.773253 0.587077
0.694298 0.773339 0.580441
0.716301 0.773425 0.573806
0.738303 0.773512 0.567170
0.759713 0.773967 0.560731
0.779937 0.775161 0.554685
0.800161 0.776355 0.548638
0.820386 0.777550 0.542592
0.840610 0.778744 0.536545
0.859681 0.779596 0.530044
0.872982 0.778741 0.521269
0.886283 0.777886 0.512493
0.899584 0.777031 0.503718
0.912885 0.776175 0.494943
0.926186 0.775320 0.486167
0.496092 0.829556 0.701838
0.497363 0.826471 0.698059
0.498635 0.823386 0.694280
0.499906 0.820301 0.690501
0.501177 0.817216 0.686722
0.502448 0.814130 0.682943
0.511974 0.810591 0.677320
0.523150 0.806961 0.671327
0.534327 0.803331 0.665334
0.545504 0.799701 0.659341
0.556681 0.796071 0.653349
0.572070 0.793439 0.646841
0.589566 0.791306 0.640076
0.607062 0.789173 0.633312
0.624558 0.787041 0.626547
0.642053 0.784908 0.619782
0.660970 0.783921 0.613402
0.681307 0.784080 0.607407
0.701644 0.784240 0.601411
0.721981 0.784399 0.595416
0.742318 0.784558 0.589421
0.762347 0.785121 0.583657
0.781759 0.786493 0.578358
