Assets/1__3DArt/KimSe/artstation_asset/LUTs_pasterls/CUBE/Emerald Oasis 01.cube
# Enhanced with VOXCOLOR algorithms
LUT_3D_SIZE 32
0.019608 0.019608 0.058824
0.050119 0.024477 0.058941
0.080631 0.029346 0.059059
0.111142 0.034215 0.059176
0.141653 0.039084 0.059293
0.172165 0.043953 0.059410
0.222170 0.050675 0.057469
0.276075 0.057767 0.055115
0.329979 0.064860 0.052762
0.383883 0.071953 0.050408
0.437788 0.079046 0.048055
0.486790 0.086170 0.046734
0.533341 0.093309 0.045930
0.579891 0.100449 0.045127
0.626442 0.107589 0.044323
0.672993 0.114728 0.043519
0.709232 0.120976 0.043793
0.735161 0.126331 0.045144
0.761089 0.131687 0.046495
0.787018 0.137042 0.047847
0.812946 0.142398 0.049198
0.832866 0.146917 0.050741
0.840770 0.149765 0.052666
0.848673 0.152613 0.054592
0.856577 0.155461 0.056518
0.864480 0.158309 0.058443
0.871177 0.160812 0.060135
0.871844 0.161591 0.060657
0.872510 0.162369 0.061179
0.873177 0.163148 0.061701
0.873843 0.163927 0.062223
0.874510 0.164706 0.062745
0.020194 0.043586 0.068429
0.049870 0.048070 0.067927
0.079545 0.052555 0.067425
0.109220 0.057040 0.066924
0.138896 0.061524 0.066422
0.168571 0.066009 0.065920
0.217927 0.072320 0.063431
0.271219 0.078997 0.060545
0.324511 0.085675 0.057659
0.377802 0.092352 0.054773
0.431094 0.099029 0.051887
0.480020 0.105763 0.050066
0.526761 0.112526 0.048777
0.573503 0.119289 0.047488
0.620245 0.126052 0.046199
0.666987 0.132815 0.044910
0.703676 0.138718 0.044790
0.730312 0.143761 0.045838
0.756949 0.148803 0.046887
0.783585 0.153846 0.047935
0.810221 0.158889 0.048983
0.830818 0.163083 0.050305
0.839337 0.165583 0.052175
0.847856 0.168082 0.054044
0.856375 0.170582 0.055914
0.864894 0.173081 0.057783
0.872136 0.175202 0.059440
0.872998 0.175431 0.060034
0.873859 0.175659 0.060628
0.874721 0.175888 0.061222
0.875582 0.176116 0.061817
0.876444 0.176345 0.062411
0.020781 0.067563 0.078034
0.049620 0.071664 0.076913
0.078459 0.075764 0.075792
0.107299 0.079864 0.074671
0.136138 0.083965 0.073550
0.164977 0.088065 0.072429
0.213683 0.093966 0.069394
0.266363 0.100228 0.065975
0.319042 0.106489 0.062556
0.371721 0.112750 0.059138
0.424401 0.119012 0.055719
0.473249 0.125357 0.053397
0.520182 0.131743 0.051623
0.567115 0.138129 0.049849
0.614048 0.144516 0.048076
0.660981 0.150902 0.046302
0.698120 0.156460 0.045787
0.725464 0.161190 0.046533
0.752808 0.165920 0.047278
0.780152 0.170650 0.048023
0.807496 0.175379 0.048768
0.828770 0.179249 0.049870
0.837905 0.181400 0.051683
0.847039 0.183551 0.053496
0.856173 0.185702 0.055309
0.865307 0.187853 0.057123
0.873095 0.189592 0.058745
0.874152 0.189270 0.059411
0.875208 0.188949 0.060077
0.876264 0.188627 0.060744
0.877321 0.188305 0.061410
0.878377 0.187984 0.062076
0.021367 0.091541 0.087640
0.049371 0.095257 0.085900
0.077374 0.098973 0.084159
0.105377 0.102689 0.082419
0.133380 0.106405 0.080679
0.161383 0.110121 0.078939
0.209440 0.115612 0.075356
0.261507 0.121458 0.071405
0.313573 0.127303 0.067454
0.365640 0.133149 0.063503
0.417707 0.138995 0.059551
0.466479 0.144950 0.056728
0.513603 0.150960 0.054470
0.560727 0.156970 0.052211
0.607851 0.162980 0.049952
0.654975 0.168989 0.047693
0.692563 0.174203 0.046785
0.720615 0.178620 0.047227
0.748667 0.183036 0.047669
0.776719 0.187453 0.048111
0.804771 0.191870 0.048554
0.826722 0.195416 0.049434
0.836472 0.197218 0.051191
0.846222 0.199021 0.052948
0.855971 0.200823 0.054705
0.865721 0.202626 0.056462
0.874055 0.203982 0.058049
0.875306 0.203110 0.058788
0.876557 0.202238 0.059527
0.877808 0.201366 0.060265
0.879059 0.200494 0.061004
0.880311 0.199623 0.061742
0.021954 0.115519 0.097245
0.049121 0.118851 0.094886
0.076288 0.122182 0.092526
0.103455 0.125514 0.090167
0.130622 0.128846 0.087808
0.157789 0.132177 0.085448
0.205196 0.137258 0.081319
0.256650 0.142688 0.076835
0.308105 0.148118 0.072351
0.359559 0.153548 0.067867
0.411014 0.158978 0.063384
0.459709 0.164544 0.060060
0.507024 0.170177 0.057316
0.554339 0.175810 0.054572
0.601654 0.181443 0.051828
0.648970 0.187076 0.049085
0.687007 0.191945 0.047782
0.715767 0.196049 0.047921
0.744526 0.200153 0.048060
0.773286 0.204257 0.048200
0.802046 0.208361 0.048339
0.824674 0.211582 0.048998
0.835039 0.213036 0.050699
0.845405 0.214490 0.052400
0.855770 0.215944 0.054101
0.866135 0.217398 0.055802
0.875014 0.218372 0.057354
0.876460 0.216950 0.058165
0.877906 0.215528 0.058976
0.879352 0.214106 0.059786
0.880798 0.212684 0.060597
0.882244 0.211261 0.061408
0.022540 0.139497 0.106850
0.048871 0.142444 0.103872
0.075202 0.145391 0.100893
0.101534 0.148339 0.097915
0.127865 0.151286 0.094936
0.154196 0.154233 0.091958
0.200952 0.158903 0.087281
0.251794 0.163918 0.082265
0.302636 0.168932 0.077249
0.353478 0.173947 0.072232
0.404320 0.178961 0.067216
0.452939 0.184137 0.063391
0.500445 0.189394 0.060162
0.547951 0.194650 0.056934
0.595458 0.199907 0.053705
0.642964 0.205164 0.050476
0.681451 0.209687 0.048780
0.710918 0.213479 0.048616
0.740386 0.217270 0.048452
0.769853 0.221061 0.048288
0.799321 0.224852 0.048124
0.822626 0.227748 0.048563
0.833607 0.228853 0.050207
0.844587 0.229959 0.051852
0.855568 0.231064 0.053497
0.866549 0.232170 0.055141
0.875973 0.232763 0.056659
0.877614 0.230790 0.057542
0.879255 0.228818 0.058425
0.880896 0.226845 0.059308
0.882537 0.224873 0.060191
0.884178 0.222900 0.061074
0.026671 0.177748 0.124320
0.052002 0.180159 0.120864
0.077333 0.182570 0.117408
0.102665 0.184981 0.113951
0.127996 0.187391 0.110495
0.153327 0.189802 0.107039
0.199250 0.193890 0.101709
0.249290 0.198312 0.096005
0.299331 0.202735 0.090301
0.349372 0.207157 0.084598
0.399413 0.211580 0.078894
0.447808 0.216180 0.074284
0.495380 0.220870 0.070222
0.542952 0.225559 0.066160
0.590524 0.230249 0.062097
0.638097 0.234938 0.058035
0.676956 0.238931 0.055551
0.707103 0.242227 0.054645
0.737249 0.245524 0.053739
0.767396 0.248820 0.052833
0.797543 0.252116 0.051927
0.821519 0.254531 0.051716
0.833153 0.255183 0.052896
0.844788 0.255834 0.054076
0.856423 0.256486 0.055256
0.868057 0.257138 0.056435
0.878060 0.257267 0.057532
0.879907 0.254778 0.058212
0.881753 0.252289 0.058893
0.883599 0.249800 0.059573
0.885446 0.247312 0.060254
0.887292 0.244823 0.060934
0.031510 0.218854 0.143363
0.055809 0.220698 0.139457
0.080107 0.222542 0.135551
0.104406 0.224386 0.131646
0.128705 0.226230 0.127740
0.153004 0.228074 0.123834
0.198055 0.231544 0.117831
0.247257 0.235339 0.111408
0.296459 0.239135 0.104986
0.345661 0.242930 0.098563
0.394862 0.246726 0.092140
0.443005 0.250714 0.086689
0.490618 0.254798 0.081724
0.538231 0.258882 0.076759
0.585844 0.262966 0.071793
0.633457 0.267051 0.066828
0.672674 0.270475 0.063478
0.703494 0.273240 0.061742
0.734314 0.276005 0.060006
0.765134 0.278770 0.058270
0.795954 0.281534 0.056534
0.820600 0.283437 0.055588
0.832896 0.283614 0.056221
0.845192 0.283791 0.056854
0.857488 0.283968 0.057487
0.869784 0.284146 0.058120
0.880373 0.283793 0.058718
0.882427 0.280795 0.059141
0.884481 0.277797 0.059564
0.886535 0.274799 0.059987
0.888589 0.271801 0.060410
0.890643 0.268802 0.060833
0.036349 0.259961 0.162406
0.059615 0.261237 0.158051
0.082881 0.262514 0.153695
0.106148 0.263791 0.149340
0.129414 0.265068 0.144984
0.152680 0.266345 0.140629
0.196861 0.269198 0.133952
0.245223 0.272366 0.126811
0.293586 0.275535 0.119670
0.341949 0.278703 0.112528
0.390312 0.281872 0.105387
0.438202 0.285247 0.099095
0.485856 0.288726 0.093226
0.533510 0.292205 0.087358
0.581164 0.295684 0.081489
0.628818 0.299163 0.075621
0.668392 0.302019 0.071404
0.699885 0.304253 0.068838
0.731379 0.306486 0.066272
0.762872 0.308720 0.063707
0.794366 0.310953 0.061141
0.819681 0.312343 0.059459
0.832639 0.312045 0.059546
0.845596 0.311748 0.059632
0.858554 0.311450 0.059719
0.871512 0.311153 0.059805
0.882687 0.310320 0.059905
0.884948 0.306813 0.060071
0.887209 0.303305 0.060236
0.889470 0.299797 0.060402
0.891732 0.296290 0.060567
0.893993 0.292782 0.060733
0.041188 0.301067 0.181449
0.063422 0.301777 0.176644
0.085656 0.302487 0.171839
0.107889 0.303196 0.167034
0.130123 0.303906 0.162229
0.152357 0.304616 0.157424
0.195666 0.306852 0.150073
0.243190 0.309394 0.142214
0.290714 0.311935 0.134354
0.338238 0.314476 0.126494
0.385762 0.317017 0.118634
0.433399 0.319780 0.111500
0.481094 0.322654 0.104728
0.528789 0.325528 0.097957
0.576484 0.328402 0.091185
0.624178 0.331275 0.084414
0.664109 0.333563 0.079330
0.696276 0.335265 0.075935
0.728443 0.336967 0.072539
0.760610 0.338670 0.069143
0.792778 0.340372 0.065748
0.818762 0.341249 0.063331
0.832381 0.340477 0.062871
0.846000 0.339705 0.062410
0.859620 0.338932 0.061950
0.873239 0.338160 0.061490
0.885000 0.336847 0.061091
0.887468 0.332830 0.061000
0.889937 0.328813 0.060908
0.892406 0.324796 0.060816
0.894875 0.320779 0.060724
0.897344 0.316761 0.060632
0.046027 0.342173 0.200492
0.067228 0.342316 0.195238
0.088430 0.342459 0.189983
0.109631 0.342602 0.184729
0.130832 0.342745 0.179474
0.152034 0.342888 0.174219
0.194471 0.344507 0.166195
0.241156 0.346421 0.157616
0.287841 0.348335 0.149038
0.334526 0.350249 0.140459
0.381211 0.352163 0.131881
0.428597 0.354314 0.123905
0.476332 0.356582 0.116230
0.524068 0.358851 0.108556
0.571803 0.361119 0.100881
0.619539 0.363388 0.093207
0.659827 0.365107 0.087257
0.692667 0.366278 0.083031
0.725508 0.367449 0.078806
0.758349 0.368620 0.074580
0.791189 0.369790 0.070355
0.817843 0.370155 0.067202
0.832124 0.368908 0.066195
0.846404 0.367661 0.065189
0.860685 0.366414 0.064182
0.874966 0.365168 0.063175
0.887313 0.363374 0.062278
0.889989 0.358847 0.061929
0.892665 0.354321 0.061579
0.895342 0.349794 0.061230
0.898018 0.345267 0.060881
0.900694 0.340741 0.060532
0.058551 0.383689 0.221680
0.078620 0.383402 0.216122
0.098688 0.383114 0.210565
0.118756 0.382826 0.205007
0.138825 0.382539 0.199449
0.158893 0.382251 0.193892
0.200165 0.383423 0.185401
0.245677 0.384887 0.176324
0.291190 0.386350 0.167248
0.336702 0.387814 0.158171
0.382214 0.389277 0.149094
0.428917 0.390983 0.140468
0.476215 0.392809 0.132067
0.523514 0.394635 0.123666
0.570812 0.396461 0.115265
0.618110 0.398287 0.106864
0.658322 0.399577 0.100142
0.691449 0.400329 0.095098
0.724576 0.401082 0.090054
0.757703 0.401835 0.085009
0.790829 0.402588 0.079965
0.817845 0.402547 0.076016
0.832639 0.400916 0.074255
0.847433 0.399285 0.072494
0.862227 0.397655 0.070733
0.877021 0.396024 0.068972
0.889833 0.393854 0.067342
0.892736 0.388986 0.066371
0.895639 0.384118 0.065399
0.898543 0.379250 0.064428
0.901446 0.374382 0.063457
0.904350 0.369514 0.062485
0.074918 0.425410 0.243939
0.093803 0.424761 0.238152
0.112688 0.424111 0.232365
0.131574 0.423461 0.226577
0.150459 0.422811 0.220790
0.169344 0.422161 0.215003
0.209302 0.422971 0.206151
0.253475 0.424072 0.196685
0.297648 0.425173 0.187220
0.341821 0.426274 0.177755
0.385994 0.427376 0.168290
0.431800 0.428720 0.159109
0.478421 0.430185 0.150070
0.525043 0.431650 0.141031
0.571665 0.433115 0.131992
0.618286 0.434580 0.122954
0.658207 0.435509 0.115506
0.691426 0.435900 0.109649
0.724645 0.436292 0.103792
0.757865 0.436684 0.097935
0.791084 0.437076 0.092078
0.818308 0.436680 0.087300
0.833541 0.434711 0.084681
0.848773 0.432743 0.082062
0.864006 0.430774 0.079443
0.879239 0.428805 0.076824
0.892456 0.426310 0.074345
0.895597 0.421185 0.072569
0.898737 0.416060 0.070793
0.901877 0.410934 0.069018
0.905017 0.405809 0.067242
0.908157 0.400684 0.065466
0.091284 0.467132 0.266199
0.108987 0.466120 0.260182
0.126689 0.465107 0.254165
0.144391 0.464095 0.248148
0.162093 0.463083 0.242131
0.179795 0.462071 0.236114
0.218440 0.462518 0.226900
0.261274 0.463257 0.217046
0.304107 0.463996 0.207193
0.346940 0.464735 0.197339
0.389774 0.465474 0.187486
0.434682 0.466456 0.177750
0.480627 0.467561 0.168073
0.526572 0.468665 0.158397
0.572518 0.469769 0.148720
0.618463 0.470873 0.139043
0.658091 0.471441 0.130870
0.691403 0.471471 0.124200
0.724715 0.471502 0.117530
0.758027 0.471532 0.110860
0.791339 0.471563 0.104190
0.818770 0.470814 0.098585
0.834442 0.468507 0.095107
0.850114 0.466200 0.091630
0.865786 0.463893 0.088153
0.881458 0.461585 0.084676
0.895080 0.458766 0.081348
0.898457 0.453383 0.078768
0.901834 0.448001 0.076187
0.905211 0.442619 0.073607
0.908588 0.437237 0.071027
0.911965 0.431855 0.068446
0.107651 0.508853 0.288459
0.124170 0.507479 0.282212
0.140689 0.506104 0.275965
0.157208 0.504730 0.269718
0.173727 0.503355 0.263472
0.190246 0.501981 0.257225
0.227578 0.502066 0.247649
0.269072 0.502442 0.237407
0.310566 0.502819 0.227165
0.352060 0.503196 0.216924
0.393554 0.503572 0.206682
0.437564 0.504193 0.196392
0.482833 0.504937 0.186077
0.528102 0.505680 0.175762
0.573371 0.506423 0.165447
0.618639 0.507166 0.155133
0.657976 0.507373 0.146234
0.691380 0.507042 0.138751
0.724784 0.506712 0.131268
0.758189 0.506381 0.123786
0.791593 0.506050 0.116303
0.819233 0.504948 0.109869
0.835344 0.502303 0.105534
0.851454 0.499657 0.101199
0.867565 0.497012 0.096863
0.883676 0.494366 0.092528
0.897704 0.491222 0.088351
0.901318 0.485582 0.084966
0.904932 0.479943 0.081582
0.908545 0.474304 0.078197
0.912159 0.468664 0.074812
0.915773 0.463025 0.071427
0.124018 0.550574 0.310718
0.139354 0.548838 0.304242
0.154689 0.547101 0.297765
0.170025 0.545364 0.291289
0.185361 0.543627 0.284812
0.200697 0.541891 0.278336
0.236715 0.541613 0.268398
0.276870 0.541628 0.257768
0.317024 0.541642 0.247138
0.357179 0.541656 0.236508
0.397333 0.541670 0.225878
0.440447 0.541930 0.215033
0.485039 0.542312 0.204080
0.529631 0.542695 0.193127
0.574223 0.543077 0.182175
0.618816 0.543460 0.171222
0.657860 0.543305 0.161598
0.691357 0.542613 0.153302
0.724854 0.541921 0.145007
0.758351 0.541230 0.136711
0.791848 0.540538 0.128415
0.819695 0.539082 0.121154
0.836245 0.536098 0.115960
0.852795 0.533115 0.110767
0.869345 0.530131 0.105574
0.885894 0.527147 0.100380
0.900328 0.523678 0.095354
0.904178 0.517781 0.091165
0.908029 0.511885 0.086976
0.911880 0.505988 0.082786
0.915730 0.500091 0.078597
0.919581 0.494195 0.074408
0.147493 0.586984 0.331825
0.161627 0.585055 0.325269
0.175760 0.583125 0.318713
0.189894 0.581196 0.312157
0.204028 0.579267 0.305601
0.218161 0.577337 0.299045
0.252611 0.576862 0.288989
0.291125 0.576677 0.278234
0.329639 0.576492 0.267478
0.368152 0.576308 0.256722
0.406666 0.576123 0.245966
0.448460 0.576184 0.234850
0.491895 0.576367 0.223553
0.535329 0.576550 0.212257
0.578764 0.576733 0.200960
0.622198 0.576917 0.189663
0.660495 0.576567 0.179583
0.693655 0.575684 0.170720
0.726814 0.574801 0.161856
0.759973 0.573919 0.152993
0.793133 0.573036 0.144129
0.820834 0.571402 0.136242
0.837617 0.568266 0.130308
0.854401 0.565130 0.124374
0.871184 0.561995 0.118440
0.887968 0.558859 0.112506
0.902636 0.555254 0.106711
0.906731 0.549305 0.101609
0.910825 0.543356 0.096506
0.914919 0.537407 0.091404
0.919014 0.531458 0.086302
0.923108 0.525509 0.081200
0.178078 0.618083 0.351779
0.190990 0.616130 0.345293
0.203902 0.614178 0.338808
0.216814 0.612225 0.332323
0.229726 0.610273 0.325837
0.242638 0.608320 0.319352
0.275266 0.607811 0.309422
0.311837 0.607591 0.298803
0.348409 0.607370 0.288184
0.384980 0.607150 0.277565
0.421551 0.606930 0.266947
0.461605 0.606953 0.255842
0.503401 0.607100 0.244496
0.545196 0.607246 0.233149
0.586992 0.607392 0.221803
0.628787 0.607538 0.210456
0.665881 0.607159 0.200190
0.698273 0.606255 0.191004
0.730665 0.605352 0.181817
0.763057 0.604448 0.172631
0.795449 0.603544 0.163445
0.822647 0.601908 0.155136
0.839459 0.598806 0.148578
0.856271 0.595705 0.142021
0.873083 0.592603 0.135463
0.889895 0.589502 0.128906
0.904629 0.585951 0.122421
0.908974 0.580154 0.116297
0.913319 0.574357 0.110174
0.917664 0.568560 0.104050
0.922009 0.562764 0.097927
0.926354 0.556967 0.091804
0.208663 0.649181 0.371732
0.220354 0.647206 0.365318
0.232044 0.645230 0.358903
0.243734 0.643254 0.352488
0.255425 0.641279 0.346074
0.267115 0.639303 0.339659
0.297921 0.638760 0.329855
0.332550 0.638504 0.319373
0.367179 0.638248 0.308891
0.401808 0.637992 0.298409
0.436437 0.637736 0.287927
0.474750 0.637723 0.276835
0.514907 0.637832 0.265438
0.555063 0.637941 0.254042
0.595220 0.638050 0.242645
0.635376 0.638159 0.231249
0.671266 0.637751 0.220796
0.702891 0.636827 0.211287
0.734516 0.635902 0.201779
0.766140 0.634977 0.192270
0.797765 0.634053 0.182761
0.824461 0.632414 0.174029
0.841302 0.629346 0.166848
0.858142 0.626279 0.159667
0.874983 0.623212 0.152486
0.891823 0.620144 0.145306
0.906623 0.616647 0.138131
0.911218 0.611003 0.130986
0.915814 0.605358 0.123841
0.920409 0.599714 0.116697
0.925005 0.594069 0.109552
0.929600 0.588425 0.102407
0.239248 0.680280 0.391686
0.249717 0.678281 0.385342
0.260186 0.676282 0.378998
0.270654 0.674284 0.372654
0.281123 0.672285 0.366310
0.291592 0.670286 0.359966
0.320575 0.669710 0.350288
0.353262 0.669418 0.339943
0.385949 0.669126 0.329598
0.418635 0.668835 0.319252
0.451322 0.668543 0.308907
0.487896 0.668493 0.297828
0.526413 0.668565 0.286381
0.564930 0.668637 0.274935
0.603448 0.668709 0.263488
0.641965 0.668781 0.252041
0.676652 0.668344 0.241402
0.707509 0.667398 0.231571
0.738366 0.666452 0.221740
0.769223 0.665507 0.211909
0.800080 0.664561 0.202077
0.826275 0.662920 0.192922
0.843144 0.659887 0.185118
0.860013 0.656853 0.177314
0.876882 0.653820 0.169509
0.893751 0.650787 0.161705
0.908616 0.647344 0.153841
0.913462 0.641852 0.145675
0.918308 0.636360 0.137509
0.923154 0.630867 0.129343
0.928000 0.625375 0.121177
0.932846 0.619883 0.113011
0.269833 0.711379 0.411640
0.279080 0.709357 0.405366
0.288327 0.707335 0.399093
0.297574 0.705313 0.392820
0.306822 0.703291 0.386547
0.316069 0.701269 0.380274
0.343230 0.700659 0.370721
0.373974 0.700332 0.360513
0.404719 0.700004 0.350304
0.435463 0.699677 0.340096
0.466207 0.699349 0.329888
0.501041 0.699263 0.318820
0.537919 0.699298 0.307324
0.574797 0.699333 0.295827
0.611675 0.699367 0.284331
0.648554 0.699402 0.272834
0.682038 0.698936 0.262009
0.712127 0.697969 0.251855
0.742217 0.697003 0.241701
0.772307 0.696036 0.231547
0.802396 0.695070 0.221393
0.828089 0.693426 0.211815
0.844986 0.690427 0.203387
0.861884 0.687428 0.194960
0.878781 0.684429 0.186533
0.895679 0.681430 0.178105
0.910609 0.678041 0.169551
0.915706 0.672701 0.160364
0.920802 0.667361 0.151177
0.925899 0.662021 0.141989
0.930995 0.656681 0.132802
0.936092 0.651341 0.123615
0.303668 0.737909 0.429956
0.311760 0.735932 0.423841
0.319851 0.733955 0.417725
0.327942 0.731978 0.411610
0.336033 0.730000 0.405494
0.344125 0.728023 0.399379
0.369363 0.727424 0.390064
0.398030 0.727101 0.380109
0.426698 0.726778 0.370155
0.455365 0.726455 0.360200
0.484033 0.726131 0.350245
0.516915 0.726049 0.339333
0.551905 0.726087 0.327941
0.586895 0.726125 0.316549
0.621884 0.726163 0.305157
0.656874 0.726200 0.293765
0.688906 0.725759 0.282933
0.717979 0.724838 0.272661
0.747053 0.723918 0.262389
0.776126 0.722997 0.252117
0.805199 0.722076 0.241845
0.830175 0.720508 0.232067
0.846955 0.717643 0.223275
0.863735 0.714779 0.214484
0.880515 0.711915 0.205692
0.897295 0.709050 0.196901
0.912167 0.705817 0.187917
0.917502 0.700738 0.177969
0.922837 0.695660 0.168022
0.928172 0.690581 0.158075
0.933506 0.685503 0.148127
0.938841 0.680424 0.138180
0.344004 0.755304 0.444999
0.351071 0.753507 0.439215
0.358138 0.751710 0.433432
0.365205 0.749913 0.427648
0.372272 0.748116 0.421864
0.379339 0.746319 0.416080
0.402452 0.745821 0.407227
0.428774 0.745581 0.397760
0.455096 0.745342 0.388293
0.481418 0.745103 0.378826
0.507740 0.744864 0.369359
0.538249 0.744866 0.358884
0.570851 0.744988 0.347906
0.603453 0.745110 0.336928
0.636055 0.745232 0.325949
0.668657 0.745354 0.314971
0.698738 0.745044 0.304492
0.726298 0.744303 0.294511
0.753858 0.743562 0.284530
0.781417 0.742821 0.274549
0.808977 0.742079 0.264569
0.832807 0.740742 0.255036
0.849177 0.738213 0.246399
0.865547 0.735684 0.237763
0.881917 0.733155 0.229126
0.898288 0.730626 0.220490
0.912854 0.727752 0.211595
0.918403 0.723154 0.201409
0.923952 0.718555 0.191224
0.929500 0.713956 0.181038
0.935049 0.709357 0.170852
0.940597 0.704759 0.160666
0.384340 0.772698 0.460042
0.390383 0.771081 0.454590
0.396426 0.769465 0.449138
0.402468 0.767848 0.443686
0.408511 0.766232 0.438233
0.414553 0.764615 0.432781
0.435541 0.764217 0.424390
0.459517 0.764062 0.415410
0.483494 0.763907 0.406431
0.507470 0.763752 0.397451
0.531447 0.763597 0.388472
0.559582 0.763683 0.378436
0.589797 0.763889 0.367871
0.620012 0.764095 0.357307
0.650226 0.764301 0.346742
0.680441 0.764507 0.336177
0.708571 0.764329 0.326050
0.734617 0.763768 0.316361
0.760663 0.763206 0.306671
0.786708 0.762644 0.296982
0.812754 0.762082 0.287292
0.835438 0.760977 0.278005
0.851399 0.758783 0.269524
0.867359 0.756590 0.261042
0.883320 0.754396 0.252560
0.899281 0.752203 0.244078
0.913542 0.749688 0.235273
0.919304 0.745569 0.224849
0.925066 0.741450 0.214425
0.930828 0.737331 0.204001
0.936591 0.733212 0.193577
0.942353 0.729093 0.183153
0.424677 0.790092 0.475085
0.429695 0.788656 0.469965
0.434713 0.787220 0.464844
0.439731 0.785784 0.459723
0.444749 0.784348 0.454603
0.449767 0.782911 0.449482
0.468630 0.782613 0.441552
0.490261 0.782542 0.433060
0.511892 0.782471 0.424569
0.533523 0.782401 0.416077
0.555154 0.782330 0.407585
0.580916 0.782500 0.397987
0.608743 0.782790 0.387836
0.636570 0.783080 0.377685
0.664397 0.783370 0.367535
0.692224 0.783660 0.357384
0.718404 0.783614 0.347609
0.742936 0.783232 0.338211
0.767468 0.782850 0.328813
0.792000 0.782468 0.319414
0.816531 0.782085 0.310016
0.838070 0.781211 0.300975
0.853621 0.779353 0.292648
0.869172 0.777495 0.284321
0.884723 0.775637 0.275994
0.900273 0.773779 0.267667
0.914229 0.771624 0.258951
0.920205 0.767984 0.248289
0.926181 0.764345 0.237626
0.932157 0.760706 0.226964
0.938133 0.757066 0.216302
0.944109 0.753427 0.205640
0.465013 0.807487 0.490128
0.469006 0.806231 0.485339
0.473000 0.804975 0.480550
0.476994 0.803719 0.475761
0.480988 0.802463 0.470972
0.484981 0.801208 0.466183
0.501718 0.801009 0.458715
0.521004 0.801023 0.450711
0.540290 0.801036 0.442707
0.559575 0.801049 0.434702
0.578861 0.801063 0.426698
0.602249 0.801317 0.417539
0.627689 0.801691 0.407801
0.653128 0.802065 0.398064
0.678568 0.802439 0.388327
0.704008 0.802814 0.378590
0.728236 0.802899 0.369168
0.751254 0.802697 0.360061
0.774273 0.802494 0.350954
0.797291 0.802291 0.341847
0.820309 0.802088 0.332739
0.840701 0.801446 0.323944
0.855843 0.799923 0.315772
0.870984 0.798400 0.307600
0.886125 0.796878 0.299428
0.901266 0.795355 0.291255
0.914916 0.793559 0.282629
0.921106 0.790400 0.271728
0.927295 0.787240 0.260828
0.933485 0.784081 0.249928
0.939675 0.780921 0.239027
0.945865 0.777761 0.228127
0.504806 0.823297 0.504539
0.507868 0.822218 0.500095
0.510930 0.821138 0.495651
0.513992 0.820059 0.491208
0.517054 0.818979 0.486764
0.520116 0.817900 0.482320
0.534772 0.817788 0.475297
0.551748 0.817869 0.467758
0.568724 0.817951 0.460219
0.585699 0.818032 0.452681
0.602675 0.818114 0.445142
0.623703 0.818434 0.436408
0.646757 0.818874 0.427076
0.669811 0.819314 0.417745
0.692865 0.819753 0.408414
0.715919 0.820193 0.399082
0.738184 0.820393 0.390027
0.759659 0.820353 0.381250
0.781135 0.820312 0.372472
0.802611 0.820272 0.363694
0.824087 0.820232 0.354916
0.843301 0.819805 0.346444
0.857990 0.818605 0.338582
0.872679 0.817405 0.330720
0.887369 0.816205 0.322858
0.902058 0.815005 0.314997
0.915362 0.813557 0.306659
0.921741 0.810871 0.295941
0.928120 0.808185 0.285224
0.934499 0.805499 0.274506
0.940877 0.802813 0.263788
0.947256 0.800127 0.253071
0.541884 0.831187 0.515788
0.544477 0.830264 0.511757
0.547070 0.829341 0.507727
0.549664 0.828418 0.503696
0.552257 0.827496 0.499666
0.554850 0.826573 0.495635
0.567651 0.826478 0.488976
0.582494 0.826548 0.481792
0.597336 0.826618 0.474607
0.612179 0.826688 0.467422
0.627021 0.826759 0.460238
0.645754 0.827056 0.451865
0.666433 0.827468 0.442900
0.687112 0.827880 0.433934
0.707790 0.828292 0.424968
0.728469 0.828704 0.416002
0.748704 0.828928 0.407390
0.768495 0.828966 0.399132
0.788286 0.829003 0.390874
0.808077 0.829040 0.382616
0.827869 0.829078 0.374359
0.845738 0.828789 0.366595
0.859765 0.827848 0.359822
