Assets/1__3DArt/KimSe/artstation_asset/LUTs_pasterls/CUBE/Emerald Oasis 01 S.cube
# Enhanced with VOXCOLOR algorithms
LUT_3D_SIZE 32
0.019608 0.019608 0.058824
0.050119 0.024477 0.058941
0.080631 0.029346 0.059059
0.111142 0.034215 0.059176
0.141653 0.039084 0.059293
0.172165 0.043953 0.059410
0.222170 0.050675 0.057469
0.276075 0.057767 0.055115
0.329979 0.064860 0.052762
0.383883 0.071953 0.050408
0.437788 0.079046 0.048055
0.486790 0.086170 0.046734
0.533341 0.093309 0.045930
0.579891 0.100449 0.045127
0.626442 0.107589 0.044323
0.672993 0.114728 0.043519
0.709232 0.120976 0.043793
0.735161 0.126331 0.045144
0.761089 0.131687 0.046495
0.787018 0.137042 0.047847
0.812946 0.142398 0.049198
0.832866 0.146917 0.050741
0.840770 0.149765 0.052666
0.848673 0.152613 0.054592
0.856577 0.155461 0.056518
0.864480 0.158309 0.058443
0.871177 0.160812 0.060135
0.871844 0.161591 0.060657
0.872510 0.162369 0.061179
0.873177 0.163148 0.061701
0.873843 0.163927 0.062223
0.874510 0.164706 0.062745
0.020194 0.043586 0.068429
0.049663 0.048051 0.067831
0.079131 0.052516 0.067233
0.108599 0.056981 0.066635
0.138067 0.061446 0.066037
0.167535 0.065911 0.065439
0.216222 0.072143 0.062825
0.268752 0.078728 0.059808
0.321282 0.085313 0.056791
0.373812 0.091899 0.053774
0.426342 0.098484 0.050757
0.474536 0.105094 0.048830
0.520561 0.111717 0.047447
0.566587 0.118340 0.046064
0.612613 0.124962 0.044682
0.658638 0.131585 0.043299
0.694980 0.137379 0.043117
0.721639 0.142344 0.044137
0.748297 0.147310 0.045156
0.774955 0.152275 0.046175
0.801613 0.157240 0.047194
0.822511 0.161415 0.048525
0.831888 0.164008 0.050481
0.841266 0.166601 0.052436
0.850643 0.169194 0.054392
0.860020 0.171787 0.056347
0.868114 0.174026 0.058120
0.869792 0.174490 0.058978
0.871471 0.174953 0.059836
0.873149 0.175417 0.060694
0.874827 0.175881 0.061553
0.876505 0.176345 0.062411
0.020781 0.067563 0.078034
0.049206 0.071625 0.076721
0.077631 0.075686 0.075408
0.106056 0.079747 0.074094
0.134481 0.083808 0.072781
0.162906 0.087869 0.071467
0.210273 0.093610 0.068181
0.261429 0.099688 0.064501
0.312585 0.105767 0.060821
0.363740 0.111845 0.057140
0.414896 0.117923 0.053460
0.462282 0.124019 0.050925
0.507782 0.130125 0.048964
0.553283 0.136230 0.047002
0.598784 0.142336 0.045041
0.644284 0.148441 0.043079
0.680728 0.153782 0.042442
0.708116 0.158357 0.043129
0.735504 0.162932 0.043816
0.762892 0.167508 0.044503
0.790280 0.172083 0.045190
0.812156 0.175912 0.046310
0.823007 0.178251 0.048295
0.833858 0.180589 0.050280
0.844709 0.182928 0.052266
0.855560 0.185266 0.054251
0.865051 0.187240 0.056104
0.867741 0.187388 0.057299
0.870431 0.187537 0.058493
0.873121 0.187686 0.059688
0.875811 0.187835 0.060882
0.878501 0.187984 0.062076
0.021367 0.091541 0.087640
0.048749 0.095198 0.085611
0.076131 0.098855 0.083582
0.103513 0.102512 0.081553
0.130895 0.106170 0.079525
0.158276 0.109827 0.077496
0.204325 0.115078 0.073538
0.254106 0.120649 0.069194
0.303887 0.126220 0.064850
0.353669 0.131790 0.060506
0.403450 0.137361 0.056162
0.450028 0.142944 0.053021
0.495003 0.148532 0.050481
0.539979 0.154121 0.047940
0.584954 0.159709 0.045400
0.629930 0.165298 0.042859
0.666476 0.170185 0.041767
0.694594 0.174370 0.042122
0.722712 0.178555 0.042476
0.750829 0.182740 0.042831
0.778947 0.186925 0.043186
0.801800 0.190410 0.044094
0.814125 0.192494 0.046110
0.826451 0.194577 0.048125
0.838776 0.196661 0.050140
0.851101 0.198745 0.052155
0.861988 0.200453 0.054089
0.865690 0.200287 0.055620
0.869392 0.200121 0.057150
0.873093 0.199955 0.058681
0.876795 0.199789 0.060212
0.880496 0.199623 0.061742
0.021954 0.115519 0.097245
0.048292 0.118772 0.094501
0.074631 0.122025 0.091757
0.100970 0.125278 0.089013
0.127308 0.128532 0.086268
0.153647 0.131785 0.083524
0.198376 0.136546 0.078894
0.246783 0.141610 0.073887
0.295190 0.146673 0.068880
0.343597 0.151736 0.063872
0.392004 0.156799 0.058865
0.437774 0.161868 0.055116
0.482224 0.166940 0.051997
0.526675 0.172011 0.048878
0.571125 0.177083 0.045759
0.615576 0.182155 0.042640
0.652225 0.186588 0.041091
0.681072 0.190383 0.041114
0.709919 0.194178 0.041137
0.738767 0.197973 0.041160
0.767614 0.201768 0.041182
0.791445 0.204908 0.041879
0.805244 0.206737 0.043924
0.819043 0.208566 0.045969
0.832842 0.210395 0.048014
0.846641 0.212223 0.050059
0.858926 0.213667 0.052074
0.863639 0.213186 0.053941
0.868352 0.212705 0.055807
0.873065 0.212224 0.057674
0.877779 0.211743 0.059541
0.882492 0.211261 0.061408
0.022540 0.139497 0.106850
0.047836 0.142346 0.103391
0.073131 0.145195 0.099931
0.098427 0.148044 0.096472
0.123722 0.150893 0.093012
0.149018 0.153743 0.089553
0.192427 0.158014 0.084251
0.239460 0.162570 0.078580
0.286493 0.167126 0.072909
0.333526 0.171682 0.067238
0.380558 0.176238 0.061568
0.425520 0.180793 0.057212
0.469445 0.185347 0.053514
0.513371 0.189902 0.049816
0.557296 0.194457 0.046118
0.601221 0.199011 0.042420
0.637973 0.202991 0.040416
0.667550 0.206396 0.040107
0.697127 0.209801 0.039797
0.726704 0.213206 0.039488
0.756281 0.216611 0.039178
0.781090 0.219405 0.039663
0.796363 0.220980 0.041738
0.811635 0.222554 0.043813
0.826908 0.224128 0.045888
0.842181 0.225702 0.047962
0.855863 0.226881 0.050058
0.861588 0.226085 0.052261
0.867313 0.225289 0.054465
0.873038 0.224493 0.056668
0.878762 0.223696 0.058871
0.884487 0.222900 0.061074
0.026657 0.177748 0.124308
0.050891 0.179997 0.120229
0.075125 0.182246 0.116150
0.099359 0.184494 0.112071
0.123593 0.186743 0.107992
0.147827 0.188992 0.103913
0.190095 0.192561 0.097782
0.235969 0.196394 0.091241
0.281843 0.200228 0.084700
0.327717 0.204061 0.078158
0.373591 0.207895 0.071617
0.417942 0.211766 0.066379
0.461531 0.215658 0.061794
0.505120 0.219549 0.057208
0.548709 0.223440 0.052622
0.592298 0.227331 0.048037
0.629194 0.230737 0.045257
0.659396 0.233658 0.044284
0.689599 0.236579 0.043310
0.719802 0.239500 0.042337
0.750004 0.242421 0.041364
0.775588 0.244783 0.041298
0.791933 0.246028 0.043049
0.808278 0.247273 0.044800
0.824623 0.248518 0.046550
0.840968 0.249763 0.048301
0.855657 0.250607 0.050120
0.862067 0.249451 0.052280
0.868478 0.248294 0.054441
0.874888 0.247138 0.056601
0.881298 0.245982 0.058762
0.887708 0.244825 0.060923
0.031479 0.218854 0.143337
0.054648 0.220463 0.138658
0.077817 0.222072 0.133978
0.100986 0.223681 0.129299
0.124156 0.225290 0.124620
0.147325 0.226899 0.119940
0.188485 0.229724 0.112949
0.233244 0.232792 0.105496
0.278003 0.235859 0.098042
0.322761 0.238927 0.090589
0.367520 0.241995 0.083135
0.411300 0.245150 0.076961
0.454590 0.248348 0.071426
0.497880 0.251547 0.065891
0.541170 0.254745 0.060356
0.584461 0.257944 0.054821
0.621510 0.260752 0.051202
0.652317 0.263170 0.049498
0.683124 0.265588 0.047794
0.713932 0.268006 0.046091
0.744739 0.270425 0.044387
0.771056 0.272337 0.043703
0.788393 0.273237 0.045059
0.805730 0.274138 0.046415
0.823067 0.275039 0.047771
0.840404 0.275939 0.049126
0.856023 0.276436 0.050597
0.863053 0.274910 0.052639
0.870084 0.273385 0.054681
0.877114 0.271859 0.056723
0.884144 0.270333 0.058766
0.891174 0.268808 0.060808
0.036301 0.259961 0.162366
0.058405 0.260930 0.157086
0.080510 0.261899 0.151807
0.102614 0.262868 0.146527
0.124718 0.263837 0.141247
0.146822 0.264807 0.135967
0.186876 0.266887 0.128116
0.230519 0.269189 0.119750
0.274162 0.271491 0.111385
0.317805 0.273793 0.103019
0.361448 0.276095 0.094654
0.404657 0.278533 0.087542
0.447649 0.281039 0.081058
0.490640 0.283545 0.074574
0.533632 0.286051 0.068089
0.576624 0.288557 0.061605
0.613825 0.290767 0.057146
0.645237 0.292682 0.054712
0.676649 0.294598 0.052278
0.708062 0.296513 0.049844
0.739474 0.298428 0.047410
0.766525 0.299891 0.046108
0.784853 0.300447 0.047069
0.803182 0.301003 0.048030
0.821511 0.301560 0.048991
0.839840 0.302116 0.049952
0.856389 0.302264 0.051073
0.864039 0.300369 0.052997
0.871690 0.298475 0.054921
0.879340 0.296580 0.056845
0.886990 0.294685 0.058769
0.894641 0.292790 0.060693
0.041123 0.301067 0.181395
0.062163 0.301396 0.175515
0.083202 0.301726 0.169635
0.104241 0.302055 0.163755
0.125281 0.302385 0.157874
0.146320 0.302714 0.151994
0.185266 0.304049 0.143283
0.227794 0.305586 0.134005
0.270322 0.307123 0.124727
0.312849 0.308659 0.115450
0.355377 0.310196 0.106172
0.398015 0.311917 0.098124
0.440708 0.313730 0.090690
0.483401 0.315543 0.083256
0.526093 0.317356 0.075823
0.568786 0.319169 0.068389
0.606141 0.320782 0.063090
0.638158 0.322195 0.059926
0.670175 0.323607 0.056762
0.702192 0.325020 0.053598
0.734208 0.326432 0.050434
0.761993 0.327444 0.048513
0.781314 0.327657 0.049079
0.800635 0.327869 0.049645
0.819955 0.328081 0.050211
0.839276 0.328293 0.050777
0.856755 0.328093 0.051550
0.865025 0.325829 0.053356
0.873296 0.323565 0.055162
0.881566 0.321301 0.056967
0.889836 0.319037 0.058773
0.898107 0.316772 0.060579
0.045946 0.342173 0.200424
0.065920 0.341863 0.193943
0.085894 0.341552 0.187463
0.105869 0.341242 0.180982
0.125843 0.340932 0.174502
0.145818 0.340621 0.168021
0.183657 0.341212 0.158450
0.225069 0.341983 0.148260
0.266481 0.342754 0.138070
0.307893 0.343525 0.127880
0.349306 0.344296 0.117690
0.391373 0.345300 0.108705
0.433767 0.346421 0.100322
0.476161 0.347541 0.091939
0.518555 0.348662 0.083556
0.560949 0.349782 0.075173
0.598457 0.350797 0.069035
0.631078 0.351707 0.065140
0.663700 0.352616 0.061246
0.696322 0.353526 0.057351
0.728943 0.354436 0.053457
0.757462 0.354998 0.050918
0.777774 0.354866 0.051089
0.798087 0.354734 0.051260
0.818400 0.354602 0.051431
0.838712 0.354470 0.051603
0.857121 0.353921 0.052027
0.866011 0.351288 0.053714
0.874902 0.348655 0.055402
0.883792 0.346021 0.057089
0.892682 0.343388 0.058777
0.901573 0.340755 0.060464
0.058360 0.383689 0.221520
0.077231 0.382889 0.214651
0.096102 0.382089 0.207782
0.114974 0.381289 0.200914
0.133845 0.380489 0.194045
0.152716 0.379688 0.187176
0.189406 0.379732 0.177015
0.229659 0.379944 0.166196
0.269913 0.380156 0.155376
0.310166 0.380368 0.144557
0.350420 0.380580 0.133738
0.391784 0.381067 0.124036
0.433704 0.381692 0.114893
0.475624 0.382317 0.105750
0.517545 0.382943 0.096607
0.559465 0.383568 0.087464
0.596856 0.384149 0.080580
0.629719 0.384688 0.075954
0.662581 0.385226 0.071328
0.695444 0.385764 0.066702
0.728307 0.386302 0.062076
0.757159 0.386525 0.058839
0.777991 0.386117 0.058379
0.798823 0.385710 0.057919
0.819654 0.385302 0.057459
0.840486 0.384895 0.056999
0.859377 0.384071 0.056800
0.868560 0.381166 0.057905
0.877743 0.378261 0.059010
0.886927 0.375356 0.060116
0.896110 0.372451 0.061221
0.905293 0.369546 0.062326
0.074571 0.425410 0.243650
0.092320 0.424195 0.236499
0.110068 0.422980 0.229348
0.127817 0.421765 0.222197
0.145566 0.420550 0.215046
0.163315 0.419335 0.207895
0.198834 0.418930 0.197280
0.237907 0.418686 0.185972
0.276980 0.418442 0.174665
0.316053 0.418199 0.163357
0.355126 0.417955 0.152049
0.395723 0.418026 0.141741
0.437081 0.418255 0.131933
0.478440 0.418483 0.122125
0.519798 0.418711 0.112316
0.561157 0.418940 0.102508
0.598297 0.419170 0.094925
0.631219 0.419403 0.089567
0.664141 0.419635 0.084210
0.697063 0.419867 0.078852
0.729985 0.420100 0.073494
0.758971 0.420038 0.069519
0.780085 0.419390 0.068310
0.801200 0.418741 0.067100
0.822314 0.418092 0.065890
0.843429 0.417444 0.064680
0.862577 0.416382 0.063721
0.871889 0.413254 0.064012
0.881202 0.410126 0.064303
0.890515 0.406998 0.064595
0.899828 0.403870 0.064886
0.909141 0.400743 0.065177
0.090781 0.467132 0.265779
0.107408 0.465502 0.258346
0.124034 0.463872 0.250913
0.140661 0.462242 0.243480
0.157287 0.460612 0.236047
0.173914 0.458982 0.228614
0.208262 0.458127 0.217545
0.246155 0.457428 0.205749
0.284047 0.456729 0.193953
0.321940 0.456029 0.182157
0.359833 0.455330 0.170361
0.399662 0.454985 0.159447
0.440459 0.454817 0.148973
0.481255 0.454649 0.138499
0.522052 0.454480 0.128026
0.562849 0.454312 0.117552
0.599738 0.454191 0.109271
0.632719 0.454118 0.103181
0.665700 0.454044 0.097091
0.698681 0.453971 0.091002
0.731663 0.453897 0.084912
0.760783 0.453552 0.080199
0.782180 0.452662 0.078240
0.803577 0.451772 0.076281
0.824974 0.450882 0.074321
0.846372 0.449993 0.072362
0.865777 0.448693 0.070642
0.875219 0.445342 0.070119
0.884661 0.441991 0.069596
0.894104 0.438640 0.069073
0.903546 0.435289 0.068550
0.912989 0.431939 0.068028
0.106992 0.508853 0.287909
0.122496 0.506808 0.280194
0.138000 0.504763 0.272478
0.153504 0.502718 0.264763
0.169008 0.500673 0.257048
0.184512 0.498628 0.249333
0.217690 0.497325 0.237810
0.254402 0.496170 0.225526
0.291115 0.495015 0.213241
0.327827 0.493860 0.200957
0.364540 0.492705 0.188673
0.403601 0.491944 0.177152
0.443836 0.491379 0.166013
0.484071 0.490814 0.154874
0.524306 0.490249 0.143735
0.564541 0.489684 0.132596
0.601179 0.489212 0.123616
0.634219 0.488833 0.116795
0.667260 0.488454 0.109973
0.700300 0.488074 0.103151
0.733341 0.487695 0.096330
0.762594 0.487065 0.090879
0.784274 0.485934 0.088170
0.805954 0.484803 0.085461
0.827635 0.483672 0.082752
0.849315 0.482542 0.080043
0.868977 0.481003 0.077563
0.878549 0.477430 0.076226
0.888121 0.473856 0.074889
0.897692 0.470282 0.073552
0.907264 0.466709 0.072215
0.916836 0.463135 0.070878
0.123203 0.550574 0.310038
0.137584 0.548115 0.302041
0.151966 0.545655 0.294044
0.166348 0.543195 0.286046
0.180729 0.540735 0.278049
0.195111 0.538275 0.270052
0.227118 0.536523 0.258075
0.262650 0.534912 0.245302
0.298182 0.533302 0.232530
0.333714 0.531691 0.219757
0.369246 0.530080 0.206984
0.407539 0.528902 0.194857
0.447213 0.527941 0.183053
0.486886 0.526980 0.171249
0.526559 0.526018 0.159445
0.566233 0.525057 0.147640
0.602619 0.524233 0.137962
0.635719 0.523548 0.130408
0.668819 0.522863 0.122855
0.701919 0.522178 0.115301
0.735019 0.521493 0.107748
0.764406 0.520579 0.101559
0.786369 0.519207 0.098101
0.808332 0.517835 0.094642
0.830295 0.516463 0.091183
0.852257 0.515090 0.087725
0.872177 0.513314 0.084484
0.881878 0.509518 0.082333
0.891580 0.505721 0.080182
0.901281 0.501924 0.078031
0.910983 0.498128 0.075880
0.920684 0.494331 0.073729
0.146377 0.586984 0.330894
0.159638 0.584319 0.322835
0.172899 0.581655 0.314776
0.186159 0.578990 0.306717
0.199420 0.576325 0.298657
0.212681 0.573660 0.290598
0.243370 0.571696 0.278505
0.277544 0.569873 0.265606
0.311718 0.568049 0.252706
0.345892 0.566225 0.239806
0.380067 0.564401 0.226906
0.417313 0.563030 0.214508
0.456095 0.561884 0.202362
0.494877 0.560739 0.190215
0.533659 0.559594 0.178068
0.572441 0.558448 0.165921
0.608214 0.557456 0.155802
0.640979 0.556618 0.147711
0.673743 0.555779 0.139620
0.706508 0.554941 0.131529
0.739272 0.554102 0.123438
0.768416 0.553042 0.116653
0.790319 0.551538 0.112478
0.812222 0.550035 0.108303
0.834125 0.548531 0.104128
0.856028 0.547028 0.099953
0.875891 0.545127 0.095952
0.885558 0.541241 0.092815
0.895225 0.537354 0.089679
0.904892 0.533468 0.086543
0.914559 0.529581 0.083406
0.924225 0.525695 0.080270
0.176516 0.618083 0.350476
0.188657 0.615423 0.342575
0.200798 0.612763 0.334674
0.212939 0.610103 0.326774
0.225080 0.607443 0.318873
0.237221 0.604784 0.310972
0.266444 0.602845 0.299101
0.299083 0.601051 0.286435
0.331722 0.599257 0.273770
0.364362 0.597462 0.261104
0.397001 0.595668 0.248439
0.432921 0.594326 0.236106
0.470482 0.593209 0.223939
0.508043 0.592092 0.211773
0.545604 0.590976 0.199606
0.583164 0.589859 0.187439
0.617962 0.588881 0.177139
0.649997 0.588041 0.168705
0.682032 0.587202 0.160270
0.714067 0.586362 0.151836
0.746102 0.585523 0.143401
0.774625 0.584455 0.136159
0.796125 0.582929 0.131302
0.817626 0.581404 0.126444
0.839126 0.579879 0.121587
0.860626 0.578353 0.116729
0.880121 0.576442 0.111965
0.889589 0.572599 0.107673
0.899057 0.568756 0.103380
0.908525 0.564913 0.099087
0.917993 0.561070 0.094794
0.927460 0.557227 0.090502
0.206654 0.649181 0.370058
0.217676 0.646527 0.362316
0.228698 0.643872 0.354573
0.239719 0.641217 0.346831
0.250741 0.638562 0.339088
0.261762 0.635907 0.331346
0.289519 0.633994 0.319696
0.320623 0.632229 0.307265
0.351727 0.630464 0.294834
0.382831 0.628700 0.282403
0.413935 0.626935 0.269971
0.448529 0.625621 0.257703
0.484869 0.624533 0.245517
0.521209 0.623446 0.233330
0.557548 0.622358 0.221144
0.593888 0.621270 0.208957
0.627711 0.620305 0.198475
0.659016 0.619465 0.189698
0.690321 0.618624 0.180920
0.721626 0.617784 0.172142
0.752931 0.616943 0.163365
0.780834 0.615867 0.155666
0.801931 0.614320 0.150126
0.823029 0.612773 0.144585
0.844127 0.611226 0.139045
0.865224 0.609679 0.133504
0.884351 0.607757 0.127979
0.893620 0.603957 0.122530
0.902889 0.600158 0.117081
0.912157 0.596358 0.111632
0.921426 0.592559 0.106183
0.930695 0.588759 0.100733
0.236793 0.680280 0.389640
0.246695 0.677630 0.382056
0.256597 0.674980 0.374472
0.266499 0.672330 0.366888
0.276401 0.669680 0.359304
0.286303 0.667030 0.351720
0.312594 0.665142 0.340292
0.342162 0.663407 0.328095
0.371731 0.661672 0.315898
0.401300 0.659937 0.303701
0.430868 0.658202 0.291504
0.464137 0.656917 0.279301
0.499256 0.655858 0.267094
0.534375 0.654799 0.254888
0.569493 0.653740 0.242682
0.604612 0.652680 0.230475
0.637459 0.651730 0.219812
0.668034 0.650889 0.210691
0.698610 0.650047 0.201570
0.729185 0.649206 0.192449
0.759760 0.648364 0.183328
0.787042 0.647280 0.175173
0.807737 0.645711 0.168950
0.828432 0.644143 0.162726
0.849127 0.642574 0.156503
0.869823 0.641005 0.150280
0.888580 0.639072 0.143993
0.897650 0.635316 0.137387
0.906720 0.631560 0.130782
0.915790 0.627804 0.124176
0.924860 0.624047 0.117571
0.933930 0.620291 0.110965
0.266932 0.711379 0.409222
0.275714 0.708734 0.401797
0.284496 0.706089 0.394371
0.293279 0.703443 0.386945
0.302061 0.700798 0.379519
0.310843 0.698153 0.372093
0.335668 0.696291 0.360887
0.363702 0.694586 0.348924
0.391735 0.692880 0.336962
0.419769 0.691174 0.324999
0.447802 0.689468 0.313036
0.479745 0.688213 0.300898
0.513643 0.687182 0.288672
0.547541 0.686152 0.276446
0.581438 0.685122 0.264220
0.615336 0.684091 0.251993
0.647208 0.683155 0.241148
0.677053 0.682312 0.231684
0.706899 0.681470 0.222220
0.736744 0.680627 0.212755
0.766589 0.679785 0.203291
0.793251 0.678693 0.194680
0.813543 0.677103 0.187774
0.833836 0.675512 0.180868
0.854128 0.673921 0.173962
0.874421 0.672331 0.167056
0.892810 0.670386 0.160007
0.901681 0.666674 0.152245
0.910552 0.662961 0.144483
0.919423 0.659249 0.136721
0.928294 0.655536 0.128959
0.937165 0.651824 0.121197
0.300321 0.737909 0.427168
0.308045 0.735354 0.420006
0.315770 0.732800 0.412845
0.323494 0.730245 0.405683
0.331219 0.727690 0.398521
0.338943 0.725136 0.391360
0.362193 0.723377 0.380524
0.388548 0.721778 0.368953
0.414903 0.720179 0.357382
0.441258 0.718579 0.345811
0.467613 0.716980 0.334240
0.498015 0.715821 0.322335
0.530441 0.714883 0.310263
0.562866 0.713945 0.298191
0.595292 0.713006 0.286119
0.627718 0.712068 0.274047
0.658368 0.711204 0.263198
0.687242 0.710416 0.253573
0.716116 0.709627 0.243948
0.744991 0.708839 0.234323
0.773865 0.708050 0.224697
0.799698 0.707008 0.215823
0.819449 0.705457 0.208449
0.839200 0.703906 0.201076
0.858951 0.702355 0.193703
0.878702 0.700804 0.186330
0.896604 0.698914 0.178740
0.905264 0.695327 0.170070
0.913924 0.691741 0.161400
0.922584 0.688154 0.152730
0.931244 0.684568 0.144060
0.939904 0.680981 0.135390
0.340212 0.755304 0.441840
0.347002 0.753010 0.435154
0.353792 0.750717 0.428468
0.360582 0.748423 0.421783
0.367372 0.746130 0.415097
0.374162 0.743836 0.408412
0.395618 0.742338 0.398244
0.420007 0.740999 0.387380
0.444396 0.739660 0.376515
0.468786 0.738321 0.365651
0.493175 0.736982 0.354787
0.521607 0.736055 0.343452
0.552059 0.735335 0.331882
0.582511 0.734615 0.320312
0.612964 0.733895 0.308742
0.643416 0.733175 0.297171
0.672352 0.732503 0.286675
0.699772 0.731879 0.277254
0.727192 0.731254 0.267832
0.754612 0.730630 0.258411
0.782032 0.730005 0.248989
0.806622 0.729126 0.240238
0.825554 0.727738 0.232829
0.844485 0.726350 0.225420
0.863416 0.724962 0.218010
0.882347 0.723573 0.210601
0.899527 0.721867 0.202913
0.907952 0.718572 0.193832
0.916376 0.715276 0.184750
0.924800 0.711981 0.175669
0.933224 0.708685 0.166587
0.941649 0.705390 0.157506
0.380103 0.772698 0.456512
0.385958 0.770666 0.450302
0.391814 0.768633 0.444092
0.397669 0.766601 0.437883
0.403525 0.764569 0.431673
0.409380 0.762537 0.425463
0.429042 0.761299 0.415964
0.451466 0.760220 0.405806
0.473890 0.759141 0.395649
0.496314 0.758062 0.385491
0.518738 0.756984 0.375334
0.545199 0.756289 0.364569
0.573678 0.755788 0.353501
0.602157 0.755286 0.342432
0.630636 0.754785 0.331364
0.659115 0.754283 0.320296
0.686337 0.753802 0.310153
0.712302 0.753342 0.300935
0.738268 0.752881 0.291717
0.764234 0.752421 0.282499
0.790199 0.751960 0.273281
0.813547 0.751245 0.264653
0.831658 0.750019 0.257208
0.849770 0.748794 0.249763
0.867882 0.747568 0.242318
0.885993 0.746342 0.234873
0.902451 0.744820 0.227086
0.910640 0.741816 0.217593
0.918828 0.738811 0.208100
0.927017 0.735807 0.198607
0.935205 0.732803 0.189114
0.943394 0.729798 0.179622
0.419994 0.790092 0.471183
0.424915 0.788321 0.465450
0.429836 0.786550 0.459716
0.434756 0.784779 0.453982
0.439677 0.783008 0.448249
0.444598 0.781237 0.442515
0.462467 0.780260 0.433684
0.482926 0.779441 0.424233
0.503384 0.778622 0.414782
0.523842 0.777804 0.405331
0.544301 0.776985 0.395880
0.568791 0.776524 0.385686
0.595296 0.776240 0.375120
0.621802 0.775957 0.364553
0.648307 0.775674 0.353987
0.674813 0.775391 0.343420
0.700321 0.775101 0.333630
0.724833 0.774805 0.324615
0.749344 0.774508 0.315601
0.773855 0.774212 0.306587
0.798366 0.773915 0.297572
0.820471 0.773363 0.289069
0.837763 0.772300 0.281588
0.855055 0.771237 0.274106
0.872347 0.770174 0.266625
0.889639 0.769111 0.259144
0.905375 0.767773 0.251259
0.913327 0.765060 0.241355
0.921280 0.762347 0.231450
0.929233 0.759633 0.221546
0.937186 0.756920 0.211642
0.945139 0.754207 0.201737
0.459885 0.807487 0.485855
0.463871 0.805977 0.480598
0.467857 0.804467 0.475340
0.471844 0.802957 0.470082
0.475830 0.801447 0.464824
0.479817 0.799938 0.459566
0.495892 0.799221 0.451403
0.514385 0.798662 0.442659
0.532878 0.798104 0.433915
0.551371 0.797545 0.425171
0.569863 0.796987 0.416427
0.592382 0.796758 0.406803
0.616915 0.796693 0.396738
0.641447 0.796628 0.386674
0.665979 0.796563 0.376609
0.690511 0.796499 0.366545
0.714306 0.796400 0.357107
0.737363 0.796268 0.348296
0.760420 0.796135 0.339485
0.783477 0.796003 0.330675
0.806534 0.795870 0.321864
0.827396 0.795482 0.313484
0.843868 0.794582 0.305967
0.860340 0.793681 0.298450
0.876813 0.792781 0.290932
0.893285 0.791880 0.283415
0.908298 0.790726 0.275432
0.916015 0.788304 0.265116
0.923732 0.785882 0.254800
0.931450 0.783460 0.244485
0.939167 0.781038 0.234169
0.946884 0.778616 0.223853
0.499484 0.823297 0.500105
0.502611 0.822037 0.495324
0.505739 0.820777 0.490543
0.508866 0.819517 0.485761
0.511994 0.818257 0.480980
0.515121 0.816997 0.476199
0.529405 0.816512 0.468671
0.545919 0.816182 0.460593
0.562434 0.815853 0.452514
0.578949 0.815523 0.444436
0.595464 0.815193 0.436358
0.615975 0.815165 0.427281
0.638485 0.815288 0.417704
0.660995 0.815412 0.408126
0.683505 0.815535 0.398549
0.706015 0.815658 0.388972
0.728051 0.815727 0.379903
0.749612 0.815743 0.371341
0.771173 0.815758 0.362779
0.792735 0.815773 0.354218
0.814296 0.815789 0.345656
0.833886 0.815553 0.337487
0.849533 0.814816 0.330106
0.865180 0.814079 0.322724
0.880827 0.813342 0.315342
0.896474 0.812605 0.307960
0.910762 0.811636 0.300093
0.918256 0.809512 0.289802
0.925751 0.807387 0.279510
0.933245 0.805263 0.269219
0.940739 0.803138 0.258927
0.948233 0.801014 0.248636
0.537626 0.831187 0.512241
0.540272 0.830119 0.507940
0.542918 0.829052 0.503640
0.545563 0.827985 0.499339
0.548209 0.826918 0.495039
0.550855 0.825851 0.490739
0.563357 0.825457 0.483675
0.577831 0.825198 0.476059
0.592305 0.824940 0.468443
0.606779 0.824681 0.460827
0.621252 0.824422 0.453211
0.639573 0.824441 0.444564
0.659816 0.824600 0.435401
0.680059 0.824758 0.426239
0.700303 0.824917 0.417076
0.720546 0.825075 0.407914
0.740597 0.825196 0.399290
0.760457 0.825277 0.391205
0.780317 0.825359 0.383120
0.800176 0.825441 0.375035
0.820036 0.825523 0.366950
0.838207 0.825387 0.359430
0.852999 0.824817 0.353041
