Assets/1__3DArt/KimSe/artstation_asset/LUTs_pasterls/CUBE/Emerald Oasis 02 S.cube
# Enhanced with VOXCOLOR algorithms
LUT_3D_SIZE 8
DOMAIN_MIN 0.000000 0.000000 0.000000
DOMAIN_MAX 0.903226 0.903226 0.903226
0.109804 0.133333 0.149020
0.198195 0.146305 0.157548
0.345094 0.166089 0.163882
0.519828 0.191445 0.169842
0.693774 0.220469 0.176822
0.825507 0.248044 0.185770
0.899692 0.267508 0.194076
0.935413 0.278481 0.198737
0.108991 0.192371 0.185348
0.185902 0.201450 0.179983
0.315095 0.216733 0.169100
0.472124 0.236578 0.157548
0.634200 0.259296 0.149770
0.769775 0.282450 0.152682
0.862185 0.302578 0.166426
0.918750 0.317870 0.184634
0.112436 0.291888 0.250347
0.179057 0.293088 0.232573
0.294488 0.300530 0.204915
0.438514 0.312894 0.175432
0.592223 0.328912 0.151599
0.730469 0.347463 0.145307
0.835220 0.365845 0.158502
0.905943 0.381288 0.182210
0.125995 0.418965 0.338239
0.183012 0.410555 0.311055
0.287033 0.408207 0.270124
0.420628 0.411665 0.225787
0.567390 0.420461 0.187635
0.706158 0.434172 0.170681
0.817690 0.449093 0.177715
0.896557 0.461468 0.198009
0.155789 0.559060 0.441059
0.203239 0.541663 0.408871
0.296473 0.529278 0.360843
0.419974 0.523353 0.307808
0.559028 0.524651 0.259858
0.695088 0.533449 0.232629
0.808131 0.544070 0.228890
0.889955 0.551419 0.237172
0.217275 0.683536 0.539710
0.253488 0.662414 0.509967
0.333201 0.643897 0.465529
0.442710 0.631232 0.415038
0.568969 0.626625 0.366696
0.696017 0.631603 0.333413
0.804444 0.639119 0.317460
0.884866 0.642477 0.308438
0.314498 0.767498 0.613149
0.337755 0.748942 0.590859
0.398853 0.730486 0.557464
0.487101 0.716171 0.518030
0.592293 0.709056 0.477637
0.702708 0.712170 0.444895
0.801632 0.719189 0.422198
0.878978 0.722291 0.402236
0.434043 0.817762 0.666950
0.444958 0.804020 0.651782
0.484140 0.789035 0.629796
0.545558 0.776517 0.602835
0.623321 0.769551 0.573129
0.711678 0.772250 0.545435
0.798051 0.780534 0.523475
0.871557 0.786343 0.505565
0.119478 0.150395 0.186208
0.186121 0.160955 0.197449
0.308711 0.179175 0.212383
0.465080 0.204334 0.230465
0.632740 0.235201 0.250949
0.774167 0.268940 0.272288
0.863998 0.298432 0.290260
0.912561 0.318825 0.301870
0.117673 0.217725 0.232769
0.182770 0.223466 0.231237
0.295189 0.233637 0.228138
0.436961 0.248156 0.226341
0.590401 0.266896 0.228428
0.728817 0.290447 0.238638
0.831483 0.317286 0.256943
0.900155 0.344828 0.279679
0.118360 0.322141 0.307534
0.178544 0.319969 0.291580
0.282670 0.320886 0.269016
0.414926 0.325477 0.246336
0.560148 0.334307 0.229357
0.697797 0.349284 0.226736
0.809799 0.370552 0.240126
0.893153 0.396344 0.264486
0.126174 0.449914 0.400977
0.179292 0.439154 0.372785
0.275766 0.430728 0.333520
0.400992 0.426138 0.292518
0.541119 0.426622 0.258043
0.678719 0.434430 0.241578
0.796725 0.448925 0.245094
0.889869 0.467904 0.262141
0.146312 0.586525 0.502632
0.191046 0.568742 0.467604
0.279248 0.552187 0.418144
0.397460 0.539589 0.364754
0.532810 0.533049 0.316727
0.669428 0.535093 0.286498
0.790087 0.543231 0.276000
0.888614 0.553855 0.278069
0.192931 0.705759 0.592558
0.227571 0.686035 0.560428
0.304473 0.665876 0.513442
0.411890 0.649002 0.460076
0.538331 0.638337 0.408015
0.669439 0.637184 0.367653
0.787808 0.641892 0.341575
0.886932 0.647076 0.324232
0.272498 0.786429 0.654305
0.296177 0.769848 0.631634
0.357712 0.751525 0.597236
0.447999 0.735263 0.555463
0.557884 0.724254 0.510547
0.675945 0.722770 0.468568
0.786169 0.727813 0.433177
0.881700 0.732835 0.402815
0.374707 0.834663 0.695054
0.389251 0.823058 0.682051
0.433336 0.809098 0.661830
0.501615 0.796007 0.635470
0.588380 0.786745 0.604287
0.686652 0.786277 0.570379
0.783499 0.793541 0.537625
0.871638 0.801922 0.508798
0.129077 0.171653 0.234150
0.179901 0.180980 0.248392
0.282221 0.199228 0.271232
0.420859 0.226360 0.300600
0.578754 0.261715 0.334185
0.723314 0.303540 0.368022
0.822593 0.342681 0.395336
0.879537 0.370875 0.412991
0.127708 0.246855 0.289697
0.180930 0.250241 0.292569
0.277772 0.257669 0.297902
0.405439 0.270203 0.306742
0.550315 0.288742 0.319918
0.689584 0.315604 0.339029
0.798719 0.349240 0.362905
0.874779 0.385608 0.389341
0.127163 0.355117 0.371053
0.178694 0.350271 0.359389
0.271076 0.347051 0.344689
0.392308 0.347277 0.331451
0.530293 0.352651 0.323586
0.667653 0.366822 0.326738
0.784796 0.390869 0.341950
0.876421 0.422768 0.366574
0.131333 0.481982 0.466313
0.178236 0.469203 0.441712
0.265893 0.456733 0.409114
0.382655 0.447083 0.375869
0.517093 0.442444 0.348327
0.654473 0.446497 0.334767
0.777763 0.460045 0.336900
0.881241 0.481396 0.351285
0.144694 0.613114 0.563722
0.184937 0.594868 0.531681
0.266448 0.575759 0.487445
0.378358 0.559018 0.439726
0.509910 0.547315 0.396088
0.647595 0.544177 0.365958
0.774912 0.549032 0.351689
0.886359 0.559343 0.349710
0.179510 0.725208 0.644065
0.211137 0.706609 0.614624
0.283271 0.686093 0.571450
0.386699 0.667207 0.521444
0.511944 0.652911 0.470836
0.646690 0.647035 0.427551
0.773972 0.648256 0.395800
0.888235 0.652655 0.374439
0.242020 0.801907 0.695665
0.264762 0.787056 0.675494
0.324452 0.769874 0.643972
0.414186 0.753544 0.604014
0.526474 0.740911 0.558548
0.651309 0.736387 0.511410
0.772434 0.739219 0.468378
0.883943 0.744408 0.432886
0.323791 0.848803 0.726545
0.340234 0.839083 0.716018
0.386645 0.826901 0.698484
0.458974 0.814853 0.673969
0.552381 0.805523 0.642700
0.660259 0.803971 0.604283
0.768870 0.811043 0.563072
0.872124 0.821392 0.525847
0.138955 0.196760 0.291890
0.179060 0.206955 0.309725
0.265208 0.227098 0.339343
0.387623 0.257636 0.377771
0.533752 0.298175 0.421681
0.676258 0.346976 0.465158
0.779768 0.392657 0.499219
0.841332 0.425213 0.520712
0.138877 0.279322 0.354423
0.181381 0.282271 0.361978
0.264262 0.289800 0.375394
0.378871 0.303459 0.394159
0.514891 0.324488 0.417585
0.652780 0.355497 0.444869
0.765010 0.393649 0.473274
0.844738 0.433441 0.501159
0.138077 0.390116 0.438798
0.180262 0.384258 0.432757
0.260870 0.379959 0.427149
0.371375 0.379452 0.424353
0.502379 0.384743 0.426335
0.638914 0.399767 0.435953
0.759193 0.425009 0.453287
0.855597 0.457600 0.476875
0.140169 0.514337 0.532046
0.179642 0.500804 0.513756
0.257531 0.487055 0.490833
0.365346 0.475771 0.468122
0.494118 0.469288 0.449754
0.631342 0.471382 0.441020
0.758655 0.482946 0.443392
0.869098 0.502277 0.455320
0.149189 0.638158 0.622224
0.183871 0.620176 0.596772
0.257399 0.600682 0.562174
0.361890 0.582663 0.524506
0.488968 0.568630 0.489060
0.627480 0.561934 0.462353
0.760262 0.562862 0.447406
0.881108 0.569785 0.443321
0.175451 0.741500 0.692092
0.203287 0.724263 0.668507
0.269310 0.704849 0.633575
0.367124 0.686107 0.591871
0.489536 0.670486 0.547653
0.626701 0.661330 0.506414
0.761234 0.658719 0.473930
0.886866 0.660318 0.452358
0.223306 0.813270 0.734708
0.244341 0.800145 0.718778
0.300629 0.784989 0.693005
0.387642 0.770120 0.658633
0.499833 0.757706 0.617161
0.629401 0.751469 0.570522
0.759592 0.751972 0.526166
0.883738 0.755905 0.490886
0.285039 0.858657 0.758366
0.301991 0.850728 0.750426
0.348599 0.840910 0.736416
0.422292 0.831094 0.715373
0.519417 0.823304 0.686547
0.634795 0.822050 0.647667
0.754013 0.829115 0.603371
0.870494 0.840368 0.563057
0.149353 0.225200 0.357946
0.183009 0.238993 0.380178
0.257033 0.262952 0.415090
0.365447 0.297562 0.459305
0.499158 0.342303 0.509009
0.635811 0.394607 0.557129
0.739420 0.441821 0.593760
0.802678 0.474226 0.616107
0.150911 0.314386 0.424774
0.184824 0.319453 0.437046
0.255755 0.330111 0.457361
0.358371 0.347613 0.484038
0.485082 0.372780 0.515226
0.619304 0.407074 0.548131
0.731726 0.445783 0.578526
0.812355 0.482572 0.604812
0.150366 0.426162 0.508367
0.183852 0.421602 0.508278
0.253150 0.419645 0.511620
0.353011 0.422032 0.518816
0.476578 0.430211 0.530055
0.611075 0.446861 0.545665
0.732537 0.470770 0.564451
0.830949 0.498281 0.585290
0.151485 0.545964 0.595899
0.183368 0.533572 0.584940
0.251010 0.521745 0.572842
0.349245 0.512491 0.561868
0.471679 0.507478 0.553907
0.607997 0.509225 0.551446
0.737863 0.517631 0.555321
0.852292 0.530941 0.564942
0.158187 0.660905 0.676195
0.186957 0.644454 0.658881
0.251695 0.627079 0.636171
0.347720 0.610853 0.611258
0.469216 0.597476 0.586993
0.607569 0.589055 0.567078
0.744240 0.585829 0.554620
0.871085 0.587109 0.550331
0.179175 0.754293 0.734892
0.203047 0.738989 0.718548
0.262247 0.722192 0.694370
0.353169 0.705675 0.664474
0.470969 0.690968 0.631034
0.608613 0.680150 0.597194
0.748065 0.673872 0.569154
0.881078 0.671430 0.550782
0.216118 0.820104 0.769462
0.235173 0.808846 0.758443
0.287183 0.796441 0.740221
0.369784 0.784228 0.714582
0.479326 0.773513 0.681746
0.610646 0.766766 0.642154
0.746792 0.765064 0.603463
0.879266 0.766789 0.573595
0.261009 0.863228 0.788042
0.277433 0.857066 0.782569
0.322600 0.849980 0.772732
0.395241 0.843146 0.756925
0.492881 0.837920 0.733770
0.612243 0.837737 0.700055
0.738786 0.844506 0.660106
0.864509 0.855345 0.623863
0.160352 0.256162 0.429579
0.191400 0.276859 0.457186
0.257764 0.306191 0.495287
0.355534 0.344264 0.540804
0.477810 0.390196 0.590194
0.606361 0.440320 0.636361
0.707286 0.482966 0.670492
0.770604 0.510771 0.690766
0.163340 0.350156 0.496423
0.191987 0.360393 0.513217
0.254021 0.377077 0.538210
0.346484 0.400422 0.569234
0.463874 0.430147 0.603917
0.592273 0.465257 0.638201
0.702345 0.499525 0.667089
0.781923 0.527436 0.689161
0.163203 0.460699 0.574811
0.190370 0.460150 0.579920
0.250125 0.464112 0.590360
0.340033 0.472985 0.605246
0.455509 0.486819 0.623528
0.585945 0.505453 0.643528
0.706085 0.525403 0.662697
0.803724 0.543390 0.679993
0.164217 0.574208 0.653166
0.189967 0.565134 0.648598
0.248188 0.558761 0.646072
0.336769 0.555659 0.645886
0.451756 0.556061 0.648169
0.585091 0.559823 0.653029
0.714795 0.564904 0.659964
0.829477 0.570141 0.668649
0.170498 0.679207 0.721856
0.194213 0.665697 0.711738
0.250513 0.653216 0.700272
0.337584 0.642418 0.688417
0.451993 0.633651 0.677042
0.587700 0.626759 0.667409
0.725044 0.620867 0.661344
0.853328 0.616364 0.659890
0.189741 0.762332 0.769785
0.210230 0.749532 0.759815
0.262860 0.736866 0.746229
0.346228 0.724878 0.729425
0.457459 0.713951 0.709994
0.592213 0.704322 0.689104
0.732399 0.696175 0.671266
0.867456 0.690208 0.660040
0.220811 0.821652 0.797744
0.238052 0.812284 0.790878
0.285701 0.803085 0.780327
0.362821 0.794494 0.765207
0.467149 0.786941 0.745025
0.595816 0.781384 0.719327
0.732505 0.778564 0.693708
0.866980 0.778278 0.674595
0.254802 0.861687 0.813130
0.270069 0.857012 0.809476
0.312808 0.852548 0.803856
0.382469 0.848829 0.794708
0.477311 0.846527 0.780633
0.595455 0.847686 0.758717
0.722869 0.853670 0.731919
0.850404 0.862903 0.708017
0.171332 0.286554 0.498912
0.201745 0.316257 0.532362
0.263711 0.351369 0.572071
0.354197 0.391805 0.615983
0.467474 0.436559 0.661499
0.588116 0.481197 0.702304
0.685470 0.516355 0.731595
0.748392 0.537612 0.748758
0.175442 0.383462 0.562613
0.201552 0.400103 0.583370
0.257904 0.423211 0.610807
0.342931 0.452047 0.642985
0.452446 0.485310 0.677663
0.574412 0.519504 0.710344
0.680545 0.547691 0.736056
0.757671 0.566372 0.753967
0.175745 0.490951 0.633253
0.199305 0.495120 0.642052
0.252412 0.505648 0.656774
0.334508 0.521683 0.676078
0.442568 0.541924 0.698416
0.567528 0.563291 0.720982
0.683705 0.580262 0.740255
0.777495 0.590747 0.755404
0.177198 0.597091 0.701161
0.198995 0.591675 0.700741
0.250182 0.591569 0.704535
0.330719 0.596104 0.711938
0.438342 0.604192 0.722177
0.566544 0.613091 0.733928
0.692339 0.618493 0.745188
0.802488 0.619796 0.755493
0.184274 0.692205 0.758599
0.204313 0.681644 0.753038
0.253945 0.674735 0.749398
0.333181 0.671079 0.747613
0.440138 0.669926 0.747537
0.570436 0.669138 0.748989
0.703773 0.665910 0.751810
0.827464 0.660834 0.756391
0.204075 0.766041 0.797489
0.221753 0.755511 0.791509
0.268963 0.747203 0.785557
0.345459 0.740924 0.779459
0.449460 0.736272 0.773129
0.578158 0.732082 0.766710
0.713778 0.727132 0.762013
0.844219 0.722283 0.760971
0.232768 0.819431 0.820413
0.248270 0.811641 0.816132
0.292127 0.805450 0.811360
0.363979 0.800837 0.805378
0.462171 0.797707 0.797661
0.584832 0.795953 0.787681
0.716378 0.795328 0.778082
0.845684 0.796022 0.772456
0.260242 0.856243 0.833477
0.274330 0.852628 0.831007
0.314647 0.850257 0.828752
0.380959 0.849285 0.825728
0.471801 0.849907 0.821009
0.585442 0.852999 0.812834
0.707956 0.859033 0.802451
0.829693 0.867295 0.794171
0.181342 0.314229 0.561278
0.212062 0.354056 0.600781
0.272016 0.395062 0.641406
0.358285 0.437525 0.682662
0.465484 0.480751 0.723342
0.579276 0.519783 0.758344
0.672054 0.547196 0.782652
0.733202 0.561020 0.796436
0.187019 0.413754 0.621542
0.212149 0.436363 0.645402
0.265415 0.464522 0.673628
0.345814 0.497156 0.704947
0.449712 0.532519 0.737669
0.565742 0.565519 0.767523
0.666735 0.588897 0.789888
0.739736 0.600813 0.804359
0.188085 0.517392 0.684119
0.209616 0.525209 0.694999
0.258639 0.540486 0.711518
0.335514 0.561846 0.732398
0.437947 0.587352 0.756090
0.557279 0.612377 0.779488
0.667443 0.629963 0.798618
0.754328 0.638414 0.812697
0.190403 0.615706 0.741821
0.209311 0.612777 0.743448
0.255665 0.617262 0.750439
0.330441 0.628103 0.761928
0.432136 0.643727 0.776854
0.554446 0.660464 0.793404
0.673158 0.672152 0.808605
0.773875 0.677267 0.821612
0.198987 0.701350 0.789091
0.215510 0.692701 0.785760
0.259982 0.690044 0.786458
0.333198 0.692884 0.790832
0.433838 0.700283 0.798394
0.557526 0.709884 0.808527
0.682639 0.716981 0.819626
0.795095 0.720248 0.831162
0.220566 0.767048 0.820463
0.234803 0.758022 0.816441
0.277374 0.753140 0.814948
0.348294 0.752371 0.815836
0.445956 0.755367 0.818916
0.567298 0.761128 0.824237
0.693711 0.766746 0.831592
0.811967 0.771001 0.841161
0.248566 0.815174 0.839091
0.261710 0.808564 0.836261
0.302206 0.804792 0.835114
0.369688 0.804049 0.835416
0.462453 0.806342 0.836961
0.578101 0.811660 0.839799
0.700414 0.818483 0.844408
0.817384 0.825614 0.851644
0.271230 0.848684 0.849629
0.284284 0.845963 0.848413
0.322529 0.845274 0.848615
0.386040 0.846809 0.849994
0.473462 0.850676 0.852281
0.582302 0.857291 0.855127
0.697559 0.866068 0.858650
0.808756 0.876056 0.864003
