Assets/1__3DArt/KimSe/artstation_asset/LUTs_pasterls/CUBE/Orange Cream 01.cube
# Enhanced with VOXCOLOR algorithms
LUT_3D_SIZE 5
DOMAIN_MIN 0.000000 0.000000 0.000000
DOMAIN_MAX 0.903226 0.903226 0.903226
0.007843 0.011765 0.050980
0.290715 0.123073 0.071784
0.645869 0.240134 0.073763
0.846076 0.335992 0.081740
0.887362 0.375610 0.088772
0.011660 0.143828 0.097683
0.269361 0.229004 0.102442
0.619276 0.331890 0.089619
0.838741 0.425396 0.086723
0.897184 0.472972 0.093885
0.055850 0.406699 0.187695
0.265086 0.449761 0.164815
0.595463 0.520305 0.124301
0.836090 0.590537 0.103649
0.914666 0.628314 0.111108
0.180386 0.677834 0.247431
0.314111 0.685480 0.214227
0.585475 0.722464 0.160736
0.829436 0.766165 0.130912
0.931885 0.789502 0.143773
0.372221 0.827109 0.245618
0.432050 0.828250 0.223396
0.603619 0.847561 0.185347
0.811903 0.876242 0.168697
0.938584 0.893739 0.201426
0.032729 0.048508 0.159975
0.328002 0.149983 0.161784
0.665004 0.267866 0.154588
0.851557 0.370874 0.163405
0.891989 0.416249 0.172585
0.037670 0.217721 0.215165
0.339869 0.300561 0.204324
0.658095 0.392282 0.186211
0.848112 0.476915 0.185037
0.903280 0.520342 0.192220
0.106429 0.483833 0.299905
0.325337 0.522188 0.271918
0.623731 0.579464 0.232195
0.840991 0.636251 0.214547
0.919994 0.664793 0.221501
0.260036 0.725944 0.360390
0.376196 0.730859 0.327041
0.608743 0.757380 0.278824
0.829030 0.790240 0.252652
0.933801 0.806458 0.264150
0.455329 0.850779 0.379485
0.500641 0.850066 0.354496
0.638142 0.862735 0.318517
0.816142 0.883726 0.300004
0.936204 0.897072 0.322126
0.076926 0.123142 0.345336
0.384746 0.222241 0.337743
0.695374 0.341570 0.329630
0.862238 0.445624 0.336747
0.899732 0.490236 0.344006
0.100389 0.341488 0.419313
0.382246 0.407258 0.405372
0.677708 0.487137 0.386051
0.857704 0.560311 0.380243
0.913023 0.596101 0.383124
0.212471 0.599884 0.500830
0.404180 0.622991 0.476626
0.659850 0.661658 0.443012
0.851295 0.700525 0.424806
0.927693 0.718789 0.426782
0.392330 0.791771 0.552342
0.483313 0.791681 0.527414
0.662884 0.804165 0.491935
0.841117 0.821343 0.469839
0.937000 0.829435 0.475285
0.568020 0.876888 0.572707
0.600204 0.875242 0.554068
0.699059 0.880708 0.530008
0.834050 0.891699 0.515125
0.936724 0.899825 0.523567
0.131852 0.246845 0.544167
0.444397 0.351825 0.547104
0.725736 0.464894 0.550021
0.875177 0.556052 0.556598
0.910554 0.590484 0.558882
0.195250 0.488108 0.627071
0.436927 0.538089 0.621110
0.699286 0.602887 0.611832
0.867867 0.659354 0.606411
0.922944 0.683778 0.605206
0.351958 0.712457 0.696805
0.498695 0.721350 0.683434
0.701282 0.743387 0.665338
0.862679 0.766374 0.653157
0.934065 0.776774 0.652964
0.536927 0.846861 0.732516
0.599270 0.842500 0.720149
0.725145 0.844583 0.703332
0.858036 0.850012 0.692111
0.939604 0.853288 0.696323
0.674404 0.895726 0.743525
0.695604 0.893310 0.735025
0.762665 0.893961 0.726802
0.858107 0.897581 0.722573
0.939009 0.901445 0.727893
0.192387 0.399775 0.683362
0.496506 0.514794 0.705437
0.747929 0.608679 0.722075
0.886222 0.675384 0.733176
0.922158 0.696254 0.733736
0.308933 0.618230 0.755529
0.511153 0.659244 0.758080
0.729683 0.707027 0.761683
0.878003 0.746249 0.764665
0.930291 0.760648 0.764346
0.486910 0.786168 0.805313
0.591227 0.788728 0.800327
0.743107 0.801629 0.796600
0.874072 0.816735 0.795624
0.937287 0.824762 0.798517
0.651154 0.873891 0.828375
0.688269 0.868190 0.823728
0.774355 0.867402 0.819943
0.874144 0.870403 0.820086
0.940955 0.874781 0.827473
0.748824 0.903149 0.835102
0.761735 0.900311 0.831880
0.808749 0.899812 0.831955
0.879074 0.901117 0.835752
0.941533 0.903375 0.845009
