Assets/1__3DArt/KimSe/artstation_asset/LUTs_pasterls/CUBE/Orange Cream 03 S.cube
# Enhanced with VOXCOLOR algorithms
LUT_3D_SIZE 8
DOMAIN_MIN 0.000000 0.000000 0.000000
DOMAIN_MAX 0.903226 0.903226 0.903226
0.066667 0.117647 0.043137
0.189202 0.128982 0.044538
0.340588 0.139290 0.041743
0.495375 0.148342 0.035192
0.632161 0.155864 0.025802
0.726031 0.160831 0.016402
0.777086 0.162270 0.010712
0.801292 0.160198 0.008193
0.072707 0.132894 0.047067
0.177659 0.148963 0.047528
0.312943 0.165410 0.043806
0.457153 0.180520 0.036855
0.591953 0.192932 0.027948
0.695791 0.201078 0.020136
0.762753 0.204527 0.016299
0.799421 0.203199 0.015442
0.084575 0.164381 0.058446
0.173481 0.183917 0.057218
0.294380 0.206546 0.051791
0.429239 0.228406 0.043624
0.562127 0.246298 0.034376
0.673529 0.256449 0.027497
0.752292 0.258422 0.025341
0.798410 0.253719 0.026374
0.103542 0.211783 0.076551
0.177408 0.231582 0.073038
0.284960 0.257700 0.065738
0.411066 0.284349 0.056322
0.541745 0.306563 0.046586
0.658533 0.318027 0.040089
0.745622 0.317737 0.038746
0.798753 0.309056 0.040697
0.130252 0.273745 0.100247
0.189693 0.289450 0.094112
0.284335 0.314425 0.085310
0.401686 0.341909 0.075265
0.529460 0.365916 0.065485
0.649674 0.378393 0.059000
0.742357 0.377261 0.057130
0.800767 0.366841 0.058132
0.165107 0.347206 0.127232
0.210782 0.354610 0.118929
0.292339 0.372573 0.109723
0.399966 0.395186 0.100426
0.523174 0.417022 0.091840
0.644771 0.430464 0.085496
0.741393 0.432069 0.081546
0.804682 0.424909 0.078988
0.202123 0.417811 0.151796
0.235766 0.418004 0.142873
0.304195 0.427925 0.134481
0.400662 0.443719 0.127236
0.517031 0.461634 0.121451
0.638315 0.476088 0.116779
0.739059 0.482475 0.110973
0.808619 0.481191 0.103516
0.235867 0.473382 0.171841
0.259789 0.470835 0.163328
0.315703 0.476015 0.156516
0.400283 0.487273 0.152480
0.508255 0.502672 0.151492
0.628156 0.518691 0.151504
0.733679 0.529717 0.146034
0.810860 0.533735 0.133700
0.074510 0.138563 0.108367
0.196305 0.150772 0.114978
0.343112 0.158653 0.115183
0.491060 0.162256 0.109185
0.620316 0.162104 0.097706
0.708479 0.160125 0.082810
0.757099 0.158982 0.069540
0.780700 0.157417 0.060125
0.079222 0.159810 0.117124
0.193422 0.177423 0.123821
0.325904 0.191091 0.125620
0.461026 0.200317 0.122682
0.585513 0.205132 0.115480
0.683466 0.206672 0.105109
0.750197 0.207419 0.093914
0.788862 0.206885 0.082235
0.091410 0.197407 0.135085
0.190681 0.219049 0.140049
0.309648 0.239525 0.140658
0.436086 0.256378 0.137494
0.559289 0.267897 0.131290
0.666103 0.272887 0.123193
0.747557 0.273305 0.114264
0.800678 0.270204 0.103660
0.111651 0.250161 0.160412
0.192765 0.272734 0.162262
0.298546 0.298098 0.160056
0.417970 0.321651 0.154828
0.540991 0.339723 0.147646
0.655030 0.348443 0.140017
0.747874 0.348827 0.132589
0.813941 0.343396 0.124116
0.139981 0.315979 0.190963
0.202973 0.335267 0.188874
0.295539 0.361337 0.183361
0.407648 0.388292 0.175596
0.529651 0.411157 0.166717
0.648733 0.424093 0.158279
0.749777 0.426712 0.150861
0.826531 0.422151 0.143611
0.176177 0.390683 0.223021
0.223351 0.401990 0.217439
0.302517 0.422429 0.209845
0.405553 0.446851 0.200991
0.523954 0.470683 0.191521
0.645091 0.488217 0.181954
0.750990 0.497121 0.172345
0.834991 0.499007 0.163114
0.213794 0.460206 0.249897
0.248230 0.463638 0.242970
0.314389 0.475859 0.235773
0.406815 0.494017 0.228688
0.518930 0.515341 0.221706
0.639464 0.536107 0.213254
0.747875 0.552115 0.200946
0.835757 0.561851 0.186305
0.247039 0.514085 0.269318
0.272166 0.513799 0.263011
0.326487 0.520129 0.258097
0.407674 0.532460 0.255390
0.511638 0.549867 0.254682
0.629562 0.570702 0.251957
0.738823 0.589789 0.239195
0.827754 0.603292 0.217154
0.079368 0.165278 0.190373
0.200333 0.180703 0.202550
0.344084 0.189354 0.206943
0.487205 0.190855 0.202924
0.610454 0.185785 0.190637
0.692733 0.177466 0.171482
0.737397 0.172168 0.152535
0.759078 0.169440 0.138553
0.083675 0.193882 0.203631
0.198945 0.212981 0.215874
0.328967 0.225476 0.222853
0.459576 0.231082 0.223624
0.578843 0.230288 0.217743
0.672511 0.225548 0.204925
0.737139 0.222110 0.188401
0.775803 0.220337 0.170412
0.096493 0.238566 0.226618
0.197545 0.260383 0.236617
0.314596 0.278295 0.242398
0.437099 0.290600 0.243477
0.555901 0.296421 0.239641
0.659930 0.296058 0.230462
0.741988 0.293468 0.217220
0.799487 0.290076 0.200514
0.117917 0.297070 0.256576
0.200745 0.319171 0.262668
0.304941 0.341444 0.264942
0.420960 0.360419 0.263595
0.540249 0.373529 0.258921
0.652765 0.378608 0.251022
0.749056 0.377990 0.240502
0.824597 0.373879 0.227240
0.147586 0.366468 0.290644
0.211821 0.385398 0.291902
0.302830 0.408866 0.289792
0.411806 0.432275 0.284956
0.530471 0.451856 0.278023
0.648930 0.463561 0.269517
0.755771 0.467692 0.260036
0.846340 0.466412 0.249678
0.184960 0.441566 0.324420
0.232892 0.453160 0.321340
0.310337 0.472352 0.316057
0.410233 0.495262 0.309000
0.525360 0.518452 0.300505
0.646168 0.537843 0.290442
0.758873 0.551083 0.279177
0.858611 0.558265 0.268088
0.223318 0.509174 0.351521
0.258313 0.513265 0.346392
0.322760 0.525277 0.340797
0.412112 0.543580 0.334799
0.520939 0.566479 0.328102
0.640867 0.591867 0.318589
0.755483 0.615031 0.304381
0.858247 0.632352 0.288165
0.256574 0.560527 0.370167
0.282535 0.560830 0.365139
0.335505 0.567081 0.361470
0.413871 0.579758 0.359639
0.514486 0.599004 0.359102
0.630955 0.625263 0.355098
0.744352 0.653448 0.339839
0.844991 0.677137 0.315516
0.081374 0.198613 0.282935
0.201627 0.219887 0.300900
0.343733 0.232749 0.310190
0.484125 0.235877 0.309166
0.603550 0.229320 0.297291
0.681191 0.216397 0.275503
0.721907 0.206520 0.253164
0.741303 0.201469 0.237018
0.085744 0.234966 0.299767
0.197731 0.256770 0.316792
0.326186 0.270777 0.328446
0.455832 0.276026 0.332625
0.573798 0.272615 0.328009
0.664779 0.262951 0.313404
0.726368 0.254670 0.293773
0.763788 0.250023 0.273497
0.099098 0.286688 0.325698
0.197205 0.308590 0.339618
0.313030 0.325318 0.349764
0.435087 0.335137 0.354545
0.553410 0.337237 0.352848
0.656034 0.332162 0.343171
0.737025 0.325466 0.327939
0.796428 0.319828 0.309662
0.121372 0.350449 0.357453
0.202744 0.370888 0.366785
0.306057 0.389984 0.373054
0.421439 0.404910 0.375521
0.540098 0.413676 0.373681
0.651975 0.414764 0.366607
0.749461 0.411354 0.355536
0.830639 0.406170 0.341814
0.152092 0.422535 0.391854
0.216165 0.439158 0.395850
0.306441 0.458668 0.397307
0.414311 0.477577 0.396158
0.531806 0.493048 0.392407
0.649999 0.501993 0.385748
0.759956 0.504918 0.377067
0.859269 0.503795 0.367408
0.190762 0.496934 0.424423
0.238928 0.506805 0.423653
0.315462 0.522903 0.421341
0.413728 0.542523 0.417446
0.527093 0.563193 0.411893
0.647637 0.581819 0.404049
0.764448 0.595679 0.394515
0.874403 0.604102 0.385167
0.230490 0.561762 0.449817
0.265716 0.565032 0.446428
0.329009 0.575426 0.442989
0.416317 0.592339 0.439253
0.522894 0.614923 0.434691
0.642267 0.642084 0.427060
0.761031 0.668437 0.415013
0.874084 0.689051 0.401550
0.264724 0.609822 0.466978
0.290990 0.609790 0.462942
0.342810 0.615332 0.460507
0.418992 0.627792 0.459859
0.517019 0.648141 0.460283
0.632332 0.678410 0.457178
0.749034 0.713405 0.443904
0.858916 0.744628 0.423244
0.080845 0.239110 0.380065
0.200574 0.268839 0.403717
0.342203 0.289249 0.418109
0.481901 0.297796 0.420756
0.600163 0.293596 0.410559
0.675669 0.278798 0.388202
0.713864 0.265070 0.365037
0.731520 0.257163 0.349029
0.085321 0.282679 0.398936
0.192853 0.309239 0.419842
0.320960 0.328082 0.435508
0.452189 0.336873 0.442852
0.571710 0.334617 0.439835
0.661700 0.322392 0.424716
0.720293 0.309571 0.404386
0.755944 0.301009 0.385244
0.098830 0.340447 0.425338
0.192526 0.363726 0.442084
0.308265 0.381982 0.455824
0.432377 0.392617 0.463971
0.552902 0.394096 0.464629
0.655211 0.385897 0.455540
0.733988 0.374647 0.440568
0.793028 0.365102 0.424263
0.121502 0.408172 0.455996
0.200264 0.427429 0.467654
0.303738 0.445081 0.477501
0.420673 0.458177 0.483878
0.540994 0.464557 0.485507
0.652841 0.462100 0.480609
0.749441 0.454453 0.471194
0.832190 0.445821 0.460165
0.153060 0.481521 0.487861
0.216326 0.495590 0.494037
0.306852 0.511778 0.499188
0.415436 0.527066 0.502480
0.533585 0.538924 0.503238
0.651725 0.544130 0.500351
0.762102 0.543235 0.494836
0.864723 0.539130 0.488558
0.193446 0.553968 0.516839
0.241466 0.561514 0.518172
0.317908 0.574312 0.519371
0.415973 0.590304 0.519899
0.528962 0.607481 0.519228
0.649217 0.622861 0.516227
0.767298 0.633530 0.511268
0.881591 0.639323 0.506256
0.235616 0.615222 0.538900
0.270618 0.617129 0.537260
0.333214 0.625464 0.536575
0.419443 0.640142 0.536383
0.524769 0.660705 0.535994
0.643507 0.686244 0.533251
0.763881 0.711080 0.526862
0.881739 0.730424 0.519326
0.272156 0.659424 0.553578
0.298039 0.658730 0.550691
0.348793 0.663399 0.549937
0.423380 0.675213 0.551348
0.519566 0.695519 0.554214
0.633767 0.726907 0.554677
0.751877 0.764009 0.547391
0.866511 0.797712 0.534812
0.078467 0.288263 0.473435
0.197484 0.328323 0.501296
0.339126 0.358838 0.520073
0.479923 0.376290 0.526941
0.600420 0.378857 0.520517
0.678378 0.366743 0.501080
0.717831 0.352067 0.480315
0.735845 0.342199 0.466411
0.082516 0.336960 0.491337
0.187042 0.370435 0.514543
0.315959 0.397551 0.533165
0.450246 0.414347 0.543659
0.573479 0.418335 0.543604
0.665148 0.408137 0.530855
0.722641 0.393335 0.513086
0.756997 0.381420 0.497812
0.095654 0.398245 0.515043
0.186362 0.425065 0.533200
0.303310 0.448621 0.549554
0.430904 0.464834 0.560953
0.555278 0.470760 0.565005
0.658664 0.463465 0.558905
0.735119 0.449439 0.547129
0.791585 0.435867 0.535507
0.118457 0.467323 0.541678
0.195295 0.487317 0.554555
0.300076 0.507089 0.567319
0.420013 0.522721 0.577704
0.543477 0.531054 0.583866
0.655856 0.527966 0.583331
0.749746 0.516743 0.578190
0.829230 0.503711 0.572267
0.151065 0.539591 0.568626
0.213483 0.552575 0.576224
0.305143 0.568271 0.584822
0.415821 0.583243 0.593043
0.535975 0.594433 0.599672
0.654088 0.597206 0.602875
0.761916 0.591796 0.603098
0.861265 0.582926 0.602426
0.194282 0.608598 0.592475
0.241637 0.614680 0.595469
0.318489 0.625832 0.600304
0.417420 0.639855 0.606158
0.531113 0.654512 0.612177
0.650801 0.665925 0.616787
0.766749 0.671208 0.619292
0.878277 0.671896 0.620924
0.240801 0.665839 0.610324
0.274658 0.666704 0.610266
0.336544 0.673552 0.612728
0.422268 0.686165 0.617270
0.527047 0.703900 0.623189
0.644688 0.725137 0.628500
0.763150 0.744458 0.631020
0.878572 0.758782 0.631869
0.281528 0.706382 0.621895
0.305897 0.705029 0.620299
0.355196 0.708913 0.621839
0.428372 0.719668 0.626620
0.523146 0.738425 0.634101
0.635720 0.766985 0.641363
0.751721 0.799884 0.643530
0.863621 0.829516 0.641642
0.075126 0.341964 0.553892
0.192574 0.391689 0.583552
0.333601 0.432077 0.605447
0.476090 0.459431 0.616986
0.601260 0.471479 0.616734
0.686029 0.466419 0.604097
0.730887 0.454539 0.588616
0.751738 0.444325 0.577739
0.079209 0.394321 0.568892
0.181510 0.434048 0.592531
0.310789 0.469550 0.612909
0.447851 0.495873 0.626652
0.575751 0.509390 0.631314
0.672085 0.506166 0.624283
0.731709 0.493927 0.611891
0.766013 0.481423 0.601288
0.092533 0.456671 0.588176
0.181023 0.486922 0.606270
0.298675 0.516684 0.624060
0.429165 0.540775 0.638409
0.557642 0.555025 0.646810
0.663869 0.553990 0.646068
0.739497 0.542326 0.639673
0.792169 0.528351 0.633282
0.116036 0.524393 0.609491
0.190932 0.545689 0.622402
0.296328 0.569269 0.636927
0.418676 0.590383 0.650679
0.545327 0.604900 0.661598
0.659055 0.606619 0.666764
0.749848 0.597165 0.667309
0.822184 0.583787 0.666862
0.150248 0.593238 0.630826
0.210933 0.606151 0.638878
0.302825 0.623451 0.649838
0.415089 0.641244 0.662167
0.537321 0.655873 0.674398
0.655609 0.661235 0.684247
0.758982 0.656314 0.691015
0.849088 0.646619 0.696328
0.196961 0.657639 0.649676
0.242384 0.663149 0.653541
0.318679 0.674388 0.661121
0.418047 0.688913 0.671578
0.532555 0.704148 0.683932
0.651522 0.715278 0.696378
0.762581 0.718900 0.706830
0.864363 0.717503 0.715511
0.248571 0.710825 0.663853
0.280146 0.711102 0.664808
0.340509 0.717368 0.669873
0.425387 0.729123 0.678794
0.529675 0.745407 0.690952
0.645782 0.763775 0.704568
0.759172 0.778906 0.716192
0.864867 0.789243 0.725391
0.293753 0.748245 0.672713
0.315994 0.746393 0.672122
0.363378 0.749725 0.675835
0.434956 0.759475 0.684151
0.528339 0.776307 0.696726
0.638718 0.800730 0.711373
0.749443 0.827155 0.722905
0.851582 0.850196 0.730699
0.070638 0.393992 0.618620
0.185731 0.452209 0.648988
0.325228 0.501071 0.673216
0.469164 0.537715 0.689543
0.599976 0.560100 0.696842
0.693914 0.564667 0.693604
0.746645 0.558080 0.685625
0.771876 0.548354 0.678646
0.077102 0.451724 0.631953
0.176162 0.495115 0.654689
0.304090 0.536517 0.675773
0.442616 0.570956 0.692479
0.575120 0.594396 0.702638
0.678121 0.601053 0.703227
0.742580 0.595290 0.697753
0.778177 0.585148 0.691755
0.092414 0.514643 0.647246
0.177203 0.545843 0.663968
0.293257 0.579528 0.681950
0.424702 0.610345 0.698435
0.556620 0.633671 0.711045
0.667181 0.642711 0.716297
0.743944 0.639194 0.715622
0.792649 0.630267 0.713473
0.117719 0.579516 0.663375
0.188622 0.600404 0.675140
0.291926 0.626350 0.690042
0.414478 0.652640 0.705807
0.543462 0.674953 0.720327
0.659588 0.686457 0.730335
0.748002 0.686355 0.735484
0.810711 0.680250 0.738693
0.153804 0.643419 0.679338
0.210234 0.655320 0.686791
0.299476 0.673721 0.698634
0.411182 0.695034 0.713267
0.534799 0.715716 0.729053
0.654067 0.729681 0.743281
0.752372 0.734003 0.754137
0.828220 0.732267 0.762930
0.203122 0.702314 0.693843
0.244308 0.706714 0.697674
0.317642 0.718131 0.706580
0.415847 0.734445 0.719681
0.530897 0.753278 0.735860
0.649841 0.770062 0.752986
0.754427 0.780143 0.767976
0.839638 0.784467 0.780715
0.257865 0.750772 0.705075
0.286026 0.750279 0.706453
0.343696 0.756289 0.713018
0.427083 0.768366 0.724622
0.531059 0.785557 0.740667
0.646188 0.805344 0.759345
0.752668 0.821906 0.776306
0.841816 0.833345 0.790415
0.304949 0.784405 0.711716
0.325462 0.782364 0.711945
0.371151 0.785548 0.717166
0.441443 0.794917 0.727886
0.533973 0.810805 0.743920
0.642647 0.832795 0.763425
0.746986 0.855001 0.780798
0.835157 0.873356 0.794508
