Assets/1__3DArt/KimSe/artstation_asset/LUTs_pasterls/CUBE/Orange Cream 02 S.cube
# Enhanced with VOXCOLOR algorithms
LUT_3D_SIZE 5
DOMAIN_MIN 0.000000 0.000000 0.000000
DOMAIN_MAX 0.903226 0.903226 0.903226
0.035294 0.078431 0.039216
0.390312 0.125437 0.076438
0.688351 0.187030 0.130442
0.870201 0.243738 0.181604
0.931522 0.263313 0.207205
0.042220 0.328597 0.076812
0.339474 0.324433 0.070477
0.598888 0.321898 0.074601
0.794739 0.335988 0.098136
0.911942 0.361558 0.138989
0.091567 0.572471 0.127158
0.319910 0.544165 0.098490
0.556566 0.511112 0.066994
0.770005 0.495230 0.061555
0.919058 0.499865 0.094137
0.221909 0.777437 0.216500
0.361582 0.746786 0.173974
0.563433 0.711534 0.115408
0.775891 0.684782 0.085850
0.931894 0.667690 0.111880
0.420390 0.904314 0.359781
0.482731 0.888554 0.313752
0.611190 0.866952 0.237007
0.777506 0.846547 0.188498
0.927448 0.826595 0.214578
0.096258 0.136992 0.198291
0.408311 0.159618 0.212752
0.683583 0.181882 0.233340
0.866860 0.209886 0.251938
0.943446 0.229712 0.259209
0.072967 0.360823 0.245044
0.356955 0.347471 0.230713
0.581973 0.321622 0.230120
0.768207 0.315549 0.238345
0.910428 0.339281 0.251430
0.107195 0.587859 0.288245
0.320869 0.556505 0.259796
0.530406 0.512470 0.240343
0.731697 0.487526 0.234215
0.908365 0.491037 0.242294
0.225803 0.779857 0.329294
0.354363 0.752439 0.302796
0.536451 0.715319 0.271882
0.735647 0.687313 0.251890
0.917113 0.674512 0.255904
0.399134 0.898596 0.397423
0.466098 0.890319 0.384022
0.595110 0.875339 0.349064
0.757978 0.860682 0.315522
0.919913 0.849236 0.317823
0.132732 0.189964 0.369103
0.422984 0.207625 0.366024
0.687691 0.217171 0.370047
0.872977 0.228147 0.368701
0.951330 0.236263 0.362954
0.092252 0.382916 0.412368
0.358343 0.380590 0.399744
0.585581 0.357643 0.399423
0.776645 0.342211 0.401022
0.919730 0.349471 0.399851
0.119739 0.599727 0.455671
0.325568 0.578500 0.433154
0.533798 0.540437 0.423737
0.731252 0.509245 0.424420
0.910494 0.499079 0.428764
0.233177 0.783447 0.472683
0.359736 0.763445 0.454173
0.535231 0.732113 0.443671
0.724325 0.701985 0.443484
0.912177 0.684847 0.450340
0.392601 0.894387 0.480099
0.460664 0.891380 0.478261
0.589473 0.884619 0.477347
0.749310 0.877632 0.475619
0.916973 0.874762 0.480648
0.144973 0.233235 0.530603
0.429252 0.258993 0.526476
0.689956 0.273609 0.528087
0.875181 0.281397 0.524804
0.949770 0.278156 0.517952
0.099008 0.394264 0.564812
0.358928 0.416513 0.557614
0.603279 0.417906 0.557553
0.801173 0.407591 0.559271
0.926953 0.396114 0.559541
0.124321 0.600117 0.605991
0.330794 0.600268 0.590144
0.554201 0.586915 0.585952
0.754231 0.561733 0.595342
0.915525 0.536514 0.610123
0.234740 0.780788 0.619274
0.365686 0.771854 0.602960
0.548999 0.756124 0.601276
0.736681 0.731375 0.621378
0.913261 0.708191 0.648124
0.386686 0.887908 0.599992
0.458305 0.888815 0.593245
0.592783 0.890697 0.605449
0.755182 0.891540 0.637072
0.918616 0.892985 0.672036
0.138732 0.259766 0.652629
0.417129 0.296490 0.668828
0.674884 0.319320 0.677449
0.861821 0.335564 0.684731
0.936629 0.335015 0.685096
0.095848 0.397639 0.686752
0.351098 0.436982 0.688087
0.607650 0.463606 0.688170
0.811680 0.473596 0.693255
0.919969 0.465210 0.701130
0.115673 0.583807 0.720648
0.321058 0.600895 0.710669
0.561209 0.619082 0.706795
0.772866 0.625097 0.718497
0.909869 0.615731 0.742308
0.221442 0.762253 0.736420
0.353496 0.761797 0.721277
0.552942 0.769266 0.718507
0.755924 0.774307 0.746620
0.910949 0.773034 0.793332
0.373671 0.878015 0.724349
0.448284 0.880227 0.709102
0.594874 0.890136 0.713654
0.769677 0.903872 0.761690
0.921406 0.916391 0.835236
