Assets/1__3DArt/KimSe/artstation_asset/LUTs_pasterls/CUBE/Orange Cream 04 S.cube
# Enhanced with VOXCOLOR algorithms
LUT_3D_SIZE 8
DOMAIN_MIN 0.000000 0.000000 0.000000
DOMAIN_MAX 0.903226 0.903226 0.903226
0.066667 0.117647 0.047059
0.201799 0.128795 0.044570
0.362259 0.136892 0.037968
0.521142 0.142587 0.028480
0.656433 0.146472 0.017565
0.744255 0.148917 0.008343
0.789036 0.150197 0.003082
0.808194 0.149982 0.000600
0.071376 0.135090 0.047460
0.184663 0.150297 0.045337
0.326928 0.164908 0.039324
0.475196 0.177559 0.030651
0.610227 0.187220 0.020759
0.710703 0.192721 0.012714
0.773895 0.194158 0.008642
0.808168 0.191793 0.007293
0.084564 0.171898 0.056902
0.177974 0.189301 0.053465
0.303889 0.209690 0.046636
0.442491 0.229184 0.037663
0.576624 0.244557 0.027981
0.686291 0.251899 0.020683
0.762609 0.250863 0.017685
0.807488 0.243527 0.017564
0.106924 0.226394 0.074506
0.182153 0.242755 0.068718
0.293125 0.265970 0.060482
0.422666 0.289982 0.050881
0.555211 0.309562 0.041180
0.671057 0.317958 0.034246
0.755916 0.314052 0.031668
0.807597 0.301842 0.032000
0.138299 0.295604 0.098706
0.196931 0.307122 0.090284
0.293998 0.328793 0.080847
0.414722 0.353444 0.071038
0.544887 0.374677 0.061658
0.664387 0.383770 0.054838
0.754089 0.378485 0.051627
0.809664 0.363888 0.050939
0.177124 0.372628 0.125574
0.221562 0.376888 0.115899
0.305625 0.392398 0.106862
0.417177 0.412841 0.098466
0.543595 0.432362 0.090777
0.664587 0.442456 0.084314
0.756868 0.439521 0.079057
0.815048 0.427584 0.075019
0.214414 0.439915 0.147371
0.248159 0.439716 0.138695
0.320399 0.449467 0.132202
0.422204 0.465006 0.127486
0.543259 0.482192 0.123904
0.664646 0.494335 0.119648
0.760019 0.496495 0.112321
0.822178 0.490240 0.103385
0.244524 0.486612 0.161816
0.270268 0.486352 0.154604
0.331995 0.494141 0.151821
0.424147 0.507944 0.152947
0.539111 0.525319 0.156695
0.660788 0.541224 0.158356
0.760782 0.549237 0.150880
0.828745 0.548801 0.136706
0.072680 0.139219 0.119191
0.203038 0.151955 0.123851
0.357199 0.157930 0.119862
0.509279 0.157949 0.108252
0.638246 0.153314 0.090599
0.721851 0.147190 0.070432
0.765502 0.143806 0.053720
0.785455 0.142267 0.042559
0.077975 0.165015 0.126963
0.198316 0.181220 0.130441
0.336153 0.192489 0.128343
0.474434 0.198681 0.121226
0.599048 0.200155 0.109929
0.694235 0.198424 0.096056
0.758062 0.196397 0.081918
0.795104 0.193841 0.067537
0.092708 0.208841 0.143648
0.195204 0.227311 0.144877
0.317532 0.244457 0.142010
0.446250 0.258045 0.135759
0.569852 0.266511 0.126907
0.675038 0.268635 0.116511
0.754693 0.266128 0.105083
0.807096 0.260143 0.091481
0.117118 0.268574 0.167898
0.198709 0.286657 0.166041
0.306150 0.307746 0.160860
0.427160 0.327471 0.153354
0.550742 0.342273 0.144468
0.663669 0.348110 0.135287
0.754870 0.345459 0.125753
0.820058 0.336860 0.114494
0.150676 0.340941 0.197713
0.212155 0.355171 0.192391
0.305254 0.376442 0.184516
0.418564 0.399125 0.175135
0.541264 0.418368 0.165170
0.659219 0.428099 0.155583
0.757884 0.427381 0.146357
0.832619 0.419458 0.136845
0.191504 0.418590 0.228315
0.236841 0.425864 0.220747
0.316595 0.442288 0.211959
0.421187 0.462950 0.202477
0.540735 0.483367 0.192631
0.660449 0.497462 0.182114
0.762430 0.502530 0.170647
0.842318 0.500615 0.159514
0.230500 0.484882 0.251417
0.264406 0.486607 0.244181
0.332589 0.497007 0.237775
0.428043 0.513292 0.232020
0.542589 0.532618 0.226245
0.661846 0.550556 0.217298
0.764754 0.562606 0.202591
0.846043 0.568151 0.185856
0.261519 0.530344 0.264608
0.287710 0.530474 0.258990
0.346245 0.537619 0.257144
0.432930 0.550877 0.258669
0.541678 0.568907 0.261981
0.659528 0.588746 0.259983
0.762462 0.604651 0.244125
0.842519 0.614142 0.219599
0.076748 0.167453 0.205628
0.203255 0.183950 0.216863
0.352334 0.190756 0.216816
0.498857 0.188233 0.205626
0.622437 0.177774 0.184406
0.701537 0.164062 0.156637
0.742441 0.155211 0.131773
0.761443 0.151226 0.114694
0.082868 0.201842 0.219433
0.202681 0.219660 0.228557
0.336601 0.229354 0.230760
0.469424 0.231176 0.225703
0.588594 0.226121 0.213558
0.679898 0.217274 0.194998
0.742127 0.210441 0.173821
0.779505 0.206069 0.151887
0.099032 0.253016 0.241624
0.202782 0.271643 0.247614
0.322133 0.285602 0.248781
0.445793 0.293741 0.245156
0.564172 0.295618 0.236927
0.666319 0.291846 0.223990
0.746659 0.286191 0.207246
0.803477 0.279876 0.186737
0.125283 0.318095 0.270280
0.208785 0.335704 0.272370
0.313785 0.353014 0.270534
0.430061 0.367204 0.265411
0.548609 0.376179 0.257580
0.659292 0.378013 0.247153
0.753802 0.374534 0.234049
0.828466 0.367616 0.217677
0.160918 0.393280 0.303027
0.224224 0.407213 0.300898
0.314936 0.425203 0.295439
0.423518 0.443364 0.287652
0.541123 0.458445 0.278366
0.657337 0.466650 0.267965
0.761560 0.467799 0.256467
0.850260 0.463796 0.243828
0.203911 0.470686 0.334883
0.250603 0.478185 0.329674
0.327699 0.492636 0.322311
0.427280 0.510768 0.313417
0.541351 0.529585 0.303377
0.659181 0.545154 0.291638
0.767601 0.554908 0.278301
0.863575 0.559036 0.265303
0.244833 0.534950 0.358161
0.279588 0.536896 0.352414
0.344974 0.546199 0.346654
0.435326 0.561533 0.340765
0.544100 0.581376 0.334114
0.660771 0.603367 0.323341
0.769239 0.622744 0.306455
0.865773 0.636526 0.288047
0.277021 0.578207 0.370690
0.303831 0.578039 0.365998
0.359776 0.583984 0.364330
0.441618 0.596378 0.365386
0.544529 0.615108 0.367611
0.658705 0.639655 0.363536
0.764787 0.664627 0.344968
0.856667 0.684721 0.318067
0.079274 0.202988 0.299771
0.203341 0.225730 0.316947
0.348820 0.236647 0.321690
0.491333 0.235281 0.313021
0.611021 0.222619 0.291331
0.686403 0.203521 0.259763
0.724259 0.189389 0.230604
0.741620 0.182291 0.210756
0.086064 0.245684 0.318112
0.201973 0.266719 0.332430
0.333218 0.277651 0.339042
0.464051 0.278340 0.336629
0.581361 0.269660 0.324670
0.669927 0.255003 0.303240
0.729164 0.242813 0.278277
0.765267 0.235287 0.253753
0.103352 0.303795 0.343810
0.204565 0.323107 0.354193
0.322200 0.335604 0.359380
0.444474 0.340427 0.358585
0.561359 0.337518 0.351388
0.661322 0.328171 0.337019
0.740086 0.318059 0.317863
0.798410 0.309547 0.295791
0.131214 0.373560 0.374494
0.214434 0.390173 0.380270
0.318417 0.404120 0.382071
0.433046 0.413524 0.379908
0.549500 0.417167 0.373865
0.658198 0.414234 0.363477
0.753055 0.407759 0.349602
0.832835 0.400017 0.332982
0.168940 0.450598 0.407579
0.233633 0.462914 0.408587
0.323559 0.476874 0.406368
0.429816 0.489939 0.401482
0.544332 0.500044 0.394411
0.658464 0.504816 0.385164
0.764769 0.504674 0.374343
0.861746 0.501197 0.362649
0.214455 0.526546 0.438311
0.262810 0.532871 0.435656
0.338764 0.544155 0.430882
0.435197 0.558465 0.424356
0.545162 0.573968 0.416292
0.660515 0.588163 0.406098
0.771919 0.598517 0.394386
0.877824 0.604314 0.383288
0.257731 0.587693 0.460334
0.293667 0.589042 0.456314
0.357368 0.596479 0.452080
0.443921 0.609816 0.447440
0.547850 0.628540 0.441790
0.661514 0.651704 0.432200
0.772964 0.674257 0.417462
0.879652 0.691744 0.401937
0.291470 0.627888 0.471998
0.318870 0.627230 0.468227
0.372789 0.631914 0.466864
0.450574 0.643289 0.467688
0.548316 0.662237 0.469380
0.658894 0.690194 0.465423
0.767089 0.721934 0.449049
0.868070 0.749846 0.425986
0.080697 0.246235 0.395544
0.204045 0.277725 0.417925
0.347482 0.296038 0.427862
0.487663 0.299768 0.423426
0.605384 0.289165 0.404314
0.678842 0.267980 0.373111
0.714611 0.249788 0.343811
0.730619 0.239472 0.324405
0.087726 0.296362 0.416686
0.199814 0.322820 0.435324
0.330085 0.338442 0.446210
0.461375 0.342035 0.447109
0.579191 0.333666 0.436846
0.666095 0.315712 0.415033
0.721878 0.298589 0.389701
0.755879 0.287095 0.366861
0.105763 0.360285 0.443686
0.203998 0.381856 0.457697
0.321582 0.395856 0.466784
0.445027 0.400831 0.469272
0.562744 0.396269 0.464086
0.660997 0.382819 0.449983
0.736459 0.367673 0.431187
0.793651 0.355319 0.411686
0.135070 0.433396 0.473983
0.217676 0.449820 0.482929
0.322213 0.462484 0.488599
0.437528 0.469546 0.490158
0.553901 0.469823 0.487045
0.660581 0.462328 0.478293
0.753044 0.451116 0.466019
0.833411 0.440005 0.452585
0.175037 0.510794 0.505013
0.241102 0.521589 0.508946
0.331728 0.532572 0.510671
0.437674 0.541730 0.510003
0.550711 0.547427 0.506841
0.662326 0.547539 0.500744
0.767289 0.543113 0.492927
0.866554 0.536706 0.484898
0.223585 0.583841 0.532498
0.273690 0.588769 0.532500
0.349781 0.597157 0.531365
0.444740 0.607710 0.528954
0.551876 0.619125 0.525107
0.664182 0.629317 0.519113
0.775033 0.636108 0.511800
0.884381 0.639332 0.505153
0.269806 0.640823 0.551763
0.306868 0.641482 0.549802
0.369772 0.647115 0.548152
0.453782 0.658062 0.546445
0.553894 0.674257 0.544051
0.664145 0.695197 0.538663
0.775521 0.715978 0.529555
0.886345 0.732286 0.520072
0.305576 0.677303 0.561859
0.333297 0.676320 0.559445
0.385652 0.680059 0.559182
0.460236 0.690396 0.560901
0.553670 0.708710 0.563598
0.660619 0.737257 0.562386
0.768810 0.770928 0.552240
0.874093 0.801390 0.537441
0.081675 0.298786 0.484932
0.206221 0.340984 0.511285
0.348914 0.369451 0.526276
0.488386 0.382248 0.527722
0.606728 0.378951 0.514946
0.681952 0.361156 0.489504
0.718816 0.342368 0.464659
0.735201 0.330109 0.448456
0.088403 0.353982 0.506015
0.199736 0.388085 0.527454
0.330855 0.412124 0.542151
0.463982 0.423591 0.547369
0.583848 0.421299 0.541478
0.671040 0.405302 0.523501
0.724792 0.386240 0.502039
0.756902 0.371628 0.484280
0.107105 0.421216 0.531442
0.204823 0.447231 0.547715
0.324116 0.466801 0.560305
0.450103 0.477138 0.566849
0.569820 0.476484 0.565702
0.667109 0.463362 0.555115
0.738671 0.445182 0.540183
0.792224 0.428980 0.526345
0.138111 0.495177 0.558733
0.221292 0.513320 0.569855
0.327814 0.528524 0.579291
0.445245 0.537980 0.585420
0.562664 0.539576 0.587028
0.667283 0.530613 0.582575
0.754953 0.515319 0.574729
0.830665 0.499789 0.566973
0.180810 0.570615 0.585538
0.248319 0.581342 0.591826
0.340709 0.592419 0.597785
0.447787 0.601304 0.602476
0.560496 0.605813 0.605141
0.669088 0.602609 0.604743
0.769082 0.593003 0.602447
0.863500 0.581594 0.600170
0.233109 0.639043 0.608201
0.284425 0.643484 0.610699
0.361386 0.650916 0.613902
0.456184 0.659748 0.617155
0.561628 0.668370 0.619843
0.670253 0.673867 0.620942
0.776485 0.674607 0.620720
0.881495 0.672380 0.620596
0.283102 0.691044 0.623662
0.320435 0.691492 0.623955
0.382931 0.696281 0.625938
0.465472 0.705477 0.629060
0.562843 0.718745 0.632593
0.669135 0.734859 0.634648
0.776361 0.749579 0.634125
0.883378 0.760557 0.632849
0.321597 0.723709 0.631632
0.348701 0.722672 0.630993
0.399625 0.726017 0.633097
0.471841 0.735422 0.637762
0.561969 0.752020 0.644193
0.664944 0.777286 0.648980
0.769287 0.806312 0.648112
0.870863 0.832468 0.643858
0.082496 0.357051 0.561259
0.209019 0.409196 0.590006
0.351133 0.447714 0.609269
0.490496 0.470930 0.617396
0.611291 0.478210 0.613727
0.691982 0.468914 0.598361
0.733692 0.453932 0.581132
0.752529 0.441839 0.569213
0.089910 0.415080 0.580232
0.202250 0.456106 0.602773
0.334199 0.488967 0.620400
0.468813 0.510388 0.630512
0.591228 0.518211 0.631367
0.681267 0.509998 0.621233
0.736053 0.494279 0.606880
0.767385 0.479732 0.595112
0.110435 0.482963 0.602149
0.208678 0.513192 0.619130
0.329249 0.539490 0.634290
0.457055 0.558021 0.645085
0.578715 0.565875 0.649596
0.676532 0.559246 0.645554
0.745594 0.543803 0.637058
0.794228 0.527664 0.629458
0.144031 0.555148 0.624926
0.227457 0.575349 0.636943
0.335102 0.594904 0.649212
0.453934 0.610093 0.659733
0.572303 0.617816 0.666884
0.675534 0.613450 0.668608
0.757905 0.599851 0.666857
0.824956 0.584088 0.665098
0.189795 0.626429 0.646655
0.257243 0.637788 0.654309
0.350270 0.651042 0.663647
0.457979 0.663028 0.673285
0.570525 0.670872 0.682017
0.676284 0.669797 0.688259
0.769223 0.660223 0.692387
0.852573 0.647732 0.696127
0.245552 0.688982 0.664496
0.296276 0.693538 0.668768
0.373114 0.701720 0.675697
0.467604 0.711485 0.684310
0.571853 0.720738 0.693655
0.676792 0.725504 0.702338
0.775412 0.723962 0.709633
0.868716 0.719186 0.716265
0.298878 0.735638 0.676492
0.335061 0.736158 0.678608
0.396596 0.741087 0.684084
0.477899 0.749987 0.692226
0.573243 0.762031 0.702164
0.675433 0.774953 0.712109
0.775093 0.784895 0.720136
0.870556 0.791423 0.726790
0.339623 0.764649 0.682553
0.365322 0.763654 0.683502
0.414771 0.767064 0.688396
0.485177 0.775953 0.696919
0.572828 0.790822 0.708272
0.671635 0.811643 0.719799
0.768734 0.833669 0.727698
0.859168 0.852887 0.732677
0.082646 0.415540 0.623435
0.210965 0.475671 0.653614
0.352043 0.522317 0.676080
0.491067 0.554875 0.690356
0.614744 0.573113 0.696272
0.702629 0.574758 0.692803
0.751303 0.566538 0.685030
0.773726 0.556044 0.678038
0.093597 0.476657 0.640800
0.206021 0.521715 0.663009
0.337197 0.560824 0.682360
0.471902 0.590807 0.696877
0.596451 0.609207 0.705031
0.690975 0.611967 0.704486
0.749383 0.604002 0.698677
0.781191 0.592811 0.692560
0.118031 0.543930 0.658938
0.214899 0.575781 0.675172
0.334271 0.606593 0.691613
0.461842 0.632373 0.705895
0.584628 0.649812 0.716054
0.684349 0.653965 0.719362
0.752913 0.647528 0.717691
0.796523 0.637112 0.715110
0.155226 0.612605 0.676822
0.236093 0.633057 0.688441
0.341843 0.655568 0.702173
0.459819 0.676395 0.715879
0.578350 0.692232 0.727693
0.681337 0.697947 0.735036
0.759243 0.694051 0.738419
0.815249 0.685827 0.740703
0.203794 0.678289 0.693481
0.267848 0.689177 0.701366
0.358379 0.704065 0.712617
0.464688 0.719974 0.725546
0.576679 0.734065 0.738583
0.680667 0.741558 0.749517
0.766046 0.741109 0.757760
0.833337 0.736455 0.764987
0.261310 0.734140 0.707178
0.308612 0.738122 0.712224
0.382893 0.747072 0.721442
0.475776 0.759108 0.733571
0.579014 0.772195 0.747322
0.681277 0.782459 0.760716
0.770727 0.787001 0.772236
0.845428 0.787620 0.782675
0.315591 0.774788 0.716491
0.349244 0.775075 0.719713
0.408744 0.780421 0.727573
0.488515 0.790237 0.739188
0.582471 0.803526 0.753463
0.681389 0.817734 0.768286
0.771587 0.828704 0.781122
0.848587 0.836030 0.792308
0.356226 0.799603 0.721067
0.380701 0.798714 0.723254
0.428948 0.802527 0.730375
0.498129 0.811577 0.741918
0.584235 0.825821 0.756933
0.679579 0.844072 0.772836
0.768228 0.861538 0.785871
0.843250 0.875905 0.796362
