Assets/1__3DArt/KimSe/artstation_asset/LUTs_pasterls/CUBE/Orange Cream 03.cube
# Enhanced with VOXCOLOR algorithms
LUT_3D_SIZE 5
DOMAIN_MIN 0.000000 0.000000 0.000000
DOMAIN_MAX 0.903226 0.903226 0.903226
0.066667 0.117647 0.043137
0.299771 0.136819 0.042874
0.566833 0.152285 0.030498
0.745217 0.161720 0.014423
0.801292 0.160198 0.008193
0.081024 0.154812 0.054845
0.269439 0.182408 0.055351
0.521330 0.210159 0.046805
0.720725 0.231437 0.034229
0.802280 0.236703 0.026862
0.116644 0.241394 0.088384
0.259858 0.264216 0.084308
0.487261 0.294654 0.075149
0.697685 0.319954 0.063133
0.802459 0.326994 0.054629
0.175710 0.362496 0.134851
0.273663 0.369406 0.123346
0.467447 0.394226 0.113087
0.678817 0.420143 0.101770
0.805938 0.428566 0.088844
0.237464 0.470721 0.172905
0.299156 0.469663 0.159784
0.454409 0.488436 0.154600
0.657607 0.515687 0.153654
0.810070 0.529506 0.135283
0.078461 0.158002 0.168145
0.308215 0.182291 0.180413
0.560868 0.190260 0.165695
0.720928 0.181333 0.134485
0.766305 0.168426 0.113480
0.091402 0.215059 0.195733
0.301492 0.248961 0.207142
0.536288 0.270240 0.198243
0.709463 0.272462 0.172510
0.777952 0.260343 0.148198
0.130877 0.318035 0.248117
0.287749 0.344563 0.252391
0.505343 0.369798 0.241854
0.696967 0.380522 0.216973
0.792927 0.372045 0.190371
0.193383 0.445016 0.306743
0.294305 0.453917 0.301616
0.479272 0.473731 0.291291
0.679711 0.490890 0.270542
0.805853 0.490974 0.240440
0.255305 0.547233 0.345054
0.318295 0.547541 0.338144
0.463811 0.561304 0.338451
0.656028 0.582219 0.336240
0.808267 0.591313 0.300294
0.081241 0.218243 0.331769
0.307566 0.259695 0.361018
0.551253 0.272151 0.355060
0.698661 0.252390 0.318949
0.736595 0.230230 0.290170
0.094909 0.298016 0.368774
0.294184 0.340374 0.392143
0.525048 0.364846 0.392826
0.692083 0.355667 0.365290
0.753600 0.328581 0.333410
0.136902 0.415466 0.424496
0.290395 0.445043 0.437469
0.503750 0.471971 0.438013
0.689945 0.477444 0.418930
0.782574 0.460405 0.391788
0.203304 0.542260 0.478979
0.303983 0.551999 0.480656
0.483443 0.572275 0.481246
0.678227 0.590014 0.472451
0.805423 0.591967 0.452696
0.269264 0.634147 0.511714
0.331480 0.634058 0.508315
0.469908 0.646714 0.514491
0.654441 0.669708 0.521940
0.808704 0.687470 0.505044
0.077776 0.301006 0.495486
0.300998 0.370242 0.539411
0.544591 0.402567 0.548448
0.696904 0.389952 0.521295
0.738385 0.366092 0.494388
0.090706 0.396027 0.529541
0.276236 0.451267 0.561561
0.509211 0.490817 0.577027
0.686006 0.489755 0.562544
0.754221 0.463063 0.537112
0.133805 0.517938 0.574332
0.278781 0.551750 0.593564
0.491045 0.588480 0.610001
0.683685 0.604197 0.610469
0.784595 0.594684 0.598727
0.207353 0.636956 0.614495
0.304182 0.647937 0.621684
0.480393 0.673940 0.636648
0.675221 0.701515 0.649975
0.807834 0.715731 0.654534
0.285297 0.717070 0.637113
0.343050 0.716930 0.637781
0.476340 0.732707 0.652104
0.656960 0.763629 0.675003
0.811617 0.794030 0.688503
0.070638 0.393992 0.618620
0.287890 0.489895 0.667753
0.537332 0.550418 0.693803
0.713390 0.564957 0.692136
0.771898 0.548428 0.678586
0.087698 0.498377 0.643219
0.262598 0.560171 0.675123
0.497596 0.616937 0.702395
0.692871 0.640645 0.710595
0.779170 0.630357 0.702710
0.134982 0.611787 0.671431
0.268248 0.645386 0.690588
0.477931 0.691286 0.716769
0.682131 0.725395 0.736403
0.797093 0.734727 0.743159
0.216589 0.715799 0.696991
0.303018 0.725777 0.705614
0.474645 0.756332 0.728914
0.674025 0.794657 0.757567
0.812340 0.822192 0.778819
0.305471 0.784218 0.711572
0.357462 0.784000 0.715104
0.486624 0.802023 0.735855
0.666501 0.837092 0.769255
0.816954 0.871266 0.797193
