Assets/1__3DArt/KimSe/artstation_asset/LUTs_pasterls/CUBE/Orange Cream 03 S.cube
# Enhanced with VOXCOLOR algorithms
LUT_3D_SIZE 5
DOMAIN_MIN 0.000000 0.000000 0.000000
DOMAIN_MAX 0.903226 0.903226 0.903226
0.066667 0.117647 0.043137
0.299771 0.136819 0.042874
0.566833 0.152285 0.030498
0.745217 0.161720 0.014423
0.801292 0.160198 0.008193
0.081008 0.154838 0.054835
0.263757 0.189212 0.050847
0.503521 0.223526 0.036722
0.702361 0.242785 0.023971
0.798575 0.240315 0.023262
0.116315 0.241942 0.088164
0.255202 0.278655 0.077548
0.471266 0.325947 0.060187
0.680618 0.350502 0.047878
0.799624 0.337929 0.049170
0.174037 0.365286 0.133736
0.271462 0.381706 0.118208
0.460702 0.419121 0.102677
0.671418 0.445139 0.091231
0.805663 0.439248 0.084570
0.235867 0.473382 0.171841
0.298432 0.473925 0.158044
0.453417 0.494928 0.151915
0.656693 0.522196 0.150959
0.810860 0.533735 0.133700
0.078461 0.158002 0.168145
0.305526 0.179123 0.182086
0.553335 0.180322 0.171777
0.713630 0.169844 0.142518
0.764590 0.164910 0.116218
0.091389 0.215070 0.195728
0.286426 0.249505 0.209713
0.503514 0.267662 0.209233
0.687143 0.269601 0.194470
0.794311 0.265737 0.167445
0.130670 0.318262 0.248023
0.275013 0.357488 0.250471
0.475365 0.396192 0.242679
0.678361 0.415041 0.228884
0.832786 0.411665 0.210447
0.192380 0.446163 0.306272
0.289181 0.469118 0.297180
0.465917 0.509788 0.283202
0.674248 0.546847 0.265506
0.855075 0.565332 0.244600
0.254358 0.548325 0.344608
0.317282 0.552826 0.336283
0.462037 0.576687 0.333388
0.659357 0.617667 0.326949
0.840646 0.658234 0.289391
0.081241 0.218243 0.331769
0.305373 0.256868 0.362531
0.545321 0.263413 0.360550
0.693198 0.242444 0.326193
0.735404 0.227220 0.292640
0.094877 0.298023 0.368772
0.281564 0.334123 0.395295
0.498711 0.347198 0.405037
0.678830 0.336300 0.389791
0.784562 0.321672 0.357604
0.136631 0.415605 0.424468
0.278502 0.446750 0.436741
0.477183 0.472512 0.440502
0.679316 0.480243 0.432665
0.848240 0.472427 0.415641
0.202234 0.542959 0.478841
0.298567 0.559361 0.477236
0.470408 0.590963 0.473101
0.677508 0.624892 0.463900
0.881158 0.645935 0.450284
0.268301 0.634812 0.511584
0.330353 0.637711 0.506695
0.468415 0.661169 0.507724
0.661997 0.711576 0.505414
0.863463 0.772690 0.479367
0.077776 0.301006 0.495486
0.300366 0.369330 0.539887
0.542914 0.399753 0.550187
0.695418 0.386798 0.523577
0.738083 0.365167 0.495151
0.090652 0.396033 0.529542
0.271359 0.445499 0.562687
0.498608 0.474333 0.581972
0.682998 0.466994 0.574175
0.781705 0.441234 0.552016
0.133431 0.518051 0.574355
0.273643 0.547982 0.593177
0.479219 0.574469 0.610713
0.683112 0.577701 0.617503
0.844847 0.557418 0.614553
0.206042 0.637525 0.614612
0.301248 0.648507 0.620341
0.473942 0.672596 0.632284
0.679564 0.695601 0.644420
0.878952 0.702638 0.651438
0.284157 0.717612 0.637225
0.342183 0.718357 0.637148
0.475727 0.738812 0.647981
0.664645 0.783692 0.663172
0.861984 0.836355 0.666573
0.070638 0.393992 0.618620
0.287842 0.489818 0.667791
0.537204 0.550180 0.693945
0.713277 0.564693 0.692321
0.771876 0.548354 0.678646
0.087676 0.498379 0.643221
0.261962 0.558915 0.675273
0.496118 0.612678 0.703229
0.693103 0.632593 0.713063
0.788190 0.618130 0.707157
0.134816 0.611825 0.671461
0.267477 0.644112 0.690652
0.476139 0.685435 0.717434
0.683788 0.710380 0.739683
0.819901 0.706245 0.751272
0.215994 0.715994 0.697142
0.302355 0.725426 0.705824
0.473580 0.753008 0.729143
0.677191 0.783432 0.759315
0.841568 0.797184 0.784352
0.304949 0.784405 0.711716
0.357137 0.784214 0.715347
0.486555 0.802425 0.735655
0.669382 0.838314 0.768088
0.835157 0.873356 0.794508
