Assets/1__3DArt/KimSe/artstation_asset/LUTs_pasterls/CUBE/Orange Cream 02.cube
# Enhanced with VOXCOLOR algorithms
LUT_3D_SIZE 5
DOMAIN_MIN 0.000000 0.000000 0.000000
DOMAIN_MAX 0.903226 0.903226 0.903226
0.035294 0.078431 0.039216
0.390312 0.125437 0.076438
0.688351 0.187030 0.130442
0.870201 0.243738 0.181604
0.931522 0.263313 0.207205
0.042246 0.328602 0.076832
0.357751 0.332732 0.076661
0.646555 0.343823 0.092642
0.845966 0.363142 0.123086
0.928401 0.372500 0.150013
0.092115 0.572581 0.127597
0.340218 0.553228 0.105288
0.608951 0.532236 0.083586
0.826655 0.518781 0.082679
0.937594 0.508903 0.103662
0.224698 0.777996 0.218733
0.372695 0.751423 0.178997
0.589920 0.721452 0.123977
0.804591 0.694548 0.095212
0.941390 0.670706 0.116996
0.423052 0.904847 0.361911
0.485557 0.889330 0.315974
0.615794 0.868407 0.239294
0.782275 0.847775 0.190721
0.929087 0.826602 0.216735
0.096258 0.136992 0.198291
0.413445 0.162986 0.212530
0.699622 0.193338 0.233016
0.884969 0.224131 0.251966
0.948719 0.234319 0.259309
0.072983 0.360828 0.245050
0.392106 0.368021 0.229860
0.662234 0.368496 0.228823
0.851445 0.372371 0.238543
0.935543 0.370841 0.249294
0.107470 0.587898 0.288369
0.356693 0.579798 0.259869
0.615406 0.561074 0.237479
0.825185 0.543276 0.228152
0.936557 0.526607 0.234493
0.227138 0.780004 0.329924
0.373145 0.765710 0.304217
0.585635 0.743278 0.271259
0.797739 0.718813 0.248823
0.936808 0.693920 0.256643
0.400395 0.898726 0.398023
0.470309 0.892768 0.384957
0.606868 0.880602 0.350173
0.776220 0.864999 0.319172
0.925196 0.845124 0.331182
0.132732 0.189964 0.369103
0.427258 0.210467 0.365351
0.701006 0.226749 0.367989
0.887995 0.239999 0.366435
0.955712 0.240101 0.362318
0.092287 0.382939 0.412368
0.386963 0.400319 0.395254
0.652373 0.403536 0.387611
0.848041 0.399550 0.385516
0.939661 0.389065 0.386220
0.120077 0.599818 0.455668
0.355576 0.601391 0.429439
0.607945 0.591982 0.411367
0.817905 0.575710 0.403919
0.933889 0.556442 0.406978
0.234576 0.783602 0.472665
0.376303 0.776759 0.453042
0.582566 0.764147 0.438030
0.790864 0.746308 0.433417
0.931594 0.725770 0.444902
0.393874 0.894477 0.480082
0.464801 0.893941 0.478267
0.603185 0.891072 0.477612
0.773891 0.884564 0.480112
0.923144 0.872466 0.501109
0.144973 0.233235 0.530603
0.430549 0.259862 0.526143
0.694014 0.276525 0.526982
0.879750 0.284966 0.523491
0.951089 0.279287 0.517560
0.099066 0.394307 0.564809
0.370524 0.426172 0.554609
0.632768 0.442541 0.548663
0.835395 0.442046 0.545222
0.934982 0.428663 0.544238
0.124764 0.600275 0.605936
0.343920 0.611988 0.587262
0.590759 0.618421 0.575953
0.802943 0.612545 0.575875
0.925568 0.597897 0.584689
0.236398 0.781003 0.618999
0.374140 0.778960 0.601418
0.576306 0.778147 0.595480
0.781259 0.772531 0.609528
0.923439 0.763343 0.637101
0.388157 0.888003 0.599729
0.461057 0.890299 0.592790
0.602438 0.895787 0.604756
0.774553 0.900547 0.638627
0.922388 0.901322 0.686415
0.138732 0.259766 0.652629
0.417233 0.296561 0.668796
0.675214 0.319555 0.677337
0.862191 0.335847 0.684594
0.936734 0.335102 0.685055
0.095873 0.397657 0.686751
0.352712 0.438554 0.687517
0.612338 0.468354 0.686129
0.817896 0.481965 0.689105
0.920687 0.476724 0.694973
0.115865 0.583870 0.720612
0.323178 0.602993 0.709950
0.568265 0.626516 0.703744
0.784130 0.641424 0.710899
0.910299 0.643159 0.729562
0.222170 0.762330 0.736238
0.355380 0.763205 0.720555
0.559550 0.775431 0.715870
0.768372 0.790201 0.740106
0.911629 0.802221 0.784036
0.374320 0.878042 0.724175
0.449174 0.880563 0.708693
0.597669 0.891824 0.712761
0.775562 0.908387 0.760439
0.921776 0.924493 0.836788
