Assets/1__3DArt/KimSe/artstation_asset/LUTs_pasterls/CUBE/Orange Cream 04 S.cube
# Enhanced with VOXCOLOR algorithms
LUT_3D_SIZE 5
DOMAIN_MIN 0.000000 0.000000 0.000000
DOMAIN_MAX 0.903226 0.903226 0.903226
0.066667 0.117647 0.047059
0.319537 0.135181 0.040042
0.592178 0.144632 0.022902
0.761906 0.149411 0.006434
0.808194 0.149982 0.000600
0.080395 0.160703 0.053611
0.272673 0.191810 0.046180
0.518423 0.222035 0.030428
0.714970 0.236558 0.016879
0.807725 0.229572 0.014628
0.122079 0.260441 0.086415
0.262976 0.290741 0.072678
0.484651 0.333178 0.055425
0.693649 0.352195 0.042594
0.808394 0.332747 0.041102
0.186677 0.390910 0.131784
0.284528 0.402981 0.115372
0.480998 0.437095 0.101910
0.692109 0.457807 0.090764
0.816569 0.443404 0.081467
0.244524 0.486612 0.161816
0.312859 0.491365 0.152061
0.481149 0.516737 0.154970
0.689039 0.544411 0.157857
0.828745 0.548801 0.136706
0.075931 0.159708 0.182546
0.313622 0.180693 0.192433
0.566913 0.174674 0.169540
0.722615 0.155402 0.126355
0.767577 0.147270 0.093554
0.092662 0.227143 0.209845
0.293323 0.256137 0.216505
0.512790 0.267697 0.207988
0.693834 0.263690 0.186338
0.798941 0.254609 0.152866
0.140492 0.342000 0.259939
0.284525 0.372381 0.255891
0.485026 0.402750 0.242879
0.685488 0.415589 0.225397
0.837098 0.407219 0.202576
0.211419 0.475152 0.314952
0.306570 0.491095 0.302900
0.483668 0.524285 0.286907
0.688181 0.554749 0.266830
0.860991 0.567193 0.242307
0.273299 0.565816 0.343831
0.339257 0.569869 0.337418
0.490854 0.593675 0.340335
0.686655 0.632331 0.335044
0.853092 0.666537 0.291847
0.080017 0.223947 0.348114
0.309721 0.263029 0.374781
0.551613 0.260844 0.359118
0.696643 0.228979 0.308498
0.735006 0.208491 0.266838
0.099113 0.314920 0.387295
0.291443 0.346497 0.407254
0.508065 0.350288 0.406549
0.683261 0.330625 0.381748
0.785655 0.310359 0.342801
0.152022 0.442228 0.441611
0.296538 0.465916 0.448074
0.491696 0.481256 0.444270
0.686195 0.480602 0.430483
0.850056 0.468154 0.409478
0.230508 0.572448 0.493180
0.327736 0.582919 0.488700
0.494690 0.605450 0.480126
0.690826 0.630881 0.466382
0.884528 0.646609 0.449411
0.298386 0.652811 0.518363
0.363234 0.654584 0.514335
0.502076 0.675644 0.516806
0.686736 0.721824 0.512875
0.871743 0.777080 0.482073
0.081904 0.312496 0.505973
0.311908 0.381961 0.546427
0.551092 0.404009 0.547780
0.698578 0.381593 0.511971
0.737621 0.354878 0.479139
0.101634 0.418392 0.545057
0.292498 0.465204 0.574035
0.515853 0.483682 0.584907
0.690105 0.465950 0.569217
0.782281 0.434706 0.542911
0.160167 0.548347 0.591197
0.308160 0.573247 0.606757
0.506708 0.588683 0.617581
0.695252 0.581100 0.617726
0.846847 0.555398 0.611407
0.248852 0.667461 0.629859
0.348731 0.675004 0.634744
0.512536 0.690393 0.642517
0.698534 0.703138 0.648639
0.882646 0.703666 0.651711
0.325802 0.734764 0.647190
0.388157 0.735746 0.648726
0.518709 0.753730 0.659029
0.691860 0.793138 0.670145
0.869209 0.839171 0.668703
0.082646 0.415540 0.623435
0.315460 0.512044 0.671257
0.555462 0.565179 0.693984
0.720679 0.574183 0.691505
0.773726 0.556044 0.678038
0.110534 0.526478 0.654324
0.300902 0.586368 0.684746
0.526949 0.631300 0.708755
0.706872 0.642844 0.715359
0.791880 0.625261 0.708646
0.178871 0.646149 0.685363
0.322336 0.675245 0.704111
0.520357 0.706556 0.727292
0.704651 0.720698 0.744486
0.824721 0.711102 0.753316
0.275365 0.746582 0.710164
0.368790 0.754406 0.720738
0.529163 0.774704 0.742292
0.705644 0.794376 0.766453
0.847558 0.800136 0.786291
0.356226 0.799603 0.721067
0.414439 0.801090 0.728087
0.540522 0.818413 0.749362
0.702745 0.848556 0.776525
0.843250 0.875905 0.796362
