Assets/1__3DArt/KimSe/artstation_asset/LUTs_pasterls/CUBE/Orange Cream 04.cube
# Enhanced with VOXCOLOR algorithms
LUT_3D_SIZE 5
DOMAIN_MIN 0.000000 0.000000 0.000000
DOMAIN_MAX 0.903226 0.903226 0.903226
0.066667 0.117647 0.047059
0.319537 0.135181 0.040042
0.592178 0.144632 0.022902
0.761906 0.149411 0.006434
0.808194 0.149982 0.000600
0.080410 0.160682 0.053621
0.280475 0.185051 0.049785
0.541497 0.208506 0.038156
0.738762 0.224335 0.024294
0.813238 0.225241 0.017062
0.122409 0.260001 0.086635
0.270502 0.276945 0.078548
0.507462 0.303031 0.068213
0.717303 0.321990 0.055266
0.813222 0.321466 0.045454
0.188352 0.388676 0.132899
0.288579 0.391477 0.120124
0.491981 0.413592 0.111450
0.703483 0.433722 0.100333
0.817976 0.432783 0.085331
0.246121 0.484482 0.162880
0.314018 0.487386 0.153749
0.483060 0.510609 0.157546
0.690896 0.538155 0.160442
0.828261 0.544611 0.138248
0.075931 0.159708 0.182546
0.316630 0.183733 0.190618
0.575179 0.183944 0.162669
0.730460 0.165767 0.117018
0.769386 0.150329 0.090307
0.092675 0.227137 0.209850
0.311229 0.255463 0.212814
0.552195 0.268459 0.192407
0.722726 0.262442 0.156552
0.784789 0.245737 0.127708
0.140712 0.341814 0.260038
0.300622 0.360264 0.256692
0.523153 0.376484 0.237491
0.712389 0.378542 0.205286
0.800184 0.363433 0.174408
0.212479 0.474174 0.315441
0.314063 0.477131 0.307056
0.503318 0.490208 0.293265
0.700893 0.499697 0.268076
0.815078 0.491641 0.233299
0.274296 0.564878 0.344295
0.340931 0.565014 0.339360
0.494731 0.579248 0.345390
0.686633 0.598328 0.344209
0.823004 0.601309 0.302986
0.080017 0.223947 0.348114
0.312113 0.265741 0.373224
0.557967 0.268988 0.353124
0.702387 0.237949 0.300237
0.736237 0.211112 0.263933
0.099147 0.314936 0.387297
0.306157 0.352695 0.403612
0.538920 0.365786 0.390752
0.700454 0.344716 0.349686
0.755505 0.311697 0.311182
0.152326 0.442195 0.441653
0.311141 0.464906 0.448272
0.524488 0.479886 0.437825
0.702820 0.473004 0.407797
0.785882 0.448106 0.374418
0.231736 0.571989 0.493382
0.335282 0.576625 0.492122
0.513461 0.588047 0.486722
0.698587 0.595642 0.470479
0.811822 0.589121 0.444902
0.299498 0.652319 0.518555
0.365074 0.651344 0.516112
0.506083 0.662168 0.523686
0.683706 0.681760 0.529477
0.820227 0.694191 0.508353
0.081904 0.312496 0.505973
0.312587 0.382840 0.545956
0.552863 0.406648 0.545932
0.700120 0.384473 0.509413
0.737930 0.355701 0.478252
0.101689 0.418431 0.545056
0.298263 0.471000 0.572811
0.528296 0.499041 0.578474
0.694502 0.485571 0.553883
0.754728 0.452535 0.523534
0.160582 0.548416 0.591187
0.314661 0.577383 0.607051
0.521689 0.602076 0.615102
0.698894 0.604285 0.605853
0.787024 0.586470 0.588417
0.250365 0.667226 0.629807
0.352926 0.674989 0.636201
0.522471 0.692291 0.646176
0.698847 0.708502 0.651616
0.813433 0.713710 0.650202
0.327135 0.734432 0.647141
0.389555 0.734578 0.649495
0.521134 0.748221 0.663267
0.687605 0.774245 0.682045
0.821214 0.798190 0.690812
0.082646 0.415540 0.623435
0.315512 0.512118 0.671220
0.555597 0.565405 0.693836
0.720795 0.574428 0.691302
0.773748 0.556112 0.677969
0.110558 0.526495 0.654323
0.301681 0.587635 0.684585
0.528751 0.635397 0.707716
0.706910 0.650379 0.712330
0.782847 0.636727 0.703408
0.179056 0.646183 0.685336
0.323376 0.676594 0.704057
0.522846 0.712344 0.726396
0.703810 0.735195 0.740448
0.802107 0.738428 0.743922
0.276060 0.746506 0.710028
0.369811 0.754876 0.720617
0.531169 0.778196 0.742036
0.703870 0.805664 0.764327
0.818963 0.824695 0.779941
0.356843 0.799484 0.720937
0.414977 0.800942 0.727930
0.541131 0.818166 0.749651
0.700832 0.847653 0.777738
0.825674 0.874130 0.799048
