Assets/1__3DArt/KimSe/artstation_asset/LUTs_pasterls/CUBE/Orange Cream 04 S.cube
# Enhanced with VOXCOLOR algorithms
LUT_3D_SIZE 32
0.066667 0.117647 0.047059
0.100450 0.120434 0.046437
0.134233 0.123221 0.045814
0.168016 0.126008 0.045192
0.201799 0.128795 0.044570
0.235582 0.131582 0.043948
0.276814 0.133471 0.042116
0.319537 0.135181 0.040042
0.362259 0.136892 0.037968
0.404982 0.138602 0.035894
0.447704 0.140312 0.033820
0.485624 0.141564 0.031270
0.521142 0.142587 0.028480
0.556660 0.143609 0.025691
0.592178 0.144632 0.022902
0.627696 0.145655 0.020113
0.656433 0.146472 0.017565
0.678388 0.147083 0.015260
0.700344 0.147694 0.012954
0.722299 0.148305 0.010649
0.744255 0.148917 0.008343
0.761906 0.149411 0.006434
0.770950 0.149673 0.005316
0.779993 0.149935 0.004199
0.789036 0.150197 0.003082
0.798079 0.150459 0.001965
0.805813 0.150624 0.001001
0.807004 0.150303 0.000801
0.808194 0.149982 0.000600
0.809384 0.149661 0.000400
0.810575 0.149341 0.000200
0.811765 0.149020 0.000000
0.067844 0.122008 0.047159
0.100262 0.125048 0.046560
0.132680 0.128089 0.045961
0.165097 0.131130 0.045361
0.197515 0.134170 0.044762
0.229932 0.137211 0.044162
0.270068 0.139535 0.042370
0.311747 0.141715 0.040338
0.353426 0.143896 0.038307
0.395106 0.146076 0.036276
0.436785 0.148256 0.034244
0.474269 0.149922 0.031750
0.509655 0.151330 0.029023
0.545042 0.152738 0.026296
0.580428 0.154146 0.023570
0.615815 0.155554 0.020843
0.644881 0.156659 0.018364
0.667628 0.157461 0.016132
0.690374 0.158263 0.013900
0.713121 0.159065 0.011668
0.735867 0.159868 0.009436
0.754453 0.160481 0.007600
0.764719 0.160716 0.006558
0.774985 0.160952 0.005515
0.785251 0.161187 0.004472
0.795517 0.161423 0.003429
0.804388 0.161528 0.002538
0.806288 0.160981 0.002406
0.808188 0.160435 0.002274
0.810087 0.159888 0.002141
0.811987 0.159342 0.002009
0.813887 0.158796 0.001876
0.069022 0.126368 0.047260
0.100074 0.129663 0.046683
0.131126 0.132957 0.046107
0.162179 0.136252 0.045530
0.193231 0.139546 0.044954
0.224283 0.142840 0.044377
0.263322 0.145598 0.042624
0.303958 0.148249 0.040635
0.344594 0.150900 0.038646
0.385229 0.153550 0.036657
0.425865 0.156201 0.034669
0.462914 0.158280 0.032230
0.498169 0.160073 0.029566
0.533424 0.161866 0.026901
0.568679 0.163659 0.024237
0.603934 0.165453 0.021573
0.633330 0.166846 0.019162
0.656867 0.167839 0.017004
0.680404 0.168832 0.014845
0.703942 0.169825 0.012687
0.727479 0.170819 0.010529
0.747000 0.171550 0.008767
0.758489 0.171759 0.007799
0.769977 0.171968 0.006831
0.781466 0.172177 0.005862
0.792954 0.172387 0.004894
0.802963 0.172432 0.004076
0.805572 0.171660 0.004012
0.808181 0.170888 0.003947
0.810790 0.170115 0.003882
0.813400 0.169343 0.003818
0.816009 0.168571 0.003753
0.070199 0.130729 0.047360
0.099886 0.134277 0.046806
0.129573 0.137825 0.046253
0.159260 0.141373 0.045699
0.188947 0.144922 0.045145
0.218634 0.148470 0.044592
0.256576 0.151662 0.042878
0.296168 0.154783 0.040932
0.335761 0.157904 0.038985
0.375353 0.161024 0.037039
0.414946 0.164145 0.035093
0.451559 0.166638 0.032710
0.486682 0.168816 0.030108
0.521806 0.170995 0.027507
0.556929 0.173173 0.024905
0.592052 0.175352 0.022304
0.621778 0.177033 0.019960
0.646106 0.178217 0.017876
0.670435 0.179401 0.015791
0.694763 0.180585 0.013706
0.719091 0.181770 0.011622
0.739547 0.182620 0.009934
0.752258 0.182802 0.009040
0.764969 0.182985 0.008146
0.777680 0.183168 0.007252
0.790392 0.183350 0.006358
0.801537 0.183336 0.005614
0.804856 0.182338 0.005617
0.808175 0.181340 0.005620
0.811493 0.180343 0.005623
0.814812 0.179345 0.005626
0.818131 0.178347 0.005629
0.071376 0.135090 0.047460
0.099698 0.138892 0.046929
0.128020 0.142693 0.046399
0.156341 0.146495 0.045868
0.184663 0.150297 0.045337
0.212985 0.154099 0.044807
0.249830 0.157725 0.043132
0.288379 0.161317 0.041228
0.326928 0.164908 0.039324
0.365477 0.168499 0.037421
0.404026 0.172090 0.035517
0.440204 0.174996 0.033190
0.475196 0.177559 0.030651
0.510188 0.180123 0.028112
0.545179 0.182687 0.025573
0.580171 0.185251 0.023034
0.610227 0.187220 0.020759
0.635346 0.188595 0.018748
0.660465 0.189970 0.016737
0.685584 0.191345 0.014726
0.710703 0.192721 0.012714
0.732094 0.193689 0.011101
0.746027 0.193846 0.010281
0.759961 0.194002 0.009462
0.773895 0.194158 0.008642
0.787829 0.194314 0.007823
0.800112 0.194241 0.007152
0.804140 0.193017 0.007223
0.808168 0.191793 0.007293
0.812196 0.190570 0.007364
0.816224 0.189346 0.007435
0.820252 0.188122 0.007506
0.072554 0.139450 0.047560
0.099510 0.143506 0.047052
0.126467 0.147562 0.046545
0.153423 0.151617 0.046037
0.180379 0.155673 0.045529
0.207336 0.159729 0.045021
0.243083 0.163789 0.043386
0.280589 0.167850 0.041525
0.318095 0.171912 0.039663
0.355601 0.175973 0.037802
0.393107 0.180034 0.035941
0.428849 0.183354 0.033670
0.463709 0.186303 0.031194
0.498570 0.189252 0.028717
0.533430 0.192201 0.026241
0.568290 0.195150 0.023764
0.598675 0.197407 0.021557
0.624585 0.198973 0.019620
0.650495 0.200539 0.017682
0.676405 0.202105 0.015745
0.702315 0.203672 0.013807
0.724640 0.204759 0.012267
0.739797 0.204889 0.011522
0.754954 0.205019 0.010777
0.770110 0.205148 0.010032
0.785267 0.205278 0.009287
0.798687 0.205145 0.008690
0.803424 0.203695 0.008828
0.808162 0.202246 0.008967
0.812899 0.200797 0.009105
0.817637 0.199347 0.009244
0.822374 0.197898 0.009382
0.076225 0.149507 0.050320
0.101961 0.153679 0.049711
0.127696 0.157851 0.049103
0.153432 0.162024 0.048494
0.179168 0.166196 0.047886
0.204904 0.170368 0.047277
0.239688 0.174824 0.045581
0.276283 0.179335 0.043668
0.312878 0.183847 0.041754
0.349472 0.188358 0.039841
0.386067 0.192870 0.037927
0.421406 0.196602 0.035638
0.456117 0.199943 0.033160
0.490829 0.203285 0.030682
0.525540 0.206627 0.028205
0.560252 0.209969 0.025727
0.590831 0.212473 0.023541
0.617277 0.214141 0.021645
0.643723 0.215809 0.019749
0.670169 0.217477 0.017854
0.696615 0.219144 0.015958
0.719567 0.220219 0.014470
0.735531 0.220108 0.013795
0.751495 0.219998 0.013121
0.767459 0.219887 0.012447
0.783422 0.219776 0.011772
0.797590 0.219371 0.011248
0.802776 0.217494 0.011470
0.807963 0.215617 0.011692
0.813149 0.213740 0.011915
0.818336 0.211863 0.012137
0.823522 0.209986 0.012359
0.080395 0.160703 0.053611
0.104939 0.164964 0.052877
0.129483 0.169226 0.052143
0.154027 0.173487 0.051409
0.178571 0.177749 0.050675
0.203115 0.182010 0.049941
0.236964 0.186852 0.048165
0.272673 0.191810 0.046180
0.308383 0.196768 0.044195
0.344093 0.201726 0.042211
0.379802 0.206684 0.040226
0.414745 0.210827 0.037903
0.449304 0.214563 0.035411
0.483864 0.218299 0.032920
0.518423 0.222035 0.030428
0.552982 0.225771 0.027937
0.583727 0.228515 0.025761
0.610659 0.230267 0.023901
0.637590 0.232018 0.022041
0.664521 0.233770 0.020181
0.691453 0.235522 0.018320
0.714970 0.236558 0.016879
0.731658 0.236164 0.016275
0.748346 0.235769 0.015670
0.765034 0.235375 0.015066
0.781722 0.234981 0.014462
0.796559 0.234262 0.014010
0.802142 0.231917 0.014319
0.807725 0.229572 0.014628
0.813309 0.227227 0.014938
0.818892 0.224882 0.015247
0.824475 0.222537 0.015557
0.084564 0.171898 0.056902
0.107917 0.176249 0.056043
0.131269 0.180600 0.055183
0.154622 0.184951 0.054324
0.177974 0.189301 0.053465
0.201327 0.193652 0.052606
0.234239 0.198881 0.050749
0.269064 0.204285 0.048693
0.303889 0.209690 0.046636
0.338713 0.215094 0.044580
0.373538 0.220498 0.042524
0.408084 0.225053 0.040168
0.442491 0.229184 0.037663
0.476898 0.233314 0.035157
0.511305 0.237444 0.032651
0.545713 0.241574 0.030146
0.576624 0.244557 0.027981
0.604041 0.246393 0.026156
0.631457 0.248228 0.024332
0.658874 0.250063 0.022507
0.686291 0.251899 0.020683
0.710372 0.252896 0.019288
0.727785 0.252219 0.018754
0.745197 0.251541 0.018220
0.762609 0.250863 0.017685
0.780021 0.250186 0.017151
0.795528 0.249152 0.016771
0.801508 0.246340 0.017168
0.807488 0.243527 0.017564
0.813468 0.240714 0.017961
0.819448 0.237901 0.018357
0.825428 0.235088 0.018754
0.088734 0.183094 0.060193
0.110895 0.187534 0.059208
0.133056 0.191974 0.058224
0.155217 0.196414 0.057239
0.177377 0.200854 0.056254
0.199538 0.205294 0.055270
0.231515 0.210909 0.053333
0.265454 0.216760 0.051205
0.299394 0.222611 0.049078
0.333334 0.228462 0.046950
0.367274 0.234312 0.044822
0.401423 0.239279 0.042434
0.435678 0.243804 0.039914
0.469933 0.248328 0.037394
0.504188 0.252853 0.034875
0.538443 0.257377 0.032355
0.569521 0.260599 0.030201
0.597423 0.262518 0.028412
0.625325 0.264438 0.026623
0.653227 0.266357 0.024834
0.681128 0.268276 0.023045
0.705775 0.269235 0.021698
0.723911 0.268274 0.021233
0.742048 0.267313 0.020769
0.760184 0.266352 0.020304
0.778320 0.265391 0.019840
0.794497 0.264043 0.019533
0.800874 0.260762 0.020017
0.807250 0.257482 0.020500
0.813627 0.254201 0.020984
0.820004 0.250920 0.021467
0.826381 0.247639 0.021951
0.092904 0.194290 0.063484
0.113873 0.198819 0.062374
0.134842 0.203348 0.061264
0.155811 0.207877 0.060154
0.176780 0.212406 0.059044
0.197750 0.216936 0.057934
0.228790 0.222938 0.055916
0.261845 0.229235 0.053718
0.294900 0.235532 0.051519
0.327954 0.241829 0.049320
0.361009 0.248127 0.047121
0.394763 0.253505 0.044699
0.428865 0.258424 0.042165
0.462968 0.263343 0.039632
0.497071 0.268261 0.037098
0.531173 0.273180 0.034565
0.562418 0.276641 0.032421
0.590805 0.278644 0.030668
0.619192 0.280647 0.028914
0.647579 0.282650 0.027161
0.675966 0.284653 0.025408
0.701178 0.285573 0.024107
0.720038 0.284329 0.023713
0.738899 0.283085 0.023318
0.757759 0.281840 0.022924
0.776620 0.280596 0.022529
0.793466 0.278934 0.022295
0.800239 0.275185 0.022866
0.807013 0.271436 0.023436
0.813786 0.267688 0.024007
0.820560 0.263939 0.024578
0.827333 0.260190 0.025148
0.099346 0.209371 0.068551
0.119212 0.213742 0.067281
0.139078 0.218114 0.066011
0.158944 0.222485 0.064741
0.178810 0.226857 0.063472
0.198676 0.231228 0.062202
0.228841 0.237349 0.060108
0.261066 0.243820 0.057850
0.293291 0.250292 0.055592
0.325516 0.256763 0.053334
0.357741 0.263234 0.051076
0.391098 0.268823 0.048635
0.425023 0.273971 0.046102
0.458947 0.279119 0.043569
0.492871 0.284267 0.041037
0.526796 0.289415 0.038504
0.558115 0.293018 0.036369
0.586828 0.295076 0.034630
0.615542 0.297134 0.032892
0.644256 0.299192 0.031154
0.672970 0.301250 0.029416
0.698555 0.302143 0.028126
0.717882 0.300702 0.027732
0.737210 0.299262 0.027339
0.756537 0.297822 0.026945
0.775864 0.296382 0.026552
0.793141 0.294506 0.026318
0.800170 0.290448 0.026884
0.807199 0.286390 0.027449
0.814228 0.282331 0.028015
0.821257 0.278273 0.028580
0.828285 0.274215 0.029146
0.106924 0.226394 0.074506
0.125731 0.230485 0.073059
0.144538 0.234575 0.071612
0.163345 0.238665 0.070165
0.182153 0.242755 0.068718
0.200960 0.246846 0.067271
0.230280 0.252952 0.065104
0.261703 0.259461 0.062793
0.293125 0.265970 0.060482
0.324548 0.272479 0.058170
0.355970 0.278988 0.055859
0.388933 0.284687 0.053406
0.422666 0.289982 0.050881
0.456398 0.295276 0.048357
0.490131 0.300571 0.045833
0.523864 0.305865 0.043308
0.555211 0.309562 0.041180
0.584172 0.311661 0.039446
0.613134 0.313760 0.037713
0.642096 0.315859 0.035980
0.671057 0.317958 0.034246
0.696920 0.318827 0.032948
0.716585 0.317235 0.032522
0.736250 0.315644 0.032095
0.755916 0.314052 0.031668
0.775581 0.312460 0.031241
0.793171 0.310419 0.030971
0.800384 0.306131 0.031486
0.807597 0.301842 0.032000
0.814811 0.297553 0.032515
0.822024 0.293265 0.033029
0.829237 0.288976 0.033544
0.114501 0.243418 0.080460
0.132250 0.247227 0.078836
0.149999 0.251036 0.077213
0.167747 0.254845 0.075589
0.185496 0.258654 0.073965
0.203244 0.262463 0.072341
0.231719 0.268554 0.070100
0.262339 0.275101 0.067736
0.292959 0.281648 0.065371
0.323579 0.288195 0.063007
0.354199 0.294742 0.060642
0.386767 0.300551 0.058177
0.420308 0.305992 0.055661
0.453850 0.311433 0.053145
0.487391 0.316874 0.050629
0.520932 0.322315 0.048113
0.552307 0.326106 0.045991
0.581516 0.328246 0.044262
0.610726 0.330386 0.042534
0.639935 0.332526 0.040805
0.669144 0.334665 0.039077
0.695285 0.335511 0.037771
0.715288 0.333768 0.037311
0.735291 0.332025 0.036851
0.755294 0.330282 0.036391
0.775298 0.328538 0.035930
0.793200 0.326333 0.035624
0.800598 0.321814 0.036088
0.807995 0.317295 0.036551
0.815393 0.312776 0.037015
0.822791 0.308257 0.037478
0.830189 0.303738 0.037941
0.122079 0.260441 0.086415
0.138769 0.263969 0.084614
0.155459 0.267497 0.082813
0.172149 0.271025 0.081012
0.188838 0.274553 0.079212
0.205528 0.278081 0.077411
0.233158 0.284156 0.075096
0.262976 0.290741 0.072678
0.292793 0.297326 0.070261
0.322611 0.303911 0.067843
0.352429 0.310495 0.065426
0.384601 0.316415 0.062948
0.417951 0.322003 0.060440
0.451301 0.327591 0.057932
0.484651 0.333178 0.055425
0.518000 0.338766 0.052917
0.549404 0.342650 0.050802
0.578860 0.344831 0.049078
0.608317 0.347011 0.047355
0.637774 0.349192 0.045631
0.667231 0.351373 0.043908
0.693649 0.352195 0.042594
0.713991 0.350301 0.042101
0.734332 0.348406 0.041607
0.754673 0.346511 0.041114
0.775014 0.344616 0.040620
0.793229 0.342246 0.040277
0.800811 0.337497 0.040690
0.808394 0.332747 0.041102
0.815976 0.327998 0.041514
0.823558 0.323248 0.041927
0.831140 0.318499 0.042339
0.129657 0.277464 0.092370
0.145288 0.280711 0.090392
0.160919 0.283958 0.088414
0.176550 0.287205 0.086436
0.192181 0.290452 0.084458
0.207812 0.293698 0.082481
0.234597 0.299759 0.080092
0.263612 0.306381 0.077621
0.292627 0.313004 0.075150
0.321643 0.319627 0.072680
0.350658 0.326249 0.070209
0.382436 0.332280 0.067719
0.415594 0.338014 0.065220
0.448752 0.343748 0.062720
0.481910 0.349482 0.060221
0.515069 0.355216 0.057721
0.546500 0.359194 0.055613
0.576204 0.361416 0.053894
0.605909 0.363637 0.052176
0.635613 0.365859 0.050457
0.665318 0.368081 0.048739
0.692014 0.368880 0.047417
0.712693 0.366833 0.046890
0.733373 0.364787 0.046363
0.754052 0.362741 0.045836
0.774731 0.360694 0.045309
0.793258 0.358159 0.044930
0.801025 0.353179 0.045292
0.808792 0.348200 0.045653
0.816559 0.343220 0.046014
0.824325 0.338240 0.046376
0.832092 0.333260 0.046737
0.138299 0.295604 0.098706
0.152957 0.298483 0.096600
0.167615 0.301363 0.094495
0.182273 0.304242 0.092389
0.196931 0.307122 0.090284
0.211589 0.310001 0.088178
0.237552 0.315867 0.085774
0.265775 0.322330 0.083311
0.293998 0.328793 0.080847
0.322221 0.335257 0.078383
0.350444 0.341720 0.075920
0.381800 0.347702 0.073474
0.414722 0.353444 0.071038
0.447644 0.359185 0.068601
0.480566 0.364927 0.066165
0.513488 0.370669 0.063728
0.544887 0.374677 0.061658
0.574762 0.376950 0.059953
0.604637 0.379223 0.058248
0.634512 0.381497 0.056543
0.664387 0.383770 0.054838
0.691282 0.384606 0.053494
0.712217 0.382565 0.052872
0.733153 0.380525 0.052249
0.754089 0.378485 0.051627
0.775024 0.376445 0.051004
0.793793 0.373910 0.050520
0.801729 0.368899 0.050729
0.809664 0.363888 0.050939
0.817599 0.358877 0.051148
0.825535 0.353866 0.051357
0.833470 0.348855 0.051566
0.148005 0.314860 0.105423
0.161776 0.317286 0.103239
0.175547 0.319712 0.101055
0.189318 0.322138 0.098871
0.203089 0.324563 0.096688
0.216860 0.326989 0.094504
0.242023 0.332482 0.092143
0.269464 0.338588 0.089747
0.296905 0.344694 0.087351
0.324346 0.350801 0.084955
0.351787 0.356907 0.082558
0.382695 0.362683 0.080214
0.415336 0.368293 0.077895
0.447977 0.373904 0.075576
0.480618 0.379514 0.073257
0.513259 0.385125 0.070938
0.544564 0.389098 0.068938
0.574532 0.391434 0.067255
0.604500 0.393770 0.065572
0.634468 0.396106 0.063890
0.664437 0.398441 0.062207
0.691452 0.399373 0.060826
0.712563 0.397497 0.060045
0.733673 0.395620 0.059265
0.754784 0.393744 0.058484
0.775894 0.391868 0.057704
0.794834 0.389497 0.057046
0.802922 0.384654 0.057002
0.811010 0.379812 0.056959
0.819098 0.374969 0.056915
0.827186 0.370127 0.056871
0.835274 0.365284 0.056827
0.157712 0.334116 0.112140
0.170595 0.336088 0.109878
0.183479 0.338060 0.107616
0.196363 0.340033 0.105354
0.209247 0.342005 0.103092
0.222130 0.343977 0.100829
0.246493 0.349097 0.098512
0.273152 0.354846 0.096183
0.299811 0.360596 0.093855
0.326470 0.366345 0.091526
0.353130 0.372094 0.089197
0.383589 0.377663 0.086953
0.415950 0.383142 0.084752
0.448310 0.388622 0.082551
0.480670 0.394101 0.080349
0.513030 0.399580 0.078148
0.544241 0.403519 0.076217
0.574302 0.405918 0.074557
0.604364 0.408316 0.072897
0.634425 0.410714 0.071237
0.664487 0.413113 0.069576
0.691623 0.414141 0.068157
0.712908 0.412428 0.067219
0.734193 0.410716 0.066280
0.755478 0.409003 0.065342
0.776764 0.407291 0.064404
0.795875 0.405084 0.063572
0.804115 0.400410 0.063275
0.812356 0.395736 0.062979
0.820597 0.391061 0.062682
0.828837 0.386387 0.062385
0.837078 0.381713 0.062088
0.167418 0.353372 0.118857
0.179414 0.354891 0.116516
0.191411 0.356409 0.114176
0.203408 0.357928 0.111836
0.215404 0.359447 0.109495
0.227401 0.360965 0.107155
0.250964 0.365712 0.104881
0.276841 0.371104 0.102619
0.302718 0.376497 0.100358
0.328595 0.381889 0.098097
0.354472 0.387281 0.095836
0.384484 0.392644 0.093693
0.416563 0.397992 0.091609
0.448643 0.403340 0.089525
0.480722 0.408688 0.087441
0.512801 0.414036 0.085358
0.543918 0.417940 0.083497
0.574073 0.420401 0.081859
0.604227 0.422862 0.080221
0.634382 0.425323 0.078583
0.664537 0.427784 0.076945
0.691793 0.428909 0.075488
0.713253 0.427360 0.074392
0.734713 0.425811 0.073296
0.756173 0.424262 0.072200
0.777633 0.422713 0.071103
0.796916 0.420672 0.070098
0.805309 0.416166 0.069548
0.813702 0.411660 0.068999
0.822096 0.407154 0.068449
0.830489 0.402648 0.067899
0.838882 0.398142 0.067349
0.177124 0.372628 0.125574
0.188234 0.373693 0.123155
0.199343 0.374758 0.120737
0.210452 0.375823 0.118318
0.221562 0.376888 0.115899
0.232671 0.377954 0.113481
0.255435 0.382327 0.111249
0.280530 0.387362 0.109056
0.305625 0.392398 0.106862
0.330720 0.397433 0.104668
0.355815 0.402468 0.102474
0.385379 0.407624 0.100432
0.417177 0.412841 0.098466
0.448975 0.418058 0.096500
0.480774 0.423275 0.094534
0.512572 0.428491 0.092567
0.543595 0.432362 0.090777
0.573843 0.434885 0.089161
0.604091 0.437409 0.087545
0.634339 0.439932 0.085930
0.664587 0.442456 0.084314
0.691964 0.443677 0.082819
0.713599 0.442291 0.081565
0.735233 0.440906 0.080311
0.756868 0.439521 0.079057
0.778503 0.438136 0.077803
0.797956 0.436259 0.076624
0.806502 0.431921 0.075821
0.815048 0.427584 0.075019
0.823594 0.423246 0.074216
0.832140 0.418908 0.073413
0.840686 0.414570 0.072610
0.186677 0.390910 0.131784
0.196987 0.391592 0.129343
0.207297 0.392273 0.126903
0.217606 0.392955 0.124462
0.227916 0.393636 0.122021
0.238226 0.394318 0.119581
0.260210 0.398318 0.117446
0.284528 0.402981 0.115372
0.308846 0.407645 0.113298
0.333165 0.412309 0.111224
0.357483 0.416973 0.109151
0.386573 0.421903 0.107269
0.418048 0.426967 0.105482
0.449523 0.432031 0.103696
0.480998 0.437095 0.101910
0.512473 0.442159 0.100124
0.543368 0.445997 0.098457
0.573682 0.448610 0.096910
0.603995 0.451222 0.095363
0.634309 0.453834 0.093816
0.664623 0.456447 0.092269
0.692109 0.457807 0.090764
0.713939 0.456663 0.089342
0.735770 0.455518 0.087920
0.757600 0.454374 0.086498
0.779431 0.453230 0.085076
0.799080 0.451594 0.083705
0.807825 0.447499 0.082586
0.816569 0.443404 0.081467
0.825313 0.439309 0.080348
0.834058 0.435213 0.079229
0.842802 0.431118 0.078110
0.195922 0.407245 0.136980
0.205608 0.407683 0.134630
0.215293 0.408121 0.132280
0.224979 0.408558 0.129929
0.234664 0.408996 0.127579
0.244349 0.409434 0.125229
0.265591 0.413060 0.123297
0.289144 0.417323 0.121448
0.312697 0.421586 0.119599
0.336250 0.425849 0.117751
0.359803 0.430112 0.115902
0.388366 0.434779 0.114298
0.419433 0.439647 0.112817
0.450501 0.444515 0.111336
0.481568 0.449383 0.109854
0.512636 0.454251 0.108373
0.543332 0.458062 0.106940
0.573656 0.460815 0.105553
0.603981 0.463569 0.104167
0.634306 0.466322 0.102781
0.664630 0.469076 0.101395
0.692203 0.470662 0.099935
0.714271 0.469913 0.098325
0.736339 0.469164 0.096716
0.758407 0.468414 0.095106
0.780475 0.467665 0.093496
0.800370 0.466424 0.091895
0.809404 0.462720 0.090334
0.818439 0.459016 0.088773
0.827473 0.455312 0.087212
0.836507 0.451608 0.085651
0.845541 0.447904 0.084090
0.205168 0.423580 0.142176
0.214229 0.423774 0.139916
0.223290 0.423968 0.137656
0.232351 0.424162 0.135397
0.241412 0.424356 0.133137
0.250473 0.424550 0.130878
0.270972 0.427801 0.129148
0.293760 0.431664 0.127524
0.316548 0.435527 0.125901
0.339336 0.439389 0.124277
0.362123 0.443252 0.122653
0.390159 0.447654 0.121328
0.420819 0.452327 0.120151
0.451478 0.456999 0.118975
0.482138 0.461671 0.117799
0.512798 0.466343 0.116623
0.543295 0.470127 0.115422
0.573631 0.473021 0.114197
0.603967 0.475916 0.112972
0.634302 0.478811 0.111747
0.664638 0.481705 0.110521
0.692297 0.483517 0.109106
0.714602 0.483163 0.107308
0.736908 0.482809 0.105511
0.759213 0.482455 0.103714
0.781518 0.482101 0.101916
0.801660 0.481253 0.100085
0.810984 0.477941 0.098082
0.820308 0.474628 0.096079
0.829632 0.471315 0.094076
0.838957 0.468002 0.092073
0.848281 0.464690 0.090070
0.214414 0.439915 0.147371
0.222850 0.439866 0.145202
0.231287 0.439816 0.143033
0.239723 0.439766 0.140864
0.248159 0.439716 0.138695
0.256596 0.439667 0.136526
0.276354 0.442543 0.134999
0.298376 0.446005 0.133600
0.320399 0.449467 0.132202
0.342421 0.452929 0.130803
0.364443 0.456392 0.129404
0.391952 0.460530 0.128357
0.422204 0.465006 0.127486
0.452456 0.469483 0.126615
0.482708 0.473959 0.125743
0.512960 0.478435 0.124872
0.543259 0.482192 0.123904
0.573606 0.485227 0.122840
0.603952 0.488263 0.121776
0.634299 0.491299 0.120712
0.664646 0.494335 0.119648
0.692391 0.496372 0.118276
0.714934 0.496413 0.116291
0.737476 0.496454 0.114306
0.760019 0.496495 0.112321
0.782562 0.496536 0.110336
0.802950 0.496083 0.108275
0.812564 0.493161 0.105830
0.822178 0.490240 0.103385
0.831792 0.487318 0.100940
0.841406 0.484397 0.098495
0.851020 0.481475 0.096050
0.223659 0.456250 0.152567
0.231471 0.455957 0.150489
0.239283 0.455663 0.148410
0.247095 0.455370 0.146332
0.254907 0.455076 0.144253
0.262719 0.454783 0.142175
0.281735 0.457285 0.140850
0.302992 0.460347 0.139677
0.324249 0.463408 0.138503
0.345506 0.466470 0.137329
0.366764 0.469531 0.136156
0.393745 0.473405 0.135387
0.423589 0.477686 0.134821
0.453434 0.481966 0.134254
0.483278 0.486247 0.133688
0.513122 0.490528 0.133122
0.543223 0.494256 0.132387
0.573580 0.497433 0.131483
0.603938 0.500610 0.130580
0.634296 0.503787 0.129677
0.664653 0.506964 0.128774
0.692485 0.509227 0.127447
0.715265 0.509663 0.125275
0.738045 0.510099 0.123102
0.760826 0.510535 0.120929
0.783606 0.510971 0.118756
0.804240 0.510913 0.116465
0.814144 0.508382 0.113578
0.824048 0.505852 0.110691
0.833952 0.503322 0.107804
0.843855 0.500791 0.104917
0.853759 0.498261 0.102030
0.232376 0.471151 0.157275
0.239602 0.470688 0.155288
0.246828 0.470225 0.153300
0.254054 0.469761 0.151312
0.261279 0.469298 0.149325
0.268505 0.468834 0.147337
0.286797 0.471033 0.146232
0.307302 0.473764 0.145303
0.327807 0.476496 0.144374
0.348312 0.479227 0.143446
0.368818 0.481959 0.142517
0.395271 0.485628 0.142067
0.424698 0.489767 0.141857
0.454125 0.493906 0.141646
0.483552 0.498045 0.141436
0.512979 0.502183 0.141226
0.542878 0.505926 0.140782
0.573249 0.509273 0.140103
0.603620 0.512620 0.139425
0.633991 0.515967 0.138747
0.664362 0.519314 0.138069
0.692292 0.521822 0.136841
0.715342 0.522652 0.134512
0.738392 0.523482 0.132183
0.761442 0.524312 0.129854
0.784493 0.525142 0.127525
0.805404 0.525475 0.125025
0.815626 0.523320 0.121668
0.825847 0.521165 0.118312
0.836069 0.519010 0.114955
0.846290 0.516855 0.111598
0.856511 0.514700 0.108242
0.238450 0.478882 0.159546
0.245281 0.478618 0.157650
0.252112 0.478353 0.155755
0.258943 0.478089 0.153860
0.265774 0.477825 0.151965
0.272605 0.477561 0.150069
0.290260 0.479811 0.149266
0.310081 0.482565 0.148682
0.329901 0.485318 0.148098
0.349722 0.488072 0.147513
0.369542 0.490825 0.146929
0.395458 0.494588 0.147001
0.424423 0.498856 0.147402
0.453387 0.503123 0.147802
0.482351 0.507391 0.148203
0.511315 0.511658 0.148604
0.540995 0.515623 0.148738
0.571390 0.519284 0.148607
0.601785 0.522946 0.148475
0.632180 0.526608 0.148344
0.662575 0.530269 0.148212
0.690666 0.533117 0.147349
0.714148 0.534336 0.145022
