Assets/1__3DArt/KimSe/artstation_asset/LUTs_pasterls/CUBE/Orange Cream 01.cube
# Enhanced with VOXCOLOR algorithms
LUT_3D_SIZE 8
DOMAIN_MIN 0.000000 0.000000 0.000000
DOMAIN_MAX 0.903226 0.903226 0.903226
0.007843 0.011765 0.050980
0.147091 0.073977 0.066987
0.346902 0.139955 0.071853
0.554307 0.206978 0.072810
0.727007 0.271631 0.075141
0.826747 0.324660 0.080442
0.870432 0.358439 0.085467
0.887362 0.375610 0.088772
0.007214 0.067840 0.069386
0.138921 0.121906 0.081420
0.332816 0.182477 0.083148
0.538006 0.246135 0.080901
0.713342 0.309176 0.079596
0.819935 0.363899 0.082251
0.870275 0.401909 0.086655
0.891841 0.422661 0.090282
0.014186 0.176355 0.110189
0.134504 0.218543 0.114191
0.319685 0.269832 0.108182
0.521584 0.326095 0.098465
0.700376 0.383246 0.090246
0.815334 0.434598 0.088444
0.873009 0.471973 0.091614
0.899386 0.492929 0.095610
0.036338 0.322455 0.161336
0.140801 0.350362 0.156273
0.312423 0.389507 0.140947
0.507299 0.435344 0.122096
0.687899 0.483535 0.105579
0.811673 0.528003 0.098513
0.877451 0.561196 0.100291
0.909134 0.579868 0.104850
0.080237 0.489182 0.211313
0.164213 0.502168 0.198829
0.315904 0.527708 0.175402
0.497740 0.561359 0.148263
0.676084 0.598861 0.123982
0.807811 0.634503 0.111933
0.882332 0.661340 0.112692
0.920036 0.676175 0.118272
0.158269 0.643581 0.242105
0.217574 0.645656 0.227463
0.340945 0.659772 0.201372
0.499821 0.682378 0.170949
0.666931 0.709889 0.142989
0.802251 0.737109 0.128533
0.885227 0.757480 0.129961
0.929805 0.768376 0.138037
0.262392 0.754513 0.249175
0.298317 0.752558 0.236773
0.389160 0.760200 0.213707
0.516925 0.775336 0.186099
0.662697 0.795567 0.160172
0.794304 0.816760 0.147498
0.883829 0.832773 0.152482
0.935951 0.841332 0.165751
0.372221 0.827109 0.245618
0.391327 0.825490 0.236023
0.451222 0.830014 0.218035
0.544895 0.840234 0.196354
0.662843 0.855195 0.176157
0.784297 0.872308 0.168684
0.878169 0.885979 0.180025
0.938584 0.893739 0.201426
0.019403 0.028987 0.102053
0.165376 0.086748 0.111262
0.364149 0.150561 0.110476
0.566530 0.217381 0.107701
0.733444 0.283466 0.108672
0.829786 0.339358 0.115019
0.872557 0.375979 0.121329
0.889642 0.394766 0.125201
0.016683 0.096875 0.123294
0.175913 0.151940 0.127812
0.373395 0.210772 0.124237
0.568724 0.271690 0.119166
0.729818 0.332386 0.117500
0.826720 0.386294 0.121659
0.873616 0.424419 0.127261
0.894515 0.445233 0.130962
0.025668 0.213523 0.163728
0.173357 0.257563 0.161614
0.362042 0.306934 0.151559
0.553763 0.359443 0.140018
0.717644 0.412584 0.132085
0.822309 0.460914 0.131932
0.876437 0.496284 0.136181
0.902327 0.515824 0.139965
0.053702 0.361994 0.212781
0.175208 0.390784 0.203889
0.347046 0.427712 0.186242
0.532579 0.469678 0.166696
0.700768 0.513534 0.151007
0.816430 0.554070 0.145601
0.879938 0.584051 0.148362
0.911976 0.600339 0.152685
0.106593 0.524465 0.260606
0.195815 0.537566 0.246385
0.342827 0.560821 0.222359
0.514985 0.590899 0.195706
0.683045 0.624433 0.172814
0.809173 0.656277 0.162409
0.883092 0.679743 0.164074
0.922271 0.692005 0.169622
0.194068 0.669825 0.292821
0.251714 0.671975 0.277000
0.366617 0.684107 0.251077
0.514268 0.703646 0.221798
0.670981 0.727796 0.195540
0.801248 0.751919 0.182560
0.884261 0.769598 0.184611
0.930950 0.778470 0.192744
0.303809 0.772883 0.306381
0.335934 0.770767 0.292215
0.417551 0.776761 0.268959
0.533737 0.789401 0.242179
0.668441 0.806845 0.217515
0.793710 0.825515 0.205523
0.882193 0.839500 0.210082
0.935815 0.846622 0.222660
0.414512 0.839858 0.311475
0.430488 0.837903 0.299916
0.482795 0.841129 0.281161
0.566211 0.849377 0.259418
0.673144 0.861993 0.239303
0.786423 0.876897 0.230844
0.876910 0.888937 0.239592
0.936877 0.895682 0.258264
0.038159 0.056416 0.183444
0.192113 0.110828 0.185927
0.389132 0.173487 0.180624
0.584670 0.240751 0.175220
0.743648 0.308353 0.175121
0.835018 0.366469 0.181719
0.876070 0.405021 0.188509
0.892906 0.424919 0.192635
0.035122 0.141637 0.210739
0.204504 0.193766 0.209819
0.400782 0.250096 0.202408
0.588920 0.308977 0.194905
0.741434 0.368117 0.191976
0.832905 0.421040 0.195788
0.877974 0.458582 0.201218
0.898678 0.479058 0.204624
0.049973 0.269284 0.253516
0.205902 0.310166 0.247587
0.392022 0.355783 0.234888
0.575540 0.404320 0.221702
0.730051 0.453591 0.212905
0.828818 0.498486 0.212297
0.881030 0.531178 0.215996
0.906868 0.548991 0.219081
0.088254 0.420013 0.302014
0.213844 0.445744 0.291092
0.380384 0.478318 0.272382
0.555912 0.515240 0.252458
0.713493 0.553875 0.236762
0.822592 0.589519 0.231146
0.884064 0.615520 0.233187
0.916254 0.629155 0.236590
0.153602 0.575187 0.347601
0.242217 0.586199 0.333029
0.380546 0.605467 0.309671
0.540247 0.630445 0.284175
0.695908 0.658454 0.262405
0.814455 0.685043 0.252224
0.886085 0.704223 0.253110
0.925613 0.713625 0.257665
0.250998 0.706469 0.379237
0.305130 0.707890 0.363765
0.409142 0.717142 0.339556
0.542418 0.732438 0.312533
0.684857 0.751709 0.288288
0.805937 0.771156 0.275825
0.885886 0.785160 0.276857
0.932821 0.791698 0.283765
0.363579 0.796915 0.396071
0.391873 0.794698 0.381927
0.463028 0.798773 0.360329
0.565073 0.808211 0.335902
0.684886 0.821716 0.313357
0.799297 0.836516 0.301617
0.883205 0.847594 0.304273
0.936252 0.853007 0.314530
0.470864 0.854708 0.406105
0.484138 0.852742 0.394122
0.528410 0.854745 0.376493
0.599998 0.860747 0.356575
0.693130 0.870370 0.338054
0.794468 0.882174 0.328974
0.878377 0.891970 0.334041
0.936108 0.897520 0.347918
0.062691 0.096811 0.286901
0.224865 0.149690 0.284828
0.419230 0.212132 0.277523
0.606574 0.279900 0.271414
0.756364 0.348245 0.270932
0.841989 0.407008 0.276996
0.880898 0.445811 0.283234
0.897175 0.465643 0.286958
0.062460 0.201573 0.321923
0.230691 0.248920 0.318176
0.421803 0.302284 0.309259
0.603452 0.359138 0.300741
0.750338 0.416495 0.296671
0.838935 0.467454 0.298981
0.883190 0.503197 0.303077
0.903917 0.522471 0.305675
0.087209 0.339754 0.368007
0.238222 0.374610 0.360641
0.416428 0.415263 0.347416
0.591613 0.459404 0.333862
0.739421 0.504473 0.324282
0.834916 0.545237 0.322102
0.886298 0.574507 0.324106
0.912332 0.590166 0.326072
0.139093 0.490355 0.416081
0.258863 0.510619 0.405016
0.414873 0.537490 0.387147
0.578591 0.568569 0.368168
0.725930 0.601352 0.352804
0.829334 0.631478 0.346157
0.888996 0.653100 0.346456
0.921206 0.664036 0.348544
0.218318 0.634679 0.458622
0.301055 0.642187 0.445175
0.426798 0.656478 0.424214
0.571252 0.675545 0.401295
0.712567 0.697239 0.381340
0.822086 0.717900 0.370992
0.890311 0.732537 0.370269
0.929390 0.739232 0.373395
0.323803 0.748185 0.487565
0.372514 0.748322 0.473910
0.463582 0.754265 0.453107
0.580125 0.764827 0.429850
0.705572 0.778562 0.408614
0.814609 0.792662 0.396718
0.889271 0.802708 0.396145
0.935008 0.807030 0.401317
0.435242 0.823126 0.504455
0.459554 0.820795 0.491988
0.519611 0.822907 0.473809
0.606160 0.828943 0.453368
0.708894 0.838092 0.434220
0.809558 0.848486 0.423242
0.886347 0.856366 0.423768
0.937126 0.860091 0.431222
0.534798 0.869790 0.515712
0.545760 0.867963 0.504912
0.582189 0.868873 0.490192
0.641612 0.872650 0.473900
0.719844 0.879134 0.458621
0.807159 0.887536 0.450020
0.882275 0.894852 0.451746
0.936266 0.899138 0.460584
0.091612 0.152233 0.403437
0.261265 0.205870 0.400494
0.451892 0.268804 0.394601
0.630124 0.336495 0.390241
0.770297 0.403994 0.390409
0.850164 0.461059 0.395344
0.886896 0.497908 0.400013
0.902455 0.516095 0.402549
0.098321 0.275325 0.446160
0.259461 0.317864 0.442430
0.442282 0.368050 0.434844
0.616531 0.422293 0.427465
0.758410 0.476792 0.423264
0.845178 0.524188 0.423702
0.889087 0.556579 0.425689
0.909844 0.573505 0.426978
0.136811 0.420523 0.494856
0.275298 0.448461 0.488300
0.441188 0.483574 0.477042
0.606277 0.522801 0.465177
0.747575 0.563016 0.455945
0.840779 0.598796 0.452095
0.891845 0.623896 0.451879
0.918113 0.636924 0.452484
0.204429 0.566753 0.541446
0.311643 0.580628 0.532010
0.452588 0.601259 0.517190
0.601979 0.626144 0.501149
0.738263 0.652766 0.487402
0.836134 0.677108 0.479943
0.894084 0.694286 0.478246
0.926167 0.702663 0.478980
0.296983 0.696504 0.579662
0.369531 0.699898 0.568710
0.479290 0.708955 0.552014
0.606010 0.722025 0.533518
0.731333 0.737371 0.516780
0.830833 0.752168 0.506825
0.894963 0.762572 0.504538
0.933024 0.767051 0.506331
0.406862 0.790006 0.603986
0.448422 0.788581 0.593378
0.525058 0.791247 0.577549
0.623435 0.797232 0.559681
0.730375 0.805583 0.542875
0.825732 0.814494 0.532438
0.893685 0.820904 0.530643
0.937150 0.823471 0.534290
0.512514 0.848368 0.618104
0.532627 0.845864 0.608646
0.581548 0.846181 0.595327
0.652396 0.849075 0.580349
0.737415 0.854112 0.566031
0.822988 0.860286 0.557021
0.891072 0.865187 0.556246
0.938275 0.867500 0.561421
0.600440 0.883476 0.627345
0.609387 0.881787 0.619126
0.638659 0.881782 0.608733
0.686625 0.883606 0.597527
0.750341 0.887246 0.587001
0.823108 0.892449 0.580434
0.888183 0.897379 0.580292
0.937245 0.900441 0.585358
0.123687 0.226978 0.517633
0.298358 0.284023 0.518627
0.483590 0.347341 0.517999
0.652164 0.412916 0.518166
0.783335 0.476375 0.520622
0.858554 0.528219 0.524778
0.893796 0.560435 0.527587
0.908901 0.575418 0.528610
0.142848 0.360545 0.564443
0.295943 0.400309 0.563447
0.468131 0.447302 0.560127
0.632495 0.497558 0.556651
0.767644 0.547080 0.554568
0.852010 0.588657 0.554413
0.895436 0.615918 0.554715
0.916052 0.629333 0.554725
0.198001 0.504291 0.612414
0.322415 0.526924 0.608356
0.473095 0.556929 0.601434
0.625000 0.590895 0.593870
0.757389 0.625496 0.587443
0.847145 0.655462 0.583717
0.897405 0.675751 0.582255
0.923510 0.685737 0.581945
0.280991 0.639362 0.655020
0.373287 0.648062 0.648375
0.496396 0.663313 0.638472
0.628867 0.682618 0.627624
0.752111 0.703540 0.617834
0.843344 0.722492 0.611566
0.898961 0.735598 0.609241
0.930371 0.741751 0.609442
0.383092 0.751015 0.687502
0.443317 0.751018 0.679784
0.535397 0.755854 0.668614
0.643090 0.764108 0.656217
0.751467 0.774341 0.644664
0.840192 0.784434 0.637119
0.899522 0.791596 0.634894
0.935857 0.794662 0.636444
0.491407 0.824827 0.706363
0.524891 0.822076 0.699220
0.587028 0.822275 0.689013
0.667599 0.824865 0.677539
0.756423 0.829202 0.666606
0.837957 0.834236 0.659508
0.898494 0.838076 0.658303
0.938800 0.839712 0.661733
0.586555 0.868321 0.716500
0.602306 0.865598 0.710353
0.641045 0.864636 0.702171
0.697718 0.865306 0.693165
0.766578 0.867391 0.684635
0.837754 0.870477 0.679288
0.896700 0.873248 0.679281
0.939385 0.874745 0.683988
0.660473 0.893591 0.722481
0.667371 0.891880 0.717110
0.690638 0.891227 0.711133
0.729068 0.891710 0.705192
0.780479 0.893344 0.699968
0.840208 0.896159 0.696978
0.895340 0.899192 0.697569
0.938662 0.901253 0.701789
0.157223 0.313540 0.611679
0.333606 0.375467 0.618790
0.511762 0.438030 0.624499
0.670522 0.498885 0.629917
0.793795 0.555243 0.635592
0.865906 0.599436 0.640256
0.900661 0.625726 0.642173
0.915765 0.637096 0.642243
0.193199 0.447123 0.657698
0.338910 0.486060 0.660159
0.499245 0.529615 0.661643
0.651677 0.574486 0.662896
0.778103 0.617363 0.664352
0.858948 0.652012 0.665540
0.901522 0.673681 0.665654
0.921834 0.683451 0.665074
0.264512 0.580661 0.701289
0.376573 0.600204 0.699750
0.511594 0.625906 0.697253
0.648533 0.654679 0.694582
0.769682 0.683552 0.692325
0.854143 0.707884 0.690816
0.902617 0.723737 0.689911
0.927968 0.730963 0.689569
0.358873 0.699227 0.737850
0.437619 0.704821 0.733688
0.543338 0.716218 0.728355
0.658530 0.731191 0.722814
0.767747 0.747593 0.717901
0.851155 0.762380 0.714695
0.903508 0.772469 0.713611
0.933456 0.777075 0.714312
0.464567 0.791803 0.764256
0.513219 0.789855 0.759225
0.588907 0.792077 0.752771
0.678937 0.797290 0.745976
0.771427 0.804316 0.739857
0.849682 0.811564 0.736089
0.903842 0.816943 0.735637
0.937701 0.819520 0.738025
0.566309 0.848990 0.778669
0.592123 0.845502 0.774181
0.641513 0.844342 0.768397
0.706798 0.845091 0.762274
0.780192 0.847291 0.756778
0.849713 0.850347 0.753757
0.903240 0.853072 0.754557
0.939850 0.854693 0.758834
0.649170 0.881361 0.786103
0.660716 0.878472 0.782276
0.690944 0.876845 0.777829
0.736169 0.876390 0.773413
0.792116 0.876982 0.769713
0.851528 0.878512 0.768213
0.902375 0.880307 0.770187
0.940270 0.881698 0.775660
0.709732 0.899761 0.790217
0.714572 0.897906 0.786680
0.732987 0.896903 0.783638
0.764048 0.896710 0.781343
0.806064 0.897281 0.780044
0.855613 0.898708 0.780396
0.902370 0.900529 0.782988
0.940010 0.901953 0.788176
0.192387 0.399775 0.683362
0.368495 0.468177 0.696836
0.538314 0.529339 0.707985
0.686802 0.583915 0.717632
0.802496 0.631769 0.726149
0.872277 0.667910 0.732084
0.907064 0.688438 0.734097
0.922158 0.696254 0.733736
0.248101 0.528084 0.726659
0.385485 0.567091 0.732173
0.532802 0.606820 0.737378
0.672070 0.645484 0.742375
0.788644 0.681149 0.747059
0.865340 0.709159 0.750323
0.906911 0.725913 0.751188
0.926810 0.732401 0.750391
0.333251 0.646989 0.764388
0.432916 0.664414 0.764686
0.552013 0.686114 0.765409
0.673405 0.709796 0.766538
0.782428 0.733232 0.767956
0.860810 0.752787 0.769138
0.907120 0.765251 0.769522
0.931450 0.770305 0.769308
0.434045 0.746853 0.794266
0.499676 0.750468 0.791798
0.588752 0.758892 0.789722
0.687348 0.770375 0.788194
0.782905 0.783234 0.787319
0.858516 0.795150 0.787221
0.907465 0.803525 0.787786
0.935578 0.807349 0.788900
0.538085 0.821125 0.814990
0.575531 0.818129 0.811780
0.636190 0.818734 0.808619
0.710449 0.822060 0.805895
0.789031 0.827235 0.803964
0.858266 0.833211 0.803510
0.907766 0.838261 0.804851
0.938796 0.841247 0.807741
0.630295 0.864888 0.826121
0.648473 0.861047 0.823368
0.686512 0.859218 0.820558
0.738930 0.859138 0.818140
0.799916 0.860526 0.816557
0.860108 0.863165 0.816740
0.907902 0.866173 0.819247
0.940611 0.868647 0.823824
0.700573 0.889273 0.831966
0.707982 0.886317 0.829638
0.730908 0.884445 0.827610
0.766925 0.883612 0.826197
0.812983 0.883767 0.825719
0.863670 0.885020 0.826989
0.908171 0.886959 0.830520
0.941329 0.888889 0.836190
0.748824 0.903149 0.835102
0.752029 0.901208 0.832875
0.766519 0.900130 0.831692
0.791804 0.899756 0.831571
0.826711 0.899964 0.832546
0.868739 0.900851 0.834976
0.909041 0.902186 0.839088
0.941533 0.903375 0.845009
