Assets/1__3DArt/KimSe/artstation_asset/LUTs_pasterls/CUBE/Orange Cream 02 S.cube
# Enhanced with VOXCOLOR algorithms
LUT_3D_SIZE 32
0.035294 0.078431 0.039216
0.086861 0.084635 0.043877
0.138427 0.090839 0.048538
0.189994 0.097043 0.053200
0.241561 0.103247 0.057861
0.293128 0.109451 0.062522
0.341990 0.117281 0.069271
0.390312 0.125437 0.076438
0.438634 0.133593 0.083605
0.486956 0.141749 0.090772
0.535278 0.149904 0.097939
0.576288 0.158879 0.105803
0.613642 0.168262 0.114016
0.650997 0.177646 0.122229
0.688351 0.187030 0.130442
0.725706 0.196413 0.138655
0.756196 0.205097 0.146371
0.779823 0.213082 0.153591
0.803449 0.221067 0.160811
0.827076 0.229052 0.168031
0.850702 0.237037 0.175252
0.870201 0.243738 0.181604
0.881446 0.247873 0.186219
0.892690 0.252008 0.190835
0.903935 0.256143 0.195450
0.915180 0.260277 0.200066
0.925086 0.263691 0.204165
0.928304 0.263502 0.205685
0.931522 0.263313 0.207205
0.934740 0.263124 0.208725
0.937958 0.262934 0.210245
0.941176 0.262745 0.211765
0.035601 0.114092 0.044428
0.086013 0.119238 0.048155
0.136425 0.124383 0.051883
0.186837 0.129529 0.055610
0.237250 0.134675 0.059337
0.287662 0.139821 0.063065
0.335334 0.146239 0.068685
0.382459 0.152911 0.074684
0.429584 0.159583 0.080683
0.476709 0.166256 0.086682
0.523834 0.172928 0.092681
0.564037 0.180456 0.099484
0.600780 0.188410 0.106688
0.637522 0.196365 0.113892
0.674265 0.204320 0.121097
0.711007 0.212275 0.128301
0.741403 0.219834 0.135281
0.765453 0.226997 0.142038
0.789503 0.234161 0.148794
0.813552 0.241324 0.155550
0.837602 0.248488 0.162306
0.857812 0.254667 0.168439
0.870342 0.258879 0.173326
0.882872 0.263091 0.178212
0.895402 0.267303 0.183099
0.907932 0.271514 0.187986
0.919095 0.275114 0.192454
0.923421 0.275652 0.194833
0.927747 0.276190 0.197211
0.932073 0.276728 0.199589
0.936399 0.277266 0.201967
0.940725 0.277804 0.204345
0.035907 0.149753 0.049639
0.085165 0.153840 0.052433
0.134423 0.157928 0.055227
0.183680 0.162015 0.058020
0.232938 0.166103 0.060814
0.282196 0.170190 0.063608
0.328679 0.175196 0.068099
0.374606 0.180385 0.072930
0.420534 0.185574 0.077761
0.466462 0.190763 0.082592
0.512390 0.195952 0.087423
0.551786 0.202033 0.093164
0.587917 0.208559 0.099360
0.624047 0.215085 0.105556
0.660178 0.221611 0.111752
0.696309 0.228137 0.117948
0.726611 0.234571 0.124192
0.751083 0.240913 0.130484
0.775556 0.247255 0.136776
0.800029 0.253597 0.143068
0.824502 0.259939 0.149360
0.845422 0.265596 0.155274
0.859238 0.269885 0.160432
0.873053 0.274174 0.165590
0.886869 0.278463 0.170748
0.900684 0.282752 0.175906
0.913103 0.286536 0.180744
0.918537 0.287802 0.183980
0.923971 0.289067 0.187216
0.929406 0.290333 0.190453
0.934840 0.291598 0.193689
0.940274 0.292864 0.196926
0.036214 0.185414 0.054851
0.084317 0.188443 0.056711
0.132420 0.191472 0.058571
0.180524 0.194501 0.060431
0.228627 0.197530 0.062290
0.276730 0.200560 0.064150
0.322023 0.204153 0.067513
0.366754 0.207859 0.071176
0.411484 0.211564 0.074839
0.456215 0.215270 0.078502
0.500946 0.218976 0.082165
0.539535 0.223609 0.086844
0.575054 0.228707 0.092032
0.610573 0.233804 0.097219
0.646091 0.238901 0.102407
0.681610 0.243998 0.107594
0.711818 0.249307 0.113102
0.736714 0.254828 0.118930
0.761610 0.260348 0.124758
0.786506 0.265869 0.130587
0.811402 0.271390 0.136415
0.833033 0.276525 0.142110
0.848134 0.280891 0.147539
0.863235 0.285257 0.152968
0.878335 0.289623 0.158397
0.893436 0.293989 0.163826
0.907111 0.297959 0.169033
0.913653 0.299952 0.173127
0.920196 0.301945 0.177222
0.926738 0.303938 0.181317
0.933281 0.305930 0.185411
0.939823 0.307923 0.189506
0.036520 0.221075 0.060063
0.083469 0.223046 0.060989
0.130418 0.225016 0.061915
0.177367 0.226987 0.062841
0.224316 0.228958 0.063767
0.271264 0.230929 0.064693
0.315367 0.233110 0.066927
0.358901 0.235332 0.069422
0.402434 0.237555 0.071917
0.445968 0.239777 0.074412
0.489502 0.242000 0.076907
0.527284 0.245186 0.080525
0.562191 0.248855 0.084704
0.597098 0.252523 0.088883
0.632005 0.256192 0.093062
0.666912 0.259860 0.097241
0.697025 0.264044 0.102012
0.722344 0.268743 0.107377
0.747663 0.273442 0.112741
0.772983 0.278141 0.118105
0.798302 0.282841 0.123469
0.820643 0.287454 0.128945
0.837030 0.291897 0.134645
0.853416 0.296340 0.140346
0.869802 0.300783 0.146046
0.886189 0.305226 0.151746
0.901119 0.309382 0.157322
0.908770 0.312102 0.162275
0.916420 0.314822 0.167228
0.924071 0.317542 0.172181
0.931722 0.320262 0.177133
0.939372 0.322983 0.182086
0.036827 0.256736 0.065274
0.082621 0.257648 0.065267
0.128416 0.258561 0.065259
0.174210 0.259473 0.065251
0.220004 0.260386 0.065243
0.265799 0.261299 0.065236
0.308711 0.262067 0.066340
0.351048 0.262806 0.067668
0.393385 0.263545 0.068995
0.435721 0.264284 0.070322
0.478058 0.265024 0.071649
0.515033 0.266763 0.074205
0.549328 0.269003 0.077376
0.583623 0.271242 0.080546
0.617918 0.273482 0.083717
0.652213 0.275722 0.086887
0.682232 0.278780 0.090923
0.707974 0.282658 0.095823
0.733717 0.286536 0.100723
0.759459 0.290414 0.105623
0.785202 0.294292 0.110523
0.808254 0.298383 0.115781
0.825926 0.302903 0.121752
0.843597 0.307423 0.127724
0.861269 0.311943 0.133695
0.878941 0.316463 0.139666
0.895127 0.320804 0.145611
0.903886 0.324252 0.151422
0.912645 0.327699 0.157233
0.921404 0.331147 0.163044
0.930162 0.334594 0.168856
0.938921 0.338042 0.174667
0.039306 0.292642 0.070992
0.083793 0.292858 0.070408
0.128280 0.293073 0.069823
0.172767 0.293289 0.069239
0.217253 0.293505 0.068654
0.261740 0.293720 0.068070
0.303663 0.293556 0.068342
0.345073 0.293316 0.068785
0.386484 0.293076 0.069229
0.427894 0.292835 0.069672
0.469304 0.292595 0.070115
0.505813 0.293342 0.071801
0.539871 0.294581 0.074109
0.573929 0.295821 0.076416
0.607987 0.297061 0.078723
0.642046 0.298301 0.081031
0.672206 0.300484 0.084355
0.698467 0.303611 0.088696
0.724729 0.306738 0.093037
0.750990 0.309865 0.097378
0.777251 0.312992 0.101719
0.800985 0.316470 0.106564
0.819661 0.320652 0.112418
0.838338 0.324833 0.118272
0.857015 0.329015 0.124126
0.875691 0.333196 0.129980
0.892849 0.337264 0.135871
0.902416 0.340762 0.141952
0.911982 0.344260 0.148032
0.921549 0.347759 0.154112
0.931115 0.351257 0.160193
0.940681 0.354755 0.166273
0.042220 0.328597 0.076812
0.085369 0.328188 0.075722
0.128517 0.327779 0.074632
0.171666 0.327371 0.073542
0.214815 0.326962 0.072452
0.257963 0.326553 0.071362
0.298937 0.325552 0.070861
0.339474 0.324433 0.070477
0.380012 0.323314 0.070094
0.420550 0.322195 0.069710
0.461088 0.321076 0.069327
0.497198 0.320920 0.070181
0.531095 0.321246 0.071654
0.564991 0.321572 0.073127
0.598888 0.321898 0.074601
0.632784 0.322224 0.076074
0.663132 0.323582 0.078691
0.689932 0.325972 0.082454
0.716732 0.328362 0.086217
0.743531 0.330752 0.089979
0.770331 0.333142 0.093742
0.794739 0.335988 0.098136
0.814365 0.339748 0.103795
0.833990 0.343508 0.109454
0.853616 0.347268 0.115113
0.873241 0.351028 0.120771
0.891315 0.354731 0.126526
0.901628 0.358144 0.132758
0.911942 0.361558 0.138989
0.922256 0.364972 0.145221
0.932570 0.368385 0.151453
0.942884 0.371799 0.157685
0.045134 0.364553 0.082631
0.086944 0.363519 0.081035
0.128755 0.362486 0.079440
0.170566 0.361452 0.077845
0.212376 0.360418 0.076249
0.254187 0.359385 0.074654
0.294210 0.357548 0.073379
0.333875 0.355550 0.072169
0.373541 0.353552 0.070959
0.413207 0.351555 0.069749
0.452872 0.349557 0.068538
0.488584 0.348499 0.068561
0.522319 0.347911 0.069200
0.556054 0.347323 0.069839
0.589788 0.346735 0.070478
0.623523 0.346147 0.071116
0.654059 0.346679 0.073028
0.681397 0.348332 0.076212
0.708735 0.349985 0.079397
0.736073 0.351638 0.082581
0.763411 0.353292 0.085765
0.788494 0.355507 0.089709
0.809068 0.358845 0.095173
0.829643 0.362184 0.100636
0.850217 0.365522 0.106100
0.870791 0.368861 0.111563
0.889780 0.372198 0.117180
0.900841 0.375527 0.123563
0.911902 0.378856 0.129947
0.922964 0.382185 0.136330
0.934025 0.385514 0.142713
0.945087 0.388843 0.149096
0.048048 0.400508 0.088450
0.088520 0.398850 0.086349
0.128993 0.397192 0.084248
0.169465 0.395534 0.082148
0.209937 0.393875 0.080047
0.250410 0.392217 0.077946
0.289483 0.389544 0.075898
0.328276 0.386667 0.073861
0.367070 0.383791 0.071824
0.405863 0.380914 0.069787
0.444657 0.378038 0.067750
0.479970 0.376078 0.066941
0.513543 0.374576 0.066745
0.547116 0.373073 0.066550
0.580689 0.371571 0.066355
0.614262 0.370069 0.066159
0.644986 0.369776 0.067365
0.672862 0.370693 0.069971
0.700738 0.371609 0.072577
0.728615 0.372525 0.075182
0.756491 0.373442 0.077788
0.782249 0.375025 0.081282
0.803772 0.377942 0.086550
0.825295 0.380859 0.091818
0.846818 0.383776 0.097087
0.868341 0.386693 0.102355
0.888245 0.389665 0.107835
0.900054 0.392909 0.114369
0.911863 0.396154 0.120904
0.923671 0.399398 0.127439
0.935480 0.402642 0.133973
0.947289 0.405887 0.140508
0.050962 0.436464 0.094269
0.090096 0.434181 0.091663
0.129230 0.431898 0.089057
0.168364 0.429615 0.086451
0.207499 0.427332 0.083844
0.246633 0.425049 0.081238
0.284756 0.421539 0.078417
0.322677 0.417784 0.075553
0.360599 0.414029 0.072689
0.398520 0.410274 0.069825
0.436441 0.406519 0.066961
0.471356 0.403656 0.065320
0.504767 0.401240 0.064291
0.538178 0.398824 0.063261
0.571589 0.396408 0.062232
0.605000 0.393992 0.061202
0.635913 0.392874 0.061701
0.664327 0.393053 0.063729
0.692742 0.393233 0.065756
0.721156 0.393412 0.067784
0.749570 0.393591 0.069812
0.776004 0.394543 0.072854
0.798475 0.397039 0.077928
0.820947 0.399534 0.083001
0.843419 0.402030 0.088074
0.865891 0.404525 0.093147
0.886710 0.407132 0.098489
0.899266 0.410291 0.105175
0.911823 0.413451 0.111861
0.924379 0.416611 0.118547
0.936935 0.419771 0.125234
0.949492 0.422931 0.131920
0.059139 0.470998 0.101836
0.096602 0.468304 0.098895
0.134066 0.465610 0.095955
0.171529 0.462916 0.093014
0.208992 0.460222 0.090073
0.246455 0.457528 0.087132
0.283585 0.453520 0.083707
0.320647 0.449249 0.080185
0.357710 0.444978 0.076663
0.394772 0.440708 0.073141
0.431835 0.436437 0.069618
0.466405 0.433018 0.067268
0.499729 0.430024 0.065503
0.533052 0.427031 0.063738
0.566376 0.424037 0.061973
0.599700 0.421043 0.060208
0.630795 0.419349 0.060059
0.659661 0.418955 0.061524
0.688526 0.418560 0.062989
0.717392 0.418165 0.064455
0.746258 0.417771 0.065920
0.773210 0.418173 0.068502
0.796332 0.420168 0.073315
0.819455 0.422163 0.078128
0.842577 0.424159 0.082941
0.865699 0.426154 0.087754
0.887134 0.428283 0.092873
0.900131 0.431082 0.099523
0.913127 0.433880 0.106173
0.926124 0.436679 0.112822
0.939121 0.439478 0.119472
0.952117 0.442276 0.126122
0.069948 0.504823 0.110277
0.105574 0.501824 0.107087
0.141200 0.498825 0.103897
0.176826 0.495827 0.100707
0.212452 0.492828 0.097518
0.248078 0.489829 0.094328
0.284191 0.485492 0.090383
0.320401 0.480888 0.086287
0.356612 0.476283 0.082190
0.392823 0.471678 0.078094
0.429034 0.467074 0.073998
0.463286 0.463270 0.070999
0.496559 0.459867 0.068548
0.529833 0.456465 0.066097
0.563106 0.453062 0.063647
0.596379 0.449659 0.061196
0.627653 0.447514 0.060426
0.656927 0.446627 0.061338
0.686202 0.445739 0.062249
0.715476 0.444852 0.063161
0.744751 0.443965 0.064072
0.772142 0.443859 0.066186
0.795765 0.445314 0.070707
0.819389 0.446770 0.075227
0.843013 0.448225 0.079747
0.866637 0.449681 0.084267
0.888538 0.451277 0.089121
0.901821 0.453576 0.095641
0.915104 0.455875 0.102161
0.928388 0.458175 0.108681
0.941671 0.460474 0.115201
0.954954 0.462773 0.121721
0.080758 0.538647 0.118717
0.114546 0.535344 0.115279
0.148335 0.532040 0.111840
0.182123 0.528737 0.108401
0.215911 0.525434 0.104962
0.249700 0.522131 0.101523
0.284797 0.517465 0.097058
0.320156 0.512526 0.092388
0.355514 0.507588 0.087718
0.390873 0.502649 0.083048
0.426232 0.497711 0.078378
0.460167 0.493523 0.074730
0.493390 0.489711 0.071593
0.526613 0.485899 0.068457
0.559836 0.482087 0.065320
0.593059 0.478275 0.062184
0.624512 0.475679 0.060794
0.654194 0.474299 0.061151
0.683877 0.472919 0.061509
0.713560 0.471539 0.061866
0.743243 0.470159 0.062223
0.771073 0.469544 0.063871
0.795199 0.470460 0.068098
0.819324 0.471376 0.072326
0.843450 0.472292 0.076554
0.867575 0.473208 0.080781
0.889941 0.474271 0.085369
0.903511 0.476071 0.091759
0.917081 0.477870 0.098149
0.930651 0.479670 0.104539
0.944221 0.481470 0.110929
0.957791 0.483270 0.117319
0.091567 0.572471 0.127158
0.123518 0.568863 0.123470
0.155469 0.565256 0.119782
0.187420 0.561648 0.116094
0.219371 0.558040 0.112407
0.251322 0.554433 0.108719
0.285403 0.549438 0.103734
0.319910 0.544165 0.098490
0.354417 0.538893 0.093246
0.388924 0.533620 0.088002
0.423431 0.528347 0.082757
0.457048 0.523776 0.078461
0.490221 0.519554 0.074639
0.523393 0.515333 0.070816
0.556566 0.511112 0.066994
0.589738 0.506890 0.063171
0.621370 0.503843 0.061162
0.651461 0.501971 0.060965
0.681553 0.500098 0.060768
0.711644 0.498226 0.060572
0.741735 0.496353 0.060375
0.770005 0.495230 0.061555
0.794632 0.495606 0.065490
0.819259 0.495982 0.069425
0.843886 0.496359 0.073360
0.868513 0.496735 0.077295
0.891345 0.497265 0.081617
0.905201 0.498565 0.087877
0.919058 0.499865 0.094137
0.932915 0.501166 0.100397
0.946772 0.502466 0.106657
0.960628 0.503766 0.112917
0.102376 0.606295 0.135599
0.132490 0.602383 0.131662
0.162603 0.598471 0.127725
0.192717 0.594559 0.123788
0.222831 0.590647 0.119851
0.252944 0.586735 0.115914
0.286009 0.581410 0.110410
0.319664 0.575804 0.104592
0.353319 0.570197 0.098773
0.386974 0.564591 0.092955
0.420629 0.558984 0.087137
0.453929 0.554028 0.082192
0.487051 0.549398 0.077684
0.520173 0.544767 0.073176
0.553296 0.540136 0.068667
0.586418 0.535506 0.064159
0.618229 0.532008 0.061529
0.648728 0.529643 0.060779
0.679228 0.527277 0.060028
0.709728 0.524912 0.059277
0.740228 0.522547 0.058526
0.768937 0.520916 0.059240
0.794065 0.520752 0.062882
0.819194 0.520589 0.066524
0.844322 0.520425 0.070167
0.869451 0.520262 0.073809
0.892748 0.520259 0.077866
0.906892 0.521060 0.083996
0.921035 0.521860 0.090125
0.935179 0.522661 0.096255
0.949322 0.523462 0.102385
0.963465 0.524263 0.108515
0.117932 0.637463 0.146610
0.146060 0.633392 0.142447
0.174187 0.629320 0.138284
0.202315 0.625249 0.134122
0.230442 0.621177 0.129959
0.258570 0.617106 0.125796
0.290468 0.611648 0.119819
0.323121 0.605912 0.113479
0.355773 0.600177 0.107138
0.388426 0.594441 0.100798
0.421079 0.588705 0.094458
0.453899 0.583567 0.088912
0.486804 0.578726 0.083764
0.519709 0.573886 0.078615
0.552614 0.569046 0.073467
0.585519 0.564206 0.068319
0.617325 0.560430 0.065115
0.648033 0.557719 0.063857
0.678742 0.555008 0.062599
0.709450 0.552298 0.061341
0.740158 0.549587 0.060082
0.769103 0.547569 0.060382
0.794522 0.546936 0.063796
0.819941 0.546302 0.067210
0.845360 0.545669 0.070625
0.870780 0.545036 0.074039
0.894348 0.544557 0.077895
0.908662 0.544847 0.083960
0.922977 0.545137 0.090026
0.937291 0.545427 0.096091
0.951605 0.545717 0.102157
0.965919 0.546007 0.108222
0.138234 0.665976 0.160191
0.164227 0.661890 0.155826
0.190220 0.657804 0.151461
0.216213 0.653719 0.147096
0.242206 0.649633 0.142731
0.268199 0.645547 0.138366
0.298781 0.640150 0.131962
0.330280 0.634490 0.125152
0.361780 0.628830 0.118341
0.393279 0.623171 0.111530
0.424779 0.617511 0.104719
0.456959 0.612391 0.098621
0.489480 0.607541 0.092878
0.522000 0.602690 0.087136
0.554521 0.597840 0.081394
0.587042 0.592989 0.075651
0.618660 0.589109 0.071920
0.649377 0.586200 0.070201
0.680093 0.583291 0.068481
0.710809 0.580382 0.066762
0.741526 0.577473 0.065043
0.770503 0.575189 0.064980
0.796002 0.574157 0.068231
0.821501 0.573124 0.071483
0.847000 0.572091 0.074734
0.872499 0.571058 0.077985
0.896144 0.570159 0.081705
0.910513 0.569927 0.087772
0.924882 0.569695 0.093839
0.939252 0.569462 0.099905
0.953621 0.569230 0.105972
0.967990 0.568998 0.112039
0.158536 0.694489 0.173772
0.182394 0.690389 0.169205
0.206253 0.686289 0.164637
0.230111 0.682188 0.160070
0.253970 0.678088 0.155502
0.277828 0.673988 0.150935
0.307093 0.668652 0.144106
0.337440 0.663068 0.136825
0.367786 0.657484 0.129543
0.398132 0.651901 0.122262
0.428479 0.646317 0.114981
0.460019 0.641215 0.108330
0.492155 0.636355 0.101993
0.524291 0.631494 0.095657
0.556428 0.626634 0.089320
0.588564 0.621773 0.082983
0.619995 0.617789 0.078725
0.650720 0.614681 0.076544
0.681444 0.611574 0.074364
0.712169 0.608466 0.072183
0.742894 0.605359 0.070003
0.771903 0.602810 0.069579
0.797482 0.601377 0.072667
0.823061 0.599945 0.075755
0.848640 0.598513 0.078843
0.874219 0.597080 0.081931
0.897939 0.595761 0.085516
0.912364 0.595007 0.091584
0.926788 0.594252 0.097652
0.941213 0.593498 0.103720
0.955637 0.592744 0.109788
0.970061 0.591990 0.115855
0.178838 0.723002 0.187354
0.200562 0.718887 0.182584
0.222286 0.714773 0.177814
0.244010 0.710658 0.173044
0.265734 0.706544 0.168274
0.287458 0.702429 0.163504
0.315406 0.697154 0.156249
0.344599 0.691646 0.148497
0.373792 0.686138 0.140746
0.402986 0.680631 0.132994
0.432179 0.675123 0.125243
0.463078 0.670040 0.118038
0.494830 0.665169 0.111108
0.526583 0.660298 0.104177
0.558335 0.655428 0.097246
0.590087 0.650557 0.090316
0.621330 0.646469 0.085530
0.652063 0.643163 0.082888
0.682796 0.639857 0.080246
0.713529 0.636551 0.077605
0.744262 0.633245 0.074963
0.773304 0.630430 0.074177
0.798962 0.628598 0.077102
0.824621 0.626766 0.080027
0.850280 0.624934 0.082952
0.875939 0.623102 0.085877
0.899735 0.621363 0.089326
0.914214 0.620087 0.095395
0.928694 0.618810 0.101465
0.943173 0.617534 0.107534
0.957653 0.616257 0.113603
0.972132 0.614981 0.119672
0.199139 0.751514 0.200935
0.218729 0.747386 0.195962
0.238318 0.743257 0.190990
0.257908 0.739128 0.186018
0.277497 0.734999 0.181045
0.297087 0.730870 0.176073
0.323718 0.725656 0.168392
0.351759 0.720224 0.160170
0.379799 0.714792 0.151948
0.407839 0.709360 0.143726
0.435879 0.703929 0.135504
0.466138 0.698864 0.127747
0.497506 0.693983 0.120222
0.528874 0.689102 0.112698
0.560242 0.684222 0.105173
0.591610 0.679341 0.097648
0.622665 0.675148 0.092334
0.653406 0.671644 0.089232
0.684147 0.668139 0.086129
0.714889 0.664635 0.083026
0.745630 0.661131 0.079924
0.774704 0.658051 0.078776
0.800443 0.655819 0.081538
0.826181 0.653588 0.084299
0.851920 0.651356 0.087061
0.877659 0.649125 0.089823
0.901530 0.646965 0.093137
0.916065 0.645167 0.099207
0.930600 0.643368 0.105277
0.945134 0.641570 0.111348
0.959669 0.639771 0.117418
0.974203 0.637972 0.123489
0.221909 0.777437 0.216500
0.239455 0.773378 0.211345
0.257001 0.769319 0.206190
0.274547 0.765260 0.201035
0.292094 0.761201 0.195880
0.309640 0.757142 0.190725
0.334845 0.752066 0.182642
0.361582 0.746786 0.173974
0.388318 0.741505 0.165307
0.415055 0.736225 0.156639
0.441792 0.730945 0.147971
0.471201 0.725976 0.139686
0.501945 0.721162 0.131593
0.532689 0.716348 0.123501
0.563433 0.711534 0.115408
0.594177 0.706720 0.107315
0.624818 0.702504 0.101498
0.655354 0.698888 0.097957
0.685890 0.695271 0.094416
0.716426 0.691654 0.090875
0.746962 0.688038 0.087334
0.775891 0.684782 0.085850
0.801605 0.682246 0.088480
0.827319 0.679710 0.091109
0.853033 0.677175 0.093738
0.878747 0.674639 0.096368
0.902615 0.672154 0.099583
0.917255 0.669922 0.105732
0.931894 0.667690 0.111880
0.946533 0.665458 0.118028
0.961172 0.663226 0.124176
0.975811 0.660994 0.130324
0.249613 0.798180 0.236033
0.265299 0.794359 0.230735
0.280984 0.790538 0.225436
0.296670 0.786718 0.220138
0.312355 0.782897 0.214840
0.328041 0.779077 0.209542
0.351599 0.774292 0.201105
0.376732 0.769315 0.192041
0.401865 0.764337 0.182976
0.426999 0.759360 0.173912
0.452132 0.754383 0.164848
0.480270 0.749661 0.156087
0.509911 0.745068 0.147478
0.539553 0.740475 0.138868
0.569194 0.735882 0.130259
0.598835 0.731289 0.121650
0.628607 0.727214 0.115378
0.658511 0.723657 0.111445
0.688415 0.720101 0.107512
0.718319 0.716544 0.103579
0.748223 0.712987 0.099646
0.776653 0.709733 0.097877
0.802132 0.707084 0.100435
0.827612 0.704435 0.102993
0.853092 0.701787 0.105551
0.878572 0.699138 0.108109
0.902279 0.696516 0.111303
0.917122 0.694028 0.117682
0.931964 0.691540 0.124061
0.946806 0.689053 0.130439
0.961649 0.686565 0.136818
0.976491 0.684077 0.143196
0.277317 0.818922 0.255566
0.291142 0.815340 0.250124
0.304967 0.811758 0.244683
0.318792 0.808175 0.239241
0.332616 0.804593 0.233800
0.346441 0.801011 0.228359
0.368353 0.796518 0.219568
0.391883 0.791844 0.210107
0.415412 0.787169 0.200646
0.438942 0.782495 0.191186
0.462472 0.777820 0.181725
0.489340 0.773347 0.172487
0.517878 0.768975 0.163362
0.546416 0.764603 0.154236
0.574954 0.760230 0.145110
0.603492 0.755858 0.135985
0.632397 0.751924 0.129259
0.661669 0.748427 0.124934
0.690941 0.744930 0.120608
0.720212 0.741433 0.116283
0.749484 0.737936 0.111958
0.777414 0.734685 0.109903
0.802660 0.731923 0.112389
0.827906 0.729161 0.114876
0.853151 0.726399 0.117363
0.878397 0.723637 0.119849
0.901943 0.720878 0.123023
0.916989 0.718134 0.129632
0.932034 0.715391 0.136241
0.947080 0.712647 0.142851
0.962125 0.709903 0.149460
0.977171 0.707160 0.156069
0.305022 0.839664 0.275099
0.316986 0.836321 0.269514
0.328950 0.832977 0.263929
0.340914 0.829633 0.258345
0.352878 0.826289 0.252760
0.364842 0.822945 0.247176
0.385108 0.818745 0.238031
0.407033 0.814373 0.228173
0.428959 0.810001 0.218316
0.450885 0.805629 0.208459
0.472811 0.801258 0.198602
0.498410 0.797033 0.188888
0.525845 0.792881 0.179246
0.553280 0.788730 0.169604
0.580714 0.784579 0.159962
0.608149 0.780427 0.150320
0.636187 0.776633 0.143140
0.664826 0.773196 0.138422
0.693466 0.769760 0.133704
0.722105 0.766323 0.128987
0.750745 0.762886 0.124269
0.778175 0.759636 0.121929
0.803187 0.756761 0.124344
0.828199 0.753886 0.126760
0.853211 0.751011 0.129175
0.878222 0.748136 0.131590
0.901607 0.745240 0.134743
0.916856 0.742241 0.141583
0.932105 0.739241 0.148422
0.947353 0.736242 0.155262
0.962602 0.733242 0.162102
0.977851 0.730243 0.168941
0.332726 0.860407 0.294632
0.342829 0.857301 0.288904
0.352933 0.854196 0.283176
0.363036 0.851091 0.277448
0.373139 0.847985 0.271720
0.383243 0.844880 0.265993
0.401862 0.840971 0.256493
0.422184 0.836902 0.246240
0.442506 0.832833 0.235986
0.462829 0.828764 0.225732
0.483151 0.824695 0.215479
0.507480 0.820718 0.205289
0.533811 0.816788 0.195130
0.560143 0.812858 0.184972
0.586475 0.808927 0.174813
0.612807 0.804997 0.164655
0.639976 0.801343 0.157020
0.667984 0.797966 0.151911
0.695991 0.794589 0.146801
0.723998 0.791212 0.141691
0.752006 0.787835 0.136581
0.778937 0.784588 0.133956
0.803714 0.781599 0.136299
0.828492 0.778611 0.138643
0.853270 0.775623 0.140987
0.878047 0.772635 0.143331
0.901271 0.769602 0.146463
0.916723 0.766347 0.153533
0.932175 0.763091 0.160603
0.947627 0.759836 0.167673
0.963079 0.756581 0.174744
0.978531 0.753325 0.181814
0.360780 0.879740 0.314668
0.369192 0.876905 0.308877
0.377604 0.874070 0.303086
0.386016 0.871234 0.297295
0.394428 0.868399 0.291504
0.402840 0.865564 0.285712
0.419812 0.861962 0.275921
0.438496 0.858206 0.265330
0.457180 0.854450 0.254739
0.475863 0.850694 0.244148
0.494547 0.846938 0.233557
0.517508 0.843219 0.222935
0.542608 0.839520 0.212297
0.567708 0.835820 0.201659
0.592807 0.832120 0.191021
0.617907 0.828420 0.180384
0.644081 0.824925 0.172315
0.671331 0.821633 0.166816
0.698581 0.818342 0.161317
0.725831 0.815050 0.155818
0.753080 0.811759 0.150318
0.779412 0.808547 0.147402
0.803909 0.805495 0.149652
0.828406 0.802443 0.151902
0.852903 0.799391 0.154151
0.877400 0.796339 0.156401
0.900434 0.793221 0.159495
0.916150 0.789772 0.166810
0.931865 0.786323 0.174125
0.947581 0.782874 0.181440
0.963297 0.779425 0.188755
0.979013 0.775976 0.196071
0.390585 0.892027 0.337225
0.398153 0.889621 0.331769
0.405720 0.887215 0.326313
0.413287 0.884809 0.320858
0.420855 0.882403 0.315402
0.428422 0.879997 0.309946
0.443742 0.876770 0.300175
0.460613 0.873380 0.289541
0.477484 0.869989 0.278907
0.494355 0.866598 0.268273
0.511226 0.863207 0.257640
0.532332 0.859797 0.246808
0.555554 0.856376 0.235876
0.578776 0.852956 0.224945
0.601999 0.849536 0.214014
0.625221 0.846116 0.203083
0.649764 0.842867 0.194681
0.675629 0.839789 0.188807
0.701493 0.836711 0.182933
0.727357 0.833633 0.177059
0.753222 0.830556 0.171186
0.778459 0.827547 0.167950
0.802442 0.824677 0.169991
