Assets/1__3DArt/KimSe/artstation_asset/LUTs_pasterls/CUBE/Orange Cream 01 S.cube
# Enhanced with VOXCOLOR algorithms
LUT_3D_SIZE 8
DOMAIN_MIN 0.000000 0.000000 0.000000
DOMAIN_MAX 0.903226 0.903226 0.903226
0.007843 0.011765 0.050980
0.147091 0.073977 0.066987
0.346902 0.139955 0.071853
0.554307 0.206978 0.072810
0.727007 0.271631 0.075141
0.826747 0.324660 0.080442
0.870432 0.358439 0.085467
0.887362 0.375610 0.088772
0.007214 0.067840 0.069386
0.133662 0.120752 0.079252
0.315944 0.176777 0.077277
0.508091 0.233051 0.070874
0.673696 0.287110 0.066024
0.782123 0.335782 0.067631
0.845375 0.376846 0.074747
0.881409 0.409292 0.084178
0.014154 0.176355 0.110165
0.126152 0.216788 0.110057
0.292536 0.261184 0.097437
0.473180 0.306342 0.080640
0.636002 0.350080 0.066753
0.753772 0.392382 0.063693
0.832300 0.434101 0.071637
0.882262 0.472496 0.085280
0.036107 0.322455 0.161162
0.131518 0.348375 0.150901
0.282041 0.379988 0.127505
0.452837 0.413941 0.100299
0.615159 0.448045 0.077453
0.741892 0.483256 0.069462
0.831153 0.521115 0.077075
0.889618 0.558083 0.092716
0.079492 0.489182 0.210755
0.155925 0.500217 0.193257
0.289097 0.518907 0.162163
0.449472 0.542175 0.127273
0.611266 0.567839 0.097406
0.745373 0.596318 0.085015
0.840805 0.627671 0.091419
0.902552 0.657864 0.106922
0.156334 0.643581 0.240655
0.211332 0.644222 0.222626
0.322929 0.653545 0.191336
0.467806 0.669184 0.155718
0.623886 0.689123 0.124139
0.760634 0.712327 0.109724
0.857517 0.736174 0.115044
0.918284 0.756770 0.129449
0.259269 0.754513 0.246833
0.293839 0.751932 0.232873
0.379520 0.757216 0.207406
0.500813 0.768941 0.177415
0.641325 0.785555 0.149858
0.773603 0.804983 0.137247
0.870016 0.822739 0.143950
0.930421 0.835661 0.159865
0.370092 0.827109 0.244021
0.389182 0.825358 0.234018
0.447832 0.829179 0.215398
0.539754 0.838374 0.193095
0.656196 0.852270 0.172483
0.777850 0.868910 0.165033
0.873851 0.883094 0.176771
0.936969 0.891985 0.198725
0.019403 0.028987 0.102053
0.164027 0.085538 0.111766
0.359315 0.145500 0.112292
0.557500 0.206831 0.111139
0.720998 0.267220 0.113501
0.817737 0.321376 0.119864
0.864857 0.362915 0.124593
0.886539 0.388843 0.126590
0.016682 0.096875 0.123294
0.165103 0.147783 0.129424
0.343124 0.195830 0.128486
0.518411 0.241200 0.126027
0.666174 0.284331 0.126042
0.767515 0.326484 0.129786
0.834844 0.368908 0.133413
0.879525 0.410342 0.134869
0.025643 0.213522 0.163713
0.158430 0.251551 0.162828
0.318851 0.286227 0.155169
0.480782 0.317901 0.146174
0.624136 0.347546 0.140048
0.734176 0.378883 0.139756
0.817972 0.416432 0.142567
0.880457 0.459704 0.145016
0.053528 0.361991 0.212678
0.160405 0.384009 0.203928
0.302020 0.405066 0.187625
0.454377 0.424959 0.169974
0.598255 0.444198 0.156064
0.717698 0.466395 0.151070
0.813325 0.495970 0.153137
0.887822 0.532289 0.157138
0.106046 0.524460 0.260280
0.184109 0.531129 0.245107
0.305035 0.539804 0.221232
0.446849 0.549955 0.195641
0.590727 0.561533 0.174336
0.717316 0.576730 0.164755
0.819508 0.597553 0.166068
0.899920 0.622534 0.171486
0.192661 0.669817 0.291973
0.243910 0.667264 0.274946
0.341425 0.668781 0.248633
0.467354 0.673847 0.219805
0.604954 0.682016 0.194616
0.732511 0.693556 0.182065
0.834717 0.707318 0.182995
0.914143 0.721255 0.189623
0.301547 0.772874 0.305013
0.330986 0.768344 0.290094
0.403815 0.768636 0.266547
0.508075 0.773330 0.239897
0.631109 0.781779 0.215561
0.752627 0.792843 0.202995
0.850860 0.803259 0.205181
0.925751 0.811018 0.214514
0.412972 0.839852 0.310542
0.428317 0.837136 0.298703
0.477775 0.838427 0.279817
0.556828 0.843930 0.257983
0.658870 0.853422 0.237615
0.769433 0.865713 0.227978
0.862938 0.876590 0.234048
0.933015 0.883555 0.249210
0.038159 0.056416 0.183444
0.190178 0.109088 0.186748
0.382240 0.166231 0.183578
0.571834 0.225624 0.180802
0.726001 0.285042 0.182946
0.817956 0.340602 0.189555
0.865160 0.386144 0.193777
0.888504 0.416326 0.194874
0.035118 0.141635 0.210738
0.191502 0.187429 0.213393
0.365345 0.229015 0.212017
0.530808 0.267558 0.210862
0.668610 0.304466 0.212664
0.765365 0.342744 0.216717
0.833699 0.384756 0.217822
0.882308 0.428775 0.214619
0.049933 0.269272 0.253502
0.188142 0.300713 0.251579
0.342294 0.326042 0.245978
0.492735 0.347255 0.240456
0.624873 0.366748 0.237609
0.729600 0.389862 0.237850
0.814836 0.422249 0.237182
0.883773 0.463946 0.233241
0.088061 0.419987 0.301936
0.196336 0.434969 0.293971
0.328835 0.445411 0.281429
0.467395 0.452993 0.268649
0.597892 0.459781 0.258950
0.710286 0.470729 0.254680
0.807283 0.491243 0.252975
0.890690 0.521747 0.250287
0.153052 0.575144 0.347373
0.228474 0.576079 0.334043
0.337231 0.574968 0.314758
0.462415 0.573035 0.294608
0.589869 0.571693 0.277810
0.706731 0.574267 0.268916
0.809665 0.583928 0.266438
0.900993 0.600627 0.265697
0.249664 0.706415 0.378670
0.296073 0.700637 0.363211
0.379778 0.695053 0.340903
0.487098 0.690397 0.316782
0.605454 0.687351 0.295343
0.720140 0.687249 0.282822
0.821580 0.690632 0.279647
0.912496 0.696990 0.280559
0.361484 0.796860 0.395174
0.386245 0.790938 0.380740
0.446453 0.786946 0.359704
0.533026 0.785126 0.336130
0.636521 0.785530 0.313991
0.743116 0.787997 0.300113
0.838109 0.791133 0.297001
0.922478 0.794106 0.299776
0.469447 0.854677 0.405496
0.481709 0.851525 0.393310
0.522033 0.850762 0.375623
0.587225 0.852845 0.355381
0.672527 0.857930 0.335753
0.768117 0.865783 0.323281
0.855367 0.873764 0.322001
0.930108 0.879751 0.328176
0.062691 0.096811 0.286901
0.222998 0.148002 0.285710
0.412608 0.205100 0.280694
0.594269 0.265240 0.277400
0.739477 0.325639 0.279317
0.825678 0.381881 0.285380
0.870463 0.427427 0.288859
0.892963 0.457256 0.289343
0.062448 0.201565 0.321919
0.218411 0.241714 0.322044
0.388407 0.279200 0.319808
0.548666 0.314701 0.318485
0.681546 0.349172 0.320013
0.774815 0.385138 0.323029
0.840954 0.424316 0.322437
0.888867 0.464701 0.317360
0.087127 0.339715 0.367980
0.221174 0.363520 0.365109
0.369092 0.381686 0.359851
0.512841 0.396262 0.355015
0.639055 0.409602 0.352402
0.739342 0.426730 0.351587
0.821894 0.452585 0.348736
0.891051 0.486918 0.342223
0.138799 0.490274 0.415988
0.241704 0.497854 0.408460
0.365126 0.499862 0.397605
0.493244 0.498524 0.386656
0.613869 0.496281 0.377994
0.718812 0.498009 0.372858
0.812172 0.508802 0.368679
0.897139 0.529277 0.363034
0.217579 0.634553 0.458392
0.287204 0.630277 0.446728
0.384199 0.621615 0.430443
0.494688 0.610499 0.413295
0.607270 0.598913 0.398365
0.712690 0.590388 0.388762
0.810794 0.588739 0.383463
0.905116 0.594895 0.379443
0.322161 0.748038 0.487056
0.363026 0.739923 0.473761
0.433829 0.729213 0.455040
0.523836 0.717127 0.434468
0.623470 0.704845 0.415256
0.723086 0.694201 0.401817
0.818472 0.687447 0.395071
0.913404 0.685559 0.391999
0.432761 0.822994 0.503686
0.453377 0.816453 0.491068
0.502026 0.809484 0.473284
0.571806 0.802564 0.453000
0.655820 0.796107 0.432868
0.745533 0.790667 0.417471
0.833175 0.786892 0.409417
0.921231 0.785186 0.406518
0.533138 0.869720 0.515198
0.542989 0.866556 0.504213
0.575021 0.864362 0.489195
0.626932 0.863655 0.471844
0.695408 0.864826 0.454018
0.774549 0.868469 0.439450
0.852828 0.873678 0.431337
0.928789 0.878813 0.428859
0.091612 0.152233 0.403437
0.259958 0.204672 0.401167
0.447258 0.263807 0.397027
0.621515 0.326071 0.394824
0.758483 0.387915 0.396830
0.838755 0.443195 0.401757
0.879598 0.484861 0.404301
0.899508 0.510153 0.404360
0.098296 0.275308 0.446150
0.250183 0.311362 0.445241
0.416674 0.347573 0.442695
0.574066 0.383256 0.440895
0.704493 0.418032 0.441218
0.794261 0.452264 0.442490
0.855199 0.485919 0.440942
0.898227 0.517221 0.436155
0.136663 0.420445 0.494808
0.262006 0.438150 0.491430
0.403911 0.452677 0.485980
0.543521 0.464899 0.480613
0.666450 0.475998 0.476736
0.761948 0.488993 0.474110
0.837744 0.506935 0.470151
0.901115 0.529276 0.463897
0.203967 0.566589 0.541312
0.297770 0.568655 0.534259
0.412378 0.566140 0.524261
0.532233 0.560534 0.513763
0.645122 0.553521 0.504618
0.741794 0.548453 0.497935
0.826803 0.549301 0.492347
0.906126 0.556845 0.486414
0.295922 0.696255 0.579369
0.357740 0.688771 0.569475
0.443719 0.676344 0.555601
0.541473 0.660444 0.540436
0.640853 0.642632 0.526248
0.733743 0.625514 0.515508
0.822116 0.613148 0.508347
0.911660 0.607551 0.503156
0.404672 0.789730 0.603413
0.439675 0.780820 0.592849
0.499047 0.767910 0.577779
0.573901 0.751846 0.560501
0.656550 0.733575 0.543175
0.740386 0.714614 0.528955
0.825376 0.698659 0.519689
0.916852 0.688300 0.514301
0.509314 0.848142 0.617289
0.526337 0.841862 0.607564
0.565160 0.833650 0.593804
0.620362 0.823762 0.577418
0.686846 0.812561 0.559908
0.759766 0.800787 0.543990
0.836954 0.790857 0.532579
0.922447 0.784465 0.525827
0.598319 0.883362 0.626810
0.606345 0.880490 0.618379
0.631511 0.877575 0.607292
0.672009 0.874992 0.594125
0.725502 0.873158 0.579559
0.788880 0.873114 0.564850
0.856516 0.875458 0.552420
0.929411 0.879201 0.543889
0.123687 0.226978 0.517633
0.297732 0.283437 0.518967
0.481359 0.344886 0.519228
0.648009 0.407789 0.520492
0.777623 0.468469 0.523886
0.853032 0.519461 0.528036
0.890267 0.554082 0.529756
0.907478 0.572542 0.529521
0.142812 0.360521 0.564431
0.290658 0.396003 0.564755
0.453125 0.433687 0.563925
0.607116 0.471499 0.563296
0.734785 0.507621 0.563625
0.820279 0.539553 0.564033
0.873921 0.565426 0.562525
0.909033 0.584629 0.559275
0.197799 0.504179 0.612351
0.314531 0.519906 0.609644
0.450412 0.535560 0.605339
0.585882 0.550176 0.600785
0.705434 0.563103 0.596903
0.794875 0.574095 0.593718
0.860390 0.583866 0.590157
0.912540 0.592522 0.585950
0.280403 0.639130 0.654857
0.364663 0.639836 0.649042
0.471060 0.638591 0.640941
0.583773 0.635107 0.632141
0.689919 0.629346 0.623914
0.777511 0.621689 0.617320
0.850061 0.614372 0.612244
0.916598 0.609113 0.608089
0.381803 0.750670 0.687178
0.435440 0.743365 0.679587
0.511965 0.732680 0.668955
0.599526 0.718550 0.656966
0.688194 0.701115 0.645134
0.768810 0.680653 0.635404
0.843479 0.660623 0.628829
0.920199 0.644564 0.624829
0.488861 0.824463 0.705789
0.518284 0.816750 0.698343
0.568725 0.805580 0.687565
0.632201 0.790678 0.674740
0.701833 0.772008 0.661171
0.771617 0.749595 0.649016
0.843083 0.727455 0.640533
0.923074 0.709852 0.635815
0.582918 0.868049 0.715730
0.596821 0.862836 0.709248
0.628463 0.855565 0.700033
0.673228 0.845874 0.688648
0.726922 0.833624 0.675791
0.786077 0.818865 0.662869
0.850992 0.804672 0.652556
0.926701 0.793997 0.646137
0.658080 0.893463 0.721985
0.664466 0.890976 0.716423
0.684718 0.888145 0.709610
0.717206 0.884997 0.701469
0.760027 0.881694 0.691973
0.811206 0.879017 0.680957
0.867959 0.878297 0.669964
0.932295 0.879465 0.661445
0.157223 0.313540 0.611679
0.333381 0.375254 0.618915
0.510959 0.437131 0.624955
0.669022 0.497005 0.630782
0.791728 0.552347 0.636806
0.863906 0.596238 0.641469
0.899384 0.623420 0.642976
0.915251 0.636058 0.642579
0.193168 0.447102 0.657688
0.336620 0.483993 0.660599
0.492556 0.522973 0.662974
0.640117 0.561570 0.665280
0.762792 0.597431 0.667665
0.843729 0.626304 0.669114
0.890925 0.645377 0.668560
0.918616 0.655335 0.666700
0.264340 0.580566 0.701237
0.373017 0.596755 0.700097
0.501076 0.615078 0.698415
0.629843 0.633350 0.696701
0.743987 0.649623 0.695265
0.827060 0.661016 0.693895
0.882592 0.666320 0.692135
0.922539 0.666493 0.690159
0.358370 0.699033 0.737723
0.433514 0.700731 0.733718
0.531114 0.703398 0.728744
0.636002 0.705327 0.723561
0.735313 0.705024 0.718791
0.814757 0.700229 0.715058
0.875023 0.691129 0.712567
0.926141 0.680018 0.711143
0.463462 0.791517 0.764019
0.509118 0.786019 0.758873
0.576971 0.779820 0.752186
0.655977 0.771602 0.744871
0.736468 0.760236 0.737781
0.807645 0.743801 0.732206
0.869013 0.723992 0.729118
0.928831 0.704762 0.728299
0.564119 0.848698 0.778280
0.588083 0.842811 0.773563
0.631341 0.835329 0.767100
0.686786 0.825148 0.759600
0.748028 0.811380 0.751813
0.808257 0.792524 0.745132
0.866965 0.771256 0.741208
0.930527 0.752099 0.740247
0.646036 0.881156 0.785607
0.656772 0.877059 0.781601
0.683143 0.871832 0.776377
0.721248 0.864697 0.770188
0.767391 0.855067 0.763375
0.817875 0.842111 0.756729
0.871617 0.828096 0.751939
0.932649 0.816212 0.749969
0.707669 0.899670 0.789904
0.712303 0.897435 0.786279
0.729024 0.895152 0.782691
0.756452 0.892524 0.778939
0.792920 0.889393 0.774832
0.836520 0.885912 0.770003
0.884045 0.883209 0.765128
0.936271 0.881873 0.761847
0.192387 0.399775 0.683362
0.368456 0.468139 0.696858
0.538174 0.529179 0.708066
0.686542 0.583579 0.717788
0.802136 0.631252 0.726367
0.871927 0.667344 0.732303
0.906841 0.688036 0.734241
0.922069 0.696074 0.733796
0.248085 0.528073 0.726653
0.384897 0.566487 0.732233
0.530999 0.604809 0.737586
0.668836 0.641452 0.742776
0.784197 0.674713 0.747651
0.860707 0.700386 0.750995
0.903551 0.715378 0.751751
0.925906 0.720645 0.750699
0.333163 0.646941 0.764362
0.431937 0.663369 0.764689
0.548983 0.682647 0.765493
0.667750 0.702589 0.766734
0.774235 0.721121 0.768264
0.851593 0.734793 0.769472
0.899935 0.741217 0.769718
0.929784 0.740792 0.769210
0.433788 0.746756 0.794205
0.498430 0.749205 0.791706
0.584982 0.754639 0.789562
0.680041 0.761159 0.787929
0.771754 0.766998 0.786904
0.845080 0.769473 0.786572
0.896378 0.767102 0.786819
0.933198 0.760587 0.787553
0.537515 0.820982 0.814882
0.574079 0.816927 0.811600
0.632157 0.814545 0.808211
0.702397 0.812485 0.805094
0.776096 0.809498 0.802604
0.841640 0.803627 0.801412
0.893358 0.794539 0.801984
0.935792 0.783690 0.804184
0.629156 0.864745 0.825953
0.646674 0.860191 0.823159
0.682542 0.856047 0.820036
0.731177 0.851406 0.816967
0.787071 0.845462 0.814351
0.842718 0.836913 0.813060
0.892209 0.826332 0.813935
0.937357 0.815538 0.816983
0.698937 0.889178 0.831763
0.705889 0.885859 0.829461
0.727330 0.882629 0.827152
0.760510 0.878931 0.825007
0.802430 0.874298 0.823235
0.848967 0.868065 0.822438
0.894527 0.860934 0.823387
0.938594 0.854172 0.826321
0.747746 0.903109 0.834977
0.750737 0.901051 0.832783
0.764529 0.899474 0.831419
0.788343 0.898016 0.830732
0.820936 0.896418 0.830591
0.860349 0.894592 0.830969
0.900981 0.892944 0.832130
0.940223 0.891630 0.834650
