Assets/1__3DArt/KimSe/artstation_asset/LUTs_pasterls/CUBE/Orange Cream 03.cube
# Enhanced with VOXCOLOR algorithms
LUT_3D_SIZE 8
DOMAIN_MIN 0.000000 0.000000 0.000000
DOMAIN_MAX 0.903226 0.903226 0.903226
0.066667 0.117647 0.043137
0.189202 0.128982 0.044538
0.340588 0.139290 0.041743
0.495375 0.148342 0.035192
0.632161 0.155864 0.025802
0.726031 0.160831 0.016402
0.777086 0.162270 0.010712
0.801292 0.160198 0.008193
0.072707 0.132894 0.047067
0.179136 0.147374 0.048780
0.318522 0.161861 0.047067
0.467758 0.175567 0.042111
0.606669 0.187787 0.034521
0.709776 0.197298 0.026455
0.770938 0.202454 0.020886
0.802248 0.202355 0.017566
0.084599 0.164341 0.058462
0.175350 0.179780 0.059608
0.301973 0.196492 0.057948
0.444054 0.213063 0.053516
0.583030 0.228273 0.046743
0.693524 0.240477 0.039433
0.763838 0.247697 0.034062
0.802146 0.248731 0.030441
0.103715 0.211494 0.076667
0.179067 0.225173 0.076178
0.292105 0.241842 0.073686
0.425409 0.259456 0.069047
0.562374 0.276226 0.062491
0.678450 0.289883 0.055460
0.756987 0.298071 0.049997
0.802118 0.299614 0.045991
0.130809 0.272816 0.100618
0.190979 0.281913 0.097454
0.289616 0.296196 0.093449
0.412532 0.313080 0.088205
0.545408 0.330222 0.081642
0.665293 0.344607 0.074596
0.751190 0.353198 0.068530
0.803006 0.354898 0.063598
0.166557 0.344789 0.128198
0.212050 0.347366 0.121974
0.295550 0.357206 0.116223
0.406273 0.371584 0.110424
0.532517 0.387902 0.104203
0.654016 0.402635 0.097414
0.746465 0.411727 0.090338
0.805335 0.413846 0.083525
0.204465 0.413909 0.153357
0.237239 0.411711 0.145450
0.306016 0.417486 0.138801
0.403571 0.429029 0.133342
0.521169 0.444063 0.128774
0.642331 0.459171 0.123857
0.740931 0.469355 0.116424
0.807878 0.472619 0.106830
0.237464 0.470721 0.172905
0.260711 0.467470 0.164690
0.316427 0.471376 0.158415
0.401128 0.481311 0.154939
0.509346 0.495808 0.154337
0.629157 0.512036 0.154264
0.733945 0.524207 0.148271
0.810070 0.529506 0.135283
0.074510 0.138563 0.108367
0.197028 0.151557 0.114611
0.345655 0.161590 0.113619
0.495719 0.167965 0.105888
0.626583 0.170343 0.092579
0.714309 0.168643 0.077073
0.760622 0.164847 0.065324
0.782032 0.159960 0.058195
0.079222 0.159810 0.117124
0.197818 0.177227 0.123390
0.338116 0.191994 0.123747
0.480990 0.203231 0.118268
0.609913 0.210388 0.107607
0.703509 0.212880 0.094028
0.758474 0.211755 0.082411
0.786463 0.207625 0.073888
0.091428 0.197383 0.135095
0.196269 0.215715 0.140405
0.325495 0.232865 0.140621
0.462239 0.247326 0.135636
0.591367 0.257958 0.125856
0.691910 0.263376 0.112934
0.755774 0.263933 0.101079
0.790788 0.260212 0.091623
0.111777 0.249986 0.160485
0.197801 0.265986 0.163716
0.313427 0.282968 0.162691
0.443115 0.298767 0.157166
0.572333 0.311592 0.147344
0.679906 0.319161 0.134368
0.752842 0.320992 0.121860
0.795358 0.317672 0.111434
0.140383 0.315419 0.191197
0.206481 0.326319 0.191278
0.306398 0.340619 0.188344
0.426694 0.355786 0.181940
0.554076 0.369573 0.171966
0.667803 0.378906 0.158817
0.749801 0.382087 0.145291
0.800308 0.379471 0.133445
0.177216 0.389231 0.223628
0.225539 0.393351 0.220120
0.308689 0.402877 0.215384
0.416611 0.415485 0.208772
0.538477 0.428921 0.199768
0.655732 0.439791 0.187469
0.746057 0.444864 0.172939
0.805107 0.443737 0.158737
0.215467 0.457864 0.250875
0.249833 0.457020 0.245238
0.317416 0.462280 0.240063
0.411862 0.472059 0.234984
0.525364 0.484598 0.229323
0.643020 0.496791 0.220494
0.740223 0.504072 0.206034
0.808092 0.504942 0.188256
0.248179 0.512488 0.269985
0.272981 0.510582 0.264183
0.327482 0.514018 0.260193
0.409053 0.522272 0.258653
0.513119 0.534396 0.259182
0.629186 0.547962 0.257486
0.732059 0.557418 0.245103
0.808824 0.560187 0.222388
0.079368 0.165278 0.190373
0.201358 0.181861 0.202002
0.347635 0.193647 0.204619
0.493637 0.199149 0.198035
0.618996 0.197688 0.183042
0.700542 0.189710 0.162980
0.742027 0.180579 0.146274
0.760790 0.173082 0.135681
0.083677 0.193882 0.203631
0.204439 0.214311 0.214575
0.343533 0.230626 0.218408
0.482555 0.241007 0.214367
0.605746 0.244340 0.202541
0.692800 0.239882 0.184695
0.742455 0.231821 0.167889
0.767246 0.223281 0.155380
0.096513 0.238551 0.226624
0.204735 0.259145 0.235880
0.333800 0.277450 0.239212
0.467465 0.291090 0.235720
0.591318 0.298325 0.225208
0.685509 0.297220 0.208553
0.744120 0.290636 0.191653
0.775935 0.281769 0.177972
0.118030 0.296961 0.256620
0.207471 0.314522 0.263152
0.323481 0.332178 0.264818
0.450859 0.347150 0.260742
0.575585 0.357192 0.250602
0.677545 0.359383 0.234652
0.745916 0.354978 0.217658
0.785831 0.346815 0.203189
0.147925 0.366121 0.290783
0.216648 0.378089 0.293667
0.316776 0.392579 0.293059
0.435114 0.406845 0.288083
0.558788 0.418466 0.278245
0.668073 0.423934 0.263083
0.746796 0.422575 0.246040
0.795861 0.416336 0.230817
0.185806 0.440666 0.324777
0.235752 0.445631 0.323649
0.318386 0.454980 0.321014
0.424090 0.466584 0.315958
0.542589 0.478348 0.307683
0.656477 0.486828 0.294523
0.744985 0.489347 0.277774
0.804032 0.486366 0.261265
0.224663 0.507725 0.352093
0.260098 0.507560 0.348330
0.326632 0.512395 0.345065
0.418495 0.521077 0.341729
0.528548 0.532215 0.337397
0.643204 0.543036 0.328806
0.739333 0.549329 0.313359
0.808202 0.549882 0.294280
0.257487 0.559540 0.370557
0.283332 0.558101 0.366122
0.336711 0.560899 0.363730
0.415542 0.567851 0.363871
0.515900 0.578440 0.365960
0.628615 0.590882 0.365120
0.730157 0.600098 0.352483
0.808161 0.603410 0.328931
0.081374 0.198613 0.282935
0.202602 0.221036 0.300353
0.347066 0.236981 0.307875
0.490097 0.244015 0.304300
0.611379 0.240942 0.289736
0.688220 0.228288 0.267047
0.725989 0.214660 0.246934
0.742774 0.204983 0.234159
0.085748 0.234966 0.299767
0.202840 0.259228 0.315319
0.339617 0.278788 0.323567
0.476737 0.290459 0.322585
0.597675 0.292158 0.311579
0.681401 0.282405 0.291397
0.727621 0.268328 0.271022
0.750145 0.255887 0.256015
0.099131 0.286678 0.325702
0.204109 0.309602 0.338553
0.331217 0.330184 0.345825
0.463403 0.344788 0.345526
0.585561 0.350706 0.336565
0.677064 0.344932 0.318638
0.732680 0.332487 0.298892
0.762423 0.319333 0.282975
0.121508 0.350371 0.357476
0.209451 0.369219 0.366837
0.324172 0.388250 0.372024
0.450148 0.403836 0.371296
0.573101 0.413018 0.363554
0.672653 0.411872 0.347826
0.738647 0.402926 0.329394
0.777089 0.391227 0.313588
0.152458 0.422286 0.391927
0.221197 0.434906 0.397145
0.320560 0.450041 0.399712
0.437438 0.464588 0.398186
0.559099 0.475790 0.391509
0.666170 0.479490 0.378179
0.743291 0.475581 0.361570
0.791785 0.467426 0.346535
0.191619 0.496289 0.424607
0.242009 0.501669 0.425508
0.323880 0.511212 0.425696
0.427884 0.522844 0.423988
0.544102 0.534485 0.419279
0.655932 0.542533 0.409267
0.743603 0.544527 0.394936
0.803092 0.541594 0.380624
0.231816 0.560725 0.450110
0.267627 0.560854 0.447961
0.333142 0.565589 0.446960
0.422949 0.574069 0.446459
0.530366 0.585155 0.445437
0.642851 0.596364 0.440512
0.738488 0.603645 0.429005
0.808545 0.605893 0.414159
0.265617 0.609116 0.467177
0.291828 0.607702 0.463708
0.344108 0.610070 0.462732
0.420678 0.616477 0.464673
0.518037 0.626746 0.468957
0.628086 0.639749 0.471118
0.728834 0.650815 0.463008
0.808273 0.657015 0.445429
0.080845 0.239110 0.380065
0.201242 0.269669 0.403325
0.344466 0.292299 0.416444
0.485922 0.303645 0.417254
0.605375 0.301919 0.405121
0.680267 0.287264 0.382122
0.716478 0.270828 0.360569
0.732437 0.259634 0.346984
0.085330 0.282679 0.398936
0.196514 0.312038 0.418726
0.330728 0.336731 0.431799
0.467394 0.352152 0.435103
0.588828 0.355137 0.426919
0.672570 0.343104 0.406933
0.718021 0.325314 0.385283
0.739875 0.310280 0.369498
0.098884 0.340438 0.425339
0.197643 0.366233 0.441249
0.321931 0.390411 0.452807
0.453684 0.408052 0.456977
0.576779 0.415384 0.451730
0.669129 0.408096 0.435416
0.724751 0.392554 0.415628
0.754331 0.377037 0.399735
0.121691 0.408104 0.456004
0.205434 0.428316 0.467634
0.317796 0.449610 0.476722
0.442965 0.467499 0.480708
0.566288 0.478258 0.477693
0.666657 0.476832 0.465403
0.733203 0.466299 0.448853
0.772102 0.453405 0.434548
0.153526 0.481300 0.487883
0.220430 0.494408 0.494926
0.318245 0.510809 0.501072
0.434037 0.527011 0.504374
0.555197 0.539866 0.503218
0.662483 0.544512 0.495098
0.740333 0.540859 0.482625
0.789828 0.533243 0.471115
0.194469 0.553397 0.516896
0.244215 0.558988 0.519452
0.325028 0.569234 0.522808
0.427771 0.582034 0.525616
0.542774 0.595243 0.526537
0.654057 0.605061 0.522845
0.742277 0.608871 0.514729
0.803079 0.608168 0.506273
0.237155 0.614303 0.538989
0.272511 0.614566 0.538278
0.336906 0.619653 0.539775
0.425126 0.628909 0.542882
0.530771 0.641350 0.546626
0.642071 0.654708 0.547936
0.737905 0.664821 0.543977
0.809368 0.670545 0.537318
0.273185 0.658798 0.553638
0.298936 0.657282 0.551188
0.350027 0.659658 0.551806
0.424805 0.666457 0.555935
0.519998 0.677757 0.563156
0.628223 0.692928 0.570019
0.728592 0.707402 0.569712
0.809257 0.718013 0.562601
0.078467 0.288263 0.473435
0.197797 0.328732 0.501106
0.340183 0.360349 0.519261
0.481794 0.379187 0.525230
0.602831 0.382973 0.517858
0.680481 0.370909 0.498113
0.719009 0.354874 0.478150
0.736251 0.343392 0.465426
0.082528 0.336960 0.491337
0.188972 0.372540 0.513972
0.321295 0.404030 0.531211
0.458655 0.425902 0.539430
0.582916 0.434177 0.536302
0.670544 0.425015 0.520336
0.719088 0.407975 0.501096
0.742832 0.392981 0.486900
0.095727 0.398236 0.515041
0.189146 0.427459 0.532784
0.311014 0.456374 0.548004
0.443109 0.479242 0.557141
0.568935 0.491519 0.557575
0.665477 0.487692 0.546518
0.724816 0.473926 0.530577
0.756940 0.459527 0.517559
0.118690 0.467261 0.541670
0.198224 0.489006 0.554569
0.308232 0.513335 0.567032
0.433139 0.535242 0.576113
0.558315 0.550462 0.579425
0.662323 0.553028 0.573726
0.732677 0.545459 0.562731
0.774535 0.535060 0.552916
0.151614 0.539391 0.568598
0.215989 0.552981 0.576695
0.312022 0.571216 0.586013
0.427138 0.590390 0.594415
0.548971 0.607080 0.599974
0.658578 0.615921 0.599539
0.739584 0.616174 0.594289
0.792008 0.612327 0.589007
0.195441 0.608082 0.592403
0.243606 0.613851 0.596074
0.323081 0.625260 0.602320
0.424894 0.640217 0.609825
0.539556 0.656526 0.617178
0.651603 0.670274 0.621525
0.741696 0.678319 0.621849
0.804820 0.682088 0.621261
0.242514 0.665007 0.610207
0.276302 0.665334 0.610658
0.339172 0.671124 0.614565
0.426021 0.681888 0.621488
0.530587 0.696747 0.630578
0.641526 0.713558 0.639230
0.737989 0.727770 0.644189
0.810862 0.738106 0.646935
0.282667 0.705815 0.621816
0.306776 0.704112 0.620459
0.356182 0.706817 0.622940
0.429327 0.714691 0.629741
0.523045 0.727969 0.640608
0.630207 0.746218 0.653086
0.730187 0.764535 0.661433
0.811103 0.779625 0.665369
0.075126 0.341964 0.553892
0.192683 0.391839 0.583483
0.333973 0.432633 0.605152
0.476748 0.460498 0.616364
0.602106 0.472994 0.615766
0.686762 0.467947 0.603021
0.731293 0.455561 0.587835
0.751876 0.444756 0.577385
0.079219 0.394321 0.568892
0.182293 0.435132 0.592308
0.313032 0.472952 0.612117
0.451437 0.502103 0.624865
0.579766 0.518274 0.628101
0.674080 0.516439 0.619392
0.728873 0.504309 0.605872
0.756646 0.491664 0.595131
0.092595 0.456665 0.588173
0.182188 0.488301 0.606107
0.302009 0.521262 0.623414
0.434532 0.549693 0.636691
0.563616 0.568772 0.643234
0.666113 0.572137 0.639612
0.731560 0.564188 0.630209
0.768025 0.553720 0.621824
0.116236 0.524348 0.609470
0.192219 0.546843 0.622391
0.299957 0.573573 0.636772
0.424589 0.599538 0.649797
0.551916 0.620332 0.659021
0.660687 0.629522 0.660811
0.736461 0.628144 0.656965
0.782513 0.622820 0.652793
0.150722 0.593096 0.630757
0.212154 0.606699 0.639000
0.306023 0.626328 0.650239
0.420341 0.648373 0.662449
0.543152 0.669399 0.673678
0.655909 0.683904 0.680608
0.741033 0.690075 0.682840
0.796994 0.691751 0.683927
0.197966 0.657271 0.649497
0.243569 0.662947 0.653600
0.321009 0.675241 0.661756
0.421662 0.692195 0.672778
0.536298 0.711669 0.685294
0.649794 0.729804 0.696518
0.742217 0.742779 0.704261
0.807637 0.751565 0.710405
0.250060 0.710230 0.663564
0.281356 0.710425 0.664663
0.342040 0.716723 0.670339
0.427296 0.728781 0.680264
0.531058 0.745800 0.693668
0.642137 0.765720 0.708243
0.739227 0.783540 0.720156
0.812788 0.797789 0.729854
0.294744 0.747839 0.672516
0.316705 0.745881 0.671981
0.364037 0.748828 0.676112
0.435465 0.757569 0.685380
0.527998 0.772397 0.699569
0.634505 0.792856 0.716696
0.733759 0.813585 0.731322
0.813481 0.831257 0.742557
0.070638 0.393992 0.618620
0.185749 0.452235 0.648977
0.325290 0.501171 0.673165
0.469273 0.537907 0.689435
0.600116 0.560373 0.696673
0.694034 0.564940 0.693417
0.746711 0.558260 0.685491
0.771898 0.548428 0.678586
0.077107 0.451724 0.631953
0.176342 0.495458 0.654640
0.304642 0.537638 0.675585
0.443519 0.573103 0.692018
0.576128 0.597638 0.701750
0.678481 0.605189 0.701758
0.741220 0.600100 0.695741
0.774137 0.590634 0.689389
0.092446 0.514640 0.647244
0.177487 0.546331 0.663926
0.294115 0.581242 0.681767
0.426119 0.613908 0.697893
0.558176 0.639592 0.709827
0.667386 0.651414 0.713910
0.740076 0.650978 0.711769
0.781559 0.645309 0.708258
0.117823 0.579495 0.663360
0.188968 0.600869 0.675109
0.292905 0.628186 0.689927
0.416096 0.656833 0.705355
0.545202 0.682566 0.719108
0.659340 0.698866 0.727528
0.741268 0.704693 0.730374
0.791661 0.704984 0.731183
0.154051 0.643354 0.679288
0.210626 0.655608 0.686733
0.300406 0.675211 0.698573
0.412685 0.698912 0.712984
0.536341 0.723472 0.728096
0.653161 0.743547 0.740652
0.743056 0.755925 0.748809
0.802216 0.763075 0.754619
0.203649 0.702145 0.693712
0.244808 0.706712 0.697476
0.318427 0.718873 0.706429
0.416953 0.736911 0.719496
0.531839 0.758826 0.735349
0.648150 0.780925 0.751303
0.743698 0.798459 0.764135
0.810601 0.811398 0.774439
0.258648 0.750498 0.704864
0.286637 0.750046 0.706085
0.344323 0.756319 0.712693
0.427723 0.769097 0.724444
0.531295 0.787642 0.740611
0.643936 0.809953 0.759030
0.742395 0.830392 0.775200
0.815410 0.846859 0.788509
0.305471 0.784218 0.711572
0.325845 0.782168 0.711685
0.371465 0.785326 0.716951
0.441633 0.794603 0.727895
0.533724 0.810270 0.744336
0.640580 0.831727 0.764430
0.739505 0.853196 0.782533
0.816954 0.871266 0.797193
