Assets/1__3DArt/KimSe/artstation_asset/LUTs_pasterls/CUBE/Orange Cream 01.cube
# Enhanced with VOXCOLOR algorithms
LUT_3D_SIZE 32
0.007843 0.011765 0.050980
0.042655 0.027318 0.054982
0.077467 0.042871 0.058984
0.112279 0.058424 0.062985
0.147091 0.073977 0.066987
0.181903 0.089530 0.070989
0.234528 0.106191 0.071714
0.290715 0.123073 0.071784
0.346902 0.139955 0.071853
0.403090 0.156837 0.071923
0.459277 0.173720 0.071993
0.508527 0.190399 0.072334
0.554307 0.206978 0.072810
0.600088 0.223556 0.073287
0.645869 0.240134 0.073763
0.691650 0.256713 0.074240
0.727007 0.271631 0.075141
0.751942 0.284888 0.076466
0.776877 0.298145 0.077792
0.801812 0.311403 0.079117
0.826747 0.324660 0.080442
0.846076 0.335992 0.081740
0.854195 0.343475 0.082982
0.862313 0.350957 0.084224
0.870432 0.358439 0.085467
0.878551 0.365922 0.086709
0.885473 0.372423 0.087823
0.886418 0.374017 0.088298
0.887362 0.375610 0.088772
0.888307 0.377204 0.089247
0.889251 0.378798 0.089721
0.890196 0.380392 0.090196
0.007686 0.025784 0.055582
0.042026 0.040828 0.059335
0.076367 0.055871 0.063088
0.110708 0.070915 0.066842
0.145049 0.085959 0.070595
0.179389 0.101003 0.074349
0.231662 0.117356 0.074887
0.287521 0.133971 0.074782
0.343381 0.150586 0.074677
0.399240 0.167200 0.074572
0.455099 0.183815 0.074467
0.504324 0.200319 0.074593
0.550232 0.216767 0.074833
0.596140 0.233215 0.075073
0.642048 0.249663 0.075314
0.687955 0.266111 0.075554
0.723591 0.281017 0.076255
0.748954 0.294380 0.077415
0.774317 0.307743 0.078574
0.799681 0.321106 0.079734
0.825044 0.334470 0.080894
0.844797 0.345971 0.082077
0.853329 0.353750 0.083306
0.861861 0.361528 0.084535
0.870393 0.369307 0.085764
0.878925 0.377085 0.086992
0.886223 0.383860 0.088104
0.887353 0.385617 0.088627
0.888482 0.387373 0.089150
0.889612 0.389129 0.089673
0.890741 0.390886 0.090196
0.891871 0.392642 0.090719
0.007528 0.039802 0.060183
0.041398 0.054337 0.063688
0.075267 0.068872 0.067193
0.109137 0.083407 0.070698
0.143006 0.097941 0.074204
0.176876 0.112476 0.077709
0.228797 0.128521 0.078060
0.284328 0.144869 0.077780
0.339859 0.161216 0.077501
0.395390 0.177563 0.077221
0.450921 0.193911 0.076942
0.500122 0.210238 0.076851
0.546157 0.226556 0.076856
0.592192 0.242874 0.076860
0.638226 0.259192 0.076864
0.684261 0.275510 0.076869
0.720175 0.290403 0.077368
0.745966 0.303872 0.078363
0.771758 0.317341 0.079357
0.797549 0.330810 0.080352
0.823341 0.344280 0.081347
0.843517 0.355950 0.082415
0.852463 0.364025 0.083630
0.861408 0.372100 0.084845
0.870353 0.380174 0.086061
0.879299 0.388249 0.087276
0.886972 0.395298 0.088384
0.888287 0.397217 0.088956
0.889602 0.399136 0.089527
0.890917 0.401055 0.090099
0.892231 0.402974 0.090671
0.893546 0.404893 0.091242
0.007371 0.053821 0.064785
0.040769 0.067847 0.068042
0.074167 0.081872 0.071298
0.107566 0.095898 0.074555
0.140964 0.109923 0.077812
0.174362 0.123949 0.081068
0.225931 0.139687 0.081233
0.281134 0.155767 0.080779
0.336337 0.171846 0.080324
0.391541 0.187926 0.079870
0.446744 0.204006 0.079416
0.495919 0.220158 0.079110
0.542081 0.236346 0.078879
0.588243 0.252533 0.078647
0.634405 0.268721 0.078415
0.680567 0.284908 0.078183
0.716758 0.299789 0.078482
0.742978 0.313364 0.079311
0.769198 0.326939 0.080140
0.795418 0.340514 0.080970
0.821638 0.354089 0.081799
0.842238 0.365930 0.082752
0.851596 0.374300 0.083954
0.860955 0.382671 0.085156
0.870314 0.391042 0.086358
0.879673 0.399413 0.087559
0.887722 0.406735 0.088664
0.889222 0.408817 0.089285
0.890722 0.410898 0.089905
0.892221 0.412980 0.090525
0.893721 0.415061 0.091145
0.895221 0.417143 0.091765
0.007214 0.067840 0.069386
0.040141 0.081356 0.072395
0.073068 0.094873 0.075403
0.105994 0.108389 0.078411
0.138921 0.121906 0.081420
0.171848 0.135422 0.084428
0.223065 0.150852 0.084406
0.277941 0.166664 0.083777
0.332816 0.182477 0.083148
0.387691 0.198289 0.082519
0.442566 0.214102 0.081891
0.491717 0.230078 0.081369
0.538006 0.246135 0.080901
0.584295 0.262192 0.080434
0.630584 0.278249 0.079966
0.676873 0.294307 0.079498
0.713342 0.309176 0.079596
0.739990 0.322857 0.080260
0.766638 0.336537 0.080923
0.793287 0.350218 0.081587
0.819935 0.363899 0.082251
0.840958 0.375909 0.083089
0.850730 0.384576 0.084278
0.860503 0.393243 0.085466
0.870275 0.401909 0.086655
0.880047 0.410576 0.087843
0.888471 0.418173 0.088945
0.890156 0.420417 0.089614
0.891841 0.422661 0.090282
0.893526 0.424905 0.090951
0.895211 0.427149 0.091620
0.896896 0.429393 0.092289
0.007056 0.081859 0.073988
0.039512 0.094866 0.076748
0.071968 0.107873 0.079508
0.104423 0.120880 0.082268
0.136879 0.133888 0.085028
0.169335 0.146895 0.087788
0.220200 0.162017 0.087578
0.274747 0.177562 0.086775
0.329294 0.193107 0.085972
0.383841 0.208652 0.085168
0.438388 0.224198 0.084365
0.487515 0.239997 0.083628
0.533931 0.255924 0.082924
0.580347 0.271851 0.082220
0.626763 0.287778 0.081516
0.673179 0.303705 0.080813
0.709925 0.318562 0.080710
0.737002 0.332349 0.081208
0.764079 0.346135 0.081706
0.791155 0.359922 0.082205
0.818232 0.373709 0.082703
0.839678 0.385888 0.083427
0.849864 0.394851 0.084602
0.860050 0.403814 0.085777
0.870235 0.412777 0.086952
0.880421 0.421740 0.088126
0.889221 0.429610 0.089225
0.891091 0.432017 0.089942
0.892961 0.434424 0.090660
0.894831 0.436830 0.091377
0.896701 0.439237 0.092094
0.898571 0.441643 0.092812
0.009135 0.111301 0.085177
0.040836 0.123525 0.087390
0.072537 0.135748 0.089603
0.104239 0.147972 0.091817
0.135940 0.160196 0.094030
0.167642 0.172420 0.096243
0.217963 0.186947 0.095502
0.272008 0.201936 0.094169
0.326054 0.216924 0.092836
0.380099 0.231913 0.091504
0.434144 0.246901 0.090171
0.483224 0.262224 0.088929
0.529820 0.277714 0.087733
0.576416 0.293205 0.086537
0.623012 0.308695 0.085340
0.669609 0.324186 0.084144
0.706715 0.338691 0.083646
0.734331 0.352211 0.083845
0.761947 0.365731 0.084045
0.789563 0.379252 0.084245
0.817179 0.392772 0.084445
0.839136 0.404753 0.084956
0.849773 0.413658 0.086090
0.860410 0.422562 0.087224
0.871047 0.431466 0.088358
0.881683 0.440371 0.089492
0.890889 0.448193 0.090570
0.892936 0.450604 0.091365
0.894982 0.453015 0.092160
0.897029 0.455426 0.092955
0.899076 0.457837 0.093751
0.901123 0.460248 0.094546
0.011660 0.143828 0.097683
0.042551 0.155213 0.099290
0.073441 0.166599 0.100897
0.104332 0.177984 0.102504
0.135222 0.189369 0.104111
0.166113 0.200755 0.105718
0.215852 0.214630 0.104375
0.269361 0.229004 0.102442
0.322869 0.243378 0.100509
0.376378 0.257752 0.098577
0.429887 0.272126 0.096644
0.478915 0.286912 0.094839
0.525702 0.301905 0.093099
0.572489 0.316898 0.091359
0.619276 0.331890 0.089619
0.666063 0.346883 0.087879
0.703546 0.360968 0.086946
0.731723 0.374148 0.086820
0.759901 0.387327 0.086695
0.788079 0.400506 0.086570
0.816257 0.413685 0.086444
0.838741 0.425396 0.086723
0.849836 0.434171 0.087811
0.860932 0.442945 0.088899
0.872028 0.451720 0.089986
0.883123 0.460494 0.091074
0.892740 0.468204 0.092127
0.894962 0.470588 0.093006
0.897184 0.472972 0.093885
0.899407 0.475356 0.094764
0.901629 0.477740 0.095643
0.903851 0.480124 0.096523
0.014186 0.176355 0.110189
0.044265 0.186902 0.111190
0.074345 0.197449 0.112190
0.104425 0.207996 0.113191
0.134504 0.218543 0.114191
0.164584 0.229089 0.115192
0.213741 0.242313 0.113248
0.266713 0.256073 0.110715
0.319685 0.269832 0.108182
0.372658 0.283592 0.105649
0.425630 0.297351 0.103116
0.474606 0.311601 0.100749
0.521584 0.326095 0.098465
0.568562 0.340590 0.096181
0.615540 0.355085 0.093897
0.662518 0.369580 0.091613
0.700376 0.383246 0.090246
0.729116 0.396084 0.089795
0.757855 0.408922 0.089345
0.786595 0.421760 0.088895
0.815334 0.434598 0.088444
0.838345 0.446039 0.088491
0.849900 0.454684 0.089532
0.861454 0.463328 0.090573
0.873009 0.471973 0.091614
0.884563 0.480618 0.092656
0.894592 0.488215 0.093684
0.896989 0.490572 0.094647
0.899386 0.492929 0.095610
0.901784 0.495286 0.096573
0.904181 0.497643 0.097536
0.906578 0.499999 0.098499
0.016712 0.208882 0.122695
0.045980 0.218591 0.123089
0.075249 0.228299 0.123484
0.104517 0.238008 0.123878
0.133786 0.247716 0.124272
0.163055 0.257424 0.124666
0.211629 0.269997 0.122121
0.264065 0.283141 0.118988
0.316501 0.296286 0.115855
0.368937 0.309431 0.112722
0.421373 0.322576 0.109589
0.470297 0.336289 0.106659
0.517466 0.350286 0.103832
0.564635 0.364283 0.101004
0.611803 0.378280 0.098176
0.658972 0.392277 0.095348
0.697207 0.405524 0.093546
0.726508 0.418021 0.092771
0.755809 0.430518 0.091995
0.785110 0.443015 0.091219
0.814412 0.455512 0.090444
0.837950 0.466681 0.090258
0.849964 0.475196 0.091253
0.861977 0.483712 0.092248
0.873990 0.492227 0.093243
0.886003 0.500742 0.094237
0.896443 0.508227 0.095241
0.899016 0.510556 0.096288
0.901588 0.512886 0.097335
0.904161 0.515216 0.098382
0.906733 0.517545 0.099429
0.909306 0.519875 0.100476
0.019237 0.241410 0.135201
0.047695 0.250280 0.134989
0.076153 0.259149 0.134777
0.104610 0.268019 0.134565
0.133068 0.276889 0.134353
0.161526 0.285759 0.134141
0.209518 0.297680 0.130995
0.261418 0.310210 0.127261
0.313317 0.322740 0.123528
0.365216 0.335271 0.119795
0.417116 0.347801 0.116062
0.465989 0.360977 0.112569
0.513348 0.374476 0.109198
0.560707 0.387976 0.105826
0.608067 0.401475 0.102454
0.655426 0.414974 0.099083
0.694038 0.427801 0.096846
0.723900 0.439957 0.095746
0.753763 0.452113 0.094645
0.783626 0.464269 0.093544
0.813489 0.476425 0.092443
0.837555 0.487324 0.092026
0.850027 0.495709 0.092974
0.862499 0.504095 0.093923
0.874971 0.512481 0.094871
0.887443 0.520866 0.095819
0.898295 0.528238 0.096798
0.901042 0.530540 0.097929
0.903790 0.532843 0.099060
0.906538 0.535146 0.100191
0.909286 0.537448 0.101321
0.912034 0.539751 0.102452
0.026583 0.280333 0.148156
0.053941 0.288278 0.147402
0.081300 0.296223 0.146647
0.108659 0.304168 0.145892
0.136018 0.312113 0.145137
0.163376 0.320058 0.144383
0.210403 0.331193 0.140661
0.261363 0.342965 0.136345
0.312322 0.354738 0.132030
0.363282 0.366511 0.127715
0.414242 0.378283 0.123400
0.462779 0.390789 0.119349
0.510105 0.403661 0.115430
0.557431 0.416534 0.111512
0.604756 0.429406 0.107593
0.652082 0.442278 0.103675
0.690948 0.454550 0.100999
0.721356 0.466222 0.099567
0.751763 0.477895 0.098135
0.782171 0.489567 0.096703
0.812578 0.501239 0.095271
0.837181 0.511720 0.094621
0.850174 0.519819 0.095536
0.863166 0.527918 0.096450
0.876159 0.536018 0.097365
0.889152 0.544117 0.098279
0.900471 0.551234 0.099247
0.903419 0.553439 0.100484
0.906368 0.555644 0.101721
0.909317 0.557850 0.102958
0.912266 0.560055 0.104194
0.915214 0.562260 0.105431
0.036338 0.322455 0.161336
0.062454 0.329432 0.160070
0.088570 0.336408 0.158805
0.114685 0.343385 0.157539
0.140801 0.350362 0.156273
0.166917 0.357338 0.155008
0.212785 0.367620 0.150723
0.262604 0.378564 0.145835
0.312423 0.389507 0.140947
0.362242 0.400451 0.136059
0.412060 0.411394 0.131171
0.460120 0.423163 0.126563
0.507299 0.435344 0.122096
0.554479 0.447525 0.117629
0.601658 0.459706 0.113162
0.648838 0.471887 0.108695
0.687899 0.483535 0.105579
0.718843 0.494652 0.103812
0.749786 0.505769 0.102046
0.780730 0.516886 0.100279
0.811673 0.528003 0.098513
0.836817 0.537992 0.097631
0.850362 0.545727 0.098517
0.863906 0.553462 0.099404
0.877451 0.561196 0.100291
0.890995 0.568931 0.101178
0.902809 0.575722 0.102143
0.905972 0.577795 0.103496
0.909134 0.579868 0.104850
0.912296 0.581940 0.106204
0.915459 0.584013 0.107557
0.918621 0.586086 0.108911
0.046094 0.364577 0.174515
0.070967 0.370585 0.172739
0.095839 0.376594 0.170962
0.120712 0.382602 0.169186
0.145584 0.388610 0.167409
0.170457 0.394618 0.165633
0.215167 0.404048 0.160786
0.263845 0.414163 0.155325
0.312523 0.424277 0.149864
0.361201 0.434391 0.144403
0.409879 0.444505 0.138942
0.457460 0.455536 0.133778
0.504494 0.467026 0.128762
0.551527 0.478516 0.123747
0.598560 0.490005 0.118732
0.645594 0.501495 0.113716
0.684850 0.512520 0.110158
0.716330 0.523082 0.108057
0.747809 0.533644 0.105956
0.779289 0.544205 0.103855
0.810769 0.554767 0.101754
0.836454 0.564265 0.100640
0.850550 0.571635 0.101499
0.864646 0.579005 0.102358
0.878742 0.586375 0.103217
0.892838 0.593745 0.104077
0.905148 0.600210 0.105038
0.908524 0.602151 0.106508
0.911900 0.604091 0.107979
0.915276 0.606031 0.109450
0.918652 0.607972 0.110920
0.922028 0.609912 0.112391
0.055850 0.406699 0.187695
0.079479 0.411739 0.185407
0.103109 0.416779 0.183120
0.126738 0.421819 0.180833
0.150368 0.426859 0.178545
0.173997 0.431899 0.176258
0.217549 0.440476 0.170849
0.265086 0.449761 0.164815
0.312623 0.459046 0.158780
0.360160 0.468331 0.152746
0.407697 0.477616 0.146712
0.454801 0.487910 0.140992
0.501688 0.498708 0.135428
0.548575 0.509507 0.129864
0.595463 0.520305 0.124301
0.642350 0.531103 0.118737
0.681801 0.541505 0.114737
0.713817 0.551512 0.112302
0.745832 0.561518 0.109867
0.777848 0.571525 0.107431
0.809864 0.581531 0.104996
0.836090 0.590537 0.103649
0.850738 0.597543 0.104481
0.865386 0.604548 0.105312
0.880033 0.611554 0.106144
0.894681 0.618559 0.106975
0.907486 0.624699 0.107933
0.911076 0.626507 0.109521
0.914666 0.628314 0.111108
0.918256 0.630122 0.112696
0.921846 0.631930 0.114283
0.925435 0.633738 0.115871
0.065605 0.448821 0.200874
0.087992 0.452893 0.198076
0.110378 0.456964 0.195278
0.132765 0.461036 0.192480
0.155151 0.465107 0.189682
0.177537 0.469179 0.186883
0.219932 0.476904 0.180911
0.266327 0.485360 0.174304
0.312723 0.493816 0.167697
0.359119 0.502271 0.161090
0.405515 0.510727 0.154483
0.452141 0.520284 0.148206
0.498882 0.530391 0.142094
0.545623 0.540497 0.135982
0.592365 0.550604 0.129870
0.639106 0.560711 0.123758
0.678752 0.570490 0.119317
0.711304 0.579942 0.116547
0.743856 0.589393 0.113777
0.776407 0.598844 0.111007
0.808959 0.608295 0.108237
0.835726 0.616810 0.106659
0.850926 0.623451 0.107463
0.866125 0.630092 0.108266
0.881325 0.636733 0.109070
0.896524 0.643374 0.109874
0.909825 0.649187 0.110828
0.913628 0.650862 0.112533
0.917432 0.652538 0.114237
0.921235 0.654213 0.115942
0.925039 0.655889 0.117646
0.928842 0.657564 0.119351
0.080237 0.489182 0.211313
0.101231 0.492428 0.208192
0.122225 0.495675 0.205071
0.143219 0.498921 0.201950
0.164213 0.502168 0.198829
0.185207 0.505414 0.195708
0.226117 0.512353 0.189368
0.271010 0.520031 0.182385
0.315904 0.527708 0.175402
0.360797 0.535386 0.168419
0.405690 0.543063 0.161436
0.451489 0.551917 0.154770
0.497740 0.561359 0.148263
0.543990 0.570801 0.141756
0.590241 0.580243 0.135249
0.636492 0.589685 0.128742
0.676084 0.598861 0.123982
0.709016 0.607772 0.120970
0.741948 0.616682 0.117958
0.774879 0.625593 0.114945
0.807811 0.634503 0.111933
0.835023 0.642533 0.110202
0.850792 0.648802 0.111032
0.866562 0.655071 0.111862
0.882332 0.661340 0.112692
0.898102 0.667608 0.113522
0.911920 0.673090 0.114526
0.915978 0.674632 0.116399
0.920036 0.676175 0.118272
0.924094 0.677717 0.120146
0.928151 0.679260 0.122019
0.932209 0.680802 0.123892
0.099745 0.527782 0.219011
0.119197 0.530346 0.215755
0.138649 0.532911 0.212499
0.158101 0.535475 0.209243
0.177553 0.538040 0.205987
0.197005 0.540604 0.202731
0.236105 0.546824 0.196220
0.279135 0.553774 0.189057
0.322164 0.560724 0.181895
0.365193 0.567675 0.174732
0.408223 0.574625 0.167569
0.452844 0.582811 0.160683
0.498260 0.591614 0.153934
0.543676 0.600417 0.147186
0.589093 0.609221 0.140438
0.634509 0.618024 0.133690
0.673796 0.626618 0.128734
0.706952 0.635002 0.125571
0.740108 0.643386 0.122409
0.773265 0.651770 0.119246
0.806421 0.660155 0.116083
0.833979 0.667707 0.114278
0.850338 0.673596 0.115189
0.866697 0.679485 0.116099
0.883056 0.685375 0.117009
0.899415 0.691264 0.117920
0.913773 0.696406 0.119027
0.918125 0.697816 0.121120
0.922478 0.699225 0.123214
0.926830 0.700634 0.125307
0.931183 0.702044 0.127400
0.935535 0.703453 0.129493
0.119253 0.566381 0.226709
0.137163 0.568264 0.223318
0.155073 0.570147 0.219927
0.172983 0.572029 0.216537
0.190894 0.573912 0.213146
0.208804 0.575795 0.209755
0.246093 0.581294 0.203072
0.287259 0.587517 0.195729
0.328424 0.593740 0.188387
0.369590 0.599963 0.181045
0.410755 0.606186 0.173703
0.454198 0.613704 0.166596
0.498780 0.621869 0.159606
0.543362 0.630034 0.152616
0.587944 0.638199 0.145627
0.632526 0.646364 0.138637
0.671508 0.654375 0.133486
0.704888 0.662233 0.130173
0.738269 0.670090 0.126859
0.771650 0.677948 0.123546
0.805031 0.685806 0.120233
0.832935 0.692881 0.118355
0.849883 0.698391 0.119345
0.866831 0.703900 0.120336
0.883779 0.709410 0.121326
0.900728 0.714919 0.122317
0.915626 0.719723 0.123528
0.920273 0.720999 0.125841
0.924920 0.722275 0.128155
0.929567 0.723551 0.130468
0.934215 0.724827 0.132781
0.938862 0.726103 0.135095
0.138761 0.604981 0.234407
0.155129 0.606182 0.230881
0.171497 0.607383 0.227356
0.187866 0.608583 0.223830
0.204234 0.609784 0.220305
0.220602 0.610985 0.216779
0.256082 0.615765 0.209923
0.295383 0.621261 0.202401
0.334685 0.626756 0.194880
0.373986 0.632252 0.187358
0.413288 0.637748 0.179836
0.455553 0.644597 0.172508
0.499301 0.652124 0.165278
0.543048 0.659650 0.158047
0.586796 0.667176 0.150816
0.630543 0.674703 0.143585
0.669219 0.682132 0.138237
0.702825 0.689463 0.134774
0.736430 0.696795 0.131310
0.770036 0.704126 0.127847
0.803641 0.711458 0.124383
0.831891 0.718055 0.122431
0.849428 0.723185 0.123502
0.866966 0.728315 0.124573
0.884503 0.733445 0.125644
0.902040 0.738575 0.126714
0.917479 0.743040 0.128029
0.922420 0.744183 0.130562
0.927362 0.745326 0.133096
0.932304 0.746468 0.135629
0.937246 0.747611 0.138163
0.942188 0.748754 0.140696
0.158269 0.643581 0.242105
0.173095 0.644100 0.238445
0.187921 0.644619 0.234784
0.202748 0.645137 0.231124
0.217574 0.645656 0.227463
0.232401 0.646175 0.223803
0.266070 0.650235 0.216775
0.303507 0.655004 0.209074
0.340945 0.659772 0.201372
0.378383 0.664541 0.193671
0.415821 0.669309 0.185970
0.456908 0.675491 0.178421
0.499821 0.682378 0.170949
0.542734 0.689266 0.163477
0.585647 0.696154 0.156004
0.628560 0.703042 0.148532
0.666931 0.709889 0.142989
0.700761 0.716694 0.139375
0.734591 0.723499 0.135761
0.768421 0.730304 0.132147
0.802251 0.737109 0.128533
0.830847 0.743229 0.126508
0.848974 0.747980 0.127659
0.867100 0.752730 0.128810
0.885227 0.757480 0.129961
0.903353 0.762230 0.131112
0.919331 0.766357 0.132530
0.924568 0.767366 0.135283
0.929805 0.768376 0.138037
0.935041 0.769386 0.140791
0.940278 0.770395 0.143544
0.945514 0.771405 0.146298
0.180386 0.677834 0.247431
0.193703 0.677843 0.243745
0.207019 0.677852 0.240060
0.220336 0.677861 0.236375
0.233653 0.677870 0.232689
0.246970 0.677879 0.229004
0.278699 0.681334 0.221952
0.314111 0.685480 0.214227
0.349523 0.689625 0.206501
0.384935 0.693770 0.198776
0.420347 0.697915 0.191051
0.460028 0.703509 0.183432
0.501844 0.709827 0.175867
0.543660 0.716145 0.168302
0.585475 0.722464 0.160736
0.627291 0.728782 0.153171
0.665135 0.735110 0.147558
0.699007 0.741449 0.143899
0.732879 0.747788 0.140239
0.766751 0.754126 0.136580
0.800623 0.760465 0.132920
0.829436 0.766165 0.130912
0.848131 0.770587 0.132209
0.866826 0.775008 0.133506
0.885521 0.779430 0.134803
0.904216 0.783852 0.136100
0.920725 0.787688 0.137688
0.926305 0.788595 0.140730
0.931885 0.789502 0.143773
0.937464 0.790409 0.146816
0.943044 0.791315 0.149858
0.948623 0.792222 0.152901
0.207721 0.703393 0.248012
0.219593 0.703237 0.244522
0.231464 0.703080 0.241031
0.243336 0.702923 0.237541
0.255208 0.702766 0.234051
0.267079 0.702609 0.230560
0.296610 0.705691 0.223780
0.329673 0.709420 0.216342
0.362735 0.713150 0.208903
0.395798 0.716879 0.201465
0.428861 0.720609 0.194027
0.466677 0.725777 0.186640
0.506871 0.731663 0.179278
0.547064 0.737550 0.171916
0.587258 0.743437 0.164554
0.627451 0.749323 0.157192
0.664322 0.755263 0.151763
0.697871 0.761254 0.148267
0.731419 0.767246 0.144771
0.764968 0.773238 0.141275
0.798516 0.779230 0.137779
0.827290 0.784623 0.135973
0.846512 0.788819 0.137548
0.865735 0.793015 0.139122
0.884957 0.797211 0.140696
0.904180 0.801407 0.142270
0.921201 0.805048 0.144160
0.927221 0.805913 0.147630
0.933240 0.806778 0.151099
0.939259 0.807644 0.154568
0.945278 0.808509 0.158038
0.951298 0.809374 0.161507
0.235057 0.728953 0.248594
0.245483 0.728630 0.245298
0.255910 0.728307 0.242003
0.266336 0.727984 0.238707
0.276763 0.727662 0.235412
0.287189 0.727339 0.232117
0.314521 0.730047 0.225608
0.345235 0.733361 0.218457
0.375948 0.736675 0.211305
0.406661 0.739989 0.204154
0.437375 0.743303 0.197003
0.473327 0.748045 0.189847
0.511898 0.753500 0.182688
0.550469 0.758955 0.175530
0.589040 0.764410 0.168371
0.627612 0.769865 0.161213
0.663510 0.775415 0.155967
0.696735 0.781060 0.152635
0.729960 0.786705 0.149303
0.763185 0.792350 0.145971
0.796410 0.797995 0.142638
0.825143 0.803081 0.141034
0.844893 0.807052 0.142886
0.864643 0.811022 0.144737
0.884393 0.814992 0.146589
0.904143 0.818962 0.148441
0.921678 0.822408 0.150633
0.928137 0.823232 0.154529
0.934595 0.824055 0.158425
0.941054 0.824879 0.162321
0.947513 0.825702 0.166217
0.953972 0.826526 0.170113
0.262392 0.754513 0.249175
0.271373 0.754024 0.246075
0.280355 0.753535 0.242974
0.289336 0.753046 0.239874
0.298317 0.752558 0.236773
0.307299 0.752069 0.233673
0.332432 0.754403 0.227436
0.360796 0.757302 0.220572
0.389160 0.760200 0.213707
0.417524 0.763099 0.206843
0.445888 0.765998 0.199979
0.479976 0.770313 0.193054
0.516925 0.775336 0.186099
0.553874 0.780359 0.179144
0.590823 0.785383 0.172189
0.627772 0.790406 0.165233
0.662697 0.795567 0.160172
0.695599 0.800865 0.157003
0.728500 0.806163 0.153835
0.761402 0.811461 0.150666
0.794304 0.816760 0.147498
0.822997 0.821540 0.146095
0.843274 0.825284 0.148224
0.863552 0.829029 0.150353
0.883829 0.832773 0.152482
0.904106 0.836517 0.154611
0.922154 0.839768 0.157106
0.929052 0.840550 0.161428
0.935951 0.841332 0.165751
0.942849 0.842114 0.170074
0.949748 0.842895 0.174397
0.956646 0.843677 0.178720
0.289727 0.780072 0.249756
0.297264 0.779418 0.246851
0.304800 0.778763 0.243946
0.312336 0.778108 0.241040
0.319872 0.777454 0.238135
0.327409 0.776799 0.235229
0.350343 0.778759 0.229264
0.376358 0.781242 0.222687
0.402373 0.783725 0.216109
0.428388 0.786209 0.209532
0.454402 0.788692 0.202955
0.486625 0.792581 0.196261
0.521952 0.797172 0.189509
0.557278 0.801764 0.182758
0.592605 0.806356 0.176006
0.627932 0.810947 0.169254
0.661885 0.815719 0.164376
0.694463 0.820670 0.161371
0.727041 0.825622 0.158366
0.759619 0.830573 0.155362
0.792197 0.835524 0.152357
0.820851 0.839998 0.151156
0.841656 0.843517 0.153562
0.862460 0.847035 0.155968
0.883265 0.850554 0.158375
0.904070 0.854072 0.160781
0.922630 0.857128 0.163578
0.929968 0.857868 0.168328
0.937306 0.858608 0.173077
0.944644 0.859349 0.177827
0.951982 0.860089 0.182576
0.959320 0.860829 0.187326
0.317100 0.803352 0.249885
0.323313 0.802589 0.247169
0.329525 0.801826 0.244452
0.335737 0.801062 0.241736
0.341950 0.800299 0.239019
0.348162 0.799536 0.236303
0.368932 0.801166 0.230631
0.392613 0.803274 0.224368
0.416294 0.805382 0.218105
0.439975 0.807491 0.211842
0.463656 0.809599 0.205579
0.493963 0.813094 0.199159
0.527583 0.817282 0.192660
0.561204 0.821470 0.186160
0.594824 0.825658 0.179661
0.628444 0.829846 0.173162
0.661333 0.834257 0.168517
0.693492 0.838890 0.165725
0.725651 0.843523 0.162934
0.757810 0.848156 0.160142
0.789969 0.852788 0.157351
0.818512 0.856985 0.156398
0.839821 0.860309 0.159123
0.861130 0.863633 0.161848
0.882439 0.866956 0.164573
0.903749 0.870280 0.167298
0.922809 0.873170 0.170440
0.930628 0.873885 0.175667
0.938447 0.874600 0.180893
0.946266 0.875316 0.186120
0.954085 0.876031 0.191346
0.961904 0.876747 0.196573
0.344661 0.815230 0.247751
0.350155 0.814646 0.245194
0.355650 0.814062 0.242636
0.361144 0.813479 0.240079
0.366638 0.812895 0.237521
0.372133 0.812311 0.234963
0.390904 0.813826 0.229694
0.412331 0.815762 0.223882
0.433758 0.817698 0.218070
0.455185 0.819634 0.212258
0.476612 0.821570 0.206446
0.504748 0.824832 0.200508
0.536239 0.828758 0.194507
0.567730 0.832684 0.188505
0.599221 0.836609 0.182504
0.630712 0.840535 0.176502
0.662088 0.844726 0.172337
0.693349 0.849181 0.170007
0.724611 0.853637 0.167677
0.755872 0.858092 0.165347
0.787133 0.862548 0.163017
0.815207 0.866613 0.162547
0.836906 0.869898 0.165798
