Assets/1__3DArt/KimSe/artstation_asset/LUTs_pasterls/CUBE/Orange Cream 04.cube
# Enhanced with VOXCOLOR algorithms
LUT_3D_SIZE 32
0.066667 0.117647 0.047059
0.100450 0.120434 0.046437
0.134233 0.123221 0.045814
0.168016 0.126008 0.045192
0.201799 0.128795 0.044570
0.235582 0.131582 0.043948
0.276814 0.133471 0.042116
0.319537 0.135181 0.040042
0.362259 0.136892 0.037968
0.404982 0.138602 0.035894
0.447704 0.140312 0.033820
0.485624 0.141564 0.031270
0.521142 0.142587 0.028480
0.556660 0.143609 0.025691
0.592178 0.144632 0.022902
0.627696 0.145655 0.020113
0.656433 0.146472 0.017565
0.678388 0.147083 0.015260
0.700344 0.147694 0.012954
0.722299 0.148305 0.010649
0.744255 0.148917 0.008343
0.761906 0.149411 0.006434
0.770950 0.149673 0.005316
0.779993 0.149935 0.004199
0.789036 0.150197 0.003082
0.798079 0.150459 0.001965
0.805813 0.150624 0.001001
0.807004 0.150303 0.000801
0.808194 0.149982 0.000600
0.809384 0.149661 0.000400
0.810575 0.149341 0.000200
0.811765 0.149020 0.000000
0.067844 0.122008 0.047159
0.100389 0.124947 0.046622
0.132934 0.127887 0.046084
0.165478 0.130827 0.045546
0.198023 0.133766 0.045009
0.230568 0.136706 0.044471
0.271064 0.138897 0.042777
0.313150 0.140938 0.040851
0.355236 0.142979 0.038926
0.397322 0.145021 0.037000
0.439408 0.147062 0.035074
0.477271 0.148654 0.032655
0.513021 0.150022 0.029987
0.548772 0.151390 0.027320
0.584523 0.152758 0.024653
0.620274 0.154126 0.021986
0.649498 0.155244 0.019525
0.672194 0.156113 0.017268
0.694891 0.156981 0.015012
0.717587 0.157850 0.012756
0.740284 0.158718 0.010500
0.758670 0.159411 0.008617
0.768434 0.159750 0.007480
0.778199 0.160090 0.006343
0.787964 0.160429 0.005206
0.797728 0.160769 0.004069
0.806122 0.160977 0.003082
0.807661 0.160527 0.002841
0.809201 0.160078 0.002600
0.810741 0.159628 0.002359
0.812280 0.159178 0.002118
0.813820 0.158729 0.001876
0.069022 0.126368 0.047260
0.100328 0.129461 0.046807
0.131635 0.132553 0.046354
0.162941 0.135646 0.045901
0.194248 0.138738 0.045448
0.225554 0.141830 0.044995
0.265313 0.144323 0.043438
0.306763 0.146695 0.041661
0.348213 0.149067 0.039883
0.389662 0.151440 0.038106
0.431112 0.153812 0.036329
0.468917 0.155745 0.034039
0.504901 0.157458 0.031495
0.540885 0.159171 0.028950
0.576868 0.160884 0.026405
0.612852 0.162598 0.023860
0.642563 0.164017 0.021484
0.666000 0.165143 0.019277
0.689438 0.166269 0.017070
0.712876 0.167394 0.014864
0.736313 0.168520 0.012657
0.755434 0.169410 0.010800
0.765919 0.169827 0.009644
0.776405 0.170244 0.008487
0.786891 0.170662 0.007330
0.797377 0.171079 0.006174
0.806430 0.171330 0.005163
0.808319 0.170752 0.004881
0.810208 0.170173 0.004599
0.812097 0.169594 0.004317
0.813986 0.169016 0.004035
0.815874 0.168437 0.003753
0.070199 0.130729 0.047360
0.100267 0.133974 0.046992
0.130336 0.137219 0.046623
0.160404 0.140465 0.046255
0.190472 0.143710 0.045887
0.220541 0.146955 0.045518
0.259563 0.149749 0.044099
0.300376 0.152452 0.042470
0.341189 0.155155 0.040841
0.382002 0.157859 0.039212
0.422815 0.160562 0.037583
0.460564 0.162835 0.035424
0.496781 0.164894 0.033002
0.532997 0.166952 0.030579
0.569214 0.169011 0.028156
0.605430 0.171069 0.025734
0.635628 0.172790 0.023443
0.659806 0.174173 0.021286
0.683985 0.175556 0.019129
0.708164 0.176939 0.016971
0.732342 0.178322 0.014814
0.752197 0.179409 0.012983
0.763404 0.179904 0.011807
0.774612 0.180399 0.010631
0.785819 0.180894 0.009455
0.797026 0.181389 0.008278
0.806739 0.181684 0.007244
0.808977 0.180976 0.006921
0.811215 0.180269 0.006598
0.813453 0.179561 0.006275
0.815691 0.178853 0.005952
0.817929 0.178146 0.005629
0.071376 0.135090 0.047460
0.100207 0.138488 0.047176
0.129037 0.141886 0.046893
0.157867 0.145283 0.046609
0.186697 0.148681 0.046326
0.215527 0.152079 0.046042
0.253813 0.155174 0.044761
0.293989 0.158209 0.043280
0.334166 0.161243 0.041799
0.374343 0.164277 0.040318
0.414519 0.167312 0.038837
0.452211 0.169926 0.036809
0.488660 0.172329 0.034509
0.525110 0.174733 0.032208
0.561559 0.177137 0.029908
0.598008 0.179540 0.027607
0.628693 0.181562 0.025403
0.653612 0.183203 0.023295
0.678532 0.184843 0.021187
0.703452 0.186483 0.019079
0.728371 0.188124 0.016971
0.748961 0.189408 0.015167
0.760889 0.189981 0.013971
0.772818 0.190554 0.012775
0.784747 0.191127 0.011579
0.796675 0.191700 0.010383
0.807047 0.192037 0.009325
0.809635 0.191201 0.008961
0.812222 0.190364 0.008598
0.814809 0.189528 0.008234
0.817397 0.188691 0.007870
0.819984 0.187854 0.007506
0.072554 0.139450 0.047560
0.100146 0.143001 0.047361
0.127738 0.146552 0.047162
0.155330 0.150102 0.046963
0.182921 0.153653 0.046764
0.210513 0.157204 0.046566
0.248062 0.160600 0.045422
0.287602 0.163966 0.044089
0.327143 0.167331 0.042756
0.366683 0.170696 0.041424
0.406223 0.174062 0.040091
0.443858 0.177016 0.038194
0.480540 0.179765 0.036016
0.517222 0.182514 0.033838
0.553904 0.185263 0.031659
0.590586 0.188012 0.029481
0.621758 0.190335 0.027362
0.647419 0.192233 0.025304
0.673079 0.194130 0.023245
0.698740 0.196028 0.021186
0.724400 0.197926 0.019127
0.745724 0.199408 0.017350
0.758374 0.200058 0.016134
0.771024 0.200709 0.014918
0.783674 0.201359 0.013703
0.796325 0.202010 0.012487
0.807356 0.202391 0.011407
0.810292 0.201425 0.011002
0.813229 0.200460 0.010597
0.816165 0.199494 0.010192
0.819102 0.198529 0.009787
0.822039 0.197563 0.009382
0.076232 0.149497 0.050324
0.102641 0.153005 0.050085
0.129050 0.156513 0.049847
0.155458 0.160021 0.049608
0.181867 0.163529 0.049369
0.208276 0.167037 0.049130
0.244998 0.170554 0.048027
0.283782 0.174073 0.046752
0.322566 0.177592 0.045476
0.361351 0.181111 0.044201
0.400135 0.184630 0.042925
0.437519 0.187760 0.041095
0.474202 0.190696 0.038987
0.510885 0.193631 0.036879
0.547569 0.196567 0.034771
0.584252 0.199502 0.032664
0.615683 0.201981 0.030594
0.641861 0.204004 0.028564
0.668040 0.206028 0.026534
0.694218 0.208051 0.024503
0.720397 0.210074 0.022473
0.742265 0.211647 0.020705
0.755513 0.212321 0.019461
0.768761 0.212994 0.018218
0.782009 0.213668 0.016974
0.795257 0.214341 0.015731
0.806838 0.214728 0.014619
0.810081 0.213685 0.014168
0.813324 0.212642 0.013717
0.816568 0.211599 0.013266
0.819811 0.210555 0.012815
0.823054 0.209512 0.012364
0.080410 0.160682 0.053621
0.105647 0.164108 0.053317
0.130884 0.167534 0.053014
0.156120 0.170960 0.052710
0.181357 0.174386 0.052406
0.206594 0.177812 0.052103
0.242470 0.181414 0.051022
0.280475 0.185051 0.049785
0.318480 0.188688 0.048548
0.356484 0.192326 0.047312
0.394489 0.195963 0.046075
0.431583 0.199235 0.044298
0.468221 0.202325 0.042250
0.504859 0.205415 0.040203
0.541497 0.208506 0.038156
0.578135 0.211596 0.036108
0.609780 0.214202 0.034081
0.636432 0.216324 0.032075
0.663084 0.218447 0.030069
0.689735 0.220569 0.028062
0.716387 0.222692 0.026056
0.738762 0.224335 0.024294
0.752583 0.225021 0.023021
0.766404 0.225706 0.021748
0.780226 0.226391 0.020475
0.794047 0.227077 0.019202
0.806155 0.227463 0.018059
0.809696 0.226352 0.017560
0.813238 0.225241 0.017062
0.816779 0.224131 0.016564
0.820320 0.223020 0.016065
0.823862 0.221909 0.015567
0.084589 0.171867 0.056918
0.108653 0.175211 0.056549
0.132718 0.178555 0.056181
0.156782 0.181899 0.055812
0.180847 0.185242 0.055444
0.204911 0.188586 0.055075
0.239943 0.192273 0.054016
0.277168 0.196029 0.052818
0.314393 0.199784 0.051620
0.351618 0.203540 0.050423
0.388843 0.207295 0.049225
0.425646 0.210710 0.047501
0.462239 0.213955 0.045514
0.498832 0.217200 0.043527
0.535425 0.220445 0.041540
0.572018 0.223689 0.039553
0.603877 0.226423 0.037568
0.631002 0.228644 0.035586
0.658127 0.230866 0.033604
0.685252 0.233088 0.031621
0.712377 0.235310 0.029639
0.735259 0.237023 0.027884
0.749653 0.237721 0.026581
0.764047 0.238418 0.025279
0.778442 0.239115 0.023976
0.792836 0.239812 0.022674
0.805472 0.240197 0.021498
0.809311 0.239019 0.020952
0.813151 0.237841 0.020407
0.816990 0.236663 0.019861
0.820830 0.235485 0.019315
0.824669 0.234307 0.018770
0.088767 0.183051 0.060214
0.111659 0.186313 0.059781
0.134552 0.189575 0.059348
0.157444 0.192837 0.058915
0.180337 0.196099 0.058481
0.203229 0.199361 0.058048
0.237416 0.203133 0.057010
0.273861 0.207007 0.055851
0.310306 0.210880 0.054693
0.346751 0.214754 0.053534
0.383196 0.218627 0.052375
0.419710 0.222185 0.050704
0.456258 0.225585 0.048778
0.492806 0.228984 0.046851
0.529353 0.232384 0.044924
0.565901 0.235783 0.042997
0.597974 0.238643 0.041055
0.625572 0.240964 0.039097
0.653171 0.243286 0.037139
0.680769 0.245607 0.035181
0.708367 0.247928 0.033222
0.731755 0.249711 0.031473
0.746723 0.250421 0.030141
0.761691 0.251130 0.028809
0.776658 0.251839 0.027478
0.791626 0.252548 0.026146
0.804789 0.252931 0.024937
0.808926 0.251686 0.024344
0.813064 0.250440 0.023751
0.817202 0.249195 0.023158
0.821339 0.247950 0.022565
0.825477 0.246704 0.021973
0.092945 0.194236 0.063511
0.114666 0.197416 0.063013
0.136386 0.200596 0.062515
0.158106 0.203776 0.062017
0.179826 0.206956 0.061519
0.201547 0.210136 0.061021
0.234888 0.213992 0.060004
0.270554 0.217984 0.058885
0.306219 0.221976 0.057765
0.341885 0.225968 0.056645
0.377550 0.229960 0.055525
0.413774 0.233660 0.053907
0.450276 0.237214 0.052041
0.486779 0.240768 0.050175
0.523282 0.244323 0.048308
0.559784 0.247877 0.046442
0.592071 0.250864 0.044542
0.620143 0.253284 0.042608
0.648214 0.255705 0.040674
0.676286 0.258125 0.038740
0.704357 0.260545 0.036806
0.728252 0.262399 0.035062
0.743793 0.263120 0.033701
0.759334 0.263841 0.032340
0.774875 0.264563 0.030979
0.790415 0.265284 0.029617
0.804106 0.265666 0.028376
0.808541 0.264353 0.027736
0.812977 0.263040 0.027096
0.817413 0.261727 0.026456
0.821849 0.260414 0.025816
0.826285 0.259102 0.025175
0.099442 0.209243 0.068615
0.120036 0.212178 0.067983
0.140630 0.215113 0.067350
0.161224 0.218048 0.066718
0.181817 0.220983 0.066086
0.202411 0.223918 0.065454
0.234843 0.227722 0.064412
0.269642 0.231698 0.063287
0.304442 0.235675 0.062162
0.339241 0.239652 0.061037
0.374040 0.243629 0.059913
0.409842 0.247373 0.058322
0.446144 0.250999 0.056498
0.482447 0.254626 0.054674
0.518749 0.258253 0.052850
0.555052 0.261880 0.051027
0.587406 0.264929 0.049154
0.615810 0.267400 0.047232
0.644215 0.269870 0.045310
0.672620 0.272341 0.043388
0.701024 0.274812 0.041467
0.725306 0.276694 0.039715
0.741340 0.277399 0.038303
0.757375 0.278103 0.036890
0.773409 0.278808 0.035478
0.789444 0.279512 0.034066
0.803590 0.279869 0.032770
0.808294 0.278484 0.032058
0.812998 0.277099 0.031346
0.817702 0.275714 0.030634
0.822406 0.274330 0.029922
0.827111 0.272945 0.029210
0.107098 0.226163 0.074621
0.126588 0.228771 0.073821
0.146078 0.231379 0.073020
0.165569 0.233988 0.072220
0.185059 0.236596 0.071419
0.204549 0.239204 0.070619
0.236039 0.242885 0.069526
0.269929 0.246781 0.068374
0.303819 0.250676 0.067222
0.337709 0.254572 0.066071
0.371599 0.258467 0.064919
0.406912 0.262204 0.063342
0.442937 0.265863 0.061552
0.478962 0.269521 0.059762
0.514987 0.273179 0.057971
0.551012 0.276837 0.056181
0.583358 0.279915 0.054328
0.612026 0.282412 0.052413
0.640694 0.284909 0.050498
0.669362 0.287406 0.048582
0.698030 0.289904 0.046667
0.722638 0.291793 0.044899
0.739126 0.292466 0.043424
0.755615 0.293140 0.041950
0.772103 0.293814 0.040476
0.788591 0.294487 0.039002
0.803157 0.294806 0.037641
0.808115 0.293347 0.036845
0.813073 0.291888 0.036049
0.818030 0.290429 0.035252
0.822988 0.288970 0.034456
0.827946 0.287511 0.033659
0.114753 0.243082 0.080628
0.133140 0.245364 0.079659
0.151527 0.247645 0.078690
0.169914 0.249927 0.077721
0.188300 0.252209 0.076752
0.206687 0.254491 0.075783
0.237235 0.258049 0.074639
0.270215 0.261863 0.073461
0.303196 0.265677 0.072283
0.336176 0.269491 0.071104
0.369157 0.273305 0.069926
0.403982 0.277036 0.068362
0.439729 0.280726 0.066605
0.475477 0.284415 0.064849
0.511224 0.288105 0.063092
0.546972 0.291795 0.061336
0.579311 0.294901 0.059503
0.608243 0.297425 0.057594
0.637174 0.299948 0.055685
0.666105 0.302471 0.053776
0.695036 0.304995 0.051867
0.719971 0.306891 0.050082
0.736913 0.307534 0.048546
0.753855 0.308177 0.047011
0.770796 0.308820 0.045475
0.787738 0.309463 0.043939
0.802725 0.309743 0.042512
0.807936 0.308210 0.041632
0.813147 0.306677 0.040751
0.818358 0.305144 0.039871
0.823569 0.303611 0.038990
0.828781 0.302078 0.038109
0.122409 0.260001 0.086635
0.139692 0.261956 0.085497
0.156975 0.263911 0.084360
0.174259 0.265866 0.083222
0.191542 0.267822 0.082085
0.208825 0.269777 0.080947
0.238431 0.273213 0.079753
0.270502 0.276945 0.078548
0.302573 0.280678 0.077343
0.334644 0.284410 0.076138
0.366715 0.288143 0.074932
0.401052 0.291868 0.073382
0.436522 0.295589 0.071659
0.471992 0.299310 0.069936
0.507462 0.303031 0.068213
0.542932 0.306752 0.066490
0.575264 0.309888 0.064678
0.604459 0.312437 0.062775
0.633653 0.314987 0.060872
0.662848 0.317537 0.058970
0.692042 0.320086 0.057067
0.717303 0.321990 0.055266
0.734699 0.322602 0.053668
0.752095 0.323214 0.052071
0.769490 0.323826 0.050473
0.786886 0.324438 0.048876
0.802293 0.324680 0.047383
0.807757 0.323073 0.046419
0.813222 0.321466 0.045454
0.818686 0.319859 0.044489
0.824151 0.318251 0.043524
0.829616 0.316644 0.042559
0.130065 0.276920 0.092642
0.146245 0.278549 0.091336
0.162424 0.280177 0.090030
0.178604 0.281806 0.088724
0.194783 0.283434 0.087418
0.210962 0.285063 0.086112
0.239627 0.288377 0.084867
0.270789 0.292028 0.083635
0.301950 0.295679 0.082403
0.333112 0.299330 0.081171
0.364273 0.302981 0.079939
0.398122 0.306699 0.078402
0.433315 0.310452 0.076713
0.468507 0.314205 0.075023
0.503700 0.317957 0.073334
0.538892 0.321710 0.071645
0.571217 0.324874 0.069852
0.600675 0.327450 0.067956
0.630133 0.330026 0.066060
0.659590 0.332602 0.064163
0.689048 0.335177 0.062267
0.714636 0.337088 0.060450
0.732485 0.337669 0.058790
0.750335 0.338251 0.057131
0.768184 0.338832 0.055472
0.786033 0.339413 0.053812
0.801860 0.339617 0.052255
0.807578 0.337936 0.051205
0.813296 0.336255 0.050156
0.819014 0.334573 0.049107
0.824732 0.332892 0.048058
0.830451 0.331211 0.047009
0.138858 0.294859 0.099078
0.154004 0.296148 0.097625
0.169150 0.297436 0.096172
0.184296 0.298725 0.094720
0.199443 0.300013 0.093267
0.214589 0.301302 0.091814
0.242291 0.304450 0.090530
0.272504 0.307970 0.089280
0.302718 0.311489 0.088030
0.332931 0.315009 0.086780
0.363145 0.318529 0.085530
0.396431 0.322206 0.084022
0.431254 0.325961 0.082386
0.466077 0.329716 0.080750
0.500899 0.333470 0.079113
0.535722 0.337225 0.077477
0.567957 0.340405 0.075721
0.597604 0.343011 0.073845
0.627251 0.345616 0.071969
0.656898 0.348222 0.070094
0.686545 0.350828 0.068218
0.712404 0.352755 0.066389
0.730685 0.353327 0.064653
0.748966 0.353898 0.062916
0.767247 0.354470 0.061180
0.785528 0.355041 0.059444
0.801760 0.355227 0.057802
0.807749 0.353488 0.056629
0.813738 0.351748 0.055457
0.819726 0.350009 0.054284
0.825715 0.348270 0.053111
0.831703 0.346530 0.051939
0.148787 0.313817 0.105944
0.162971 0.314752 0.104366
0.177154 0.315687 0.102788
0.191337 0.316623 0.101210
0.205521 0.317558 0.099632
0.219704 0.318493 0.098054
0.246423 0.321432 0.096742
0.275650 0.324771 0.095483
0.304876 0.328110 0.094223
0.334102 0.331450 0.092964
0.363329 0.334789 0.091705
0.395978 0.338387 0.090242
0.430339 0.342115 0.088678
0.464700 0.345843 0.087114
0.499061 0.349570 0.085551
0.533422 0.353298 0.083987
0.565484 0.356481 0.082284
0.595247 0.359120 0.080443
0.625009 0.361759 0.078602
0.654772 0.364398 0.076761
0.684534 0.367037 0.074920
0.710606 0.368990 0.073083
0.729297 0.369573 0.071255
0.747988 0.370156 0.069427
0.766680 0.370739 0.067599
0.785371 0.371322 0.065771
0.801993 0.371511 0.064025
0.808269 0.369729 0.062690
0.814545 0.367948 0.061354
0.820822 0.366166 0.060019
0.827098 0.364384 0.058684
0.833374 0.362602 0.057348
0.158717 0.332775 0.112809
0.171937 0.333357 0.111106
0.185158 0.333939 0.109404
0.198378 0.334521 0.107701
0.211598 0.335102 0.105998
0.224819 0.335684 0.104295
0.250555 0.338414 0.102954
0.278795 0.341572 0.101685
0.307034 0.344731 0.100417
0.335274 0.347890 0.099148
0.363513 0.351049 0.097880
0.395526 0.354569 0.096462
0.429425 0.358269 0.094971
0.463324 0.361970 0.093479
0.497223 0.365670 0.091988
0.531122 0.369370 0.090496
0.563011 0.372557 0.088847
0.592889 0.375229 0.087041
0.622767 0.377901 0.085234
0.652645 0.380574 0.083428
0.682523 0.383246 0.081621
0.708809 0.385226 0.079777
0.727910 0.385820 0.077857
0.747011 0.386415 0.075938
0.766112 0.387009 0.074018
0.785213 0.387604 0.072098
0.802225 0.387795 0.070248
0.808789 0.385971 0.068750
0.815353 0.384147 0.067252
0.821917 0.382322 0.065754
0.828481 0.380498 0.064256
0.835045 0.378674 0.062758
0.168647 0.351733 0.119675
0.180904 0.351962 0.117847
0.193161 0.352190 0.116019
0.205419 0.352419 0.114191
0.217676 0.352647 0.112363
0.229934 0.352876 0.110536
0.254687 0.355396 0.109166
0.281940 0.358374 0.107888
0.309192 0.361352 0.106610
0.336445 0.364330 0.105332
0.363698 0.367308 0.104055
0.395073 0.370750 0.102682
0.428511 0.374423 0.101263
0.461948 0.378097 0.099844
0.495385 0.381770 0.098425
0.528822 0.385443 0.097006
0.560538 0.388633 0.095410
0.590531 0.391338 0.093639
0.620525 0.394044 0.091867
0.650518 0.396749 0.090095
0.680512 0.399455 0.088323
0.707011 0.401461 0.086471
0.726523 0.402067 0.084460
0.746034 0.402673 0.082448
0.765545 0.403279 0.080437
0.785056 0.403885 0.078425
0.802458 0.404079 0.076472
0.809309 0.402212 0.074811
0.816161 0.400346 0.073150
0.823012 0.398479 0.071489
0.829864 0.396613 0.069828
0.836715 0.394746 0.068167
0.178576 0.370691 0.126541
0.189871 0.370566 0.124588
0.201165 0.370442 0.122635
0.212460 0.370317 0.120682
0.223754 0.370192 0.118729
0.235049 0.370067 0.116776
0.258819 0.372378 0.115378
0.285085 0.375175 0.114091
0.311351 0.377973 0.112804
0.337616 0.380770 0.111517
0.363882 0.383568 0.110229
0.394621 0.386931 0.108903
0.427596 0.390577 0.107556
0.460572 0.394224 0.106209
0.493547 0.397870 0.104862
0.526523 0.401516 0.103516
0.558065 0.404708 0.101974
0.588174 0.407447 0.100236
0.618283 0.410186 0.098499
0.648392 0.412925 0.096762
0.678501 0.415664 0.095025
0.705214 0.417696 0.093166
0.725135 0.418313 0.091062
0.745056 0.418931 0.088959
0.764978 0.419548 0.086855
0.784899 0.420166 0.084752
0.802690 0.420362 0.082695
0.809829 0.418454 0.080871
0.816968 0.416545 0.079048
0.824108 0.414636 0.077224
0.831247 0.412727 0.075400
0.838386 0.410818 0.073577
0.188352 0.388676 0.132899
0.198775 0.388281 0.130873
0.209198 0.387887 0.128846
0.219622 0.387492 0.126820
0.230045 0.387098 0.124793
0.240468 0.386703 0.122766
0.263284 0.388837 0.121381
0.288579 0.391477 0.120124
0.313873 0.394117 0.118867
0.339168 0.396757 0.117610
0.364462 0.399397 0.116353
0.394546 0.402698 0.115119
0.427024 0.406330 0.113896
0.459503 0.409961 0.112673
0.491981 0.413592 0.111450
0.524460 0.417223 0.110227
0.555796 0.420438 0.108788
0.585990 0.423237 0.107133
0.616185 0.426036 0.105477
0.646379 0.428835 0.103822
0.676573 0.431634 0.102167
0.703483 0.433722 0.100333
0.723824 0.434389 0.098141
0.744164 0.435056 0.095950
0.764505 0.435723 0.093759
0.784846 0.436390 0.091567
0.803041 0.436626 0.089402
0.810508 0.434704 0.087367
0.817976 0.432783 0.085331
0.825443 0.430862 0.083296
0.832911 0.428940 0.081261
0.840378 0.427019 0.079226
0.197820 0.404714 0.138244
0.207555 0.404217 0.136246
0.217291 0.403720 0.134249
0.227026 0.403223 0.132251
0.236762 0.402725 0.130254
0.246497 0.402228 0.128256
0.268415 0.404252 0.126967
0.292770 0.406781 0.125819
0.317124 0.409310 0.124671
0.341479 0.411838 0.123523
0.365833 0.414367 0.122375
0.395226 0.417637 0.121328
0.427137 0.421278 0.120331
0.459048 0.424919 0.119335
0.490960 0.428559 0.118339
0.522871 0.432200 0.117342
0.553936 0.435477 0.116105
0.584155 0.438389 0.114625
0.614375 0.441301 0.113146
0.644594 0.444214 0.111667
0.674813 0.447126 0.110188
0.701885 0.449331 0.108445
0.722664 0.450124 0.106173
0.743443 0.450916 0.103902
0.764222 0.451708 0.101631
0.785000 0.452500 0.099359
0.803629 0.452848 0.097076
0.811505 0.450974 0.094732
0.819382 0.449099 0.092387
0.827259 0.447225 0.090043
0.835135 0.445351 0.087698
0.843012 0.443476 0.085354
0.207288 0.420752 0.143588
0.216336 0.420153 0.141620
0.225383 0.419553 0.139651
0.234431 0.418953 0.137683
0.243478 0.418353 0.135715
0.252526 0.417753 0.133746
0.273546 0.419667 0.132552
0.296961 0.422085 0.131513
0.320375 0.424502 0.130474
0.343790 0.426919 0.129435
0.367205 0.429336 0.128396
0.395906 0.432576 0.127536
0.427250 0.436226 0.126767
0.458594 0.439876 0.125997
0.489938 0.443527 0.125227
0.521282 0.447177 0.124458
0.552076 0.450515 0.123421
0.582320 0.453541 0.122118
0.612564 0.456566 0.120815
0.642809 0.459592 0.119512
0.673053 0.462618 0.118209
0.700288 0.464940 0.116557
0.721504 0.465858 0.114206
0.742721 0.466775 0.111854
0.763938 0.467693 0.109503
0.785155 0.468610 0.107152
0.804217 0.469070 0.104750
0.812502 0.467243 0.102096
0.820788 0.465416 0.099443
0.829074 0.463589 0.096789
0.837360 0.461761 0.094136
0.845646 0.459934 0.091482
0.216756 0.436791 0.148932
0.225116 0.436088 0.146993
0.233476 0.435386 0.145054
0.241835 0.434683 0.143115
0.250195 0.433981 0.141175
0.258555 0.433278 0.139236
0.278677 0.435082 0.138138
0.301152 0.437388 0.137208
0.323626 0.439694 0.136278
0.346101 0.442000 0.135347
0.368576 0.444306 0.134417
0.396585 0.447514 0.133745
0.427362 0.451174 0.133202
0.458139 0.454834 0.132659
0.488916 0.458494 0.132116
0.519693 0.462154 0.131573
0.550216 0.465554 0.130738
0.580485 0.468693 0.129611
0.610754 0.471832 0.128484
0.641023 0.474970 0.127358
0.671292 0.478109 0.126231
0.698690 0.480550 0.124669
0.720345 0.481592 0.122238
0.742000 0.482635 0.119806
0.763655 0.483678 0.117375
0.785310 0.484720 0.114944
0.804804 0.485293 0.112424
0.813499 0.483512 0.109461
0.822194 0.481732 0.106499
0.830889 0.479952 0.103536
0.839584 0.478172 0.100573
0.848279 0.476392 0.097611
0.226224 0.452829 0.154276
0.233896 0.452024 0.152366
0.241568 0.451218 0.150456
0.249240 0.450413 0.148546
0.256912 0.449608 0.146636
0.264584 0.448803 0.144726
0.283808 0.450497 0.143724
0.305343 0.452692 0.142902
0.326878 0.454886 0.142081
0.348412 0.457081 0.141260
0.369947 0.459275 0.140439
0.397265 0.462453 0.139954
0.427475 0.466122 0.139638
0.457685 0.469792 0.139321
0.487895 0.473462 0.139005
0.518104 0.477131 0.138688
0.548356 0.480592 0.138055
0.578650 0.483844 0.137104
0.608944 0.487097 0.136154
0.639238 0.490349 0.135203
0.669532 0.493601 0.134252
0.697092 0.496159 0.132781
0.719185 0.497327 0.130270
0.741278 0.498495 0.127759
0.763371 0.499663 0.125247
0.785464 0.500831 0.122736
0.805392 0.501515 0.120098
0.814496 0.499782 0.116826
0.823601 0.498049 0.113554
0.832705 0.496316 0.110283
0.841809 0.494582 0.107011
0.850913 0.492849 0.103739
0.235038 0.467601 0.159049
0.242077 0.466756 0.157175
0.249116 0.465911 0.155301
0.256155 0.465066 0.153427
0.263194 0.464222 0.151553
0.270234 0.463377 0.149679
0.288601 0.465007 0.148798
0.309234 0.467133 0.148117
0.329867 0.469258 0.147436
0.350500 0.471383 0.146755
0.371133 0.473509 0.146073
0.397779 0.476693 0.145825
0.427432 0.480406 0.145793
0.457084 0.484119 0.145762
0.486737 0.487833 0.145730
0.516389 0.491546 0.145698
0.546376 0.495101 0.145327
0.576696 0.498499 0.144615
0.607017 0.501896 0.143904
0.637337 0.505293 0.143192
0.667658 0.508691 0.142480
0.695387 0.511396 0.141149
0.717934 0.512717 0.138580
0.740480 0.514038 0.136010
0.763027 0.515359 0.133440
0.785574 0.516680 0.130870
0.805953 0.517504 0.128125
0.815497 0.515843 0.124503
0.825041 0.514182 0.120881
0.834585 0.512521 0.117259
0.844128 0.510860 0.113637
0.853672 0.509199 0.110015
0.240579 0.476041 0.160965
0.247261 0.475472 0.159160
0.253942 0.474903 0.157356
0.260624 0.474333 0.155551
0.267306 0.473764 0.153747
0.273987 0.473195 0.151942
0.291703 0.474990 0.151320
0.311626 0.477259 0.150933
0.331549 0.479528 0.150547
0.351472 0.481797 0.150160
0.371395 0.484066 0.149774
0.397465 0.487440 0.150008
0.426610 0.491367 0.150551
0.455754 0.495294 0.151095
0.484898 0.499221 0.151638
0.514043 0.503148 0.152182
0.543792 0.506963 0.152374
0.574147 0.510664 0.152216
0.604502 0.514366 0.152058
0.634857 0.518068 0.151900
0.665212 0.521770 0.151741
0.693141 0.524776 0.150796
0.716221 0.526388 0.148276
