Assets/1__3DArt/KimSe/artstation_asset/LUTs_pasterls/CUBE/Orange Cream 02.cube
# Enhanced with VOXCOLOR algorithms
LUT_3D_SIZE 32
0.035294 0.078431 0.039216
0.086861 0.084635 0.043877
0.138427 0.090839 0.048538
0.189994 0.097043 0.053200
0.241561 0.103247 0.057861
0.293128 0.109451 0.062522
0.341990 0.117281 0.069271
0.390312 0.125437 0.076438
0.438634 0.133593 0.083605
0.486956 0.141749 0.090772
0.535278 0.149904 0.097939
0.576288 0.158879 0.105803
0.613642 0.168262 0.114016
0.650997 0.177646 0.122229
0.688351 0.187030 0.130442
0.725706 0.196413 0.138655
0.756196 0.205097 0.146371
0.779823 0.213082 0.153591
0.803449 0.221067 0.160811
0.827076 0.229052 0.168031
0.850702 0.237037 0.175252
0.870201 0.243738 0.181604
0.881446 0.247873 0.186219
0.892690 0.252008 0.190835
0.903935 0.256143 0.195450
0.915180 0.260277 0.200066
0.925086 0.263691 0.204165
0.928304 0.263502 0.205685
0.931522 0.263313 0.207205
0.934740 0.263124 0.208725
0.937958 0.262934 0.210245
0.941176 0.262745 0.211765
0.035601 0.114092 0.044428
0.086333 0.119387 0.048262
0.137066 0.124682 0.052096
0.187799 0.129978 0.055930
0.238532 0.135273 0.059764
0.289264 0.140568 0.063599
0.337639 0.147305 0.069475
0.385542 0.154329 0.075760
0.433445 0.161354 0.082044
0.481349 0.168379 0.088329
0.529252 0.175403 0.094613
0.570152 0.183294 0.101743
0.607550 0.191617 0.109296
0.644948 0.199940 0.116849
0.682346 0.208264 0.124402
0.719744 0.216587 0.131954
0.750456 0.224393 0.139196
0.774481 0.231682 0.146127
0.798507 0.238970 0.153058
0.822533 0.246259 0.159989
0.846559 0.253548 0.166920
0.866483 0.259706 0.173090
0.878203 0.263603 0.177741
0.889922 0.267500 0.182392
0.901642 0.271397 0.187042
0.913362 0.275294 0.191693
0.923696 0.278518 0.195851
0.927102 0.278375 0.197550
0.930508 0.278232 0.199249
0.933914 0.278090 0.200948
0.937319 0.277947 0.202647
0.940725 0.277804 0.204345
0.035907 0.149753 0.049639
0.085806 0.154139 0.052647
0.135705 0.158526 0.055654
0.185604 0.162912 0.058661
0.235502 0.167299 0.061668
0.285401 0.171686 0.064675
0.333288 0.177328 0.069678
0.380772 0.183222 0.075081
0.428257 0.189115 0.080483
0.475741 0.195009 0.085885
0.523226 0.200902 0.091288
0.564015 0.207709 0.097684
0.601457 0.214972 0.104576
0.638898 0.222235 0.111469
0.676340 0.229498 0.118362
0.713781 0.236760 0.125254
0.744715 0.243688 0.132021
0.769140 0.250281 0.138663
0.793565 0.256873 0.145304
0.817991 0.263466 0.151946
0.842416 0.270059 0.158588
0.862764 0.275674 0.164577
0.874960 0.279333 0.169263
0.887155 0.282992 0.173948
0.899350 0.286652 0.178634
0.911545 0.290311 0.183320
0.922306 0.293344 0.187537
0.925900 0.293248 0.189415
0.929493 0.293152 0.191293
0.933087 0.293056 0.193170
0.936680 0.292960 0.195048
0.940274 0.292864 0.196926
0.036214 0.185414 0.054851
0.085279 0.188892 0.057031
0.134343 0.192369 0.059211
0.183408 0.195847 0.061391
0.232473 0.199325 0.063572
0.281538 0.202803 0.065752
0.328937 0.207351 0.069882
0.376003 0.212114 0.074402
0.423068 0.216876 0.078922
0.470134 0.221639 0.083442
0.517200 0.226401 0.087962
0.557879 0.232124 0.093624
0.595364 0.238327 0.099856
0.632849 0.244529 0.106089
0.670334 0.250732 0.112321
0.707819 0.256934 0.118554
0.738974 0.262984 0.124846
0.763799 0.268880 0.131199
0.788624 0.274777 0.137551
0.813448 0.280673 0.143903
0.838273 0.286570 0.150256
0.859046 0.291641 0.156064
0.871716 0.295063 0.160785
0.884387 0.298484 0.165505
0.897057 0.301906 0.170226
0.909727 0.305328 0.174947
0.920916 0.308171 0.179223
0.924697 0.308121 0.181280
0.928479 0.308072 0.183336
0.932260 0.308022 0.185393
0.936042 0.307973 0.187449
0.939823 0.307923 0.189506
0.036520 0.221075 0.060063
0.084751 0.223644 0.061416
0.132982 0.226213 0.062769
0.181213 0.228782 0.064122
0.229444 0.231351 0.065475
0.277675 0.233920 0.066828
0.324586 0.237374 0.070085
0.371233 0.241006 0.073723
0.417880 0.244637 0.077361
0.464527 0.248269 0.080999
0.511174 0.251900 0.084636
0.551742 0.256539 0.089564
0.589271 0.261681 0.095136
0.626800 0.266823 0.100709
0.664328 0.271965 0.106281
0.701857 0.277108 0.111854
0.733233 0.282279 0.117671
0.758458 0.287479 0.123735
0.783682 0.292680 0.129798
0.808906 0.297880 0.135861
0.834130 0.303081 0.141924
0.855328 0.307609 0.147551
0.868473 0.310793 0.152307
0.881619 0.313977 0.157062
0.894764 0.317160 0.161818
0.907910 0.320344 0.166573
0.919526 0.322997 0.170909
0.923495 0.322994 0.173145
0.927464 0.322991 0.175380
0.931434 0.322988 0.177615
0.935403 0.322986 0.179851
0.939372 0.322983 0.182086
0.036827 0.256736 0.065274
0.084224 0.258396 0.065800
0.131621 0.260056 0.066327
0.179018 0.261717 0.066853
0.226415 0.263377 0.067379
0.273812 0.265037 0.067905
0.320235 0.267398 0.070289
0.366463 0.269898 0.073044
0.412691 0.272399 0.075800
0.458920 0.274899 0.078555
0.505148 0.277400 0.081311
0.545606 0.280954 0.085504
0.583178 0.285036 0.090417
0.620750 0.289118 0.095329
0.658323 0.293199 0.100241
0.695895 0.297281 0.105154
0.727493 0.301574 0.110497
0.753116 0.306079 0.116270
0.778740 0.310583 0.122044
0.804363 0.315087 0.127818
0.829987 0.319592 0.133592
0.851609 0.323577 0.139038
0.865230 0.326523 0.143828
0.878851 0.329469 0.148619
0.892472 0.332415 0.153410
0.906092 0.335361 0.158200
0.918136 0.337824 0.162595
0.922293 0.337867 0.165009
0.926450 0.337911 0.167424
0.930607 0.337955 0.169838
0.934764 0.337998 0.172252
0.938921 0.338042 0.174667
0.039318 0.292644 0.071002
0.085574 0.293693 0.071008
0.131831 0.294741 0.071015
0.178087 0.295789 0.071021
0.224343 0.296838 0.071028
0.270600 0.297886 0.071035
0.316382 0.299436 0.072668
0.362069 0.301086 0.074626
0.407757 0.302735 0.076585
0.453444 0.304385 0.078544
0.499132 0.306035 0.080502
0.539464 0.308686 0.083898
0.577118 0.311838 0.088011
0.614773 0.314989 0.092125
0.652428 0.318141 0.096238
0.690082 0.321292 0.100352
0.721979 0.324736 0.105027
0.748118 0.328473 0.110265
0.774256 0.332210 0.115503
0.800395 0.335947 0.120741
0.826533 0.339684 0.125979
0.848706 0.343013 0.131013
0.862948 0.345526 0.135639
0.877189 0.348039 0.140266
0.891431 0.350553 0.144892
0.905672 0.353066 0.149518
0.918287 0.355148 0.153789
0.922766 0.355069 0.156288
0.927245 0.354990 0.158787
0.931724 0.354911 0.161285
0.936203 0.354832 0.163784
0.940681 0.354753 0.166282
0.042246 0.328602 0.076832
0.087300 0.329098 0.076381
0.132355 0.329594 0.075929
0.177409 0.330090 0.075478
0.222464 0.330585 0.075026
0.267518 0.331081 0.074575
0.312629 0.331877 0.075482
0.357751 0.332732 0.076661
0.402873 0.333587 0.077840
0.447995 0.334443 0.079019
0.493117 0.335298 0.080198
0.533321 0.337081 0.082782
0.571065 0.339329 0.086069
0.608810 0.341576 0.089356
0.646555 0.343823 0.092642
0.684300 0.346070 0.095929
0.716511 0.348671 0.099899
0.743187 0.351627 0.104552
0.769864 0.354582 0.109205
0.796541 0.357537 0.113858
0.823218 0.360492 0.118511
0.845966 0.363142 0.123086
0.860858 0.365184 0.127508
0.875749 0.367226 0.131930
0.890640 0.369267 0.136352
0.905532 0.371309 0.140773
0.918746 0.372971 0.144885
0.923573 0.372736 0.147449
0.928401 0.372500 0.150013
0.933229 0.372265 0.152577
0.938056 0.372030 0.155141
0.942884 0.371794 0.157705
0.045173 0.364561 0.082663
0.089026 0.364504 0.081753
0.132879 0.364447 0.080844
0.176731 0.364390 0.079934
0.220584 0.364333 0.079025
0.264437 0.364276 0.078115
0.308876 0.364318 0.078296
0.353432 0.364378 0.078695
0.397989 0.364439 0.079094
0.442546 0.364500 0.079494
0.487102 0.364561 0.079893
0.527177 0.365477 0.081666
0.565012 0.366820 0.084126
0.602847 0.368163 0.086586
0.640682 0.369506 0.089047
0.678517 0.370849 0.091507
0.711042 0.372607 0.094771
0.738257 0.374780 0.098839
0.765472 0.376953 0.102906
0.792687 0.379127 0.106974
0.819902 0.381300 0.111042
0.843226 0.383272 0.115160
0.858767 0.384842 0.119377
0.874309 0.386412 0.123594
0.889850 0.387982 0.127812
0.905391 0.389552 0.132029
0.919205 0.390795 0.135982
0.924381 0.390403 0.138611
0.929558 0.390011 0.141240
0.934734 0.389619 0.143870
0.939910 0.389227 0.146499
0.945087 0.388835 0.149128
0.048101 0.400519 0.088493
0.090752 0.399909 0.087126
0.133403 0.399300 0.085758
0.176054 0.398690 0.084390
0.218704 0.398081 0.083023
0.261355 0.397471 0.081655
0.305123 0.396758 0.081110
0.349114 0.396025 0.080730
0.393105 0.395291 0.080349
0.437096 0.394558 0.079968
0.481087 0.393824 0.079588
0.521034 0.393872 0.080550
0.558959 0.394311 0.082184
0.596884 0.394750 0.083817
0.634809 0.395188 0.085451
0.672735 0.395627 0.087085
0.705574 0.396542 0.089643
0.733327 0.397933 0.093125
0.761080 0.399325 0.096608
0.788834 0.400717 0.100091
0.816587 0.402108 0.103573
0.840486 0.403402 0.107233
0.856677 0.404500 0.111246
0.872868 0.405598 0.115259
0.889060 0.406697 0.119271
0.905251 0.407795 0.123284
0.919664 0.408619 0.127078
0.925189 0.408070 0.129772
0.930714 0.407522 0.132467
0.936239 0.406973 0.135162
0.941764 0.406425 0.137856
0.947289 0.405876 0.140551
0.051029 0.436477 0.094324
0.092478 0.435315 0.092498
0.133927 0.434153 0.090672
0.175376 0.432991 0.088847
0.216825 0.431828 0.087021
0.258274 0.430666 0.085196
0.301370 0.429199 0.083924
0.344796 0.427671 0.082764
0.388221 0.426143 0.081604
0.431647 0.424615 0.080443
0.475073 0.423087 0.079283
0.514891 0.422268 0.079434
0.552906 0.421802 0.080241
0.590922 0.421336 0.081048
0.628937 0.420871 0.081855
0.666952 0.420405 0.082662
0.700105 0.420477 0.084515
0.728397 0.421087 0.087412
0.756688 0.421697 0.090310
0.784980 0.422306 0.093207
0.813272 0.422916 0.096105
0.837746 0.423532 0.099306
0.854587 0.424158 0.103115
0.871428 0.424785 0.106923
0.888269 0.425411 0.110731
0.905110 0.426038 0.114540
0.920123 0.426443 0.118174
0.925997 0.425738 0.120934
0.931871 0.425033 0.123694
0.937744 0.424328 0.126454
0.943618 0.423623 0.129214
0.949492 0.422918 0.131974
0.059298 0.471030 0.101963
0.099066 0.469461 0.099806
0.138834 0.467893 0.097649
0.178601 0.466324 0.095491
0.218369 0.464756 0.093334
0.258137 0.463187 0.091176
0.300229 0.461201 0.089270
0.342786 0.459131 0.087414
0.385342 0.457061 0.085558
0.427899 0.454991 0.083702
0.470455 0.452921 0.081847
0.509925 0.451484 0.081221
0.547850 0.450364 0.081210
0.585776 0.449244 0.081200
0.623701 0.448123 0.081189
0.661627 0.447003 0.081179
0.694966 0.446428 0.082311
0.723719 0.446398 0.084586
0.752473 0.446368 0.086860
0.781226 0.446338 0.089135
0.809979 0.446308 0.091409
0.834982 0.446340 0.094121
0.852486 0.446495 0.097707
0.869990 0.446650 0.101294
0.887493 0.446804 0.104880
0.904997 0.446959 0.108466
0.920633 0.446932 0.111932
0.926930 0.445995 0.114795
0.933227 0.445057 0.117659
0.939524 0.444120 0.120522
0.945820 0.443182 0.123386
0.952117 0.442245 0.126250
0.070237 0.504880 0.110508
0.108084 0.502978 0.108082
0.145931 0.501076 0.105656
0.183779 0.499174 0.103229
0.221626 0.497272 0.100803
0.259473 0.495370 0.098377
0.300394 0.492982 0.095882
0.341930 0.490496 0.093372
0.383466 0.488011 0.090863
0.425001 0.485525 0.088354
0.466537 0.483039 0.085844
0.505546 0.481111 0.084459
0.543292 0.479461 0.083635
0.581039 0.477811 0.082812
0.618785 0.476161 0.081988
0.656531 0.474511 0.081165
0.689992 0.473387 0.081569
0.719168 0.472788 0.083202
0.748345 0.472189 0.084835
0.777521 0.471590 0.086468
0.806698 0.470992 0.088100
0.832207 0.470487 0.090307
0.850379 0.470170 0.093662
0.868552 0.469854 0.097017
0.886725 0.469537 0.100372
0.904898 0.469220 0.103727
0.921168 0.468755 0.107021
0.927925 0.467547 0.110007
0.934682 0.466339 0.112993
0.941440 0.465131 0.115979
0.948197 0.463923 0.118966
0.954954 0.462715 0.121952
0.081176 0.538730 0.119053
0.117103 0.536495 0.116358
0.153029 0.534260 0.113663
0.188956 0.532024 0.110968
0.224882 0.529789 0.108273
0.260809 0.527554 0.105578
0.300559 0.524764 0.102493
0.341074 0.521862 0.099330
0.381589 0.518961 0.096167
0.422104 0.516059 0.093005
0.462619 0.513158 0.089842
0.501168 0.510738 0.087697
0.538735 0.508558 0.086060
0.576301 0.506378 0.084424
0.613868 0.504199 0.082787
0.651435 0.502019 0.081151
0.685018 0.500345 0.080828
0.714618 0.499178 0.081819
0.744217 0.498010 0.082810
0.773817 0.496843 0.083801
0.803417 0.495675 0.084791
0.829431 0.494634 0.086493
0.848273 0.493846 0.089617
0.867114 0.493058 0.092741
0.885956 0.492269 0.095865
0.904798 0.491481 0.098988
0.921703 0.490578 0.102110
0.928920 0.489100 0.105219
0.936138 0.487621 0.108327
0.943356 0.486143 0.111436
0.950574 0.484664 0.114545
0.957791 0.483186 0.117654
0.092115 0.572581 0.127597
0.126121 0.570012 0.124633
0.160127 0.567443 0.121670
0.194133 0.564875 0.118706
0.228139 0.562306 0.115743
0.262145 0.559737 0.112779
0.300724 0.556545 0.109105
0.340218 0.553228 0.105288
0.379712 0.549911 0.101472
0.419206 0.546594 0.097656
0.458700 0.543277 0.093839
0.496790 0.540365 0.090934
0.534177 0.537655 0.088485
0.571564 0.534946 0.086035
0.608951 0.532236 0.083586
0.646338 0.529527 0.081137
0.680043 0.527304 0.080086
0.710067 0.525568 0.080435
0.740090 0.523832 0.080784
0.770113 0.522095 0.081134
0.800136 0.520359 0.081483
0.826655 0.518781 0.082679
0.846166 0.517522 0.085572
0.865677 0.516262 0.088465
0.885188 0.515002 0.091357
0.904699 0.513742 0.094250
0.922238 0.512401 0.097199
0.929916 0.510652 0.100430
0.937594 0.508903 0.103662
0.945272 0.507154 0.106893
0.952950 0.505405 0.110124
0.960628 0.503656 0.113356
0.103054 0.606431 0.136142
0.135140 0.603529 0.132909
0.167225 0.600627 0.129677
0.199310 0.597725 0.126445
0.231395 0.594823 0.123212
0.263481 0.591921 0.119980
0.300889 0.588326 0.115716
0.339362 0.584594 0.111246
0.377836 0.580861 0.106777
0.416309 0.577128 0.102307
0.454782 0.573395 0.097837
0.492411 0.569992 0.094172
0.529619 0.566752 0.090910
0.566827 0.563513 0.087647
0.604034 0.560274 0.084385
0.641242 0.557035 0.081122
0.675069 0.554263 0.079345
0.705516 0.551958 0.079052
0.735962 0.549653 0.078759
0.766408 0.547348 0.078466
0.796855 0.545043 0.078174
0.823879 0.542929 0.078866
0.844059 0.541197 0.081527
0.864239 0.539466 0.084188
0.884419 0.537734 0.086850
0.904599 0.536003 0.089511
0.922772 0.534224 0.092288
0.930911 0.532204 0.095642
0.939050 0.530185 0.098996
0.947188 0.528165 0.102350
0.955327 0.526146 0.105704
0.963465 0.524127 0.109058
0.118861 0.637650 0.147354
0.148813 0.634525 0.143853
0.178766 0.631400 0.140352
0.208719 0.628275 0.136851
0.238671 0.625150 0.133350
0.268624 0.622026 0.129849
0.304588 0.618184 0.125017
0.341755 0.614199 0.119919
0.378921 0.610214 0.114821
0.416088 0.606229 0.109723
0.453255 0.602244 0.104625
0.490142 0.598530 0.100235
0.526890 0.594953 0.096200
0.563638 0.591376 0.092164
0.600386 0.587798 0.088129
0.637134 0.584221 0.084094
0.670841 0.581080 0.081637
0.701507 0.578374 0.080758
0.732173 0.575669 0.079880
0.762839 0.572964 0.079001
0.793505 0.570258 0.078123
0.820871 0.567753 0.078374
0.841637 0.565647 0.080884
0.862402 0.563541 0.083394
0.883168 0.561435 0.085904
0.903934 0.559329 0.088414
0.922680 0.557195 0.091101
0.931328 0.554920 0.094674
0.939976 0.552645 0.098247
0.948624 0.550371 0.101820
0.957272 0.548096 0.105393
0.965919 0.545821 0.108966
0.139535 0.666237 0.161233
0.167143 0.663000 0.157463
0.194750 0.659763 0.153694
0.222358 0.656526 0.149925
0.249966 0.653289 0.146156
0.277574 0.650052 0.142386
0.311820 0.646117 0.137007
0.347395 0.642043 0.131306
0.382969 0.637969 0.125604
0.418544 0.633895 0.119903
0.454118 0.629821 0.114202
0.489982 0.625981 0.109123
0.525990 0.622257 0.104355
0.561998 0.618533 0.099587
0.598006 0.614809 0.094818
0.634014 0.611085 0.090050
0.667359 0.607754 0.086962
0.698041 0.604817 0.085554
0.728723 0.601880 0.084147
0.759405 0.598943 0.082739
0.790087 0.596006 0.081331
0.817631 0.593254 0.081205
0.838899 0.590871 0.083643
0.860167 0.588488 0.086082
0.881435 0.586105 0.088520
0.902703 0.583722 0.090959
0.921960 0.581317 0.093639
0.931166 0.578801 0.097527
0.940372 0.576285 0.101415
0.949578 0.573769 0.105304
0.958784 0.571253 0.109192
0.967990 0.568738 0.113080
0.160209 0.694824 0.175112
0.185472 0.691475 0.171074
0.210735 0.688126 0.167037
0.235998 0.684777 0.162999
0.261261 0.681427 0.158961
0.286524 0.678078 0.154924
0.319053 0.674051 0.148997
0.353035 0.669888 0.142693
0.387017 0.665725 0.136388
0.421000 0.661562 0.130084
0.454982 0.657399 0.123779
0.489821 0.653431 0.118010
0.525090 0.649561 0.112510
0.560358 0.645690 0.107009
0.595626 0.641819 0.101508
0.630895 0.637948 0.096007
0.663878 0.634429 0.092288
0.694575 0.631260 0.090351
0.725273 0.628092 0.088413
0.755971 0.624923 0.086476
0.786669 0.621755 0.084538
0.814391 0.618755 0.084036
0.836161 0.616095 0.086403
0.857931 0.613435 0.088770
0.879701 0.610774 0.091136
0.901471 0.608114 0.093503
0.921241 0.605438 0.096177
0.931005 0.602681 0.100380
0.940769 0.599924 0.104584
0.950533 0.597168 0.108787
0.960297 0.594411 0.112991
0.970061 0.591655 0.117195
0.180883 0.723412 0.188991
0.203801 0.719950 0.184685
0.226719 0.716489 0.180379
0.249637 0.713027 0.176073
0.272556 0.709566 0.171767
0.295474 0.706105 0.167461
0.326285 0.701984 0.160987
0.358675 0.697733 0.154080
0.391065 0.693481 0.147172
0.423455 0.689229 0.140264
0.455845 0.684977 0.133356
0.489661 0.680882 0.126898
0.524190 0.676864 0.120665
0.558718 0.672847 0.114431
0.593246 0.668830 0.108197
0.627775 0.664812 0.101964
0.660396 0.661103 0.097613
0.691110 0.657703 0.095147
0.721823 0.654303 0.092680
0.752537 0.650903 0.090213
0.783251 0.647503 0.087746
0.811150 0.644257 0.086866
0.833423 0.641319 0.089162
0.855695 0.638381 0.091457
0.877968 0.635444 0.093753
0.900240 0.632506 0.096048
0.920521 0.629559 0.098714
0.930843 0.626561 0.103233
0.941165 0.623564 0.107752
0.951488 0.620567 0.112271
0.961810 0.617569 0.116790
0.972132 0.614572 0.121309
0.201556 0.751999 0.202870
0.222130 0.748425 0.198296
0.242703 0.744852 0.193722
0.263277 0.741278 0.189147
0.283850 0.737704 0.184573
0.304424 0.734131 0.179999
0.333518 0.729918 0.172977
0.364316 0.725577 0.165466
0.395113 0.721237 0.157956
0.425911 0.716896 0.150445
0.456709 0.712555 0.142934
0.489501 0.708332 0.135786
0.523289 0.704168 0.128820
0.557078 0.700004 0.121853
0.590867 0.695840 0.114887
0.624655 0.691676 0.107920
0.656914 0.687778 0.102939
0.687644 0.684146 0.099943
0.718373 0.680514 0.096946
0.749103 0.676883 0.093950
0.779832 0.673251 0.090953
0.807910 0.669758 0.089697
0.830685 0.666543 0.091921
0.853460 0.663328 0.094145
0.876234 0.660113 0.096369
0.899009 0.656899 0.098593
0.919801 0.653680 0.101252
0.930682 0.650442 0.106086
0.941562 0.647203 0.110920
0.952442 0.643965 0.115755
0.963323 0.640727 0.120589
0.974203 0.637489 0.125423
0.224698 0.777996 0.218733
0.243027 0.774396 0.213910
0.261357 0.770796 0.209088
0.279686 0.767196 0.204266
0.298016 0.763596 0.199443
0.316345 0.759996 0.194621
0.343625 0.755772 0.187081
0.372695 0.751423 0.178997
0.401765 0.747074 0.170914
0.430835 0.742725 0.162831
0.459905 0.738376 0.154747
0.491472 0.734113 0.146948
0.524288 0.729892 0.139291
0.557104 0.725672 0.131634
0.589920 0.721452 0.123977
0.622736 0.717232 0.116320
0.654408 0.713240 0.110749
0.684936 0.709477 0.107264
0.715464 0.705715 0.103779
0.745992 0.701952 0.100293
0.776519 0.698189 0.096808
0.804591 0.694548 0.095212
0.827751 0.691150 0.097394
0.850911 0.687752 0.099576
0.874070 0.684353 0.101758
0.897230 0.680955 0.103940
0.918442 0.677552 0.106623
0.929916 0.674129 0.111810
0.941390 0.670706 0.116996
0.952863 0.667283 0.122183
0.964337 0.663860 0.127369
0.975811 0.660436 0.132556
0.252773 0.798812 0.238563
0.269061 0.795357 0.233532
0.285348 0.791902 0.228502
0.301635 0.788447 0.223472
0.317922 0.784992 0.218441
0.334209 0.781537 0.213411
0.359483 0.777465 0.205411
0.386553 0.773269 0.196816
0.413624 0.769073 0.188222
0.440695 0.764878 0.179628
0.467765 0.760682 0.171033
0.497708 0.756553 0.162660
0.529085 0.752458 0.154397
0.560463 0.748362 0.146134
0.591841 0.744267 0.137871
0.623219 0.740171 0.129608
0.653853 0.736278 0.123529
0.683744 0.732586 0.119636
0.713635 0.728894 0.115742
0.743526 0.725202 0.111849
0.773417 0.721509 0.107956
0.801114 0.717917 0.106093
0.824425 0.714522 0.108293
0.847735 0.711128 0.110493
0.871046 0.707734 0.112693
0.894356 0.704339 0.114893
0.915805 0.700928 0.117661
0.927942 0.697431 0.123274
0.940079 0.693935 0.128887
0.952216 0.690438 0.134500
0.964354 0.686942 0.140112
0.976491 0.683445 0.145725
0.280849 0.819629 0.258393
0.295094 0.816319 0.253154
0.309339 0.813009 0.247916
0.323584 0.809699 0.242678
0.337829 0.806389 0.237439
0.352073 0.803079 0.232201
0.375340 0.799158 0.223740
0.400412 0.795116 0.214635
0.425483 0.791073 0.205530
0.450555 0.787030 0.196425
0.475626 0.782988 0.187320
0.503943 0.778993 0.178372
0.533883 0.775023 0.169502
0.563822 0.771052 0.160633
0.593762 0.767082 0.151764
0.623702 0.763111 0.142895
0.653299 0.759315 0.136309
0.682552 0.755694 0.132008
0.711806 0.752072 0.127706
0.741060 0.748451 0.123405
0.770314 0.744830 0.119103
0.797637 0.741285 0.116975
0.821099 0.737895 0.119192
0.844560 0.734504 0.121410
0.868021 0.731114 0.123627
0.891482 0.727724 0.125845
0.913167 0.724304 0.128699
0.925968 0.720734 0.134738
0.938769 0.717163 0.140777
0.951569 0.713593 0.146816
0.964370 0.710023 0.152856
0.977171 0.706453 0.158895
0.308925 0.840445 0.278222
0.321127 0.837280 0.272776
0.333330 0.834115 0.267330
0.345532 0.830950 0.261884
0.357735 0.827785 0.256438
0.369938 0.824620 0.250991
0.391198 0.820852 0.242070
0.414270 0.816962 0.232454
0.437342 0.813073 0.222838
0.460414 0.809183 0.213222
0.483486 0.805294 0.203606
0.510178 0.801433 0.194083
0.538680 0.797588 0.184608
0.567181 0.793742 0.175133
0.595683 0.789897 0.165657
0.624184 0.786051 0.156182
0.652744 0.782353 0.149089
0.681361 0.778802 0.144380
0.709978 0.775251 0.139670
0.738595 0.771700 0.134961
0.767212 0.768150 0.130251
0.794160 0.764654 0.127856
0.817772 0.761267 0.130092
0.841384 0.757881 0.132327
0.864997 0.754495 0.134562
0.888609 0.751108 0.136797
0.910529 0.747679 0.139737
0.923994 0.744036 0.146203
0.937458 0.740392 0.152668
0.950922 0.736749 0.159133
0.964387 0.733105 0.165599
0.977851 0.729462 0.172064
0.337001 0.861262 0.298052
0.347161 0.858242 0.292398
0.357321 0.855222 0.286744
0.367481 0.852202 0.281090
0.377641 0.849182 0.275436
0.387802 0.846162 0.269782
0.407056 0.842545 0.260400
0.428128 0.838809 0.250273
0.449201 0.835072 0.240146
0.470274 0.831336 0.230019
0.491347 0.827600 0.219892
0.516413 0.823874 0.209795
0.543477 0.820153 0.199714
0.570540 0.816432 0.189632
0.597604 0.812712 0.179550
0.624667 0.808991 0.169469
0.652189 0.805390 0.161869
0.680169 0.801910 0.156752
0.708149 0.798430 0.151634
0.736129 0.794950 0.146516
0.764109 0.791470 0.141399
0.790683 0.788022 0.138738
0.814446 0.784640 0.140991
0.838209 0.781257 0.143244
0.861972 0.777875 0.145497
0.885735 0.774493 0.147749
0.907892 0.771055 0.150775
0.922020 0.767338 0.157667
0.936148 0.763621 0.164559
0.950275 0.759904 0.171450
0.964403 0.756187 0.178342
0.978531 0.752470 0.185233
0.365217 0.880627 0.318218
0.373537 0.877799 0.312446
0.381858 0.874972 0.306674
0.390178 0.872144 0.300902
0.398499 0.869316 0.295130
0.406819 0.866488 0.289358
0.424115 0.863054 0.279595
0.443206 0.859500 0.269034
0.462297 0.855945 0.258473
0.481388 0.852391 0.247912
0.500479 0.848836 0.237351
0.523868 0.845268 0.226740
0.549405 0.841694 0.216104
0.574943 0.838120 0.205469
0.600481 0.834546 0.194833
0.626018 0.830972 0.184197
0.652397 0.827493 0.176120
0.679616 0.824110 0.170600
0.706835 0.820728 0.165081
0.734055 0.817345 0.159562
0.761274 0.813962 0.154042
0.787362 0.810594 0.151107
0.811187 0.807255 0.153340
0.835013 0.803916 0.155574
0.858838 0.800577 0.157807
0.882663 0.797238 0.160041
0.904985 0.793831 0.163118
0.919791 0.790082 0.170419
0.934596 0.786334 0.177719
0.949402 0.782585 0.185019
0.964208 0.778837 0.192319
0.979013 0.775089 0.199619
0.394134 0.892737 0.340065
0.401628 0.890337 0.334624
0.409123 0.887937 0.329184
0.416617 0.885537 0.323743
0.424111 0.883136 0.318303
0.431605 0.880736 0.312862
0.447185 0.877645 0.303114
0.464382 0.874415 0.292504
0.481578 0.871185 0.281894
0.498775 0.867955 0.271285
0.515972 0.864726 0.260675
0.537419 0.861436 0.249852
0.560992 0.858116 0.238922
0.584565 0.854796 0.227993
0.608137 0.851476 0.217064
0.631710 0.848157 0.206134
0.656417 0.844921 0.197724
0.682257 0.841771 0.191834
0.708097 0.838620 0.185945
0.733937 0.835469 0.180055
0.759777 0.832318 0.174165
0.784819 0.829185 0.170914
0.808265 0.826085 0.172942
