Assets/1__3DArt/KimSe/artstation_asset/LUTs_pasterls/CUBE/Orange Cream 03 S.cube
# Enhanced with VOXCOLOR algorithms
LUT_3D_SIZE 32
0.066667 0.117647 0.043137
0.097301 0.120481 0.043487
0.127934 0.123314 0.043838
0.158568 0.126148 0.044188
0.189202 0.128982 0.044538
0.219835 0.131816 0.044889
0.258955 0.134347 0.044005
0.299771 0.136819 0.042874
0.340588 0.139290 0.041743
0.381404 0.141761 0.040612
0.422221 0.144232 0.039481
0.459645 0.146370 0.037539
0.495375 0.148342 0.035192
0.531104 0.150314 0.032845
0.566833 0.152285 0.030498
0.602562 0.154257 0.028151
0.632161 0.155864 0.025802
0.655628 0.157106 0.023452
0.679096 0.158348 0.021102
0.702563 0.159589 0.018752
0.726031 0.160831 0.016402
0.745217 0.161720 0.014423
0.755840 0.161903 0.013186
0.766463 0.162087 0.011949
0.777086 0.162270 0.010712
0.787709 0.162453 0.009476
0.796925 0.162421 0.008426
0.799109 0.161309 0.008309
0.801292 0.160198 0.008193
0.803476 0.159086 0.008076
0.805659 0.157975 0.007960
0.807843 0.156863 0.007843
0.068177 0.121459 0.044119
0.097712 0.124588 0.044411
0.127247 0.127718 0.044703
0.156781 0.130848 0.044994
0.186316 0.133977 0.045286
0.215851 0.137107 0.045577
0.253980 0.140038 0.044635
0.293828 0.142929 0.043447
0.333676 0.145820 0.042259
0.373525 0.148711 0.041070
0.413373 0.151602 0.039882
0.450321 0.154094 0.037934
0.485819 0.156387 0.035608
0.521318 0.158679 0.033281
0.556816 0.160972 0.030954
0.592314 0.163265 0.028627
0.622109 0.165131 0.026339
0.646199 0.166571 0.024088
0.670290 0.168012 0.021837
0.694380 0.169452 0.019586
0.718471 0.170893 0.017335
0.738428 0.171951 0.015462
0.750120 0.172246 0.014345
0.761811 0.172540 0.013227
0.773503 0.172834 0.012109
0.785194 0.173129 0.010991
0.795390 0.173187 0.010056
0.798107 0.172068 0.010030
0.800824 0.170948 0.010005
0.803542 0.169828 0.009980
0.806259 0.168709 0.009954
0.808977 0.167589 0.009929
0.069687 0.125270 0.045102
0.098123 0.128696 0.045335
0.126559 0.132121 0.045567
0.154994 0.135547 0.045800
0.183430 0.138972 0.046033
0.211866 0.142398 0.046266
0.249005 0.145728 0.045266
0.287885 0.149039 0.044020
0.326765 0.152350 0.042774
0.365645 0.155661 0.041529
0.404525 0.158972 0.040283
0.440997 0.161818 0.038330
0.476264 0.164431 0.036023
0.511532 0.167045 0.033717
0.546799 0.169658 0.031411
0.582067 0.172272 0.029104
0.612057 0.174398 0.026875
0.636771 0.176037 0.024724
0.661484 0.177676 0.022572
0.686198 0.179316 0.020421
0.710911 0.180955 0.018269
0.731640 0.182183 0.016502
0.744400 0.182588 0.015503
0.757160 0.182993 0.014505
0.769919 0.183399 0.013506
0.782679 0.183804 0.012507
0.793854 0.183954 0.011686
0.797106 0.182826 0.011752
0.800357 0.181698 0.011817
0.803608 0.180570 0.011883
0.806859 0.179443 0.011949
0.810110 0.178315 0.012015
0.071197 0.129082 0.046084
0.098534 0.132804 0.046258
0.125871 0.136525 0.046432
0.153208 0.140246 0.046606
0.180544 0.143968 0.046780
0.207881 0.147689 0.046954
0.244030 0.151418 0.045897
0.281942 0.155149 0.044594
0.319854 0.158880 0.043290
0.357766 0.162611 0.041987
0.395677 0.166341 0.040684
0.431672 0.169541 0.038725
0.466709 0.172476 0.036439
0.501745 0.175410 0.034153
0.536782 0.178345 0.031867
0.571819 0.181279 0.029581
0.602005 0.183665 0.027412
0.627342 0.185503 0.025360
0.652678 0.187341 0.023307
0.678015 0.189179 0.021255
0.703351 0.191016 0.019203
0.724851 0.192414 0.017541
0.738680 0.192930 0.016662
0.752508 0.193446 0.015782
0.766336 0.193963 0.014903
0.780165 0.194479 0.014023
0.792319 0.194720 0.013316
0.796104 0.193584 0.013473
0.799889 0.192448 0.013630
0.803674 0.191312 0.013787
0.807459 0.190177 0.013944
0.811244 0.189041 0.014101
0.072707 0.132894 0.047067
0.098945 0.136911 0.047182
0.125183 0.140928 0.047297
0.151421 0.144946 0.047412
0.177659 0.148963 0.047528
0.203897 0.152980 0.047643
0.239056 0.157108 0.046528
0.275999 0.161259 0.045167
0.312943 0.165410 0.043806
0.349886 0.169560 0.042445
0.386829 0.173711 0.041084
0.422348 0.177265 0.039120
0.457153 0.180520 0.036855
0.491959 0.183776 0.034589
0.526765 0.187031 0.032323
0.561571 0.190287 0.030058
0.591953 0.192932 0.027948
0.617913 0.194969 0.025995
0.643872 0.197005 0.024042
0.669832 0.199042 0.022089
0.695791 0.201078 0.020136
0.718063 0.202645 0.018581
0.732960 0.203272 0.017820
0.747857 0.203900 0.017060
0.762753 0.204527 0.016299
0.777650 0.205155 0.015539
0.790784 0.205487 0.014946
0.795102 0.204343 0.015194
0.799421 0.203199 0.015442
0.803740 0.202055 0.015690
0.808059 0.200911 0.015938
0.812377 0.199766 0.016186
0.074217 0.136706 0.048049
0.099356 0.141019 0.048106
0.124495 0.145332 0.048162
0.149634 0.149645 0.048219
0.174773 0.153958 0.048275
0.199912 0.158271 0.048331
0.234081 0.162799 0.047159
0.270056 0.167369 0.045740
0.306031 0.171940 0.044322
0.342007 0.176510 0.042904
0.377982 0.181081 0.041485
0.413023 0.184989 0.039516
0.447598 0.188565 0.037270
0.482173 0.192141 0.035025
0.516748 0.195718 0.032780
0.551323 0.199294 0.030534
0.581901 0.202200 0.028485
0.608484 0.204435 0.026631
0.635066 0.206670 0.024778
0.661649 0.208905 0.022924
0.688231 0.211140 0.021070
0.711275 0.212876 0.019621
0.727240 0.213615 0.018979
0.743205 0.214353 0.018337
0.759170 0.215092 0.017696
0.775135 0.215830 0.017054
0.789248 0.216253 0.016576
0.794101 0.215101 0.016916
0.798954 0.213949 0.017255
0.803806 0.212797 0.017594
0.808659 0.211645 0.017933
0.813511 0.210492 0.018272
0.077441 0.145294 0.051223
0.101594 0.149810 0.051165
0.125747 0.154326 0.051108
0.149900 0.158841 0.051051
0.174053 0.163357 0.050993
0.198206 0.167873 0.050936
0.231514 0.172820 0.049648
0.266653 0.177853 0.048114
0.301791 0.182886 0.046580
0.336930 0.187920 0.045045
0.372069 0.192953 0.043511
0.406699 0.197270 0.041475
0.441074 0.201229 0.039188
0.475450 0.205188 0.036901
0.509825 0.209147 0.034613
0.544201 0.213107 0.032326
0.574903 0.216260 0.030281
0.601932 0.218607 0.028478
0.628960 0.220955 0.026676
0.655989 0.223302 0.024873
0.683018 0.225650 0.023070
0.706606 0.227401 0.021692
0.723312 0.227960 0.021165
0.740019 0.228519 0.020637
0.756726 0.229079 0.020109
0.773432 0.229638 0.019581
0.788230 0.229858 0.019219
0.793484 0.228384 0.019684
0.798739 0.226911 0.020150
0.803993 0.225437 0.020616
0.809247 0.223964 0.021082
0.814502 0.222490 0.021548
0.081008 0.154838 0.054835
0.104198 0.159538 0.054652
0.127388 0.164237 0.054470
0.150577 0.168937 0.054288
0.173767 0.173637 0.054105
0.196957 0.178337 0.053923
0.229429 0.183707 0.052508
0.263757 0.189212 0.050847
0.298086 0.194716 0.049185
0.332414 0.200221 0.047524
0.366743 0.205725 0.045863
0.400974 0.210463 0.043748
0.435156 0.214817 0.041406
0.469339 0.219172 0.039064
0.503521 0.223526 0.036722
0.537704 0.227880 0.034380
0.568515 0.231279 0.032329
0.595955 0.233721 0.030567
0.623394 0.236164 0.028806
0.650834 0.238607 0.027045
0.678274 0.241049 0.025284
0.702361 0.242785 0.023971
0.719743 0.243107 0.023556
0.737126 0.243428 0.023140
0.754509 0.243750 0.022725
0.771891 0.244072 0.022310
0.787315 0.244030 0.022064
0.792945 0.242173 0.022663
0.798575 0.240315 0.023262
0.804204 0.238457 0.023862
0.809834 0.236600 0.024461
0.815464 0.234742 0.025061
0.084575 0.164381 0.058446
0.106801 0.169265 0.058139
0.129028 0.174149 0.057832
0.151254 0.179033 0.057525
0.173481 0.183917 0.057218
0.195708 0.188801 0.056910
0.227344 0.194595 0.055369
0.260862 0.200571 0.053580
0.294380 0.206546 0.051791
0.327899 0.212522 0.050003
0.361417 0.218498 0.048214
0.395249 0.223656 0.046020
0.429239 0.228406 0.043624
0.463228 0.233155 0.041227
0.497217 0.237905 0.038831
0.531207 0.242654 0.036434
0.562127 0.246298 0.034376
0.589978 0.248836 0.032656
0.617828 0.251373 0.030937
0.645679 0.253911 0.029217
0.673529 0.256449 0.027497
0.698116 0.258169 0.026249
0.716175 0.258253 0.025947
0.734233 0.258337 0.025644
0.752292 0.258422 0.025341
0.770350 0.258506 0.025038
0.786400 0.258202 0.024908
0.792405 0.255961 0.025641
0.798410 0.253719 0.026374
0.804416 0.251478 0.027108
0.810421 0.249236 0.027841
0.816426 0.246995 0.028574
0.088141 0.173925 0.062058
0.109405 0.178993 0.061626
0.130668 0.184061 0.061194
0.151931 0.189129 0.060762
0.173195 0.194197 0.060330
0.194458 0.199265 0.059898
0.225259 0.205482 0.058229
0.257967 0.211929 0.056313
0.290675 0.218376 0.054397
0.323383 0.224824 0.052481
0.356091 0.231271 0.050565
0.389524 0.236849 0.048293
0.423321 0.241994 0.045842
0.457117 0.247139 0.043391
0.490914 0.252283 0.040940
0.524710 0.257428 0.038489
0.555739 0.261317 0.036424
0.584001 0.263950 0.034746
0.612262 0.266583 0.033067
0.640524 0.269215 0.031389
0.668785 0.271848 0.029710
0.693871 0.273553 0.028528
0.712606 0.273399 0.028338
0.731340 0.273246 0.028147
0.750075 0.273093 0.027957
0.768809 0.272940 0.027767
0.785485 0.272375 0.027753
0.791866 0.269749 0.028620
0.798246 0.267124 0.029487
0.804627 0.264498 0.030353
0.811008 0.261872 0.031220
0.817388 0.259247 0.032087
0.091708 0.183469 0.065670
0.112008 0.188721 0.065113
0.132308 0.193973 0.064556
0.152608 0.199225 0.063999
0.172909 0.204477 0.063442
0.193209 0.209729 0.062885
0.223174 0.216370 0.061089
0.255071 0.223288 0.059046
0.286969 0.230207 0.057003
0.318867 0.237125 0.054960
0.350765 0.244043 0.052916
0.383800 0.250042 0.050565
0.417403 0.255582 0.048060
0.451006 0.261122 0.045554
0.484610 0.266662 0.043049
0.518213 0.272202 0.040543
0.549351 0.276336 0.038472
0.578024 0.279064 0.036835
0.606696 0.281792 0.035198
0.635369 0.284520 0.033561
0.664041 0.287248 0.031923
0.689626 0.288936 0.030806
0.709037 0.288546 0.030729
0.728447 0.288155 0.030651
0.747858 0.287765 0.030573
0.767268 0.287374 0.030496
0.784570 0.286547 0.030598
0.791326 0.283537 0.031598
0.798082 0.280528 0.032599
0.804838 0.277518 0.033599
0.811594 0.274509 0.034600
0.818350 0.271499 0.035600
0.097155 0.196703 0.070745
0.116529 0.201871 0.070034
0.135903 0.207039 0.069324
0.155277 0.212207 0.068613
0.174651 0.217375 0.067903
0.194025 0.222543 0.067192
0.223187 0.229335 0.065293
0.254305 0.236453 0.063155
0.285424 0.243570 0.061018
0.316543 0.250687 0.058881
0.347662 0.257805 0.056744
0.380295 0.264029 0.054342
0.413685 0.269807 0.051808
0.447074 0.275585 0.049274
0.480464 0.281362 0.046740
0.513854 0.287140 0.044206
0.545031 0.291430 0.042127
0.573996 0.294233 0.040503
0.602960 0.297035 0.038880
0.631925 0.299837 0.037256
0.660889 0.302640 0.035632
0.686831 0.304326 0.034532
0.706727 0.303780 0.034476
0.726624 0.303234 0.034421
0.746520 0.302688 0.034366
0.766416 0.302142 0.034311
0.784175 0.301144 0.034433
0.791246 0.297882 0.035447
0.798318 0.294620 0.036460
0.805389 0.291358 0.037474
0.812460 0.288096 0.038488
0.819531 0.284835 0.039501
0.103542 0.211783 0.076551
0.122008 0.216733 0.075673
0.140475 0.221682 0.074794
0.158941 0.226632 0.073916
0.177408 0.231582 0.073038
0.195875 0.236532 0.072159
0.224249 0.243340 0.070167
0.254604 0.250520 0.067953
0.284960 0.257700 0.065738
0.315315 0.264880 0.063524
0.345671 0.272060 0.061310
0.377900 0.278412 0.058872
0.411066 0.284349 0.056322
0.444232 0.290287 0.053772
0.477398 0.296224 0.051222
0.510564 0.302161 0.048673
0.541745 0.306563 0.046586
0.570942 0.309429 0.044961
0.600139 0.312295 0.043337
0.629336 0.315161 0.041713
0.658533 0.318027 0.040089
0.684760 0.319718 0.038980
0.705047 0.319058 0.038902
0.725334 0.318397 0.038824
0.745622 0.317737 0.038746
0.765909 0.317077 0.038668
0.784041 0.315952 0.038764
0.791397 0.312504 0.039731
0.798753 0.309056 0.040697
0.806110 0.305608 0.041663
0.813466 0.302160 0.042630
0.820822 0.298712 0.043596
0.109928 0.226863 0.082358
0.127487 0.231594 0.081311
0.145047 0.236326 0.080265
0.162606 0.241057 0.079219
0.180165 0.245789 0.078172
0.197724 0.250520 0.077126
0.225311 0.257344 0.075042
0.254903 0.264587 0.072750
0.284495 0.271830 0.070459
0.314088 0.279073 0.068167
0.343680 0.286316 0.065875
0.375505 0.292795 0.063401
0.408447 0.298892 0.060836
0.441390 0.304989 0.058270
0.474332 0.311086 0.055705
0.507274 0.317183 0.053139
0.538460 0.321696 0.051044
0.567889 0.324625 0.049420
0.597318 0.327555 0.047795
0.626748 0.330485 0.046171
0.656177 0.333415 0.044546
0.682689 0.335110 0.043429
0.703367 0.334335 0.043328
0.724045 0.333561 0.043228
0.744723 0.332786 0.043127
0.765401 0.332012 0.043026
0.783906 0.330761 0.043095
0.791548 0.327127 0.044014
0.799189 0.323492 0.044934
0.806830 0.319858 0.045853
0.814471 0.316224 0.046772
0.822113 0.312589 0.047691
0.116315 0.241942 0.088164
0.132967 0.246456 0.086950
0.149618 0.250969 0.085736
0.166270 0.255482 0.084521
0.182922 0.259995 0.083307
0.199573 0.264509 0.082093
0.226373 0.271349 0.079916
0.255202 0.278655 0.077548
0.284031 0.285961 0.075179
0.312860 0.293267 0.072810
0.341689 0.300572 0.070441
0.373111 0.307178 0.067930
0.405829 0.313435 0.065349
0.438547 0.319691 0.062768
0.471266 0.325947 0.060187
0.503984 0.332204 0.057606
0.535174 0.336828 0.055503
0.564836 0.339822 0.053878
0.594497 0.342815 0.052253
0.624159 0.345809 0.050628
0.653821 0.348802 0.049003
0.680618 0.350502 0.047878
0.701687 0.349613 0.047755
0.722756 0.348724 0.047631
0.743825 0.347836 0.047507
0.764894 0.346947 0.047384
0.783772 0.345570 0.047426
0.791698 0.341749 0.048298
0.799624 0.337929 0.049170
0.807551 0.334108 0.050042
0.815477 0.330287 0.050914
0.823403 0.326467 0.051786
0.122702 0.257022 0.093971
0.138446 0.261317 0.092589
0.154190 0.265612 0.091206
0.169934 0.269907 0.089824
0.185679 0.274202 0.088442
0.201423 0.278497 0.087060
0.227435 0.285354 0.084791
0.255501 0.292722 0.082345
0.283566 0.300091 0.079899
0.311632 0.307460 0.077453
0.339698 0.314828 0.075006
0.370716 0.321562 0.072460
0.403210 0.327977 0.069863
0.435705 0.334393 0.067266
0.468199 0.340809 0.064670
0.500694 0.347225 0.062073
0.531888 0.351961 0.059962
0.561782 0.355018 0.058336
0.591677 0.358076 0.056711
0.621571 0.361133 0.055085
0.651465 0.364190 0.053459
0.678548 0.365894 0.052327
0.700007 0.364891 0.052181
0.721467 0.363888 0.052034
0.742926 0.362885 0.051888
0.764386 0.361882 0.051742
0.783638 0.360378 0.051757
0.791849 0.356372 0.052582
0.800060 0.352365 0.053407
0.808271 0.348358 0.054232
0.816482 0.344351 0.055057
0.824694 0.340344 0.055881
0.130252 0.273745 0.100247
0.145112 0.277671 0.098713
0.159972 0.281598 0.097179
0.174833 0.285524 0.095645
0.189693 0.289450 0.094112
0.204553 0.293377 0.092578
0.229767 0.300029 0.090260
0.257051 0.307227 0.087785
0.284335 0.314425 0.085310
0.311619 0.321622 0.082836
0.338902 0.328820 0.080361
0.369473 0.335495 0.077828
0.401686 0.341909 0.075265
0.433899 0.348322 0.072703
0.466113 0.354736 0.070140
0.498326 0.361149 0.067577
0.529460 0.365916 0.065485
0.559513 0.369035 0.063864
0.589567 0.372154 0.062243
0.619620 0.375273 0.060621
0.649674 0.378393 0.059000
0.676975 0.380151 0.057840
0.698769 0.379187 0.057603
0.720563 0.378224 0.057367
0.742357 0.377261 0.057130
0.764151 0.376297 0.056894
0.783732 0.374829 0.056807
0.792250 0.370835 0.057469
0.800767 0.366841 0.058132
0.809285 0.362848 0.058795
0.817802 0.358854 0.059457
0.826320 0.354860 0.060120
0.138966 0.292110 0.106993
0.152966 0.295518 0.105324
0.166965 0.298925 0.103655
0.180965 0.302333 0.101985
0.194965 0.305740 0.100316
0.208965 0.309148 0.098647
0.233368 0.315376 0.096323
0.259852 0.322169 0.093868
0.286336 0.328962 0.091414
0.312820 0.335755 0.088959
0.339303 0.342547 0.086504
0.369381 0.348978 0.084034
0.401256 0.355228 0.081555
0.433131 0.361478 0.079077
0.465006 0.367728 0.076598
0.496881 0.373978 0.074120
0.527888 0.378692 0.072074
0.558028 0.381872 0.070462
0.588168 0.385051 0.068849
0.618308 0.388231 0.067237
0.648448 0.391410 0.065624
0.675899 0.393273 0.064418
0.697971 0.392503 0.064023
0.720044 0.391733 0.063629
0.742116 0.390963 0.063234
0.764188 0.390192 0.062840
0.784056 0.388920 0.062575
0.792901 0.385139 0.062961
0.801746 0.381358 0.063346
0.810591 0.377577 0.063732
0.819436 0.373796 0.064117
0.828281 0.370015 0.064502
0.147679 0.310476 0.113739
0.160819 0.313364 0.111935
0.173958 0.316253 0.110130
0.187098 0.319142 0.108325
0.200237 0.322030 0.106520
0.213377 0.324919 0.104715
0.236970 0.330724 0.102386
0.262653 0.337111 0.099951
0.288337 0.343499 0.097517
0.314021 0.349887 0.095082
0.339704 0.356275 0.092648
0.369290 0.362461 0.090240
0.400826 0.368548 0.087845
0.432362 0.374634 0.085451
0.463899 0.380720 0.083056
0.495435 0.386806 0.080662
0.526317 0.391469 0.078663
0.556543 0.394709 0.077059
0.586770 0.397949 0.075456
0.616996 0.401188 0.073852
0.647222 0.404428 0.072248
0.674823 0.406396 0.070995
0.697174 0.405819 0.070443
0.719524 0.405242 0.069891
0.741875 0.404665 0.069338
0.764225 0.404088 0.068786
0.784379 0.403012 0.068344
0.793552 0.399444 0.068452
0.802725 0.395875 0.068560
0.811897 0.392307 0.068668
0.821070 0.388738 0.068777
0.830243 0.385170 0.068885
0.156393 0.328841 0.120485
0.168672 0.331211 0.118545
0.180951 0.333581 0.116605
0.193230 0.335950 0.114665
0.205510 0.338320 0.112725
0.217789 0.340690 0.110784
0.240571 0.346071 0.108449
0.265455 0.352053 0.106034
0.290338 0.358036 0.103620
0.315222 0.364019 0.101205
0.340105 0.370002 0.098791
0.369198 0.375944 0.096446
0.400396 0.381867 0.094135
0.431594 0.387790 0.091825
0.462792 0.393712 0.089515
0.493990 0.399635 0.087204
0.524745 0.404246 0.085252
0.555058 0.407546 0.083657
0.585371 0.410846 0.082062
0.615684 0.414146 0.080467
0.645997 0.417446 0.078872
0.673748 0.419518 0.077572
0.696377 0.419134 0.076862
0.719005 0.418751 0.076152
0.741634 0.418367 0.075442
0.764262 0.417983 0.074732
0.784703 0.417104 0.074113
0.794203 0.413748 0.073943
0.803703 0.410392 0.073774
0.813204 0.407036 0.073605
0.822704 0.403680 0.073436
0.832204 0.400324 0.073267
0.165107 0.347206 0.127232
0.176526 0.349057 0.125156
0.187944 0.350908 0.123080
0.199363 0.352759 0.121004
0.210782 0.354610 0.118929
0.222200 0.356461 0.116853
0.244173 0.361418 0.114512
0.268256 0.366996 0.112117
0.292339 0.372573 0.109723
0.316423 0.378151 0.107329
0.340506 0.383729 0.104934
0.369107 0.389428 0.102652
0.399966 0.395186 0.100426
0.430826 0.400945 0.098199
0.461685 0.406704 0.095973
0.492545 0.412463 0.093747
0.523174 0.417022 0.091840
0.553573 0.420383 0.090254
0.583972 0.423743 0.088668
0.614372 0.427103 0.087082
0.644771 0.430464 0.085496
0.672672 0.432640 0.084150
0.695579 0.432450 0.083282
0.718486 0.432259 0.082414
0.741393 0.432069 0.081546
0.764300 0.431879 0.080679
0.785027 0.431196 0.079881
0.794854 0.428053 0.079435
0.804682 0.424909 0.078988
0.814510 0.421766 0.078542
0.824338 0.418622 0.078096
0.834165 0.415479 0.077649
0.174037 0.365286 0.133736
0.184638 0.366645 0.131563
0.195240 0.368005 0.129391
0.205842 0.369364 0.127218
0.216443 0.370724 0.125046
0.227045 0.372083 0.122873
0.248198 0.376580 0.120555
0.271462 0.381706 0.118208
0.294726 0.386831 0.115861
0.317989 0.391956 0.113513
0.341253 0.397081 0.111166
0.369316 0.402487 0.108982
0.399778 0.408031 0.106881
0.430240 0.413576 0.104779
0.460702 0.419121 0.102677
0.491164 0.424666 0.100575
0.521617 0.429150 0.098755
0.552060 0.432571 0.097216
0.582503 0.435993 0.095677
0.612946 0.439415 0.094138
0.643390 0.442837 0.092599
0.671418 0.445139 0.091231
0.694617 0.445203 0.090205
0.717816 0.445267 0.089178
0.741015 0.445331 0.088151
0.764214 0.445395 0.087125
0.785247 0.444971 0.086139
0.795455 0.442109 0.085354
0.805663 0.439248 0.084570
0.815871 0.436386 0.083785
0.826079 0.433524 0.083000
0.836286 0.430662 0.082216
0.183399 0.382795 0.139756
0.193270 0.383717 0.137564
0.203142 0.384639 0.135372
0.213013 0.385561 0.133180
0.222884 0.386484 0.130988
0.232756 0.387406 0.128796
0.253072 0.391374 0.126559
0.275477 0.395952 0.124313
0.297882 0.400529 0.122067
0.320287 0.405106 0.119821
0.342692 0.409684 0.117575
0.370125 0.414697 0.115562
0.400073 0.419927 0.113666
0.430020 0.425158 0.111769
0.459967 0.430389 0.109873
0.489914 0.435620 0.107976
0.520088 0.439978 0.106320
0.550491 0.443464 0.104905
0.580893 0.446949 0.103490
0.611296 0.450435 0.102074
0.641698 0.453920 0.100659
0.669806 0.456391 0.099320
0.693325 0.456831 0.098133
0.716844 0.457272 0.096946
0.740363 0.457712 0.095759
0.763882 0.458153 0.094571
0.785263 0.458113 0.093375
0.795956 0.455671 0.092130
0.806648 0.453229 0.090885
0.817341 0.450787 0.089640
0.828034 0.448345 0.088395
0.838726 0.445903 0.087151
0.192761 0.400303 0.145776
0.201902 0.400788 0.143565
0.211043 0.401273 0.141353
0.220184 0.401759 0.139142
0.229325 0.402244 0.136931
0.238466 0.402729 0.134719
0.257945 0.406168 0.132563
0.279492 0.410197 0.130419
0.301039 0.414227 0.128274
0.322585 0.418256 0.126129
0.344132 0.422286 0.123985
0.370935 0.426907 0.122142
0.400367 0.431823 0.120451
0.429799 0.436740 0.118759
0.459231 0.441657 0.117068
0.488663 0.446573 0.115377
0.518560 0.450806 0.113885
0.548922 0.454356 0.112594
0.579283 0.457905 0.111302
0.609645 0.461455 0.110011
0.640007 0.465004 0.108719
0.668194 0.467643 0.107409
0.692033 0.468460 0.106061
0.715872 0.469277 0.104714
0.739711 0.470094 0.103366
0.763550 0.470911 0.102018
0.785278 0.471255 0.100611
0.796456 0.469232 0.098906
0.807633 0.467210 0.097201
0.818811 0.465188 0.095495
0.829988 0.463165 0.093790
0.841166 0.461143 0.092085
0.202123 0.417811 0.151796
0.210534 0.417859 0.149565
0.218945 0.417908 0.147334
0.227355 0.417956 0.145104
0.235766 0.418004 0.142873
0.244177 0.418052 0.140642
0.262819 0.420962 0.138567
0.283507 0.424443 0.136524
0.304195 0.427925 0.134481
0.324883 0.431407 0.132437
0.345571 0.434888 0.130394
0.371745 0.439117 0.128722
0.400662 0.443719 0.127236
0.429579 0.448322 0.125750
0.458496 0.452924 0.124264
0.487413 0.457527 0.122778
0.517031 0.461634 0.121451
0.547352 0.465248 0.120283
0.577673 0.468861 0.119115
0.607994 0.472474 0.117947
0.638315 0.476088 0.116779
0.666582 0.478895 0.115498
0.690741 0.480088 0.113990
0.714900 0.481282 0.112481
0.739059 0.482475 0.110973
0.763218 0.483669 0.109464
0.785294 0.484396 0.107847
0.796956 0.482794 0.105681
0.808619 0.481191 0.103516
0.820281 0.479588 0.101351
0.831943 0.477986 0.099185
0.843606 0.476383 0.097020
0.211485 0.435320 0.157816
0.219166 0.434931 0.155566
0.226846 0.434542 0.153316
0.234527 0.434153 0.151065
0.242207 0.433764 0.148815
0.249888 0.433375 0.146565
0.267692 0.435755 0.144572
0.287522 0.438689 0.142629
0.307352 0.441623 0.140687
0.327181 0.444557 0.138745
0.347011 0.447490 0.136803
0.372555 0.451327 0.135302
0.400957 0.455615 0.134021
0.429359 0.459904 0.132740
0.457760 0.464192 0.131459
0.486162 0.468480 0.130179
0.515503 0.472463 0.129016
0.545783 0.476140 0.127972
0.576063 0.479817 0.126928
0.606343 0.483494 0.125884
0.636623 0.487172 0.124840
0.664970 0.490146 0.123587
0.689449 0.491716 0.121918
0.713928 0.493286 0.120249
0.738407 0.494857 0.118580
0.762885 0.496427 0.116911
0.785309 0.497538 0.115083
0.797456 0.496355 0.112457
0.809604 0.495172 0.109831
0.821751 0.493989 0.107206
0.833898 0.492807 0.104580
0.846046 0.491624 0.101955
0.220562 0.451716 0.163526
0.227550 0.450971 0.161270
0.234538 0.450227 0.159014
0.241526 0.449483 0.156758
0.248514 0.448739 0.154503
0.255502 0.447995 0.152247
0.272477 0.449910 0.150344
0.291450 0.452358 0.148512
0.310422 0.454805 0.146679
0.329395 0.457253 0.144847
0.348367 0.459700 0.143015
0.373268 0.463190 0.141706
0.401132 0.467201 0.140660
0.428996 0.471212 0.139614
0.456860 0.475223 0.138568
0.484725 0.479235 0.137522
0.513770 0.483116 0.136564
0.543995 0.486867 0.135696
0.574220 0.490619 0.134828
0.604446 0.494371 0.133959
0.634671 0.498122 0.133091
0.663093 0.501267 0.131915
0.687909 0.503199 0.130125
0.712725 0.505131 0.128334
0.737541 0.507062 0.126544
0.762357 0.508994 0.124753
0.785147 0.510472 0.122743
0.797802 0.509683 0.119634
0.810458 0.508893 0.116526
0.823114 0.508104 0.113417
0.835770 0.507314 0.110308
0.848426 0.506525 0.107200
0.228215 0.462549 0.167684
0.234699 0.461858 0.165491
0.241183 0.461168 0.163299
0.247668 0.460478 0.161107
0.254152 0.459787 0.158915
0.260636 0.459097 0.156723
0.276819 0.460872 0.154958
0.294941 0.463141 0.153278
0.313063 0.465410 0.151598
0.331185 0.467679 0.149918
0.349307 0.469948 0.148238
0.373492 0.473318 0.147235
0.400707 0.477237 0.146570
0.427923 0.481156 0.145906
0.455139 0.485076 0.145241
0.482354 0.488995 0.144577
0.511012 0.492894 0.144028
0.541113 0.496772 0.143596
0.571213 0.500650 0.143163
0.601313 0.504528 0.142730
0.631413 0.508406 0.142298
0.659893 0.511732 0.141437
0.685132 0.513951 0.139721
