Assets/1__3DArt/KimSe/artstation_asset/LUTs_pasterls/CUBE/Orange Cream 02 S.cube
# Enhanced with VOXCOLOR algorithms
LUT_3D_SIZE 8
DOMAIN_MIN 0.000000 0.000000 0.000000
DOMAIN_MAX 0.903226 0.903226 0.903226
0.035294 0.078431 0.039216
0.241561 0.103247 0.057861
0.438634 0.133593 0.083605
0.613642 0.168262 0.114016
0.756196 0.205097 0.146371
0.850702 0.237037 0.175252
0.903935 0.256143 0.195450
0.931522 0.263313 0.207205
0.036520 0.221075 0.060063
0.224316 0.228958 0.063767
0.402434 0.237555 0.071917
0.562191 0.248855 0.084704
0.697025 0.264044 0.102012
0.798302 0.282841 0.123469
0.869802 0.300783 0.146046
0.916420 0.314822 0.167228
0.045134 0.364553 0.082631
0.212376 0.360418 0.076249
0.373541 0.353552 0.070959
0.522319 0.347911 0.069200
0.654059 0.346679 0.073028
0.763411 0.353292 0.085765
0.850217 0.365522 0.106100
0.911902 0.378856 0.129947
0.069948 0.504823 0.110277
0.212452 0.492828 0.097518
0.356612 0.476283 0.082190
0.496559 0.459867 0.068548
0.627653 0.447514 0.060426
0.744751 0.443965 0.064072
0.843013 0.448225 0.079747
0.915104 0.455875 0.102161
0.117932 0.637463 0.146610
0.230442 0.621177 0.129959
0.355773 0.600177 0.107138
0.486804 0.578726 0.083764
0.617325 0.560430 0.065115
0.740158 0.549587 0.060082
0.845360 0.545669 0.070625
0.922977 0.545137 0.090026
0.199139 0.751514 0.200935
0.277497 0.734999 0.181045
0.379799 0.714792 0.151948
0.497506 0.693983 0.120222
0.622665 0.675148 0.092334
0.745630 0.661131 0.079924
0.851920 0.651356 0.087061
0.930600 0.643368 0.105277
0.305022 0.839664 0.275099
0.352878 0.826289 0.252760
0.428959 0.810001 0.218316
0.525845 0.792881 0.179246
0.636187 0.776633 0.143140
0.750745 0.762886 0.124269
0.853211 0.751011 0.129175
0.932105 0.739241 0.148422
0.420390 0.904314 0.359781
0.447281 0.896407 0.339300
0.497789 0.885528 0.303076
0.568500 0.873233 0.259456
0.655447 0.860809 0.217046
0.753363 0.849352 0.192053
0.847914 0.838483 0.193995
0.927448 0.826595 0.214578
0.072893 0.112372 0.128090
0.262306 0.129610 0.140536
0.446384 0.147591 0.156585
0.612443 0.167575 0.175093
0.750382 0.189968 0.194709
0.846512 0.212581 0.212520
0.905655 0.229788 0.224846
0.938663 0.239059 0.231358
0.062051 0.246233 0.153596
0.247380 0.249921 0.152444
0.413764 0.249339 0.155761
0.559556 0.249022 0.163005
0.683919 0.252525 0.173537
0.783613 0.262931 0.186640
0.861162 0.278140 0.200110
0.917299 0.294785 0.212753
0.062272 0.382475 0.178947
0.230037 0.375916 0.168427
0.380645 0.362364 0.161619
0.515379 0.348150 0.158917
0.635781 0.338474 0.160609
0.742175 0.338814 0.167782
0.834584 0.348517 0.179162
0.908358 0.363968 0.192791
0.081249 0.516533 0.204527
0.222182 0.503245 0.188678
0.356834 0.482094 0.174467
0.484765 0.459847 0.163376
0.605841 0.442081 0.156756
0.719456 0.434690 0.157470
0.822590 0.437320 0.165144
0.908375 0.446539 0.176939
0.124870 0.643679 0.231597
0.233546 0.627277 0.214008
0.350394 0.603575 0.195024
0.471521 0.578580 0.177189
0.593499 0.557233 0.162977
0.712468 0.544629 0.157258
0.821714 0.540342 0.160974
0.913957 0.541420 0.170174
0.201829 0.753424 0.266250
0.276717 0.738092 0.249502
0.372298 0.717112 0.227998
0.482078 0.694752 0.205017
0.599945 0.674544 0.184039
0.718758 0.660132 0.172341
0.828041 0.651193 0.173112
0.920847 0.645556 0.181270
0.301003 0.838541 0.315157
0.347669 0.827303 0.300474
0.420461 0.812085 0.277785
0.512921 0.795407 0.250773
0.618632 0.779399 0.223694
0.729764 0.766323 0.206194
0.833883 0.756097 0.204508
0.924027 0.747250 0.213286
0.405781 0.900612 0.375928
0.434940 0.895452 0.366156
0.486990 0.887073 0.344516
0.558293 0.876885 0.315150
0.644794 0.866146 0.283076
0.741354 0.856296 0.259869
0.836501 0.847487 0.255341
0.922659 0.838430 0.265498
0.103021 0.145021 0.222444
0.279791 0.157792 0.227782
0.453920 0.168251 0.236119
0.613454 0.178846 0.245932
0.748721 0.191306 0.255840
0.846476 0.206175 0.264053
0.909093 0.219829 0.268886
0.944919 0.228473 0.270558
0.082509 0.268087 0.248892
0.260458 0.270931 0.244593
0.418654 0.266332 0.245131
0.557720 0.259838 0.249002
0.678493 0.256068 0.254847
0.778981 0.259911 0.261369
0.860190 0.271148 0.267198
0.921365 0.286463 0.272310
0.076411 0.397683 0.276228
0.239293 0.391591 0.264411
0.383177 0.375962 0.257740
0.511623 0.357848 0.255256
0.627925 0.343168 0.256059
0.733863 0.338388 0.259603
0.829348 0.344263 0.264579
0.909795 0.357802 0.270380
0.091309 0.527189 0.301505
0.228422 0.514688 0.285244
0.357443 0.492568 0.273019
0.479600 0.468027 0.264725
0.596123 0.447056 0.260231
0.707844 0.435985 0.260089
0.813172 0.435432 0.263227
0.906939 0.442720 0.268225
0.132077 0.650357 0.323137
0.237632 0.635043 0.306020
0.349600 0.611225 0.290647
0.465214 0.585127 0.277838
0.582070 0.561912 0.268380
0.697763 0.546909 0.264297
0.808387 0.540504 0.265308
0.909706 0.540452 0.269097
0.206348 0.756380 0.343009
0.279142 0.742664 0.328561
0.370649 0.722474 0.313059
0.475248 0.700100 0.297796
0.587704 0.679162 0.284259
0.702379 0.663566 0.276203
0.812467 0.653920 0.275246
0.914773 0.648697 0.278505
0.300988 0.838554 0.369709
0.346910 0.829217 0.359665
0.417331 0.815648 0.346009
0.506261 0.800171 0.329874
0.607818 0.784832 0.313003
0.715250 0.772103 0.300687
0.819724 0.762788 0.297444
0.918254 0.755947 0.300810
0.397832 0.898086 0.406579
0.427790 0.894855 0.402986
0.480304 0.888818 0.392767
0.551485 0.881041 0.376878
0.637132 0.872567 0.357268
0.732112 0.864939 0.340430
0.827398 0.858849 0.334338
0.919178 0.853247 0.338263
0.125133 0.175669 0.319846
0.293621 0.186924 0.318830
0.460971 0.194238 0.321658
0.616257 0.200221 0.325763
0.750313 0.206918 0.329106
0.849373 0.215757 0.330118
0.913300 0.224696 0.329010
0.949707 0.230436 0.327001
0.097628 0.286678 0.344533
0.266850 0.291863 0.338596
0.420484 0.288085 0.337760
0.558321 0.280564 0.339742
0.680248 0.273822 0.342583
0.782711 0.273029 0.344413
0.865078 0.279373 0.344648
0.927046 0.290191 0.344252
0.087231 0.409770 0.372555
0.243077 0.407133 0.361370
0.383972 0.394042 0.355696
0.512138 0.376783 0.353923
0.629603 0.360787 0.354556
0.736569 0.352309 0.356043
0.832510 0.353357 0.357110
0.914386 0.361777 0.357986
0.099570 0.535688 0.398178
0.232121 0.526389 0.383301
0.359116 0.507205 0.373353
0.480672 0.484279 0.367636
0.597047 0.462859 0.365388
0.708062 0.448763 0.365838
0.813020 0.443809 0.367321
0.909200 0.446353 0.369122
0.138660 0.656123 0.417235
0.241876 0.643453 0.401554
0.352251 0.622404 0.389281
0.466370 0.598078 0.380650
0.581346 0.574829 0.375726
0.694532 0.557414 0.374808
0.804176 0.547494 0.376344
0.909123 0.544017 0.378731
0.211215 0.759243 0.427273
0.283121 0.747800 0.414473
0.373143 0.730121 0.403244
0.475438 0.709543 0.394154
0.584729 0.689005 0.387720
0.695818 0.671972 0.385242
0.804861 0.660334 0.386271
0.911916 0.653729 0.388931
0.302695 0.838713 0.436296
0.348611 0.831264 0.428502
0.418014 0.820014 0.420897
0.504892 0.806596 0.413500
0.603489 0.792555 0.406626
0.707633 0.780042 0.402115
0.811376 0.770816 0.401660
0.914871 0.764806 0.404287
0.393798 0.895755 0.451650
0.424096 0.893962 0.450434
0.476872 0.890196 0.447860
0.547976 0.885065 0.443181
0.633013 0.879248 0.436308
0.726686 0.874063 0.429226
0.821705 0.870586 0.426399
0.917239 0.868132 0.428999
0.139080 0.203691 0.417485
0.303407 0.216063 0.412387
0.466963 0.223939 0.412077
0.619944 0.229388 0.413196
0.753710 0.234046 0.413129
0.853514 0.238810 0.410067
0.917026 0.242658 0.405496
0.952335 0.243980 0.401511
0.107331 0.302093 0.438743
0.269292 0.312389 0.432591
0.421776 0.313645 0.431279
0.562139 0.309707 0.432292
0.687961 0.304042 0.433479
0.792559 0.300721 0.432624
0.873678 0.301821 0.429764
0.932697 0.305997 0.426595
0.094484 0.418420 0.465859
0.243832 0.422006 0.456492
0.385154 0.415728 0.452035
0.517303 0.403883 0.450937
0.639318 0.390380 0.451704
0.747906 0.380004 0.452429
0.841765 0.375775 0.451996
0.920248 0.376921 0.451135
0.105494 0.541035 0.491551
0.234024 0.537364 0.479088
0.362189 0.524960 0.471238
0.487185 0.507684 0.467516
0.606754 0.489027 0.467233
0.717892 0.473195 0.469200
0.820130 0.463235 0.471376
0.913493 0.459145 0.473269
0.143736 0.659638 0.509958
0.245453 0.651276 0.496278
0.357116 0.635936 0.486384
0.473274 0.616521 0.480838
0.589354 0.595681 0.479790
0.700978 0.576639 0.482878
0.807640 0.562451 0.487370
0.911014 0.553934 0.491636
0.215070 0.760877 0.514961
0.287078 0.752437 0.503331
0.378032 0.739000 0.494611
0.480911 0.722218 0.489792
0.589552 0.703701 0.489402
0.698096 0.685679 0.493536
0.804597 0.671281 0.499415
0.911664 0.661892 0.505019
0.304159 0.838129 0.512016
0.350910 0.832669 0.504683
0.420917 0.824417 0.500062
0.507675 0.813985 0.498549
0.605114 0.802084 0.500262
0.706988 0.789991 0.505028
0.809134 0.780180 0.511004
0.913786 0.773830 0.517166
0.391268 0.892874 0.510370
0.422171 0.892247 0.508487
0.475708 0.890713 0.509423
0.547430 0.888373 0.512479
0.632684 0.885449 0.516929
0.725775 0.882669 0.521732
0.820197 0.881188 0.526723
0.916937 0.880932 0.533329
0.144270 0.227741 0.509001
0.307548 0.243298 0.504672
0.469447 0.254319 0.504250
0.621171 0.262309 0.505120
0.754631 0.268365 0.505142
0.854397 0.272311 0.502346
0.916772 0.273138 0.497975
0.950635 0.270755 0.494242
0.110956 0.313923 0.526647
0.269307 0.331027 0.522374
0.423321 0.340252 0.521394
0.567818 0.343621 0.522099
0.698016 0.343045 0.523012
0.803873 0.340448 0.522148
0.881788 0.337847 0.519542
0.935188 0.335523 0.516998
0.097216 0.422635 0.551233
0.243084 0.434198 0.544546
0.387629 0.438038 0.541112
0.526000 0.435799 0.540292
0.653918 0.429166 0.541310
0.763846 0.420203 0.542723
0.853327 0.412112 0.543514
0.924202 0.406078 0.544410
0.107700 0.541192 0.575820
0.234182 0.544859 0.566196
0.366197 0.542550 0.559845
0.497412 0.535138 0.557184
0.622434 0.523630 0.558241
0.734280 0.509346 0.562382
0.831704 0.495798 0.567423
0.917152 0.485264 0.572591
0.145469 0.658225 0.594436
0.246774 0.655399 0.582938
0.362210 0.648498 0.574475
0.483508 0.637633 0.570621
0.603627 0.623122 0.572282
0.715089 0.605502 0.579627
0.817125 0.588386 0.589067
0.913491 0.574991 0.598214
0.215815 0.759026 0.599257
0.288582 0.754015 0.588447
0.382709 0.746419 0.580417
0.489264 0.735868 0.577520
0.600439 0.722245 0.581225
0.708363 0.705645 0.592060
0.811174 0.689516 0.605184
0.912977 0.677288 0.617171
0.303176 0.835507 0.592215
0.351245 0.831909 0.584076
0.423672 0.827188 0.579197
0.512928 0.820851 0.579761
0.612054 0.812602 0.587036
0.713667 0.802286 0.601095
0.813551 0.792297 0.616711
0.914667 0.785197 0.630947
0.387791 0.888979 0.581856
0.419708 0.889122 0.576982
0.475101 0.889589 0.576694
0.548994 0.890016 0.582255
0.636225 0.890134 0.594078
0.730250 0.889780 0.610941
0.823913 0.889686 0.628077
0.918240 0.890520 0.644879
0.143520 0.246609 0.587744
0.305653 0.265943 0.589205
0.465933 0.280345 0.591336
0.616355 0.291411 0.593741
0.749308 0.300263 0.595890
0.849107 0.306409 0.596244
0.911147 0.307938 0.594549
0.944539 0.304605 0.592248
0.110557 0.323010 0.604009
0.266579 0.345869 0.603767
0.421881 0.362286 0.604072
0.569507 0.373072 0.605041
0.702961 0.379010 0.606549
0.809557 0.380200 0.607537
0.884491 0.377620 0.607348
0.932569 0.372189 0.606986
0.096438 0.423553 0.626024
0.240096 0.441709 0.622610
0.387589 0.454906 0.620190
0.531320 0.462765 0.619409
0.664447 0.465147 0.620578
0.775678 0.461486 0.623359
0.860853 0.453962 0.626624
0.923263 0.444899 0.630441
0.105979 0.536375 0.648446
0.231022 0.546285 0.641636
0.366734 0.553753 0.636351
0.504044 0.557348 0.634007
0.634965 0.555998 0.635527
0.748561 0.548162 0.641430
0.841386 0.536308 0.649625
0.916795 0.524036 0.658717
0.142471 0.650602 0.666481
0.243234 0.652581 0.657097
0.362494 0.654195 0.649519
0.489704 0.653482 0.646276
0.615617 0.648862 0.649131
0.729185 0.638207 0.659481
0.827100 0.623943 0.673583
0.913252 0.610474 0.688116
0.211763 0.751752 0.673039
0.284647 0.749540 0.663087
0.382232 0.747865 0.654960
0.493932 0.744975 0.652356
0.610291 0.739419 0.657889
0.720615 0.729275 0.673642
0.820404 0.716647 0.693861
0.913111 0.705698 0.713300
0.298592 0.829747 0.667492
0.347139 0.827371 0.658536
0.422435 0.826008 0.651937
0.515881 0.824481 0.651899
0.619418 0.821779 0.661350
0.723669 0.816531 0.682442
0.821881 0.809920 0.708093
0.915645 0.804778 0.732402
0.381963 0.884117 0.655986
0.414521 0.884502 0.648059
0.472304 0.886486 0.644154
0.549662 0.889462 0.648159
0.640722 0.892849 0.662595
0.737648 0.895834 0.688755
0.831051 0.898245 0.719095
0.920035 0.900786 0.749120
0.138732 0.259766 0.652629
0.298365 0.282981 0.663368
0.456513 0.300165 0.670098
0.605898 0.313549 0.675056
0.739263 0.324778 0.679765
0.840375 0.333815 0.683926
0.903166 0.337755 0.685728
0.936629 0.335015 0.685096
0.108269 0.330363 0.671321
0.260399 0.356744 0.676514
0.415222 0.377723 0.679096
0.564570 0.393711 0.680876
0.700689 0.405069 0.683171
0.808709 0.411126 0.686399
0.882224 0.411553 0.689143
0.926575 0.406457 0.690786
0.093920 0.423104 0.692196
0.233669 0.444938 0.692311
0.381777 0.464254 0.691230
0.528887 0.479785 0.690553
0.666355 0.490516 0.691512
0.779850 0.494576 0.695138
0.862645 0.492512 0.700268
0.917965 0.485891 0.705867
0.101353 0.528561 0.712056
0.223155 0.542091 0.707913
0.360150 0.556436 0.703732
0.501761 0.569234 0.701379
0.638315 0.578473 0.702321
0.755539 0.581248 0.708250
0.846033 0.577987 0.717594
0.911734 0.571231 0.728460
0.134871 0.637876 0.728029
0.233208 0.642734 0.720748
0.354105 0.650803 0.714131
0.486088 0.659488 0.710929
0.618624 0.666480 0.713277
0.737427 0.668536 0.723715
0.833825 0.665574 0.739291
0.908663 0.660405 0.756418
0.202529 0.738951 0.735527
0.273635 0.738251 0.726825
0.372976 0.741307 0.718863
0.489485 0.746166 0.715836
0.612803 0.751022 0.720996
0.729455 0.753338 0.738076
0.828893 0.752572 0.761938
0.910208 0.750794 0.786206
0.290178 0.820356 0.733204
0.337561 0.818361 0.724289
0.414671 0.819678 0.716264
0.512530 0.823186 0.714586
0.622374 0.827802 0.723482
0.732738 0.832058 0.747787
0.831437 0.835077 0.780508
0.915301 0.837608 0.812780
0.373671 0.878015 0.724349
0.406188 0.878233 0.714853
0.466072 0.881280 0.707475
0.547257 0.886646 0.708214
0.643298 0.893767 0.721642
0.744994 0.901880 0.752899
0.839278 0.909635 0.793919
0.921406 0.916391 0.835236
