Assets/1__3DArt/KimSe/artstation_asset/LUTs_pasterls/CUBE/Orange Cream 02.cube
# Enhanced with VOXCOLOR algorithms
LUT_3D_SIZE 8
DOMAIN_MIN 0.000000 0.000000 0.000000
DOMAIN_MAX 0.903226 0.903226 0.903226
0.035294 0.078431 0.039216
0.241561 0.103247 0.057861
0.438634 0.133593 0.083605
0.613642 0.168262 0.114016
0.756196 0.205097 0.146371
0.850702 0.237037 0.175252
0.903935 0.256143 0.195450
0.931522 0.263313 0.207205
0.036520 0.221075 0.060063
0.229444 0.231351 0.065475
0.417880 0.244637 0.077361
0.589271 0.261681 0.095136
0.733233 0.282279 0.117671
0.834130 0.303081 0.141924
0.894764 0.317160 0.161818
0.927464 0.322991 0.175380
0.045173 0.364561 0.082663
0.220584 0.364333 0.079025
0.397989 0.364439 0.079094
0.565012 0.366820 0.084126
0.711042 0.372607 0.094771
0.819902 0.381300 0.111042
0.889850 0.387982 0.127812
0.929558 0.390011 0.141240
0.070237 0.504880 0.110508
0.221626 0.497272 0.100803
0.383466 0.488011 0.090863
0.543292 0.479461 0.083635
0.689992 0.473387 0.081569
0.806698 0.470992 0.088100
0.886725 0.469537 0.100372
0.934682 0.466339 0.112993
0.118861 0.637650 0.147354
0.238671 0.625150 0.133350
0.378921 0.610214 0.114821
0.526890 0.594953 0.096200
0.670841 0.581080 0.081637
0.793505 0.570258 0.078123
0.883168 0.561435 0.085904
0.939976 0.552645 0.098247
0.201556 0.751999 0.202870
0.283850 0.737704 0.184573
0.395113 0.721237 0.157956
0.523289 0.704168 0.128820
0.656914 0.687778 0.102939
0.779832 0.673251 0.090953
0.876234 0.660113 0.096369
0.941562 0.647203 0.110920
0.308925 0.840445 0.278222
0.357735 0.827785 0.256438
0.437342 0.813073 0.222838
0.538680 0.797588 0.184608
0.652744 0.782353 0.149089
0.767212 0.768150 0.130251
0.864997 0.754495 0.134562
0.937458 0.740392 0.152668
0.423052 0.904847 0.361911
0.449723 0.896957 0.341475
0.500859 0.886425 0.305316
0.572578 0.874538 0.261740
0.660437 0.862350 0.219329
0.758279 0.850675 0.194287
0.851475 0.839195 0.196189
0.929087 0.826602 0.216735
0.072893 0.112372 0.128090
0.263610 0.130413 0.140506
0.451271 0.150813 0.156598
0.621893 0.174120 0.175277
0.763895 0.199805 0.195191
0.860217 0.223191 0.213248
0.914816 0.237332 0.225454
0.942522 0.242418 0.231660
0.062051 0.246234 0.153596
0.257741 0.255534 0.152878
0.441433 0.264100 0.157458
0.605303 0.274158 0.166833
0.742727 0.286880 0.180158
0.840853 0.300656 0.195531
0.901264 0.309829 0.208304
0.934388 0.312703 0.216715
0.062298 0.382479 0.178964
0.245137 0.384711 0.169387
0.420441 0.383845 0.164228
0.580756 0.382915 0.163812
0.719538 0.384047 0.168175
0.824083 0.387728 0.177331
0.892831 0.390175 0.187559
0.932885 0.389071 0.195917
0.081432 0.516562 0.204648
0.238023 0.513241 0.190149
0.398758 0.505511 0.177512
0.554097 0.496458 0.167983
0.695426 0.488475 0.162676
0.808277 0.483138 0.163976
0.886878 0.478528 0.170232
0.935157 0.472600 0.177649
0.125452 0.643767 0.231988
0.246788 0.636359 0.215918
0.385800 0.624432 0.198246
0.531080 0.610530 0.181114
0.672000 0.596732 0.166774
0.792314 0.584760 0.160220
0.881066 0.574064 0.162599
0.938503 0.563373 0.169466
0.203333 0.753648 0.267265
0.285723 0.744294 0.251749
0.395694 0.731365 0.231148
0.522134 0.716584 0.208389
0.654281 0.701377 0.186819
0.776274 0.686919 0.174215
0.872572 0.673073 0.174819
0.939120 0.659228 0.183441
0.303425 0.838898 0.316796
0.353231 0.830466 0.302799
0.432989 0.819308 0.280520
0.534205 0.806550 0.253549
0.648257 0.793126 0.226209
0.762729 0.779726 0.208854
0.860794 0.766110 0.208810
0.934792 0.751734 0.220575
0.407431 0.900855 0.377045
0.437297 0.896471 0.367513
0.491452 0.889357 0.345989
0.565775 0.880389 0.316680
0.655597 0.870332 0.284757
0.754256 0.859795 0.262424
0.847735 0.848593 0.260248
0.926676 0.835863 0.274059
0.103021 0.145021 0.222444
0.281632 0.158939 0.227638
0.460796 0.172819 0.235696
0.626727 0.188090 0.245259
0.767681 0.205170 0.255080
0.865702 0.221117 0.263506
0.921964 0.230476 0.268639
0.950349 0.233225 0.270500
0.082510 0.268088 0.248892
0.272593 0.278115 0.243877
0.450461 0.284867 0.243428
0.609829 0.290973 0.246685
0.745117 0.298142 0.252737
0.843850 0.305888 0.260459
0.905813 0.310368 0.267002
0.940265 0.310289 0.271083
0.076437 0.397691 0.276235
0.256766 0.402809 0.263719
0.428197 0.402933 0.255593
0.584764 0.401063 0.251628
0.721050 0.399453 0.251508
0.825134 0.399043 0.255236
0.894718 0.397627 0.260344
0.936045 0.393636 0.264708
0.091456 0.527215 0.301557
0.246617 0.527455 0.284994
0.404687 0.522214 0.271252
0.557097 0.514259 0.260759
0.696015 0.505809 0.253926
0.807689 0.498385 0.252269
0.886369 0.491186 0.254692
0.935628 0.483017 0.258594
0.132523 0.650417 0.323305
0.252666 0.646670 0.306438
0.389568 0.637925 0.289952
0.532473 0.626307 0.274845
0.671287 0.613601 0.262274
0.790248 0.601249 0.255459
0.878682 0.589401 0.255370
0.936927 0.577545 0.259179
0.207467 0.756499 0.343445
0.289065 0.750607 0.329549
0.397275 0.740993 0.313565
0.521695 0.728970 0.296764
0.652112 0.715660 0.280867
0.773031 0.701954 0.270864
0.869112 0.688181 0.270240
0.936625 0.674326 0.276026
0.302768 0.838726 0.370411
0.352661 0.833226 0.360829
0.431712 0.825209 0.347081
0.531973 0.815370 0.330375
0.645222 0.804314 0.312732
0.759189 0.792418 0.300700
0.857221 0.779706 0.300518
0.932298 0.766109 0.309563
0.399042 0.898200 0.407058
0.430073 0.896121 0.403689
0.485510 0.891897 0.393541
0.561134 0.885924 0.377749
0.652133 0.878574 0.358571
0.751396 0.870080 0.343620
0.845006 0.860298 0.342158
0.924772 0.848702 0.353220
0.125133 0.175669 0.319846
0.295373 0.188027 0.318597
0.467500 0.198606 0.320833
0.628847 0.209035 0.324230
0.768281 0.220105 0.327001
0.867590 0.229951 0.328084
0.925506 0.234817 0.327712
0.954862 0.234959 0.326478
0.097633 0.286682 0.344533
0.277965 0.299036 0.337159
0.449732 0.306614 0.333848
0.606420 0.311628 0.333259
0.742028 0.315666 0.334258
0.843259 0.318738 0.336073
0.907868 0.319017 0.337626
0.944233 0.316095 0.338390
0.087269 0.409791 0.372556
0.259156 0.418384 0.359600
0.425541 0.421350 0.350505
0.579993 0.420828 0.344774
0.716563 0.418533 0.341926
0.822688 0.415316 0.341869
0.894677 0.410717 0.343242
0.938064 0.404282 0.344792
0.099738 0.535736 0.398189
0.248963 0.539216 0.381853
0.403057 0.537489 0.368462
0.553286 0.532247 0.358214
0.691605 0.524938 0.351255
0.804098 0.516588 0.348406
0.884310 0.507626 0.348804
0.935313 0.497935 0.350809
0.139128 0.656206 0.417269
0.255874 0.655138 0.400841
0.389812 0.649866 0.385913
0.530398 0.641501 0.373188
0.667702 0.631049 0.363357
0.786240 0.619331 0.358236
0.875218 0.607245 0.358031
0.934723 0.595155 0.360994
0.212329 0.759363 0.427363
0.292422 0.755785 0.414454
0.398576 0.749322 0.401786
0.520843 0.740518 0.390085
0.649400 0.729892 0.380252
0.769271 0.717804 0.374998
0.865314 0.705030 0.376083
0.933769 0.692224 0.381894
0.304433 0.838849 0.436441
0.354062 0.835303 0.428772
0.432113 0.830067 0.420654
0.531072 0.823291 0.412281
0.643079 0.815125 0.404336
0.756235 0.805493 0.400099
0.854091 0.794613 0.403317
0.929888 0.782931 0.413105
0.394971 0.895838 0.451750
0.426287 0.895240 0.450648
0.482181 0.893478 0.448059
0.558418 0.890504 0.443493
0.650112 0.886295 0.437265
0.749804 0.880622 0.432771
0.843403 0.873272 0.436151
0.923493 0.864057 0.448491
0.139080 0.203691 0.417485
0.304621 0.216836 0.412159
0.471496 0.226989 0.411212
0.628686 0.235529 0.411513
0.766186 0.243215 0.410705
0.866157 0.248651 0.407596
0.925488 0.249654 0.403847
0.955904 0.247098 0.400819
0.107340 0.302102 0.438743
0.277378 0.318164 0.431048
0.443479 0.328797 0.426877
0.598320 0.335290 0.424608
0.735031 0.338655 0.422940
0.839307 0.338804 0.421056
0.906981 0.335767 0.419230
0.945510 0.330323 0.417877
0.094544 0.418461 0.465857
0.255702 0.431155 0.454471
0.416536 0.438577 0.446088
0.569449 0.441495 0.440194
0.707374 0.440646 0.436297
0.816714 0.436279 0.434112
0.892078 0.429537 0.433181
0.938059 0.421333 0.433207
0.105721 0.541122 0.491538
0.246644 0.547827 0.477243
0.395888 0.550600 0.465441
0.544094 0.549619 0.456467
0.682618 0.545170 0.450488
0.797145 0.537368 0.447825
0.880057 0.527760 0.447725
0.933488 0.517494 0.449390
0.144322 0.659778 0.509916
0.256160 0.660808 0.495044
0.386497 0.659368 0.482028
0.524712 0.655222 0.471855
0.660827 0.648298 0.465228
0.779671 0.638479 0.463055
0.870081 0.627282 0.464572
0.931382 0.616077 0.468674
0.216399 0.761053 0.514853
0.294501 0.758959 0.502717
0.398545 0.755529 0.492180
0.518733 0.750384 0.484377
0.645455 0.743276 0.480174
0.764402 0.733842 0.480838
0.860713 0.723144 0.485934
0.930204 0.712570 0.494328
0.306189 0.838300 0.511842
0.355613 0.835998 0.504370
0.432863 0.833220 0.499005
0.530637 0.829588 0.496310
0.641323 0.824784 0.496750
0.753536 0.818208 0.501475
0.851167 0.810135 0.510892
0.927394 0.801558 0.524599
0.392631 0.892970 0.510252
0.424216 0.893315 0.508371
0.480500 0.893639 0.509205
0.557227 0.893575 0.512323
0.649445 0.892777 0.517412
0.749449 0.890551 0.524864
0.842910 0.886503 0.536450
0.922838 0.880840 0.553929
0.144270 0.227741 0.509001
0.308129 0.243670 0.504540
0.471627 0.255790 0.503732
0.625382 0.265267 0.504089
0.760647 0.272775 0.503630
0.860487 0.277025 0.500773
0.920835 0.276465 0.496910
0.952342 0.272228 0.493788
0.110969 0.313935 0.526647
0.273730 0.334525 0.521317
0.435574 0.349703 0.518256
0.588689 0.359873 0.516407
0.725715 0.365394 0.514848
0.831962 0.365634 0.512584
0.902051 0.361500 0.510082
0.942427 0.354697 0.508415
0.097294 0.422691 0.551229
0.249720 0.439830 0.543105
0.405848 0.452756 0.536742
0.557186 0.460913 0.532088
0.695850 0.463984 0.528972
0.807689 0.461189 0.526983
0.886048 0.454433 0.525920
0.934377 0.445844 0.526226
0.107971 0.541311 0.575794
0.241407 0.551343 0.564803
0.386235 0.559365 0.555431
0.532499 0.564089 0.548482
0.671031 0.564585 0.544430
0.787362 0.559719 0.543443
0.872962 0.551478 0.544647
0.928768 0.542216 0.547806
0.146137 0.658410 0.594352
0.253152 0.661328 0.581881
0.380237 0.664084 0.570933
0.516424 0.665161 0.563177
0.651510 0.663389 0.559728
0.770692 0.657477 0.561314
0.862676 0.649032 0.566219
0.925811 0.640393 0.573459
0.217281 0.759240 0.599040
0.293421 0.758095 0.587724
0.395967 0.757600 0.578131
0.514771 0.756557 0.572554
0.640073 0.753991 0.572564
0.758110 0.748733 0.579288
0.854641 0.741730 0.590157
0.925029 0.735026 0.603516
0.305384 0.835693 0.591863
0.354789 0.834026 0.583507
0.432026 0.833302 0.577892
0.529480 0.832764 0.577232
0.639392 0.831723 0.582985
0.750678 0.829136 0.596119
0.847881 0.825106 0.613683
0.924160 0.821086 0.634220
0.389266 0.889076 0.581616
0.421442 0.889819 0.576685
0.478743 0.891686 0.576229
0.556564 0.894167 0.581678
0.649664 0.896729 0.593743
0.750021 0.898375 0.612301
0.843244 0.898423 0.634518
0.922491 0.897387 0.660786
0.143520 0.246609 0.587744
0.305861 0.266077 0.589152
0.466718 0.280876 0.591124
0.617875 0.292478 0.593316
0.751481 0.301850 0.595260
0.851305 0.308101 0.595584
0.912608 0.309124 0.594099
0.945151 0.305127 0.592055
0.110569 0.323020 0.604009
0.268428 0.347451 0.603255
0.427169 0.366703 0.602497
0.578719 0.380865 0.602076
0.715460 0.390028 0.602104
0.822561 0.393183 0.601951
0.894015 0.390838 0.601240
0.935530 0.384508 0.600745
0.096504 0.423601 0.626020
0.242939 0.444303 0.621887
0.395703 0.462029 0.617897
0.545691 0.475502 0.614874
0.684470 0.483751 0.613328
0.797526 0.485119 0.613238
0.877558 0.481071 0.614027
0.927240 0.473986 0.616039
0.106209 0.536475 0.648415
0.234218 0.549303 0.640893
0.375935 0.562095 0.633909
0.520869 0.572684 0.628887
0.659383 0.579330 0.626807
0.776761 0.579806 0.628249
0.863975 0.575526 0.632045
0.921178 0.569249 0.637848
0.143037 0.650753 0.666382
0.246233 0.655367 0.656452
0.371133 0.662116 0.647378
0.506282 0.668716 0.641501
0.641094 0.673255 0.640485
0.760699 0.673446 0.645598
0.853740 0.670177 0.654482
0.917955 0.666103 0.665655
0.213006 0.751917 0.672781
0.287260 0.751481 0.662493
0.389071 0.753714 0.653313
0.507663 0.756970 0.648694
0.632819 0.759808 0.651123
0.750675 0.760469 0.662670
0.847389 0.759209 0.679385
0.918136 0.758141 0.698247
0.300464 0.829878 0.667074
0.349430 0.828401 0.657919
0.427211 0.829321 0.650727
0.525485 0.831716 0.649578
0.635947 0.834706 0.657393
0.747178 0.837079 0.676649
0.844102 0.838468 0.702158
0.919979 0.840213 0.730049
0.383214 0.884182 0.655700
0.415773 0.884852 0.647692
0.474575 0.887672 0.643588
0.554324 0.892133 0.647308
0.649195 0.897666 0.661494
0.750532 0.903297 0.688004
0.843778 0.907961 0.720818
0.921981 0.911919 0.756795
0.138732 0.259766 0.652629
0.298401 0.283005 0.663358
0.456649 0.300258 0.670055
0.606162 0.313734 0.674968
0.739642 0.325051 0.679632
0.840757 0.334104 0.683787
0.903419 0.337955 0.685632
0.936734 0.335102 0.685055
0.108275 0.330368 0.671321
0.260848 0.357173 0.676363
0.416576 0.378990 0.678601
0.567025 0.396047 0.679888
0.704148 0.408529 0.681595
0.812464 0.415495 0.684243
0.885035 0.416493 0.686532
0.927220 0.411760 0.687835
0.093954 0.423128 0.692193
0.234391 0.445664 0.692083
0.383980 0.466415 0.690443
0.533017 0.483936 0.688871
0.672440 0.497041 0.688612
0.786911 0.503695 0.690705
0.868193 0.504199 0.694234
0.918637 0.499963 0.698424
0.101471 0.528611 0.712038
0.224022 0.542953 0.707651
0.362792 0.559068 0.702810
0.506927 0.574547 0.699287
0.646328 0.587324 0.698484
0.765466 0.594593 0.701954
0.854197 0.596381 0.708533
0.912238 0.594629 0.716970
0.135163 0.637950 0.727969
0.234123 0.643544 0.720467
0.356781 0.653398 0.713205
0.491575 0.665071 0.708748
0.627648 0.676376 0.709097
0.749383 0.684468 0.716540
0.844138 0.688683 0.728731
0.909066 0.690817 0.743097
0.203171 0.739029 0.735370
0.274629 0.738829 0.726469
0.375376 0.743303 0.717972
0.494485 0.750806 0.713881
0.621448 0.759778 0.717305
0.741644 0.768225 0.731797
0.839951 0.774945 0.753024
0.910835 0.780903 0.775832
0.291148 0.820414 0.732949
0.338629 0.818677 0.723843
0.416624 0.820859 0.715432
0.516399 0.826123 0.713058
0.629186 0.833611 0.720887
0.742759 0.842289 0.743774
0.840921 0.850753 0.775627
0.916121 0.858951 0.808764
0.374320 0.878042 0.724175
0.406829 0.878344 0.714570
0.467100 0.881725 0.707016
0.549264 0.887795 0.707493
0.646931 0.896077 0.720591
0.750594 0.905931 0.751622
0.844780 0.915710 0.793241
0.921776 0.924493 0.836788
