Assets/1__3DArt/KimSe/artstation_asset/LUTs_pasterls/CUBE/Orange Cream 01 S.cube
# Enhanced with VOXCOLOR algorithms
LUT_3D_SIZE 5
DOMAIN_MIN 0.000000 0.000000 0.000000
DOMAIN_MAX 0.903226 0.903226 0.903226
0.007843 0.011765 0.050980
0.290715 0.123073 0.071784
0.645869 0.240134 0.073763
0.846076 0.335992 0.081740
0.887362 0.375610 0.088772
0.011640 0.143828 0.097667
0.249462 0.222945 0.094543
0.565688 0.306460 0.070587
0.784005 0.384390 0.064282
0.881349 0.453656 0.084418
0.055410 0.406699 0.187365
0.242349 0.442835 0.153553
0.533081 0.492844 0.099143
0.771673 0.547805 0.075731
0.895885 0.608036 0.099225
0.178154 0.677834 0.245758
0.301452 0.681328 0.206345
0.551902 0.707350 0.145231
0.794430 0.744510 0.114532
0.921857 0.779495 0.135870
0.370092 0.827109 0.244021
0.429097 0.827650 0.220940
0.597603 0.845126 0.181849
0.805698 0.872824 0.165090
0.936969 0.891985 0.198725
0.032729 0.048508 0.159975
0.322840 0.144687 0.163904
0.649873 0.248933 0.160958
0.835705 0.346248 0.170448
0.887726 0.407989 0.174667
0.037646 0.217715 0.215156
0.301731 0.279829 0.212577
0.568028 0.326722 0.206020
0.759965 0.375607 0.207142
0.881285 0.448935 0.204159
0.106105 0.483808 0.299761
0.287962 0.498403 0.276492
0.525194 0.507476 0.246520
0.735464 0.522796 0.232278
0.894814 0.562677 0.231531
0.258538 0.725904 0.359696
0.356455 0.716156 0.326705
0.548594 0.712199 0.282335
0.753738 0.715674 0.256483
0.915547 0.726039 0.259058
0.453928 0.850756 0.378830
0.495794 0.847147 0.353581
0.622404 0.853165 0.317169
0.791595 0.867641 0.294443
0.930727 0.880226 0.305502
0.076926 0.123142 0.345336
0.380358 0.217664 0.339933
0.682591 0.325197 0.336200
0.848884 0.424253 0.343982
0.896134 0.483026 0.346127
0.100305 0.341445 0.419286
0.349331 0.382861 0.414243
0.599479 0.414395 0.408088
0.779107 0.448692 0.405975
0.894812 0.501416 0.396771
0.211863 0.599725 0.500650
0.370001 0.594029 0.482024
0.569294 0.576674 0.458406
0.748946 0.561836 0.442667
0.904888 0.568396 0.433491
0.390154 0.791555 0.551729
0.463305 0.774177 0.527372
0.601020 0.749412 0.493403
0.756454 0.723675 0.466334
0.916602 0.708352 0.456260
0.566116 0.876794 0.572178
0.594375 0.871768 0.552984
0.679062 0.869043 0.525788
0.799092 0.871339 0.499509
0.928938 0.879016 0.486194
0.131852 0.246845 0.544167
0.443059 0.350375 0.547855
0.721813 0.459692 0.552288
0.871067 0.549307 0.559092
0.909450 0.588252 0.559601
0.195099 0.488022 0.627023
0.422427 0.524234 0.623587
0.662316 0.560369 0.618501
0.827484 0.589507 0.614390
0.914191 0.608121 0.608407
0.351046 0.712155 0.696568
0.481716 0.704139 0.683869
0.652890 0.688210 0.666767
0.800866 0.663418 0.652648
0.920791 0.638012 0.645445
0.534065 0.846498 0.731908
0.587056 0.831974 0.718495
0.686295 0.806549 0.697903
0.797899 0.769634 0.677432
0.925432 0.734520 0.667152
0.672003 0.895599 0.743053
0.690981 0.891159 0.733822
0.747631 0.885472 0.721337
0.829795 0.879981 0.704784
0.933125 0.879746 0.689118
0.192387 0.399775 0.683362
0.496399 0.514673 0.705500
0.747610 0.608243 0.722266
0.885887 0.674827 0.733387
0.922069 0.696074 0.733796
0.308869 0.618195 0.755510
0.508959 0.656782 0.758185
0.723382 0.698478 0.762060
0.870039 0.729462 0.765160
0.928810 0.736210 0.764417
0.486515 0.786045 0.805230
0.588118 0.785394 0.800082
0.733042 0.788434 0.795889
0.858645 0.785687 0.794138
0.934569 0.771514 0.796142
0.649880 0.873753 0.828195
0.685005 0.865990 0.823306
0.764239 0.857045 0.818185
0.856368 0.842667 0.815649
0.937715 0.824179 0.819837
0.747746 0.903109 0.834977
0.759969 0.899819 0.831674
0.804152 0.897233 0.830624
0.870325 0.894154 0.831142
0.940223 0.891630 0.834650
