Assets/1__3DArt/KimSe/artstation_asset/LUTs_pasterls/CUBE/Orange Cream 01 S.cube
# Enhanced with VOXCOLOR algorithms
LUT_3D_SIZE 32
0.007843 0.011765 0.050980
0.042655 0.027318 0.054982
0.077467 0.042871 0.058984
0.112279 0.058424 0.062985
0.147091 0.073977 0.066987
0.181903 0.089530 0.070989
0.234528 0.106191 0.071714
0.290715 0.123073 0.071784
0.346902 0.139955 0.071853
0.403090 0.156837 0.071923
0.459277 0.173720 0.071993
0.508527 0.190399 0.072334
0.554307 0.206978 0.072810
0.600088 0.223556 0.073287
0.645869 0.240134 0.073763
0.691650 0.256713 0.074240
0.727007 0.271631 0.075141
0.751942 0.284888 0.076466
0.776877 0.298145 0.077792
0.801812 0.311403 0.079117
0.826747 0.324660 0.080442
0.846076 0.335992 0.081740
0.854195 0.343475 0.082982
0.862313 0.350957 0.084224
0.870432 0.358439 0.085467
0.878551 0.365922 0.086709
0.885473 0.372423 0.087823
0.886418 0.374017 0.088298
0.887362 0.375610 0.088772
0.888307 0.377204 0.089247
0.889251 0.378798 0.089721
0.890196 0.380392 0.090196
0.007686 0.025784 0.055582
0.041698 0.040755 0.059200
0.075710 0.055727 0.062818
0.109722 0.070699 0.066436
0.143734 0.085671 0.070054
0.177746 0.100643 0.073672
0.229223 0.116674 0.073961
0.284193 0.132917 0.073585
0.339163 0.149161 0.073209
0.394133 0.165404 0.072833
0.449103 0.181647 0.072457
0.497557 0.197635 0.072330
0.542753 0.213496 0.072326
0.587950 0.229356 0.072323
0.633146 0.245217 0.072319
0.678342 0.261078 0.072316
0.713680 0.275500 0.072862
0.739157 0.288485 0.073956
0.764635 0.301470 0.075051
0.790113 0.314455 0.076145
0.815591 0.327440 0.077240
0.835735 0.338792 0.078451
0.845213 0.346875 0.079896
0.854690 0.354958 0.081342
0.864168 0.363041 0.082787
0.873645 0.371124 0.084232
0.881876 0.378335 0.085605
0.883875 0.381183 0.086614
0.885874 0.384031 0.087624
0.887873 0.386879 0.088633
0.889872 0.389727 0.089642
0.891871 0.392575 0.090652
0.007528 0.039802 0.060183
0.040740 0.054193 0.063417
0.073952 0.068584 0.066652
0.107164 0.082974 0.069886
0.140376 0.097365 0.073120
0.173588 0.111755 0.076354
0.223918 0.127157 0.076208
0.277670 0.142762 0.075387
0.331423 0.158366 0.074565
0.385176 0.173970 0.073743
0.438928 0.189575 0.072922
0.486587 0.204871 0.072326
0.531199 0.220014 0.071842
0.575811 0.235157 0.071359
0.620423 0.250300 0.070876
0.665035 0.265442 0.070392
0.700352 0.279370 0.070582
0.726373 0.292083 0.071446
0.752393 0.304796 0.072310
0.778414 0.317508 0.073173
0.804435 0.330221 0.074037
0.825394 0.341591 0.075162
0.836231 0.350275 0.076810
0.847067 0.358959 0.078459
0.857903 0.367642 0.080107
0.868740 0.376326 0.081755
0.878279 0.384247 0.083386
0.881333 0.388349 0.084931
0.884386 0.392451 0.086475
0.887439 0.396553 0.088019
0.890493 0.400656 0.089563
0.893546 0.404758 0.091108
0.007371 0.053821 0.064785
0.039783 0.067630 0.067635
0.072195 0.081440 0.070486
0.104607 0.095249 0.073336
0.137019 0.109059 0.076186
0.169431 0.122868 0.079036
0.218613 0.137641 0.078455
0.271148 0.152606 0.077188
0.323683 0.167572 0.075921
0.376219 0.182537 0.074653
0.428754 0.197502 0.073386
0.475617 0.212108 0.072321
0.519645 0.226532 0.071358
0.563673 0.240957 0.070395
0.607701 0.255382 0.069432
0.651728 0.269807 0.068469
0.687024 0.283240 0.068303
0.713588 0.295680 0.068936
0.740151 0.308121 0.069569
0.766715 0.320561 0.070201
0.793279 0.333002 0.070834
0.815053 0.344390 0.071873
0.827249 0.353675 0.073724
0.839444 0.362959 0.075576
0.851639 0.372244 0.077427
0.863835 0.381529 0.079279
0.874682 0.390158 0.081168
0.878790 0.395515 0.083247
0.882898 0.400871 0.085326
0.887005 0.406228 0.087405
0.891113 0.411584 0.089484
0.895221 0.416941 0.091563
0.007214 0.067840 0.069386
0.038826 0.081068 0.071853
0.070438 0.094296 0.074319
0.102050 0.107524 0.076786
0.133662 0.120752 0.079252
0.165274 0.133981 0.081719
0.213308 0.148124 0.080703
0.264626 0.162451 0.078990
0.315944 0.176777 0.077277
0.367262 0.191104 0.075564
0.418579 0.205430 0.073850
0.464648 0.219344 0.072317
0.508091 0.233051 0.070874
0.551534 0.246758 0.069431
0.594978 0.260465 0.067988
0.638421 0.274172 0.066545
0.673696 0.287110 0.066024
0.700803 0.299278 0.066426
0.727910 0.311446 0.066828
0.755016 0.323614 0.067230
0.782123 0.335782 0.067631
0.804712 0.347190 0.068584
0.818266 0.357075 0.070638
0.831821 0.366960 0.072693
0.845375 0.376846 0.074747
0.858929 0.386731 0.076802
0.871085 0.396070 0.078950
0.876247 0.402681 0.081564
0.881409 0.409292 0.084178
0.886572 0.415902 0.086791
0.891734 0.422513 0.089405
0.896896 0.429124 0.092019
0.007056 0.081859 0.073988
0.037868 0.094505 0.076071
0.068680 0.107152 0.078153
0.099493 0.119799 0.080236
0.130305 0.132446 0.082319
0.161117 0.145093 0.084401
0.208003 0.158607 0.082950
0.258103 0.172295 0.080791
0.308204 0.185983 0.078632
0.358305 0.199670 0.076474
0.408405 0.213358 0.074315
0.453678 0.226580 0.072313
0.496537 0.239569 0.070390
0.539396 0.252558 0.068467
0.582255 0.265547 0.066544
0.625114 0.278537 0.064621
0.660368 0.290979 0.063745
0.688018 0.302875 0.063916
0.715668 0.314771 0.064087
0.743317 0.326667 0.064258
0.770967 0.338563 0.064429
0.794371 0.349989 0.065295
0.809284 0.360475 0.067553
0.824198 0.370961 0.069810
0.839111 0.381447 0.072068
0.854024 0.391933 0.074325
0.867488 0.401982 0.076731
0.873704 0.409847 0.079880
0.879921 0.417712 0.083029
0.886138 0.425577 0.086178
0.892354 0.433442 0.089326
0.898571 0.441307 0.092475
0.009125 0.111301 0.085170
0.039016 0.123133 0.086587
0.068907 0.134965 0.088004
0.098798 0.146797 0.089421
0.128688 0.158628 0.090838
0.158579 0.170460 0.092255
0.204480 0.183242 0.090089
0.253582 0.196213 0.087206
0.302685 0.209184 0.084323
0.351788 0.222155 0.081440
0.400890 0.235126 0.078557
0.445678 0.247660 0.075897
0.488308 0.259975 0.073348
0.530938 0.272291 0.070799
0.573568 0.284606 0.068251
0.616198 0.296922 0.065702
0.651634 0.308817 0.064362
0.679875 0.320293 0.064230
0.708115 0.331768 0.064098
0.736356 0.343244 0.063967
0.764597 0.354720 0.063835
0.788719 0.365880 0.064535
0.804603 0.376412 0.066899
0.820487 0.386943 0.069262
0.836371 0.397475 0.071626
0.852255 0.408007 0.073989
0.866641 0.418170 0.076543
0.873538 0.426493 0.080050
0.880435 0.434815 0.083556
0.887332 0.443138 0.087062
0.894229 0.451461 0.090569
0.901125 0.459784 0.094075
0.011640 0.143828 0.097667
0.040585 0.154798 0.098362
0.069530 0.165768 0.099057
0.098475 0.176738 0.099752
0.127420 0.187708 0.100447
0.156365 0.198678 0.101142
0.201313 0.210706 0.098206
0.249462 0.222945 0.094543
0.297610 0.235184 0.090880
0.345759 0.247423 0.087217
0.393907 0.259661 0.083554
0.438272 0.271508 0.080198
0.480744 0.283159 0.076994
0.523216 0.294809 0.073790
0.565688 0.306460 0.070587
0.608161 0.318110 0.067383
0.643818 0.329449 0.065557
0.672659 0.340474 0.065109
0.701501 0.351500 0.064661
0.730343 0.362525 0.064212
0.759185 0.373551 0.063764
0.784005 0.384390 0.064282
0.800782 0.394856 0.066732
0.817559 0.405322 0.069182
0.834335 0.415788 0.071631
0.851112 0.426254 0.074081
0.866344 0.436413 0.076761
0.873846 0.445034 0.080589
0.881349 0.453656 0.084418
0.888851 0.462277 0.088247
0.896354 0.470898 0.092075
0.903856 0.479520 0.095904
0.014154 0.176355 0.110165
0.042154 0.186464 0.110138
0.070153 0.196572 0.110111
0.098153 0.206680 0.110084
0.126152 0.216788 0.110057
0.154152 0.226896 0.110030
0.198147 0.238170 0.106323
0.245341 0.249677 0.101880
0.292536 0.261184 0.097437
0.339730 0.272691 0.092995
0.386924 0.284197 0.088552
0.430865 0.295357 0.084499
0.473180 0.306342 0.080640
0.515494 0.317328 0.076782
0.557809 0.328314 0.072923
0.600123 0.339299 0.069065
0.636002 0.350080 0.066753
0.665444 0.360656 0.065988
0.694887 0.371231 0.065223
0.724330 0.381807 0.064458
0.753772 0.392382 0.063693
0.779290 0.402900 0.064028
0.796960 0.413300 0.066565
0.814630 0.423701 0.069101
0.832300 0.434101 0.071637
0.849970 0.444502 0.074173
0.866046 0.454655 0.076979
0.874154 0.463576 0.081129
0.882262 0.472496 0.085280
0.890371 0.481416 0.089431
0.898479 0.490336 0.093581
0.906587 0.499256 0.097732
0.016668 0.208882 0.122663
0.043722 0.218129 0.121913
0.070776 0.227375 0.121164
0.097830 0.236622 0.120415
0.124884 0.245868 0.119666
0.151938 0.255114 0.118917
0.194980 0.265634 0.114440
0.241221 0.276409 0.109217
0.287461 0.287184 0.103995
0.333701 0.297959 0.098772
0.379941 0.308733 0.093549
0.423459 0.319205 0.088799
0.465616 0.329526 0.084286
0.507772 0.339847 0.079773
0.549929 0.350167 0.075260
0.592086 0.360488 0.070746
0.628186 0.370711 0.067949
0.658229 0.380837 0.066867
0.688273 0.390963 0.065785
0.718316 0.401088 0.064703
0.748360 0.411214 0.063622
0.774576 0.421409 0.063775
0.793139 0.431744 0.066397
0.811702 0.442079 0.069020
0.830265 0.452414 0.071643
0.848828 0.462749 0.074266
0.865749 0.472898 0.077197
0.874463 0.482117 0.081669
0.883176 0.491336 0.086142
0.891890 0.500555 0.090615
0.900604 0.509773 0.095088
0.909317 0.518992 0.099561
0.019183 0.241410 0.135160
0.045291 0.249794 0.133689
0.071399 0.258179 0.132218
0.097508 0.266563 0.130747
0.123616 0.274948 0.129276
0.149724 0.283332 0.127805
0.191814 0.293099 0.122557
0.237100 0.303141 0.116555
0.282386 0.313184 0.110552
0.327672 0.323227 0.104549
0.372958 0.333269 0.098547
0.416053 0.343054 0.093100
0.458052 0.352710 0.087932
0.500050 0.362365 0.082764
0.542049 0.372021 0.077596
0.584048 0.381677 0.072428
0.620370 0.391343 0.069144
0.651014 0.401018 0.067746
0.681658 0.410694 0.066347
0.712303 0.420370 0.064949
0.742947 0.430045 0.063550
0.769862 0.439919 0.063521
0.789318 0.450188 0.066230
0.808774 0.460458 0.068939
0.828230 0.470727 0.071649
0.847685 0.480997 0.074358
0.865452 0.491141 0.077414
0.874771 0.500658 0.082209
0.884090 0.510176 0.087004
0.893409 0.519693 0.091799
0.902729 0.529211 0.096594
0.912048 0.538728 0.101389
0.026455 0.280333 0.148060
0.051472 0.287784 0.146007
0.076489 0.295234 0.143954
0.101506 0.302684 0.141901
0.126523 0.310135 0.139848
0.151540 0.317585 0.137795
0.192628 0.326556 0.131921
0.236931 0.335831 0.125283
0.281233 0.345106 0.118645
0.325536 0.354381 0.112007
0.369838 0.363656 0.105369
0.412545 0.372784 0.099337
0.454453 0.381839 0.093608
0.496361 0.390894 0.087880
0.538270 0.399949 0.082151
0.580178 0.409004 0.076422
0.616722 0.418150 0.072707
0.647902 0.427386 0.071005
0.679082 0.436623 0.069304
0.710262 0.445859 0.067602
0.741443 0.455096 0.065901
0.768905 0.464583 0.065672
0.788934 0.474570 0.068388
0.808963 0.484557 0.071104
0.828992 0.494545 0.073820
0.849021 0.504532 0.076536
0.867309 0.514413 0.079620
0.876897 0.523760 0.084541
0.886484 0.533107 0.089461
0.896072 0.542454 0.094382
0.905659 0.551801 0.099303
0.915247 0.561148 0.104224
0.036107 0.322455 0.161162
0.059959 0.328935 0.158597
0.083812 0.335415 0.156031
0.107665 0.341895 0.153466
0.131518 0.348375 0.150901
0.155370 0.354855 0.148335
0.195433 0.363010 0.141907
0.238737 0.371499 0.134706
0.282041 0.379988 0.127505
0.325345 0.388478 0.120304
0.368649 0.396967 0.113103
0.410985 0.405455 0.106541
0.452837 0.413941 0.100299
0.494688 0.422428 0.094057
0.536540 0.430914 0.087815
0.578392 0.439401 0.081573
0.615159 0.448045 0.077453
0.646842 0.456848 0.075455
0.678526 0.465651 0.073458
0.710209 0.474453 0.071460
0.741892 0.483256 0.069462
0.769828 0.492324 0.069025
0.790270 0.501921 0.071708
0.810711 0.511518 0.074391
0.831153 0.521115 0.077075
0.851594 0.530712 0.079758
0.870243 0.540199 0.082819
0.879931 0.549141 0.087767
0.889618 0.558083 0.092716
0.899305 0.567025 0.097664
0.908992 0.575968 0.102613
0.918679 0.584910 0.107562
0.045758 0.364577 0.174264
0.068447 0.370087 0.171186
0.091135 0.375596 0.168109
0.113824 0.381106 0.165031
0.136512 0.386616 0.161954
0.159201 0.392125 0.158876
0.198237 0.399463 0.151893
0.240543 0.407167 0.144129
0.282849 0.414871 0.136365
0.325155 0.422575 0.128601
0.367461 0.430279 0.120837
0.409426 0.438125 0.113746
0.451221 0.446043 0.106990
0.493016 0.453961 0.100235
0.534810 0.461879 0.093479
0.576605 0.469797 0.086724
0.613596 0.477940 0.082199
0.645782 0.486309 0.079905
0.677969 0.494678 0.077611
0.710155 0.503047 0.075317
0.742341 0.511416 0.073024
0.770750 0.520064 0.072378
0.791605 0.529271 0.075028
0.812459 0.538478 0.077679
0.833314 0.547684 0.080329
0.854168 0.556891 0.082980
0.873178 0.565986 0.086018
0.882965 0.574523 0.090994
0.892751 0.583060 0.095970
0.902538 0.591597 0.100947
0.912325 0.600134 0.105923
0.922112 0.608671 0.110899
0.055410 0.406699 0.187365
0.076934 0.411238 0.183776
0.098458 0.415777 0.180186
0.119983 0.420317 0.176596
0.141507 0.424856 0.173007
0.163031 0.429395 0.169417
0.201041 0.435917 0.161880
0.242349 0.442835 0.153553
0.283657 0.449754 0.145226
0.324964 0.456672 0.136899
0.366272 0.463590 0.128572
0.407867 0.470796 0.120950
0.449605 0.478145 0.113681
0.491343 0.485495 0.106412
0.533081 0.492844 0.099143
0.574819 0.500193 0.091874
0.612033 0.507836 0.086945
0.644722 0.515771 0.084355
0.677412 0.523706 0.081765
0.710101 0.531641 0.079175
0.742791 0.539576 0.076585
0.771673 0.547805 0.075731
0.792940 0.556622 0.078348
0.814207 0.565438 0.080966
0.835474 0.574254 0.083584
0.856742 0.583070 0.086201
0.876112 0.591772 0.089217
0.885999 0.599904 0.094221
0.895885 0.608036 0.099225
0.905772 0.616169 0.104229
0.915658 0.624301 0.109233
0.925545 0.632433 0.114237
0.065061 0.448821 0.200467
0.085421 0.452390 0.196365
0.105781 0.455959 0.192263
0.126141 0.459527 0.188162
0.146501 0.463096 0.184060
0.166861 0.466665 0.179958
0.203846 0.472371 0.171866
0.244155 0.478503 0.162976
0.284465 0.484636 0.154086
0.324774 0.490769 0.145196
0.365083 0.496902 0.136306
0.406307 0.503467 0.128154
0.447989 0.510247 0.120372
0.489670 0.517028 0.112590
0.531351 0.523809 0.104807
0.573033 0.530590 0.097025
0.610470 0.537731 0.091691
0.643662 0.545232 0.088805
0.676855 0.552734 0.085919
0.710048 0.560235 0.083032
0.743240 0.567737 0.080146
0.772595 0.575546 0.079084
0.794275 0.583972 0.081668
0.815955 0.592398 0.084253
0.837635 0.600824 0.086838
0.859315 0.609249 0.089423
0.879046 0.617559 0.092415
0.889033 0.625286 0.097447
0.899019 0.633013 0.102479
0.909005 0.640740 0.107511
0.918991 0.648467 0.112542
0.928978 0.656194 0.117574
0.079492 0.489182 0.210755
0.098600 0.491941 0.206381
0.117708 0.494699 0.202006
0.136817 0.497458 0.197632
0.155925 0.500217 0.193257
0.175033 0.502976 0.188883
0.210829 0.507986 0.180509
0.249963 0.513447 0.171336
0.289097 0.518907 0.162163
0.328232 0.524368 0.152990
0.367366 0.529828 0.143816
0.408035 0.535859 0.135364
0.449472 0.542175 0.127273
0.490909 0.548490 0.119182
0.532347 0.554806 0.111091
0.573784 0.561121 0.103000
0.611266 0.567839 0.097406
0.644792 0.574959 0.094308
0.678319 0.582078 0.091210
0.711846 0.589198 0.088113
0.745373 0.596318 0.085015
0.775032 0.603725 0.083797
0.796956 0.611707 0.086338
0.818881 0.619689 0.088878
0.840805 0.627671 0.091419
0.862729 0.635654 0.093959
0.882657 0.643502 0.096910
0.892605 0.650683 0.101916
0.902552 0.657864 0.106922
0.912500 0.665046 0.111928
0.922447 0.672227 0.116934
0.932394 0.679408 0.121940
0.098703 0.527782 0.218230
0.116471 0.529891 0.213823
0.134240 0.532000 0.209415
0.152008 0.534109 0.205007
0.169776 0.536218 0.200600
0.187545 0.538327 0.196192
0.221991 0.542764 0.187810
0.259773 0.547665 0.178633
0.297555 0.552567 0.169456
0.335337 0.557468 0.160279
0.373119 0.562370 0.151102
0.413050 0.567973 0.142580
0.454056 0.573927 0.134385
0.495061 0.579881 0.126189
0.536067 0.585834 0.117994
0.577072 0.591788 0.109798
0.614421 0.598160 0.104089
0.648113 0.604950 0.100865
0.681804 0.611740 0.097641
0.715496 0.618530 0.094417
0.749188 0.625320 0.091193
0.778982 0.632342 0.089872
0.800983 0.639827 0.092356
0.822983 0.647312 0.094841
0.844983 0.654797 0.097325
0.866983 0.662282 0.099809
0.886945 0.669602 0.102701
0.896715 0.676097 0.107627
0.906485 0.682591 0.112554
0.916255 0.689085 0.117480
0.926025 0.695579 0.122407
0.935795 0.702074 0.127333
0.117913 0.566381 0.225705
0.134342 0.567841 0.221264
0.150771 0.569300 0.216823
0.167199 0.570760 0.212383
0.183628 0.572219 0.207942
0.200057 0.573679 0.203501
0.233153 0.577541 0.195110
0.269583 0.581884 0.185930
0.306013 0.586226 0.176750
0.342443 0.590569 0.167569
0.378873 0.594912 0.158389
0.418065 0.600087 0.149795
0.458639 0.605679 0.141496
0.499213 0.611271 0.133196
0.539787 0.616863 0.124897
0.580361 0.622455 0.116597
0.617576 0.628481 0.110772
0.651433 0.634941 0.107422
0.685290 0.641402 0.104071
0.719146 0.647862 0.100720
0.753003 0.654322 0.097370
0.782933 0.660958 0.095946
0.805009 0.667947 0.098374
0.827085 0.674935 0.100803
0.849161 0.681923 0.103231
0.871237 0.688911 0.105660
0.891233 0.695702 0.108492
0.900825 0.701510 0.113339
0.910418 0.707317 0.118186
0.920011 0.713124 0.123033
0.929603 0.718932 0.127880
0.939196 0.724739 0.132727
0.137124 0.604981 0.233180
0.152213 0.605791 0.228706
0.167302 0.606601 0.224232
0.182391 0.607411 0.219758
0.197480 0.608220 0.215284
0.212569 0.609030 0.210810
0.244315 0.612318 0.202411
0.279393 0.616102 0.193227
0.314471 0.619886 0.184043
0.349549 0.623670 0.174859
0.384626 0.627453 0.165675
0.423080 0.632201 0.157011
0.463223 0.637431 0.148607
0.503365 0.642662 0.140203
0.543507 0.647892 0.131799
0.583649 0.653122 0.123396
0.620731 0.658802 0.117455
0.654753 0.664933 0.113978
0.688775 0.671063 0.110501
0.722797 0.677194 0.107024
0.756818 0.683324 0.103547
0.786884 0.689575 0.102020
0.809036 0.696066 0.104393
0.831187 0.702557 0.106765
0.853339 0.709049 0.109138
0.875491 0.715540 0.111511
0.895520 0.721802 0.114282
0.904935 0.726923 0.119050
0.914351 0.732043 0.123817
0.923766 0.737164 0.128585
0.933182 0.742284 0.133352
0.942597 0.747405 0.138120
0.156334 0.643581 0.240655
0.170083 0.643741 0.236148
0.183833 0.643901 0.231641
0.197582 0.644061 0.227133
0.211332 0.644222 0.222626
0.225081 0.644382 0.218119
0.255477 0.647096 0.209712
0.289203 0.650321 0.200524
0.322929 0.653545 0.191336
0.356654 0.656770 0.182149
0.390380 0.659995 0.172961
0.428095 0.664315 0.164226
0.467806 0.669184 0.155718
0.507516 0.674052 0.147210
0.547227 0.678920 0.138702
0.586937 0.683789 0.130194
0.623886 0.689123 0.124139
0.658073 0.694924 0.120535
0.692260 0.700725 0.116931
0.726447 0.706526 0.113328
0.760634 0.712327 0.109724
0.790834 0.718192 0.108094
0.813062 0.724186 0.110411
0.835290 0.730180 0.112728
0.857517 0.736174 0.115044
0.879745 0.742168 0.117361
0.899808 0.747903 0.120073
0.909046 0.752336 0.124761
0.918284 0.756770 0.129449
0.927522 0.761203 0.134137
0.936760 0.765637 0.138825
0.945998 0.770071 0.143513
0.178154 0.677834 0.245758
0.190589 0.677524 0.241332
0.203024 0.677214 0.236907
0.215458 0.676903 0.232482
0.227893 0.676593 0.228056
0.240328 0.676283 0.223631
0.269242 0.678548 0.215372
0.301452 0.681328 0.206345
0.333662 0.684108 0.197319
0.365872 0.686888 0.188293
0.398082 0.689668 0.179267
0.434834 0.693641 0.170617
0.473857 0.698211 0.162155
0.512879 0.702781 0.153693
0.551902 0.707350 0.145231
0.590925 0.711920 0.136769
0.627523 0.716959 0.130720
0.661697 0.722468 0.127086
0.695871 0.727976 0.123452
0.730046 0.733485 0.119817
0.764220 0.738994 0.116183
0.794430 0.744510 0.114532
0.816711 0.750042 0.116848
0.838993 0.755574 0.119163
0.861274 0.761106 0.121479
0.883555 0.766638 0.123794
0.903641 0.771883 0.126505
0.912749 0.775689 0.131187
0.921857 0.779495 0.135870
0.930965 0.783301 0.140553
0.940073 0.787107 0.145235
0.949181 0.790913 0.149918
0.205192 0.703393 0.246116
0.216363 0.702972 0.242003
0.227534 0.702550 0.237889
0.238705 0.702128 0.233776
0.249875 0.701706 0.229662
0.261046 0.701284 0.225548
0.288214 0.703350 0.217751
0.318581 0.705914 0.209216
0.348948 0.708477 0.200682
0.379315 0.711041 0.192147
0.409683 0.713604 0.183612
0.445020 0.717390 0.175357
0.482842 0.721788 0.167241
0.520665 0.726185 0.159126
0.558487 0.730583 0.151010
0.596309 0.734980 0.142894
0.632124 0.739825 0.137100
0.665930 0.745116 0.133626
0.699736 0.750407 0.130152
0.733542 0.755699 0.126678
0.767348 0.760990 0.123204
0.797315 0.766231 0.121697
0.819606 0.771371 0.124121
0.841897 0.776511 0.126545
0.864188 0.781650 0.128969
0.886479 0.786790 0.131393
0.906566 0.791623 0.134218
0.915639 0.794920 0.139043
0.924712 0.798217 0.143868
0.933784 0.801514 0.148694
0.942857 0.804811 0.153519
0.951930 0.808107 0.158345
0.232231 0.728953 0.246475
0.242138 0.728420 0.242673
0.252044 0.727886 0.238871
0.261951 0.727353 0.235069
0.271857 0.726819 0.231268
0.281764 0.726286 0.227466
0.307185 0.728153 0.220130
0.335710 0.730499 0.212087
0.364234 0.732846 0.204044
0.392759 0.735193 0.196001
0.421283 0.737540 0.187958
0.455206 0.741139 0.180098
0.491828 0.745365 0.172328
0.528450 0.749590 0.164559
0.565072 0.753815 0.156789
0.601694 0.758040 0.149020
0.636724 0.762690 0.143479
0.670162 0.767764 0.140165
0.703600 0.772838 0.136852
0.737038 0.777913 0.133539
0.770476 0.782987 0.130226
0.800201 0.787952 0.128861
0.822501 0.792700 0.131394
0.844801 0.797447 0.133927
0.867102 0.802195 0.136459
0.889402 0.806942 0.138992
0.909492 0.811363 0.141931
0.918529 0.814151 0.146899
0.927566 0.816939 0.151867
0.936604 0.819727 0.156835
0.945641 0.822514 0.161803
0.954678 0.825302 0.166771
0.259269 0.754513 0.246833
0.267912 0.753868 0.243343
0.276554 0.753222 0.239853
0.285197 0.752577 0.236363
0.293839 0.751932 0.232873
0.302482 0.751287 0.229383
0.326157 0.752955 0.222509
0.352839 0.755085 0.214958
0.379520 0.757216 0.207406
0.406202 0.759346 0.199855
0.432883 0.761476 0.192304
0.465392 0.764888 0.184838
0.500813 0.768941 0.177415
0.536235 0.772994 0.169992
0.571657 0.777047 0.162569
0.607079 0.781100 0.155146
0.641325 0.785555 0.149858
0.674394 0.790412 0.146705
0.707464 0.795269 0.143552
0.740534 0.800126 0.140400
0.773603 0.804983 0.137247
0.803086 0.809673 0.136026
0.825396 0.814028 0.138667
0.847706 0.818383 0.141308
0.870016 0.822739 0.143950
0.892325 0.827094 0.146591
0.912417 0.831103 0.149644
0.921419 0.833382 0.154755
0.930421 0.835661 0.159865
0.939423 0.837939 0.164976
0.948425 0.840218 0.170087
0.957427 0.842497 0.175198
0.286308 0.780072 0.247192
0.293686 0.779316 0.244014
0.301065 0.778559 0.240836
0.308443 0.777802 0.237657
0.315822 0.777045 0.234479
0.323200 0.776288 0.231301
0.345129 0.777757 0.224888
0.369967 0.779671 0.217828
0.394806 0.781585 0.210769
0.419645 0.783499 0.203709
0.444483 0.785412 0.196649
0.475577 0.788638 0.189578
0.509799 0.792518 0.182502
0.544021 0.796399 0.175425
0.578242 0.800280 0.168348
0.612464 0.804161 0.161271
0.645925 0.808421 0.156237
0.678627 0.813061 0.153245
0.711328 0.817700 0.150253
0.744030 0.822340 0.147261
0.776731 0.826980 0.144268
0.805972 0.831394 0.143190
0.828291 0.835357 0.145940
0.850610 0.839320 0.148690
0.872930 0.843283 0.151440
0.895249 0.847246 0.154190
0.915343 0.850843 0.157357
0.924309 0.852613 0.162610
0.933276 0.854383 0.167864
0.942242 0.856152 0.173118
0.951209 0.857922 0.178371
0.960176 0.859692 0.183625
0.313552 0.803352 0.247224
0.319757 0.802534 0.244338
0.325963 0.801715 0.241451
0.332168 0.800897 0.238565
0.338374 0.800079 0.235679
0.344579 0.799261 0.232792
0.364740 0.800556 0.226841
0.387692 0.802274 0.220276
0.410643 0.803991 0.213711
0.433595 0.805709 0.207146
0.456547 0.807427 0.200582
0.486124 0.810472 0.193928
0.519015 0.814182 0.187229
0.551906 0.817891 0.180531
0.584797 0.821601 0.173832
0.617688 0.825310 0.167134
0.650254 0.829383 0.162394
0.682497 0.833818 0.159612
0.714739 0.838254 0.156830
0.746981 0.842690 0.154048
0.779223 0.847126 0.151267
0.808170 0.851290 0.150386
0.830528 0.854909 0.153307
0.852885 0.858529 0.156229
0.875242 0.862148 0.159150
0.897599 0.865768 0.162072
0.917732 0.869007 0.165420
0.926744 0.870342 0.170905
0.935756 0.871677 0.176391
0.944768 0.873012 0.181876
0.953779 0.874346 0.187361
0.962791 0.875681 0.192846
0.341822 0.815230 0.245622
0.347311 0.814602 0.242929
0.352800 0.813974 0.240235
0.358289 0.813346 0.237542
0.363778 0.812718 0.234848
0.369267 0.812090 0.232155
0.387551 0.813338 0.226661
0.408394 0.814962 0.220608
0.429238 0.816585 0.214555
0.450081 0.818209 0.208501
0.470924 0.819832 0.202448
0.498477 0.822735 0.196323
0.529385 0.826278 0.190162
0.560292 0.829821 0.184002
0.591200 0.833363 0.177841
0.622107 0.836906 0.171680
0.653225 0.840826 0.167439
0.684553 0.845124 0.165116
0.715881 0.849422 0.162794
0.747209 0.853720 0.160472
0.778536 0.858018 0.158150
0.806934 0.862057 0.157738
0.829472 0.865578 0.161146
