Assets/1__3DArt/KimSe/artstation_asset/LUTs_pasterls/CUBE/Orange Cream 03.cube
# Enhanced with VOXCOLOR algorithms
LUT_3D_SIZE 32
0.066667 0.117647 0.043137
0.097301 0.120481 0.043487
0.127934 0.123314 0.043838
0.158568 0.126148 0.044188
0.189202 0.128982 0.044538
0.219835 0.131816 0.044889
0.258955 0.134347 0.044005
0.299771 0.136819 0.042874
0.340588 0.139290 0.041743
0.381404 0.141761 0.040612
0.422221 0.144232 0.039481
0.459645 0.146370 0.037539
0.495375 0.148342 0.035192
0.531104 0.150314 0.032845
0.566833 0.152285 0.030498
0.602562 0.154257 0.028151
0.632161 0.155864 0.025802
0.655628 0.157106 0.023452
0.679096 0.158348 0.021102
0.702563 0.159589 0.018752
0.726031 0.160831 0.016402
0.745217 0.161720 0.014423
0.755840 0.161903 0.013186
0.766463 0.162087 0.011949
0.777086 0.162270 0.010712
0.787709 0.162453 0.009476
0.796925 0.162421 0.008426
0.799109 0.161309 0.008309
0.801292 0.160198 0.008193
0.803476 0.159086 0.008076
0.805659 0.157975 0.007960
0.807843 0.156863 0.007843
0.068177 0.121459 0.044119
0.097804 0.124489 0.044489
0.127431 0.127519 0.044859
0.157058 0.130550 0.045229
0.186685 0.133580 0.045599
0.216312 0.136610 0.045969
0.254727 0.139415 0.045161
0.294899 0.142174 0.044117
0.335071 0.144933 0.043074
0.375243 0.147692 0.042030
0.415415 0.150451 0.040987
0.452672 0.152882 0.039152
0.488470 0.155148 0.036922
0.524269 0.157415 0.034691
0.560067 0.159682 0.032461
0.595866 0.161948 0.030230
0.625788 0.163845 0.027982
0.649833 0.165370 0.025715
0.673878 0.166896 0.023448
0.697922 0.168422 0.021182
0.721967 0.169948 0.018915
0.741752 0.171100 0.016989
0.753018 0.171506 0.015745
0.764283 0.171911 0.014500
0.775549 0.172316 0.013256
0.786814 0.172721 0.012011
0.796612 0.172880 0.010941
0.799072 0.171809 0.010738
0.801531 0.170737 0.010536
0.803991 0.169665 0.010334
0.806450 0.168594 0.010131
0.808909 0.167522 0.009929
0.069687 0.125270 0.045102
0.098308 0.128497 0.045491
0.126928 0.131724 0.045881
0.155548 0.134951 0.046270
0.184169 0.138178 0.046659
0.212789 0.141405 0.047049
0.250499 0.144482 0.046317
0.290027 0.147529 0.045361
0.329555 0.150576 0.044405
0.369083 0.153622 0.043449
0.408610 0.156669 0.042493
0.445698 0.159393 0.040765
0.481566 0.161955 0.038651
0.517434 0.164516 0.036538
0.553302 0.167078 0.034424
0.589170 0.169640 0.032310
0.619415 0.171825 0.030161
0.644037 0.173635 0.027978
0.668659 0.175445 0.025795
0.693281 0.177255 0.023612
0.717904 0.179065 0.021428
0.738288 0.180480 0.019556
0.750196 0.181108 0.018304
0.762104 0.181735 0.017051
0.774012 0.182362 0.015799
0.785920 0.182989 0.014547
0.796299 0.183340 0.013456
0.799035 0.182308 0.013168
0.801770 0.181276 0.012879
0.804505 0.180244 0.012591
0.807241 0.179213 0.012303
0.809976 0.178181 0.012015
0.071197 0.129082 0.046084
0.098811 0.132506 0.046493
0.126425 0.135929 0.046902
0.154039 0.139352 0.047311
0.181653 0.142776 0.047720
0.209266 0.146199 0.048129
0.246272 0.149549 0.047473
0.285155 0.152884 0.046605
0.324038 0.156218 0.045736
0.362922 0.159553 0.044868
0.401805 0.162888 0.043999
0.438725 0.165904 0.042378
0.474662 0.168761 0.040381
0.510599 0.171617 0.038384
0.546536 0.174474 0.036387
0.582473 0.177331 0.034389
0.613042 0.179806 0.032341
0.638241 0.181900 0.030241
0.663441 0.183994 0.028141
0.688640 0.186088 0.026042
0.713840 0.188182 0.023942
0.734823 0.189861 0.022122
0.747374 0.190710 0.020862
0.759924 0.191559 0.019603
0.772475 0.192408 0.018343
0.785026 0.193257 0.017083
0.795986 0.193800 0.015971
0.798998 0.192808 0.015597
0.802009 0.191816 0.015223
0.805020 0.190824 0.014849
0.808031 0.189832 0.014475
0.811042 0.188840 0.014101
0.072707 0.132894 0.047067
0.099314 0.136514 0.047495
0.125922 0.140134 0.047924
0.152529 0.143754 0.048352
0.179136 0.147374 0.048780
0.205743 0.150994 0.049209
0.242044 0.154616 0.048629
0.280283 0.158239 0.047848
0.318522 0.161861 0.047067
0.356761 0.165484 0.046286
0.395000 0.169107 0.045505
0.431751 0.172415 0.043991
0.467758 0.175567 0.042111
0.503764 0.178719 0.040230
0.539770 0.181870 0.038350
0.575777 0.185022 0.036469
0.606669 0.187787 0.034521
0.632445 0.190165 0.032504
0.658222 0.192543 0.030488
0.683999 0.194921 0.028471
0.709776 0.197298 0.026455
0.731359 0.199241 0.024688
0.744552 0.200312 0.023421
0.757745 0.201383 0.022154
0.770938 0.202454 0.020886
0.784131 0.203525 0.019619
0.795673 0.204259 0.018486
0.798961 0.203307 0.018026
0.802248 0.202355 0.017566
0.805535 0.201403 0.017106
0.808822 0.200451 0.016646
0.812109 0.199499 0.016186
0.074217 0.136706 0.048049
0.099818 0.140522 0.048497
0.125419 0.144339 0.048945
0.151019 0.148155 0.049393
0.176620 0.151972 0.049841
0.202220 0.155788 0.050289
0.237816 0.159683 0.049785
0.275411 0.163594 0.049092
0.313006 0.167504 0.048398
0.350601 0.171415 0.047705
0.388195 0.175325 0.047011
0.424777 0.178926 0.045604
0.460853 0.182373 0.043840
0.496929 0.185820 0.042076
0.533005 0.189266 0.040313
0.569080 0.192713 0.038549
0.600295 0.195768 0.036700
0.626650 0.198429 0.034767
0.653004 0.201091 0.032834
0.679358 0.203753 0.030901
0.705713 0.206415 0.028968
0.727894 0.208621 0.027255
0.741730 0.209914 0.025980
0.755566 0.211207 0.024705
0.769401 0.212500 0.023430
0.783237 0.213793 0.022155
0.795361 0.214719 0.021001
0.798924 0.213807 0.020456
0.802486 0.212894 0.019910
0.806049 0.211982 0.019364
0.809612 0.211070 0.018818
0.813175 0.210158 0.018272
0.077448 0.145282 0.051228
0.102074 0.149135 0.051630
0.126699 0.152987 0.052033
0.151325 0.156839 0.052436
0.175950 0.160692 0.052838
0.200576 0.164544 0.053241
0.235395 0.168571 0.052736
0.272253 0.172632 0.052050
0.309112 0.176694 0.051364
0.345970 0.180756 0.050677
0.382828 0.184817 0.049991
0.419109 0.188583 0.048613
0.455100 0.192200 0.046890
0.491091 0.195818 0.045166
0.527083 0.199435 0.043442
0.563074 0.203053 0.041718
0.594468 0.206267 0.039910
0.621263 0.209077 0.038018
0.648059 0.211886 0.036126
0.674854 0.214696 0.034234
0.701650 0.217506 0.032342
0.724320 0.219845 0.030658
0.738742 0.221241 0.029391
0.753163 0.222638 0.028124
0.767584 0.224034 0.026856
0.782005 0.225431 0.025589
0.794668 0.226447 0.024437
0.798542 0.225560 0.023860
0.802415 0.224674 0.023283
0.806288 0.223788 0.022706
0.810161 0.222902 0.022129
0.814034 0.222016 0.021552
0.081024 0.154812 0.054845
0.104680 0.158668 0.055190
0.128337 0.162524 0.055534
0.151993 0.166380 0.055879
0.175650 0.170236 0.056223
0.199307 0.174092 0.056568
0.233336 0.178222 0.056046
0.269439 0.182408 0.055351
0.305542 0.186593 0.054656
0.341646 0.190779 0.053961
0.377749 0.194964 0.053266
0.413701 0.198868 0.051902
0.449577 0.202632 0.050203
0.485453 0.206395 0.048504
0.521330 0.210159 0.046805
0.557206 0.213923 0.045106
0.588749 0.217270 0.043327
0.615958 0.220200 0.041467
0.643168 0.223131 0.039607
0.670377 0.226061 0.037747
0.697587 0.228992 0.035888
0.720725 0.231437 0.034229
0.735720 0.232914 0.032972
0.750716 0.234390 0.031716
0.765711 0.235866 0.030459
0.780706 0.237342 0.029203
0.793900 0.238428 0.028056
0.798090 0.237565 0.027459
0.802280 0.236703 0.026862
0.806470 0.235840 0.026265
0.810660 0.234977 0.025668
0.814850 0.234114 0.025071
0.084599 0.164341 0.058462
0.107287 0.168201 0.058749
0.129974 0.172061 0.059035
0.152662 0.175920 0.059322
0.175350 0.179780 0.059608
0.198038 0.183640 0.059895
0.231276 0.187874 0.059356
0.266624 0.192183 0.058652
0.301973 0.196492 0.057948
0.337321 0.200801 0.057244
0.372670 0.205111 0.056541
0.408293 0.209153 0.055190
0.444054 0.213063 0.053516
0.479815 0.216973 0.051842
0.515577 0.220883 0.050168
0.551338 0.224792 0.048494
0.583030 0.228273 0.046743
0.610653 0.231324 0.044916
0.638277 0.234375 0.043088
0.665901 0.237426 0.041261
0.693524 0.240477 0.039433
0.717130 0.243030 0.037800
0.732699 0.244586 0.036554
0.748268 0.246142 0.035308
0.763838 0.247697 0.034062
0.779407 0.249253 0.032817
0.793132 0.250409 0.031676
0.797639 0.249570 0.031059
0.802146 0.248731 0.030441
0.806653 0.247891 0.029824
0.811160 0.247052 0.029207
0.815667 0.246213 0.028590
0.088174 0.173871 0.062080
0.109893 0.177734 0.062308
0.131612 0.181598 0.062536
0.153331 0.185461 0.062765
0.175050 0.189324 0.062993
0.196769 0.193188 0.063221
0.229216 0.197526 0.062665
0.263810 0.201959 0.061953
0.298404 0.206392 0.061240
0.332997 0.210824 0.060528
0.367591 0.215257 0.059815
0.402886 0.219439 0.058478
0.438532 0.223495 0.056829
0.474178 0.227550 0.055180
0.509823 0.231606 0.053531
0.545469 0.235662 0.051882
0.577311 0.239276 0.050160
0.605349 0.242448 0.048364
0.633386 0.245619 0.046569
0.661424 0.248791 0.044774
0.689461 0.251963 0.042979
0.713534 0.254623 0.041370
0.729678 0.256258 0.040135
0.745821 0.257893 0.038900
0.761964 0.259529 0.037666
0.778108 0.261164 0.036431
0.792364 0.262391 0.035295
0.797188 0.261575 0.034658
0.802012 0.260759 0.034021
0.806836 0.259943 0.033383
0.811660 0.259127 0.032746
0.816484 0.258311 0.032108
0.091749 0.183400 0.065697
0.112499 0.187268 0.065867
0.133249 0.191135 0.066038
0.153999 0.195002 0.066208
0.174749 0.198869 0.066378
0.195499 0.202736 0.066548
0.227157 0.207177 0.065975
0.260995 0.211734 0.065254
0.294834 0.216291 0.064533
0.328673 0.220847 0.063811
0.362511 0.225404 0.063090
0.397478 0.229724 0.061767
0.433009 0.233926 0.060142
0.468540 0.238128 0.058518
0.504070 0.242330 0.056894
0.539601 0.246532 0.055270
0.571592 0.250279 0.053576
0.600044 0.253571 0.051813
0.628495 0.256864 0.050050
0.656947 0.260156 0.048287
0.685399 0.263449 0.046524
0.709939 0.266215 0.044941
0.726656 0.267930 0.043717
0.743374 0.269645 0.042493
0.760091 0.271360 0.041269
0.776808 0.273075 0.040044
0.791596 0.274372 0.038915
0.796737 0.273580 0.038257
0.801878 0.272787 0.037600
0.807019 0.271994 0.036942
0.812160 0.271202 0.036285
0.817301 0.270409 0.035627
0.097251 0.196544 0.070809
0.117042 0.200233 0.070850
0.136834 0.203921 0.070892
0.156625 0.207610 0.070933
0.176417 0.211299 0.070975
0.196208 0.214988 0.071016
0.227013 0.219394 0.070385
0.260021 0.223942 0.069619
0.293029 0.228491 0.068852
0.326037 0.233040 0.068086
0.359044 0.237589 0.067320
0.393574 0.241953 0.065985
0.428864 0.246224 0.064367
0.464155 0.250496 0.062749
0.499445 0.254768 0.061130
0.534735 0.259039 0.059512
0.566761 0.262858 0.057825
0.595522 0.266223 0.056071
0.624284 0.269589 0.054317
0.653045 0.272954 0.052562
0.681807 0.276319 0.050808
0.706730 0.279148 0.049222
0.723978 0.280902 0.047975
0.741227 0.282657 0.046728
0.758475 0.284411 0.045481
0.775723 0.286165 0.044233
0.791008 0.287496 0.043077
0.796478 0.286710 0.042374
0.801947 0.285923 0.041672
0.807417 0.285137 0.040970
0.812886 0.284350 0.040267
0.818356 0.283564 0.039565
0.103715 0.211494 0.076667
0.122553 0.214914 0.076545
0.141391 0.218333 0.076422
0.160229 0.221753 0.076300
0.179067 0.225173 0.076178
0.197905 0.228593 0.076056
0.227827 0.232892 0.075344
0.259966 0.237367 0.074515
0.292105 0.241842 0.073686
0.324245 0.246317 0.072856
0.356384 0.250792 0.072027
0.390421 0.255153 0.070669
0.425409 0.259456 0.069047
0.460396 0.263760 0.067425
0.495384 0.268063 0.065803
0.530371 0.272367 0.064181
0.562374 0.276226 0.062491
0.591393 0.279640 0.060733
0.620412 0.283054 0.058976
0.649431 0.286468 0.057218
0.678450 0.289883 0.055460
0.703715 0.292750 0.053859
0.721473 0.294524 0.052572
0.739230 0.296297 0.051284
0.756987 0.298071 0.049997
0.774745 0.299845 0.048709
0.790510 0.301192 0.047510
0.796314 0.300403 0.046750
0.802118 0.299614 0.045991
0.807922 0.298825 0.045231
0.813726 0.298036 0.044472
0.819529 0.297247 0.043712
0.110180 0.226444 0.082525
0.128064 0.229595 0.082239
0.145949 0.232745 0.081953
0.163833 0.235896 0.081667
0.181718 0.239047 0.081381
0.199602 0.242197 0.081095
0.228642 0.246390 0.080304
0.259912 0.250791 0.079411
0.291182 0.255193 0.078519
0.322452 0.259594 0.077626
0.353723 0.263995 0.076734
0.387269 0.268352 0.075353
0.421953 0.272688 0.073727
0.456638 0.277023 0.072102
0.491322 0.281358 0.070476
0.526006 0.285694 0.068850
0.557987 0.289593 0.067157
0.587264 0.293056 0.065396
0.616540 0.296519 0.063635
0.645817 0.299983 0.061874
0.675094 0.303446 0.060113
0.700700 0.306352 0.058496
0.718967 0.308145 0.057168
0.737233 0.309938 0.055841
0.755500 0.311731 0.054513
0.773766 0.313525 0.053186
0.790011 0.314887 0.051943
0.796150 0.314095 0.051126
0.802288 0.313304 0.050310
0.808427 0.312513 0.049493
0.814565 0.311721 0.048676
0.820703 0.310930 0.047860
0.116644 0.241394 0.088384
0.133575 0.244276 0.087934
0.150506 0.247157 0.087484
0.167437 0.250039 0.087034
0.184369 0.252920 0.086585
0.201300 0.255802 0.086135
0.229456 0.259889 0.085264
0.259858 0.264216 0.084308
0.290259 0.268543 0.083352
0.320660 0.272871 0.082397
0.351062 0.277198 0.081441
0.384117 0.281552 0.080037
0.418498 0.285919 0.078407
0.452879 0.290287 0.076778
0.487261 0.294654 0.075149
0.521642 0.299021 0.073520
0.553600 0.302961 0.071823
0.583134 0.306473 0.070058
0.612669 0.309985 0.068294
0.642203 0.313497 0.066529
0.671737 0.317009 0.064765
0.697685 0.319954 0.063133
0.716461 0.321767 0.061765
0.735237 0.323579 0.060397
0.754012 0.325392 0.059030
0.772788 0.327204 0.057662
0.789513 0.328582 0.056376
0.795986 0.327788 0.055502
0.802459 0.326994 0.054629
0.808932 0.326200 0.053755
0.815404 0.325407 0.052881
0.821877 0.324613 0.052007
0.123109 0.256344 0.094242
0.139086 0.258957 0.093628
0.155064 0.261569 0.093015
0.171042 0.264182 0.092401
0.187019 0.266794 0.091788
0.202997 0.269407 0.091174
0.230270 0.273387 0.090223
0.259803 0.277641 0.089204
0.289336 0.281894 0.088186
0.318868 0.286148 0.087167
0.348401 0.290402 0.086148
0.380964 0.294752 0.084720
0.415043 0.299151 0.083087
0.449121 0.303550 0.081455
0.483199 0.307949 0.079822
0.517278 0.312348 0.078189
0.549213 0.316328 0.076488
0.579005 0.319889 0.074721
0.608797 0.323450 0.072953
0.638589 0.327011 0.071185
0.668381 0.330572 0.069417
0.694671 0.333557 0.067770
0.713955 0.335388 0.066362
0.733240 0.337220 0.064954
0.752525 0.339052 0.063546
0.771809 0.340884 0.062138
0.789015 0.342277 0.060809
0.795822 0.341481 0.059878
0.802629 0.340685 0.058947
0.809436 0.339888 0.058016
0.816244 0.339092 0.057085
0.823051 0.338296 0.056154
0.130809 0.272816 0.100618
0.145852 0.275090 0.099827
0.160894 0.277364 0.099036
0.175936 0.279638 0.098245
0.190979 0.281913 0.097454
0.206021 0.284187 0.096663
0.232377 0.287987 0.095625
0.260997 0.292091 0.094537
0.289616 0.296196 0.093449
0.318235 0.300301 0.092361
0.346854 0.304405 0.091274
0.378849 0.308696 0.089829
0.412532 0.313080 0.088205
0.446215 0.317464 0.086581
0.479898 0.321848 0.084958
0.513581 0.326232 0.083334
0.545408 0.330222 0.081642
0.575379 0.333818 0.079880
0.605351 0.337414 0.078119
0.635322 0.341011 0.076357
0.665293 0.344607 0.074596
0.691866 0.347624 0.072932
0.711641 0.349482 0.071465
0.731415 0.351340 0.069997
0.751190 0.353198 0.068530
0.770965 0.355056 0.067063
0.788641 0.356473 0.065667
0.795823 0.355686 0.064632
0.803006 0.354898 0.063598
0.810188 0.354111 0.062563
0.817370 0.353323 0.061528
0.824552 0.352536 0.060493
0.139746 0.290809 0.107513
0.153871 0.292676 0.106531
0.167996 0.294542 0.105549
0.182121 0.296409 0.104567
0.196246 0.298276 0.103584
0.210371 0.300143 0.102602
0.235777 0.303687 0.101469
0.263438 0.307568 0.100306
0.291099 0.311448 0.099143
0.318761 0.315329 0.097980
0.346422 0.319209 0.096817
0.377773 0.323384 0.095361
0.410967 0.327706 0.093760
0.444162 0.332028 0.092158
0.477357 0.336350 0.090557
0.510552 0.340672 0.088955
0.542185 0.344642 0.087282
0.572258 0.348260 0.085537
0.602330 0.351878 0.083791
0.632402 0.355496 0.082046
0.662474 0.359114 0.080300
0.689271 0.362156 0.078621
0.709517 0.364048 0.077075
0.729763 0.365939 0.075528
0.750009 0.367830 0.073982
0.770255 0.369721 0.072436
0.788393 0.371170 0.070949
0.795991 0.370403 0.069764
0.803588 0.369635 0.068579
0.811185 0.368868 0.067394
0.818783 0.368101 0.066209
0.826380 0.367334 0.065024
0.148683 0.308802 0.114408
0.161891 0.310261 0.113235
0.175099 0.311721 0.112061
0.188306 0.313180 0.110888
0.201514 0.314639 0.109714
0.214722 0.316098 0.108541
0.239176 0.319388 0.107313
0.265880 0.323045 0.106075
0.292583 0.326701 0.104836
0.319287 0.330357 0.103598
0.345990 0.334013 0.102359
0.376696 0.338072 0.100894
0.409402 0.342332 0.099315
0.442109 0.346592 0.097735
0.474816 0.350852 0.096156
0.507523 0.355112 0.094577
0.538963 0.359062 0.092922
0.569136 0.362701 0.091193
0.599309 0.366341 0.089464
0.629482 0.369981 0.087734
0.659655 0.373621 0.086005
0.686676 0.376689 0.084310
0.707393 0.378613 0.082685
0.728110 0.380538 0.081059
0.748828 0.382462 0.079434
0.769545 0.384387 0.077809
0.788145 0.385866 0.076232
0.796158 0.385119 0.074896
0.804170 0.384372 0.073561
0.812183 0.383626 0.072226
0.820196 0.382879 0.070891
0.828208 0.382132 0.069555
0.157620 0.326795 0.121303
0.169911 0.327847 0.119939
0.182201 0.328899 0.118574
0.194492 0.329951 0.117209
0.206782 0.331002 0.115844
0.219072 0.332054 0.114480
0.242576 0.335089 0.113157
0.268321 0.338521 0.111844
0.294067 0.341953 0.110530
0.319812 0.345385 0.109216
0.345558 0.348817 0.107902
0.375619 0.352760 0.106426
0.407838 0.356958 0.104869
0.440056 0.361156 0.103312
0.472275 0.365354 0.101755
0.504494 0.369552 0.100198
0.535740 0.373482 0.098563
0.566014 0.377143 0.096849
0.596288 0.380805 0.095136
0.626561 0.384466 0.093423
0.656835 0.388128 0.091709
0.684081 0.391221 0.089999
0.705269 0.393179 0.088294
0.726458 0.395137 0.086590
0.747646 0.397094 0.084886
0.768835 0.399052 0.083182
0.787897 0.400563 0.081514
0.796325 0.399836 0.080028
0.804753 0.399109 0.078543
0.813180 0.398383 0.077057
0.821608 0.397656 0.075572
0.830036 0.396930 0.074086
0.166557 0.344789 0.128198
0.177930 0.345433 0.126642
0.189303 0.346077 0.125086
0.200677 0.346721 0.123530
0.212050 0.347366 0.121974
0.223423 0.348010 0.120418
0.245975 0.350790 0.119002
0.270763 0.353998 0.117613
0.295550 0.357206 0.116223
0.320338 0.360414 0.114834
0.345125 0.363621 0.113445
0.374542 0.367448 0.111959
0.406273 0.371584 0.110424
0.438003 0.375720 0.108889
0.469734 0.379856 0.107354
0.501465 0.383992 0.105819
0.532517 0.387902 0.104203
0.562892 0.391585 0.102506
0.593267 0.395268 0.100808
0.623641 0.398951 0.099111
0.654016 0.402635 0.097414
0.681486 0.405754 0.095688
0.703145 0.407745 0.093904
0.724805 0.409736 0.092121
0.746465 0.411727 0.090338
0.768125 0.413718 0.088555
0.787648 0.415259 0.086796
0.796492 0.414553 0.085160
0.805335 0.413846 0.083525
0.814178 0.413140 0.081889
0.823021 0.412434 0.080253
0.831864 0.411728 0.078617
0.175710 0.362496 0.134851
0.186215 0.362777 0.133138
0.196720 0.363057 0.131426
0.207225 0.363338 0.129713
0.217729 0.363618 0.128000
0.228234 0.363898 0.126287
0.249839 0.366428 0.124794
0.273663 0.369406 0.123346
0.297487 0.372385 0.121897
0.321311 0.375364 0.120449
0.345135 0.378343 0.119000
0.373871 0.382043 0.117530
0.405063 0.386104 0.116049
0.436255 0.390165 0.114568
0.467447 0.394226 0.113087
0.498640 0.398286 0.111606
0.529449 0.402170 0.110045
0.559876 0.405875 0.108404
0.590302 0.409581 0.106763
0.620729 0.413287 0.105122
0.651156 0.416992 0.103481
0.678817 0.420143 0.101770
0.700945 0.422185 0.099919
0.723074 0.424227 0.098068
0.745203 0.426269 0.096218
0.767332 0.428310 0.094367
0.787323 0.429901 0.092519
0.796631 0.429233 0.090681
0.805938 0.428566 0.088844
0.815246 0.427899 0.087007
0.824554 0.427231 0.085170
0.833861 0.426564 0.083332
0.185295 0.379634 0.141020
0.195029 0.379638 0.139219
0.204764 0.379641 0.137418
0.214498 0.379645 0.135617
0.224233 0.379649 0.133817
0.233967 0.379653 0.132016
0.254631 0.381937 0.130485
0.277480 0.384678 0.129008
0.300330 0.387419 0.127532
0.323180 0.390159 0.126055
0.346029 0.392900 0.124579
0.374014 0.396453 0.123177
0.404566 0.400412 0.121813
0.435118 0.404372 0.120449
0.465670 0.408331 0.119085
0.496222 0.412290 0.117721
0.526689 0.416134 0.116288
0.557070 0.419864 0.114784
0.587452 0.423593 0.113280
0.617833 0.427322 0.111776
0.648214 0.431052 0.110273
0.675999 0.434247 0.108638
0.698593 0.436375 0.106743
0.721186 0.438503 0.104848
0.743779 0.440631 0.102953
0.766372 0.442759 0.101058
0.786845 0.444433 0.099122
0.796715 0.443842 0.096981
0.806585 0.443250 0.094839
0.816455 0.442659 0.092698
0.826325 0.442068 0.090557
0.836195 0.441476 0.088415
0.194880 0.396771 0.147188
0.203844 0.396498 0.145300
0.212808 0.396226 0.143411
0.221772 0.395953 0.141522
0.230736 0.395680 0.139633
0.239700 0.395407 0.137744
0.259423 0.397447 0.136176
0.281298 0.399950 0.134671
0.303173 0.402452 0.133166
0.325048 0.404955 0.131662
0.346923 0.407457 0.130157
0.374156 0.410863 0.128824
0.404068 0.414721 0.127577
0.433980 0.418578 0.126331
0.463893 0.422436 0.125084
0.493805 0.426294 0.123837
0.523929 0.430099 0.122531
0.554265 0.433852 0.121164
0.584601 0.437605 0.119798
0.614937 0.441358 0.118431
0.645273 0.445111 0.117065
0.673182 0.448351 0.115507
0.696240 0.450565 0.113568
0.719297 0.452779 0.111628
0.742355 0.454993 0.109689
0.765413 0.457207 0.107749
0.786366 0.458966 0.105725
0.796799 0.458450 0.103280
0.807231 0.457935 0.100835
0.817664 0.457420 0.098389
0.828097 0.456904 0.095944
0.838529 0.456389 0.093498
0.204465 0.413909 0.153357
0.212658 0.413359 0.151380
0.220852 0.412810 0.149403
0.229045 0.412261 0.147427
0.237239 0.411711 0.145450
0.245433 0.411162 0.143473
0.264215 0.412957 0.141866
0.285116 0.415222 0.140333
0.306016 0.417486 0.138801
0.326917 0.419750 0.137268
0.347817 0.422015 0.135735
0.374299 0.425273 0.134471
0.403571 0.429029 0.133342
0.432843 0.432785 0.132212
0.462115 0.436541 0.131083
0.491387 0.440297 0.129953
0.521169 0.444063 0.128774
0.551459 0.447840 0.127544
0.581750 0.451617 0.126315
0.612040 0.455394 0.125086
0.642331 0.459171 0.123857
0.670365 0.462455 0.122376
0.693887 0.464755 0.120392
0.717409 0.467055 0.118408
0.740931 0.469355 0.116424
0.764453 0.471655 0.114440
0.785887 0.473498 0.112329
0.796882 0.473059 0.109579
0.807878 0.472619 0.106830
0.818873 0.472180 0.104080
0.829868 0.471741 0.101331
0.840864 0.471301 0.098581
0.214050 0.431046 0.159526
0.221473 0.430220 0.157461
0.228896 0.429394 0.155396
0.236319 0.428568 0.153331
0.243742 0.427742 0.151266
0.251165 0.426916 0.149202
0.269008 0.428467 0.147557
0.288933 0.430493 0.145996
0.308859 0.432519 0.144435
0.328785 0.434546 0.142874
0.348711 0.436572 0.141313
0.374441 0.439683 0.140118
0.403073 0.443338 0.139106
0.431705 0.446992 0.138094
0.460338 0.450646 0.137081
0.488970 0.454301 0.136069
0.518409 0.458028 0.135017
0.548654 0.461828 0.133925
0.578899 0.465629 0.132833
0.609144 0.469429 0.131741
0.639389 0.473230 0.130649
0.667548 0.476559 0.129245
0.691534 0.478945 0.127216
0.715521 0.481331 0.125188
0.739507 0.483717 0.123160
0.763493 0.486103 0.121131
0.785408 0.488031 0.118932
0.796966 0.487667 0.115878
0.808524 0.487304 0.112825
0.820082 0.486941 0.109771
0.831640 0.486577 0.106718
0.843198 0.486214 0.103664
0.223224 0.447280 0.165300
0.229930 0.446243 0.163168
0.236637 0.445205 0.161037
0.243343 0.444167 0.158905
0.250050 0.443130 0.156773
0.256757 0.442092 0.154642
0.273684 0.443435 0.152980
0.292656 0.445254 0.151412
0.311628 0.447073 0.149845
0.330600 0.448892 0.148277
0.349572 0.450710 0.146709
0.374554 0.453696 0.145615
0.402541 0.457265 0.144758
0.430528 0.460834 0.143901
0.458514 0.464403 0.143043
0.486501 0.467972 0.142186
0.515588 0.471676 0.141305
0.545776 0.475515 0.140401
0.575964 0.479353 0.139498
0.606152 0.483192 0.138594
0.636339 0.487030 0.137690
0.664616 0.490418 0.136406
0.689072 0.492905 0.134361
0.713528 0.495392 0.132317
0.737984 0.497879 0.130272
0.762440 0.500366 0.128228
0.784844 0.502393 0.125958
0.796992 0.502120 0.122561
0.809140 0.501846 0.119164
0.821288 0.501572 0.115767
0.833436 0.501299 0.112370
0.845584 0.501025 0.108973
0.230344 0.459001 0.169103
0.236603 0.458075 0.167010
0.242862 0.457150 0.164917
0.249121 0.456225 0.162824
0.255381 0.455300 0.160732
0.261640 0.454375 0.158639
0.277784 0.455692 0.157067
0.295906 0.457458 0.155598
0.314028 0.459224 0.154130
0.332149 0.460990 0.152662
0.350271 0.462756 0.151193
0.374521 0.465722 0.150362
0.401834 0.469288 0.149848
0.429148 0.472854 0.149335
0.456462 0.476420 0.148822
0.483775 0.479985 0.148308
0.512467 0.483742 0.147821
0.542538 0.487690 0.147360
0.572608 0.491637 0.146899
0.602678 0.495585 0.146438
0.632748 0.499533 0.145977
0.661112 0.503052 0.145030
0.686063 0.505716 0.143110
