Assets/1__3DArt/KimSe/artstation_asset/LUTs_pasterls/CUBE/Orange Cream 04.cube
# Enhanced with VOXCOLOR algorithms
LUT_3D_SIZE 8
DOMAIN_MIN 0.000000 0.000000 0.000000
DOMAIN_MAX 0.903226 0.903226 0.903226
0.066667 0.117647 0.047059
0.201799 0.128795 0.044570
0.362259 0.136892 0.037968
0.521142 0.142587 0.028480
0.656433 0.146472 0.017565
0.744255 0.148917 0.008343
0.789036 0.150197 0.003082
0.808194 0.149982 0.000600
0.071376 0.135090 0.047460
0.186697 0.148681 0.046326
0.334166 0.161243 0.041799
0.488660 0.172329 0.034509
0.628693 0.181562 0.025403
0.728371 0.188124 0.016971
0.784747 0.191127 0.011579
0.812222 0.190364 0.008598
0.084589 0.171867 0.056918
0.180847 0.185242 0.055444
0.314393 0.199784 0.051620
0.462239 0.213955 0.045514
0.603877 0.226423 0.037568
0.712377 0.235310 0.029639
0.778442 0.239115 0.023976
0.813151 0.237841 0.020407
0.107098 0.226163 0.074621
0.185059 0.236596 0.071419
0.303819 0.250676 0.067222
0.442937 0.265863 0.061552
0.583358 0.279915 0.054328
0.698030 0.289904 0.046667
0.772103 0.293814 0.040476
0.813073 0.291888 0.036049
0.138858 0.294859 0.099078
0.199443 0.300013 0.093267
0.302718 0.311489 0.088030
0.431254 0.325961 0.082386
0.567957 0.340405 0.075721
0.686545 0.350828 0.068218
0.767247 0.354470 0.061180
0.813738 0.351748 0.055457
0.178576 0.370691 0.126541
0.223754 0.370192 0.118729
0.311351 0.377973 0.112804
0.427596 0.390577 0.107556
0.558065 0.404708 0.101974
0.678501 0.415664 0.095025
0.764978 0.419548 0.086855
0.816968 0.416545 0.079048
0.216756 0.436791 0.148932
0.250195 0.433981 0.141175
0.323626 0.439694 0.136278
0.427362 0.451174 0.133202
0.550216 0.465554 0.130738
0.671292 0.478109 0.126231
0.763655 0.483678 0.117375
0.822194 0.481732 0.106499
0.246121 0.484482 0.162880
0.271417 0.483306 0.155941
0.333231 0.489798 0.153658
0.425787 0.502328 0.155309
0.541209 0.518824 0.159422
0.662766 0.534850 0.161002
0.761732 0.543865 0.153031
0.828261 0.544611 0.138248
0.072680 0.139219 0.119191
0.203866 0.152722 0.123456
0.360063 0.160742 0.118118
0.514472 0.163330 0.104508
0.645151 0.160953 0.084691
0.728188 0.154924 0.063730
0.769288 0.149019 0.048745
0.786870 0.144484 0.040264
0.077975 0.165015 0.126963
0.203557 0.180980 0.129728
0.350740 0.193035 0.125351
0.498363 0.200659 0.114471
0.628505 0.203687 0.098342
0.719121 0.202209 0.080363
0.769795 0.198286 0.066127
0.794325 0.192988 0.056433
0.092726 0.208821 0.143658
0.202077 0.224089 0.144786
0.337006 0.237740 0.140331
0.478472 0.248400 0.130569
0.609686 0.255065 0.116282
0.708287 0.256561 0.099791
0.768217 0.253756 0.085634
0.799729 0.247817 0.074922
0.117248 0.268428 0.167972
0.205196 0.280262 0.167019
0.325167 0.293140 0.161796
0.459255 0.304892 0.152288
0.590986 0.313705 0.138888
0.697077 0.317181 0.122996
0.765888 0.315082 0.108311
0.804402 0.308689 0.096449
0.151086 0.340471 0.197950
0.217029 0.346811 0.194438
0.320069 0.356855 0.188197
0.444322 0.367969 0.178836
0.574351 0.377762 0.166259
0.686622 0.382764 0.150732
0.763830 0.381406 0.135038
0.809365 0.374894 0.121586
0.192563 0.417368 0.228927
0.240068 0.417891 0.223279
0.325817 0.424053 0.216856
0.437514 0.433390 0.208862
0.562215 0.443444 0.198570
0.677990 0.450170 0.184461
0.762616 0.450382 0.167620
0.815239 0.444697 0.151596
0.232202 0.482910 0.252403
0.266637 0.480537 0.246447
0.337440 0.484395 0.241897
0.436323 0.492724 0.237859
0.553483 0.503494 0.233027
0.670154 0.512677 0.223299
0.760985 0.515554 0.206171
0.820784 0.511785 0.186267
0.262678 0.528999 0.265280
0.288775 0.527532 0.260196
0.347962 0.531950 0.259258
0.435642 0.541352 0.261902
0.545118 0.554303 0.266382
0.661469 0.566987 0.265339
0.757857 0.573311 0.249869
0.825096 0.572065 0.224847
0.076748 0.167453 0.205628
0.204410 0.185080 0.216298
0.356275 0.194859 0.214303
0.505924 0.196037 0.200205
0.631720 0.188786 0.175809
0.709919 0.175151 0.146826
0.747361 0.162667 0.124440
0.763242 0.154391 0.111292
0.082870 0.201843 0.219433
0.209070 0.220976 0.227097
0.353604 0.234066 0.225315
0.496373 0.239818 0.214024
0.620428 0.237711 0.194133
0.704760 0.228112 0.169101
0.750598 0.216589 0.147665
0.772350 0.206425 0.132783
0.099054 0.253009 0.241631
0.211303 0.270585 0.246597
0.344978 0.284614 0.244080
0.482124 0.293161 0.233858
0.607053 0.294942 0.216433
0.698886 0.288799 0.193888
0.753632 0.278448 0.173060
0.782092 0.267232 0.157087
0.125404 0.318013 0.270327
0.216997 0.331507 0.272550
0.336454 0.344218 0.268806
0.466801 0.353765 0.258838
0.592598 0.358266 0.242894
0.692256 0.355303 0.222032
0.756362 0.346669 0.201538
0.792317 0.335435 0.184789
0.161282 0.393000 0.303175
0.230456 0.400604 0.302463
0.332883 0.410070 0.297491
0.453591 0.418980 0.287845
0.578175 0.425182 0.273417
0.684934 0.425384 0.254146
0.758615 0.419275 0.233824
0.802731 0.409212 0.216284
0.204820 0.469931 0.335262
0.254561 0.471403 0.331967
0.338962 0.476689 0.326741
0.446763 0.483891 0.318869
0.566161 0.491067 0.307663
0.677262 0.494677 0.291276
0.759679 0.492275 0.271308
0.812302 0.484936 0.252370
0.246275 0.533719 0.358768
0.282057 0.531755 0.354450
0.350877 0.534402 0.350878
0.445450 0.540591 0.347292
0.557098 0.548928 0.342440
0.669190 0.556180 0.331889
0.758343 0.558162 0.313195
0.819067 0.554461 0.291617
0.277999 0.577366 0.371103
0.304911 0.575577 0.367064
0.361844 0.578313 0.366683
0.445002 0.585294 0.369672
0.548648 0.595702 0.374449
0.659848 0.606762 0.373472
0.754095 0.613056 0.357621
0.822366 0.612892 0.331830
0.079274 0.202988 0.299771
0.204424 0.226852 0.316404
0.352467 0.240690 0.319256
0.497803 0.242931 0.307743
0.619416 0.233360 0.282923
0.693852 0.214280 0.250118
0.728544 0.196601 0.223361
0.743148 0.185344 0.207384
0.086068 0.245688 0.318112
0.207859 0.269207 0.330943
0.348707 0.285264 0.333485
0.488229 0.291453 0.324597
0.609182 0.286550 0.304424
0.690047 0.270590 0.275756
0.732684 0.252402 0.249743
0.752497 0.237902 0.231686
0.103387 0.303805 0.343815
0.212656 0.324358 0.353062
0.343534 0.340331 0.354346
0.477823 0.348825 0.346526
0.599632 0.347900 0.329401
0.687853 0.335836 0.304212
0.739312 0.318943 0.279528
0.765739 0.303131 0.260676
0.131364 0.373535 0.374523
0.222501 0.389005 0.380243
0.340186 0.402794 0.379846
0.467684 0.411944 0.372385
0.589847 0.414170 0.357538
0.685627 0.406587 0.335525
0.746706 0.392728 0.312625
0.781016 0.377683 0.293949
0.169351 0.450450 0.407669
0.239986 0.459388 0.409872
0.341317 0.469278 0.407877
0.459015 0.477585 0.400854
0.579404 0.482094 0.388328
0.682111 0.479383 0.369604
0.753314 0.470146 0.348850
0.796546 0.457951 0.330959
0.215426 0.526076 0.438539
0.266961 0.528488 0.437626
0.350214 0.533774 0.434914
0.454669 0.540278 0.429555
0.569413 0.546298 0.420739
0.676380 0.548607 0.406413
0.756941 0.545335 0.388235
0.809618 0.537997 0.371084
0.259236 0.586885 0.460698
0.296284 0.585432 0.458025
0.363524 0.587679 0.456130
0.454344 0.593001 0.454359
0.560935 0.600435 0.451600
0.668670 0.607456 0.443847
0.756239 0.610332 0.428868
0.817736 0.608492 0.411398
0.292484 0.627329 0.472246
0.320017 0.625410 0.469111
0.375005 0.627161 0.469236
0.454149 0.632812 0.472628
0.552445 0.642078 0.478114
0.658862 0.653245 0.479392
0.751279 0.661514 0.468356
0.820582 0.664589 0.448779
0.080697 0.246235 0.395544
0.204779 0.278537 0.417550
0.349929 0.298956 0.426156
0.491968 0.305273 0.419703
0.610908 0.296871 0.398355
0.683661 0.275663 0.366252
0.717326 0.254911 0.338659
0.731562 0.241630 0.322007
0.087735 0.296370 0.416686
0.204030 0.325683 0.434279
0.341295 0.346813 0.442142
0.478817 0.356237 0.438014
0.598911 0.351903 0.421097
0.679122 0.332967 0.392922
0.720837 0.310528 0.365763
0.740113 0.293045 0.346918
0.105821 0.360317 0.443688
0.210016 0.384615 0.456936
0.337579 0.404207 0.463141
0.469979 0.415147 0.460115
0.590921 0.414673 0.446740
0.678563 0.400083 0.422971
0.729318 0.379377 0.398030
0.755401 0.360818 0.379063
0.135279 0.433424 0.473999
0.223932 0.451177 0.482986
0.339104 0.467344 0.487114
0.464335 0.478265 0.484568
0.584677 0.481073 0.474233
0.679262 0.472106 0.455167
0.739755 0.455895 0.433733
0.774075 0.439274 0.416321
0.175565 0.510746 0.505060
0.246307 0.521054 0.509951
0.346054 0.532403 0.512036
0.461121 0.541954 0.509903
0.578501 0.547235 0.502517
0.678982 0.544461 0.488375
0.749482 0.534808 0.471285
0.793076 0.522834 0.456635
0.224766 0.583534 0.532617
0.277377 0.586912 0.533967
0.359449 0.593108 0.534679
0.461008 0.600483 0.533673
0.571849 0.607369 0.529925
0.675584 0.610642 0.521259
0.755112 0.608708 0.508933
0.808378 0.603427 0.497418
0.271597 0.640220 0.551955
0.309434 0.639447 0.551040
0.375271 0.642163 0.551517
0.462874 0.647987 0.552795
0.565051 0.656199 0.553911
0.668916 0.664747 0.551690
0.755114 0.670147 0.544146
0.817319 0.671733 0.534804
0.306776 0.676873 0.561989
0.334510 0.675133 0.560076
0.387758 0.676758 0.561221
0.463484 0.682366 0.565647
0.557184 0.692057 0.572641
0.659385 0.704886 0.577814
0.750090 0.716403 0.574816
0.820067 0.723915 0.565789
0.081675 0.298786 0.484932
0.206562 0.341385 0.511108
0.350050 0.370899 0.525459
0.490378 0.384984 0.525928
0.609270 0.382779 0.512065
0.684146 0.364962 0.486187
0.720035 0.344890 0.462180
0.735617 0.331165 0.447308
0.088415 0.353994 0.506015
0.201981 0.390248 0.526946
0.337003 0.418460 0.540031
0.473637 0.434494 0.542400
0.594698 0.435686 0.532531
0.677532 0.419885 0.510361
0.721759 0.398226 0.486977
0.742733 0.380691 0.470482
0.107180 0.421265 0.531442
0.208155 0.449819 0.547382
0.333232 0.474540 0.558459
0.464502 0.490835 0.561814
0.586038 0.495303 0.555591
0.676017 0.484119 0.538360
0.729423 0.465082 0.518147
0.757581 0.447587 0.502624
0.138365 0.495247 0.558732
0.224918 0.515351 0.569966
0.337780 0.535007 0.578674
0.461263 0.550087 0.582444
0.581029 0.557252 0.579507
0.676865 0.552051 0.567805
0.739667 0.538632 0.552442
0.776214 0.524476 0.539897
0.181427 0.570640 0.585534
0.251570 0.582210 0.592418
0.349550 0.595882 0.598752
0.462375 0.608575 0.602696
0.577739 0.617561 0.602738
0.677718 0.618670 0.596659
0.749523 0.612710 0.587030
0.795102 0.604495 0.578816
0.234442 0.638843 0.608189
0.287082 0.643146 0.611471
0.367773 0.651015 0.615921
0.466841 0.660751 0.620261
0.574569 0.670615 0.623255
0.676006 0.677438 0.622635
0.755351 0.679444 0.618767
0.809888 0.678581 0.615170
0.285096 0.690566 0.623642
0.322639 0.690541 0.624537
0.386931 0.694448 0.627953
0.471808 0.701986 0.633251
0.570365 0.712487 0.639509
0.670898 0.724032 0.644235
0.755678 0.733091 0.645451
0.818276 0.739090 0.645383
0.322927 0.723355 0.631619
0.349869 0.721973 0.631269
0.401314 0.724242 0.634349
0.474244 0.730965 0.641028
0.564342 0.742378 0.650798
0.662944 0.757716 0.660774
0.751489 0.772483 0.666166
0.820915 0.784094 0.667829
0.082496 0.357051 0.561259
0.209138 0.409343 0.589943
0.351531 0.448248 0.608976
0.491194 0.471940 0.616750
0.612180 0.479625 0.612687
0.692745 0.470319 0.597165
0.734112 0.454858 0.580244
0.752670 0.442224 0.568803
0.089920 0.415090 0.580232
0.203173 0.457224 0.602579
0.336806 0.492312 0.619542
0.472956 0.516327 0.628408
0.595875 0.526423 0.627430
0.683739 0.519176 0.615158
0.733417 0.503342 0.599422
0.757974 0.488668 0.587521
0.110500 0.483007 0.602147
0.210099 0.514675 0.619010
0.333253 0.544078 0.633530
0.463481 0.566620 0.642840
0.585949 0.578707 0.644815
0.679825 0.575692 0.637066
0.738178 0.563321 0.624945
0.770055 0.550337 0.615073
0.144251 0.555214 0.624909
0.229089 0.576688 0.636988
0.339636 0.599341 0.648939
0.461328 0.619074 0.658256
0.580761 0.632436 0.662912
0.678896 0.634572 0.660219
0.745556 0.628052 0.653166
0.785450 0.619552 0.647084
0.190330 0.626468 0.646600
0.258859 0.638589 0.654505
0.354500 0.654188 0.663983
0.465000 0.670247 0.673080
0.578752 0.684007 0.680066
0.679061 0.691197 0.682361
0.753037 0.691614 0.680953
0.801082 0.689403 0.679668
0.246717 0.688858 0.664353
0.297881 0.693616 0.668931
0.376465 0.702926 0.676380
0.473053 0.715127 0.685302
0.578280 0.728463 0.694307
0.678175 0.739772 0.701035
0.757631 0.746794 0.704847
0.813244 0.751188 0.708210
0.300623 0.735304 0.676261
0.336678 0.735736 0.678590
0.398991 0.740776 0.684692
0.481398 0.750099 0.693748
0.577102 0.762989 0.704707
0.674945 0.777460 0.715270
0.758092 0.789814 0.723219
0.820174 0.799638 0.729936
0.340789 0.764397 0.682395
0.366266 0.763280 0.683439
0.415902 0.766354 0.688781
0.486603 0.774350 0.698258
0.574034 0.787400 0.711195
0.669630 0.804498 0.725185
0.755398 0.821000 0.736206
0.822633 0.834778 0.744603
0.082646 0.415540 0.623435
0.210984 0.475697 0.653604
0.352109 0.522413 0.676029
0.491183 0.555058 0.690244
0.614891 0.573371 0.696093
0.702754 0.575013 0.692598
0.751371 0.566704 0.684879
0.773748 0.556112 0.677969
0.093603 0.476662 0.640800
0.206239 0.522069 0.662967
0.337848 0.561933 0.682155
0.472963 0.592878 0.696335
0.597640 0.612265 0.703954
0.691471 0.615789 0.702698
0.748073 0.608412 0.696257
0.777127 0.597877 0.689754
0.118064 0.543952 0.658936
0.215258 0.576305 0.675144
0.335331 0.608317 0.691405
0.463589 0.635855 0.705219
0.586593 0.655479 0.714515
0.684912 0.662169 0.716408
0.749233 0.658584 0.713059
0.785429 0.651273 0.708981
0.155340 0.612639 0.676807
0.236549 0.633586 0.688432
0.343115 0.657454 0.702041
0.461937 0.680554 0.715285
0.580754 0.699630 0.726104
0.681746 0.709840 0.731541
0.752936 0.711530 0.732312
0.796297 0.709403 0.731956
0.204075 0.678312 0.693435
0.268384 0.689555 0.701345
0.359675 0.705648 0.712569
0.466835 0.723902 0.725164
0.579134 0.741745 0.737310
0.680767 0.755088 0.746251
0.757498 0.762332 0.751462
0.807632 0.766172 0.755406
0.261924 0.734085 0.707060
0.309304 0.738224 0.712091
0.384097 0.747938 0.721365
0.477619 0.761715 0.733398
0.581050 0.777867 0.746664
0.680904 0.793336 0.758645
0.761141 0.805089 0.767749
0.816967 0.813969 0.775479
0.316515 0.774633 0.716300
0.350081 0.774944 0.719435
0.409789 0.780575 0.727382
0.489859 0.791145 0.739129
0.583769 0.805858 0.753439
0.680497 0.822630 0.767872
0.762605 0.837406 0.779784
0.822920 0.849537 0.789988
0.356843 0.799484 0.720937
0.381226 0.798575 0.723053
0.429508 0.802378 0.730253
0.498739 0.811381 0.742027
0.584649 0.825481 0.757427
0.678436 0.843301 0.773893
0.761721 0.860094 0.787650
0.825674 0.874130 0.799048
