Assets/1__3DArt/KimSe/artstation_asset/LUTs_pasterls/CUBE/Pastelopolis 04 S.cube
# Enhanced with VOXCOLOR algorithms
LUT_3D_SIZE 32
0.101961 0.137255 0.070588
0.135214 0.140450 0.072965
0.168467 0.143646 0.075342
0.201719 0.146841 0.077718
0.234972 0.150037 0.080095
0.268225 0.153232 0.082472
0.301606 0.156518 0.084119
0.335012 0.159822 0.085621
0.368419 0.163125 0.087122
0.401825 0.166429 0.088624
0.435232 0.169733 0.090125
0.461926 0.172654 0.091245
0.485264 0.175384 0.092174
0.508602 0.178114 0.093103
0.531941 0.180844 0.094032
0.555279 0.183574 0.094961
0.573049 0.185818 0.095720
0.585252 0.187576 0.096309
0.597454 0.189334 0.096898
0.609657 0.191092 0.097487
0.621859 0.192850 0.098076
0.631513 0.194308 0.098612
0.636069 0.195167 0.099040
0.640625 0.196025 0.099468
0.645180 0.196883 0.099897
0.649736 0.197742 0.100325
0.653704 0.198507 0.100723
0.654728 0.198805 0.100971
0.655752 0.199104 0.101218
0.656776 0.199403 0.101466
0.657800 0.199701 0.101713
0.658824 0.200000 0.101961
0.105219 0.151526 0.081163
0.137054 0.154436 0.083026
0.168888 0.157347 0.084888
0.200723 0.160258 0.086751
0.232558 0.163168 0.088613
0.264393 0.166079 0.090476
0.297108 0.169040 0.091315
0.329999 0.172012 0.091951
0.362891 0.174983 0.092586
0.395782 0.177955 0.093221
0.428673 0.180926 0.093856
0.455456 0.183491 0.094184
0.479183 0.185852 0.094358
0.502911 0.188214 0.094532
0.526639 0.190575 0.094706
0.550367 0.192936 0.094880
0.568777 0.194839 0.095107
0.581868 0.196283 0.095388
0.594958 0.197727 0.095668
0.608049 0.199172 0.095949
0.621140 0.200616 0.096229
0.631615 0.201784 0.096636
0.636858 0.202402 0.097296
0.642102 0.203019 0.097955
0.647345 0.203636 0.098615
0.652588 0.204253 0.099274
0.657082 0.204774 0.099963
0.657827 0.204808 0.100795
0.658573 0.204843 0.101628
0.659318 0.204877 0.102460
0.660064 0.204912 0.103293
0.660809 0.204946 0.104125
0.108477 0.165797 0.091739
0.138894 0.168422 0.093087
0.169310 0.171048 0.094435
0.199727 0.173674 0.095783
0.230144 0.176299 0.097131
0.260560 0.178925 0.098479
0.292610 0.181562 0.098511
0.324986 0.184202 0.098280
0.357362 0.186841 0.098049
0.389739 0.189481 0.097818
0.422115 0.192120 0.097586
0.448985 0.194328 0.097122
0.473103 0.196321 0.096541
0.497220 0.198314 0.095961
0.521338 0.200306 0.095380
0.545456 0.202299 0.094799
0.564504 0.203860 0.094495
0.578483 0.204991 0.094466
0.592463 0.206121 0.094438
0.606442 0.207251 0.094410
0.620421 0.208381 0.094382
0.631718 0.209260 0.094660
0.637648 0.209637 0.095551
0.643579 0.210013 0.096442
0.649510 0.210389 0.097333
0.655440 0.210765 0.098224
0.660460 0.211040 0.099203
0.660927 0.210811 0.100620
0.661394 0.210581 0.102038
0.661861 0.210352 0.103455
0.662328 0.210122 0.104872
0.662795 0.209892 0.106290
0.111735 0.180068 0.102314
0.140734 0.182408 0.103148
0.169732 0.184749 0.103982
0.198731 0.187090 0.104816
0.227730 0.189431 0.105649
0.256728 0.191771 0.106483
0.288112 0.194084 0.105707
0.319973 0.196392 0.104610
0.351834 0.198699 0.103512
0.383695 0.201006 0.102415
0.415556 0.203314 0.101317
0.442515 0.205166 0.100061
0.467022 0.206789 0.098725
0.491530 0.208413 0.097390
0.516037 0.210037 0.096054
0.540544 0.211661 0.094718
0.560232 0.212881 0.093882
0.575099 0.213698 0.093545
0.589967 0.214514 0.093208
0.604835 0.215331 0.092872
0.619702 0.216147 0.092535
0.631820 0.216737 0.092684
0.638438 0.216872 0.093806
0.645056 0.217007 0.094929
0.651674 0.217142 0.096051
0.658292 0.217277 0.097173
0.663838 0.217307 0.098442
0.664027 0.216813 0.100445
0.664215 0.216320 0.102447
0.664403 0.215826 0.104450
0.664592 0.215332 0.106452
0.664780 0.214838 0.108454
0.114993 0.194339 0.112890
0.142574 0.196394 0.113209
0.170154 0.198450 0.113529
0.197735 0.200506 0.113848
0.225315 0.202562 0.114168
0.252896 0.204617 0.114487
0.283614 0.206606 0.112904
0.314960 0.208582 0.110940
0.346306 0.210557 0.108975
0.377652 0.212532 0.107011
0.408998 0.214507 0.105047
0.436045 0.216003 0.102999
0.460942 0.217258 0.100909
0.485839 0.218513 0.098818
0.510736 0.219768 0.096728
0.535632 0.221024 0.094638
0.555959 0.221903 0.093270
0.571715 0.222405 0.092624
0.587471 0.222908 0.091979
0.603227 0.223410 0.091333
0.618984 0.223913 0.090687
0.631923 0.224213 0.090708
0.639228 0.224107 0.092062
0.646533 0.224001 0.093416
0.653839 0.223895 0.094769
0.661144 0.223789 0.096123
0.667217 0.223574 0.097682
0.667126 0.222816 0.100269
0.667036 0.222058 0.102857
0.666946 0.221300 0.105444
0.666856 0.220542 0.108031
0.666766 0.219785 0.110619
0.118251 0.208610 0.123465
0.144414 0.210380 0.123270
0.170576 0.212151 0.123076
0.196739 0.213922 0.122881
0.222901 0.215693 0.122686
0.249064 0.217464 0.122491
0.279116 0.219128 0.120100
0.309947 0.220771 0.117269
0.340778 0.222415 0.114439
0.371609 0.224058 0.111608
0.402440 0.225701 0.108778
0.429574 0.226840 0.105938
0.454861 0.227726 0.103092
0.480148 0.228613 0.100247
0.505434 0.229500 0.097402
0.530721 0.230386 0.094557
0.551686 0.230924 0.092657
0.568331 0.231112 0.091703
0.584976 0.231301 0.090749
0.601620 0.231490 0.089795
0.618265 0.231679 0.088840
0.632025 0.231689 0.088732
0.640018 0.231342 0.090317
0.648011 0.230995 0.091902
0.656003 0.230648 0.093487
0.663996 0.230300 0.095072
0.670595 0.229841 0.096922
0.670226 0.228819 0.100094
0.669857 0.227797 0.103266
0.669489 0.226775 0.106439
0.669120 0.225753 0.109611
0.668751 0.224731 0.112783
0.123789 0.227543 0.139160
0.148584 0.229123 0.138450
0.173380 0.230704 0.137741
0.198175 0.232284 0.137031
0.222971 0.233865 0.136321
0.247766 0.235445 0.135611
0.277066 0.237025 0.132487
0.307267 0.238605 0.128881
0.337468 0.240185 0.125274
0.367668 0.241765 0.121667
0.397869 0.243345 0.118061
0.424972 0.244396 0.114486
0.450525 0.245182 0.110926
0.476079 0.245969 0.107367
0.501632 0.246755 0.103808
0.527186 0.247541 0.100249
0.548675 0.247910 0.097802
0.566099 0.247860 0.096468
0.583523 0.247810 0.095133
0.600947 0.247760 0.093799
0.618371 0.247710 0.092465
0.632882 0.247420 0.092118
0.641566 0.246651 0.093747
0.650250 0.245882 0.095376
0.658933 0.245112 0.097005
0.667617 0.244343 0.098634
0.674797 0.243439 0.100573
0.674457 0.241858 0.104061
0.674117 0.240277 0.107548
0.673777 0.238697 0.111035
0.673437 0.237116 0.114523
0.673097 0.235535 0.118010
0.129783 0.247408 0.155879
0.153222 0.248817 0.154654
0.176660 0.250227 0.153429
0.200099 0.251636 0.152204
0.223537 0.253045 0.150979
0.246976 0.254454 0.149754
0.275505 0.255998 0.145913
0.305053 0.257568 0.141548
0.334600 0.259138 0.137184
0.364148 0.260709 0.132819
0.393696 0.262279 0.128454
0.420742 0.263296 0.124156
0.446538 0.264036 0.119891
0.472334 0.264776 0.115625
0.498130 0.265515 0.111360
0.523926 0.266255 0.107095
0.545915 0.266488 0.104098
0.564097 0.266215 0.102369
0.582279 0.265941 0.100641
0.600461 0.265667 0.098912
0.618643 0.265394 0.097183
0.633890 0.264802 0.096576
0.643265 0.263575 0.098212
0.652641 0.262347 0.099848
0.662017 0.261120 0.101483
0.671392 0.259892 0.103119
0.679164 0.258503 0.105107
0.678914 0.256305 0.108855
0.678664 0.254106 0.112604
0.678415 0.251908 0.116352
0.678165 0.249710 0.120101
0.677915 0.247512 0.123849
0.135777 0.267274 0.172598
0.157859 0.268512 0.170858
0.179940 0.269749 0.169118
0.202022 0.270987 0.167378
0.224104 0.272225 0.165638
0.246186 0.273463 0.163898
0.273945 0.274970 0.159339
0.302839 0.276531 0.154216
0.331733 0.278092 0.149093
0.360628 0.279653 0.143971
0.389522 0.281213 0.138848
0.416513 0.282196 0.133826
0.442551 0.282889 0.128855
0.468590 0.283582 0.123883
0.494628 0.284276 0.118912
0.520667 0.284969 0.113941
0.543156 0.285067 0.110394
0.562096 0.284570 0.108271
0.581035 0.284072 0.106148
0.599975 0.283575 0.104025
0.618915 0.283078 0.101902
0.634897 0.282184 0.101034
0.644965 0.280498 0.102677
0.655032 0.278813 0.104319
0.665100 0.277127 0.105962
0.675168 0.275441 0.107604
0.683531 0.273567 0.109641
0.683371 0.270751 0.113650
0.683212 0.267935 0.117660
0.683052 0.265120 0.121669
0.682893 0.262304 0.125679
0.682734 0.259488 0.129688
0.141771 0.287140 0.189316
0.162496 0.288206 0.187061
0.183221 0.289272 0.184806
0.203946 0.290339 0.182551
0.224670 0.291405 0.180296
0.245395 0.292471 0.178041
0.272384 0.293942 0.172765
0.300625 0.295493 0.166884
0.328866 0.297045 0.161003
0.357108 0.298596 0.155122
0.385349 0.300148 0.149241
0.412283 0.301096 0.143496
0.438564 0.301743 0.137819
0.464845 0.302389 0.132142
0.491126 0.303036 0.126464
0.517407 0.303683 0.120787
0.540396 0.303646 0.116690
0.560094 0.302925 0.114173
0.579791 0.302204 0.111655
0.599489 0.301483 0.109138
0.619186 0.300762 0.106621
0.635905 0.299566 0.105493
0.646664 0.297422 0.107142
0.657424 0.295278 0.108791
0.668183 0.293134 0.110440
0.678943 0.290990 0.112089
0.687898 0.288631 0.114175
0.687829 0.285198 0.118445
0.687759 0.281764 0.122716
0.687690 0.278331 0.126986
0.687621 0.274898 0.131257
0.687552 0.271464 0.135527
0.147765 0.307005 0.206035
0.167133 0.307900 0.203265
0.186501 0.308795 0.200495
0.205869 0.309690 0.197725
0.225237 0.310585 0.194955
0.244605 0.311480 0.192185
0.270823 0.312914 0.186191
0.298411 0.314456 0.179552
0.325999 0.315998 0.172913
0.353587 0.317540 0.166274
0.381176 0.319082 0.159635
0.408054 0.319996 0.153166
0.434577 0.320596 0.146783
0.461101 0.321196 0.140400
0.487624 0.321796 0.134016
0.514147 0.322397 0.127633
0.537637 0.322224 0.122986
0.558092 0.321280 0.120074
0.578547 0.320335 0.117163
0.599003 0.319390 0.114251
0.619458 0.318446 0.111340
0.636912 0.316949 0.109951
0.648364 0.314346 0.111606
0.659815 0.311744 0.113262
0.671267 0.309141 0.114918
0.682718 0.306539 0.116573
0.692265 0.303695 0.118708
0.692286 0.299644 0.123240
0.692307 0.295593 0.127772
0.692328 0.291543 0.132303
0.692349 0.287492 0.136835
0.692370 0.283441 0.141367
0.155789 0.328084 0.225618
0.173871 0.328792 0.222454
0.191954 0.329501 0.219291
0.210036 0.330209 0.216127
0.228118 0.330917 0.212964
0.246201 0.331626 0.209800
0.271587 0.333064 0.203373
0.298434 0.334649 0.196293
0.325280 0.336233 0.189212
0.352127 0.337818 0.182132
0.378974 0.339403 0.175052
0.405650 0.340378 0.168122
0.432241 0.341050 0.161267
0.458831 0.341721 0.154412
0.485422 0.342393 0.147556
0.512013 0.343064 0.140701
0.535824 0.342885 0.135616
0.556856 0.341855 0.132301
0.577888 0.340825 0.128986
0.598921 0.339795 0.125672
0.619953 0.338765 0.122357
0.638003 0.337104 0.120609
0.650090 0.334182 0.121996
0.662176 0.331260 0.123384
0.674263 0.328337 0.124771
0.686350 0.325415 0.126158
0.696487 0.322228 0.128040
0.696875 0.317718 0.132393
0.697264 0.313208 0.136746
0.697653 0.308698 0.141099
0.698041 0.304188 0.145453
0.698430 0.299678 0.149806
0.164827 0.349769 0.246633
0.181660 0.350283 0.243136
0.198492 0.350797 0.239640
0.215325 0.351311 0.236144
0.232157 0.351826 0.232648
0.248990 0.352340 0.229151
0.273513 0.353803 0.222433
0.299574 0.355457 0.215070
0.325636 0.357110 0.207707
0.351697 0.358763 0.200344
0.377758 0.360417 0.192981
0.404159 0.361502 0.185720
0.430729 0.362304 0.178510
0.457300 0.363105 0.171300
0.483870 0.363907 0.164090
0.510441 0.364708 0.156880
0.534485 0.364586 0.151414
0.556004 0.363540 0.147691
0.577522 0.362494 0.143968
0.599040 0.361448 0.140245
0.620559 0.360402 0.136523
0.639135 0.358647 0.134368
0.651829 0.355474 0.135349
0.664522 0.352301 0.136330
0.677216 0.349128 0.137311
0.689909 0.345954 0.138293
0.700636 0.342495 0.139770
0.701531 0.337605 0.143725
0.702426 0.332716 0.147680
0.703321 0.327826 0.151635
0.704216 0.322936 0.155590
0.705111 0.318046 0.159546
0.173866 0.371454 0.267647
0.189448 0.371774 0.263818
0.205031 0.372094 0.259989
0.220614 0.372414 0.256160
0.236196 0.372734 0.252332
0.251779 0.373054 0.248503
0.275439 0.374543 0.241493
0.300715 0.376265 0.233848
0.325991 0.377987 0.226202
0.351266 0.379709 0.218556
0.376542 0.381431 0.210911
0.402668 0.382626 0.203319
0.429218 0.383558 0.195754
0.455768 0.384489 0.188189
0.482318 0.385421 0.180624
0.508869 0.386353 0.173059
0.533146 0.386288 0.167211
0.555151 0.385225 0.163080
0.577155 0.384163 0.158950
0.599160 0.383101 0.154819
0.621165 0.382039 0.150689
0.640268 0.380190 0.148127
0.653568 0.376766 0.148702
0.666868 0.373342 0.149277
0.680168 0.369918 0.149852
0.693468 0.366494 0.150427
0.704785 0.362762 0.151499
0.706187 0.357493 0.155057
0.707588 0.352223 0.158614
0.708989 0.346953 0.162171
0.710391 0.341684 0.165728
0.711792 0.336414 0.169285
0.182904 0.393139 0.288662
0.197237 0.393264 0.284500
0.211570 0.393390 0.280339
0.225903 0.393516 0.276177
0.240235 0.393642 0.272016
0.254568 0.393768 0.267854
0.277365 0.395282 0.260553
0.301856 0.397073 0.252625
0.326346 0.398863 0.244697
0.350836 0.400654 0.236768
0.375326 0.402445 0.228840
0.401176 0.403750 0.220917
0.427706 0.404812 0.212998
0.454236 0.405874 0.205078
0.480766 0.406935 0.197158
0.507296 0.407997 0.189238
0.531807 0.407989 0.183009
0.554298 0.406911 0.178470
0.576789 0.405833 0.173932
0.599280 0.404754 0.169393
0.621771 0.403676 0.164855
0.641400 0.401733 0.161885
0.655307 0.398058 0.162054
0.669214 0.394383 0.162224
0.683121 0.390708 0.162393
0.697028 0.387034 0.162562
0.708935 0.383030 0.163229
0.710842 0.377380 0.166388
0.712750 0.371731 0.169547
0.714658 0.366081 0.172706
0.716566 0.360432 0.175866
0.718473 0.354782 0.179025
0.191943 0.414824 0.309677
0.205026 0.414755 0.305182
0.218108 0.414687 0.300688
0.231191 0.414619 0.296194
0.244274 0.414551 0.291699
0.257357 0.414482 0.287205
0.279292 0.416021 0.279614
0.302996 0.417881 0.271403
0.326701 0.419740 0.263192
0.350406 0.421600 0.254980
0.374110 0.423460 0.246769
0.399685 0.424874 0.238516
0.426195 0.426066 0.230241
0.452705 0.427258 0.221966
0.479214 0.428450 0.213691
0.505724 0.429641 0.205417
0.530468 0.429690 0.198806
0.553445 0.428596 0.193860
0.576422 0.427502 0.188913
0.599399 0.426408 0.183967
0.622377 0.425313 0.179021
0.642533 0.423275 0.175644
0.657046 0.419350 0.175407
0.671560 0.415424 0.175170
0.686073 0.411499 0.174933
0.700587 0.407573 0.174696
0.713084 0.403297 0.174959
0.715498 0.397267 0.177720
0.717912 0.391238 0.180481
0.720326 0.385209 0.183242
0.722740 0.379179 0.186003
0.725154 0.373150 0.188764
0.202215 0.435705 0.330825
0.214161 0.435453 0.326167
0.226106 0.435201 0.321509
0.238052 0.434949 0.316850
0.249997 0.434697 0.312192
0.261943 0.434446 0.307534
0.282995 0.435987 0.299926
0.305869 0.437886 0.291729
0.328743 0.439786 0.283531
0.351616 0.441686 0.275334
0.374490 0.443586 0.267136
0.399663 0.445112 0.258815
0.425986 0.446451 0.250433
0.452309 0.447790 0.242050
0.478632 0.449129 0.233667
0.504955 0.450468 0.225284
0.529761 0.450635 0.218440
0.553052 0.449630 0.213135
0.576342 0.448625 0.207830
0.599633 0.447620 0.202525
0.622923 0.446615 0.197220
0.643471 0.444617 0.193408
0.658535 0.440632 0.192583
0.673599 0.436646 0.191759
0.688663 0.432661 0.190934
0.703727 0.428676 0.190109
0.716791 0.424322 0.189768
0.719860 0.418130 0.191842
0.722928 0.411937 0.193916
0.725997 0.405744 0.195991
0.729065 0.399551 0.198065
0.732134 0.393358 0.200140
0.213722 0.455783 0.352107
0.224643 0.455358 0.347454
0.235563 0.454933 0.342801
0.246484 0.454508 0.338147
0.257404 0.454083 0.333494
0.268324 0.453658 0.328841
0.288476 0.455179 0.321492
0.310473 0.457091 0.313604
0.332471 0.459002 0.305716
0.354468 0.460913 0.297829
0.376465 0.462824 0.289941
0.401111 0.464463 0.281816
0.427080 0.465967 0.273572
0.453049 0.467470 0.265328
0.479018 0.468973 0.257084
0.504988 0.470477 0.248840
0.529688 0.470823 0.241911
0.553118 0.470013 0.236296
0.576549 0.469203 0.230682
0.599980 0.468393 0.225067
0.623410 0.467583 0.219452
0.644217 0.465758 0.215178
0.659774 0.461904 0.213584
0.675332 0.458050 0.211989
0.690889 0.454196 0.210395
0.706447 0.450341 0.208801
0.720057 0.446106 0.207655
0.723927 0.439966 0.208754
0.727798 0.433827 0.209853
0.731669 0.427687 0.210953
0.735540 0.421547 0.212052
0.739411 0.415407 0.213151
0.225229 0.475861 0.373389
0.235125 0.475263 0.368741
0.245020 0.474665 0.364093
0.254915 0.474066 0.359444
0.264811 0.473468 0.354796
0.274706 0.472870 0.350147
0.293956 0.474372 0.343057
0.315077 0.476295 0.335479
0.336199 0.478217 0.327901
0.357320 0.480140 0.320323
0.378441 0.482062 0.312746
0.402558 0.483815 0.304816
0.428174 0.485482 0.296711
0.453789 0.487150 0.288606
0.479405 0.488818 0.280502
0.505021 0.490485 0.272397
0.529614 0.491012 0.265382
0.553185 0.490396 0.259458
0.576756 0.489781 0.253534
0.600326 0.489165 0.247609
0.623897 0.488550 0.241685
0.644962 0.486898 0.236948
0.661013 0.483176 0.234584
0.677064 0.479453 0.232220
0.693116 0.475730 0.229856
0.709167 0.472007 0.227492
0.723322 0.467890 0.225542
0.727995 0.461803 0.225666
0.732668 0.455716 0.225790
0.737341 0.449629 0.225914
0.742014 0.443542 0.226038
0.746688 0.437455 0.226162
0.236736 0.495939 0.394672
0.245606 0.495168 0.390028
0.254477 0.494396 0.385384
0.263347 0.493625 0.380741
0.272218 0.492853 0.376097
0.281088 0.492082 0.371454
0.299437 0.493565 0.364623
0.319682 0.495499 0.357355
0.339927 0.497433 0.350086
0.360171 0.499366 0.342818
0.380416 0.501300 0.335550
0.404006 0.503166 0.327817
0.429268 0.504998 0.319851
0.454530 0.506830 0.311885
0.479792 0.508662 0.303919
0.505054 0.510494 0.295953
0.529540 0.511200 0.288853
0.553251 0.510779 0.282619
0.576962 0.510358 0.276385
0.600673 0.509938 0.270151
0.624384 0.509517 0.263918
0.645707 0.508039 0.258717
0.662252 0.504448 0.255584
0.678797 0.500856 0.252450
0.695342 0.497265 0.249317
0.711887 0.493673 0.246183
0.726587 0.489674 0.243430
0.732063 0.483640 0.242579
0.737538 0.477606 0.241727
0.743014 0.471572 0.240876
0.748489 0.465538 0.240025
0.753965 0.459504 0.239174
0.248243 0.516018 0.415954
0.256088 0.515073 0.411315
0.263934 0.514128 0.406676
0.271779 0.513183 0.402038
0.279624 0.512238 0.397399
0.287470 0.511294 0.392760
0.304918 0.512757 0.386188
0.324286 0.514703 0.379230
0.343655 0.516648 0.372272
0.363023 0.518593 0.365313
0.382392 0.520539 0.358355
0.405453 0.522518 0.350817
0.430362 0.524514 0.342990
0.455270 0.526510 0.335163
0.480178 0.528507 0.327336
0.505087 0.530503 0.319509
0.529466 0.531388 0.312324
0.553318 0.531162 0.305780
0.577169 0.530936 0.299237
0.601020 0.530710 0.292694
0.624871 0.530484 0.286150
0.646452 0.529180 0.280487
0.663491 0.525720 0.276584
0.680529 0.522259 0.272681
0.697568 0.518799 0.268777
0.714607 0.515339 0.264874
0.729853 0.511458 0.261317
0.736130 0.505477 0.259491
0.742408 0.499496 0.257664
0.748686 0.493515 0.255838
0.754964 0.487533 0.254011
0.761242 0.481552 0.252185
0.260195 0.534723 0.436101
0.267127 0.533648 0.431568
0.274058 0.532573 0.427034
0.280989 0.531498 0.422500
0.287921 0.530423 0.417967
0.294852 0.529347 0.413433
0.311406 0.530780 0.407231
0.329884 0.532714 0.400695
0.348362 0.534648 0.394159
0.366841 0.536582 0.387623
0.385319 0.538516 0.381088
0.407774 0.540588 0.373867
0.432217 0.542730 0.366303
0.456660 0.544872 0.358739
0.481104 0.547014 0.351175
0.505547 0.549156 0.343612
0.529704 0.550230 0.336446
0.553574 0.550237 0.329678
0.577444 0.550244 0.322909
0.601314 0.550251 0.316141
0.625184 0.550258 0.309373
0.646925 0.549189 0.303307
0.664407 0.545966 0.298646
0.681890 0.542743 0.293984
0.699372 0.539520 0.289323
0.716855 0.536297 0.284662
0.732610 0.532644 0.280305
0.739728 0.526843 0.277470
0.746847 0.521041 0.274636
0.753965 0.515239 0.271801
0.761084 0.509438 0.268967
0.768202 0.503636 0.266133
0.273039 0.550682 0.453980
0.279278 0.549563 0.449751
0.285517 0.548443 0.445523
0.291756 0.547324 0.441294
0.297996 0.546204 0.437066
0.304235 0.545085 0.432837
0.319908 0.546462 0.427227
0.337469 0.548339 0.421339
0.355029 0.550216 0.415452
0.372590 0.552093 0.409565
0.390151 0.553970 0.403677
0.411841 0.556096 0.397014
0.435596 0.558346 0.389962
0.459351 0.560596 0.382910
0.483106 0.562846 0.375858
0.506861 0.565096 0.368807
0.530562 0.566380 0.361869
0.554209 0.566697 0.355046
0.577855 0.567014 0.348223
0.601502 0.567330 0.341400
0.625149 0.567647 0.334577
0.646855 0.566934 0.328229
0.664680 0.564161 0.322832
0.682506 0.561387 0.317435
0.700331 0.558613 0.312038
0.718157 0.555840 0.306641
0.734350 0.552634 0.301492
0.742386 0.547265 0.297585
0.750422 0.541897 0.293677
0.758458 0.536528 0.289769
0.766494 0.531160 0.285861
0.774530 0.525791 0.281953
0.285882 0.566642 0.471858
0.291429 0.565478 0.467935
0.296976 0.564314 0.464012
0.302523 0.563150 0.460088
0.308071 0.561986 0.456165
0.313618 0.560822 0.452242
0.328411 0.562145 0.447222
0.345054 0.563965 0.441984
0.361697 0.565785 0.436745
0.378339 0.567605 0.431506
0.394982 0.569425 0.426267
0.415908 0.571604 0.420161
0.438975 0.573962 0.413621
0.462042 0.576320 0.407081
0.485109 0.578679 0.400542
0.508176 0.581037 0.394002
0.531421 0.582529 0.387293
0.554844 0.583156 0.380415
0.578267 0.583783 0.373537
0.601690 0.584410 0.366659
0.625113 0.585036 0.359781
0.646785 0.584679 0.353151
0.664953 0.582355 0.347019
0.683122 0.580031 0.340886
0.701290 0.577707 0.334754
0.719459 0.575383 0.328621
0.736091 0.572624 0.322680
0.745044 0.567688 0.317699
0.753998 0.562753 0.312718
0.762951 0.557817 0.307737
0.771904 0.552882 0.302755
0.780857 0.547947 0.297774
0.298726 0.582602 0.489736
0.303581 0.581393 0.486118
0.308436 0.580185 0.482500
0.313291 0.578976 0.478882
0.318145 0.577768 0.475265
0.323000 0.576559 0.471647
0.336914 0.577827 0.467218
0.352639 0.579590 0.462628
0.368364 0.581354 0.458038
0.384089 0.583117 0.453447
0.399814 0.584880 0.448857
0.419974 0.587112 0.443308
0.442353 0.589578 0.437280
0.464732 0.592045 0.431253
0.487111 0.594511 0.425225
0.509490 0.596977 0.419197
0.532280 0.598679 0.412716
0.555479 0.599615 0.405783
0.578679 0.600552 0.398851
0.601878 0.601489 0.391918
0.625078 0.602425 0.384985
0.646715 0.602425 0.378074
0.665226 0.600550 0.371205
0.683738 0.598675 0.364337
0.702249 0.596801 0.357469
0.720761 0.594926 0.350600
0.737832 0.592613 0.343868
0.747703 0.588111 0.337813
0.757573 0.583609 0.331759
0.767444 0.579106 0.325704
0.777314 0.574604 0.319650
0.787185 0.570102 0.313595
0.311569 0.598561 0.507614
0.315732 0.597308 0.504302
0.319895 0.596055 0.500989
0.324058 0.594802 0.497677
0.328220 0.593550 0.494364
0.332383 0.592297 0.491051
0.345416 0.593510 0.487214
0.360224 0.595216 0.483272
0.375031 0.596922 0.479331
0.389838 0.598629 0.475389
0.404645 0.600335 0.471447
0.424041 0.602620 0.466456
0.445732 0.605195 0.460940
0.467423 0.607769 0.455424
0.489114 0.610343 0.449908
0.510805 0.612918 0.444392
0.533138 0.614828 0.438140
0.556114 0.616075 0.431152
0.579090 0.617321 0.424164
0.602066 0.618568 0.417177
0.625042 0.619814 0.410189
0.646645 0.620170 0.402996
0.665499 0.618745 0.395392
0.684354 0.617319 0.387788
0.703208 0.615894 0.380184
0.722063 0.614469 0.372580
0.739573 0.612603 0.365056
0.750361 0.608534 0.357928
0.761148 0.604465 0.350800
0.771936 0.600396 0.343672
0.782724 0.596326 0.336544
0.793512 0.592257 0.329416
0.324400 0.613502 0.524760
0.327931 0.612242 0.521762
0.331463 0.610981 0.518765
0.334994 0.609720 0.515768
0.338525 0.608459 0.512770
0.342057 0.607198 0.509773
0.354217 0.608364 0.506504
0.368103 0.610015 0.503182
0.381989 0.611666 0.499859
0.395875 0.613317 0.496536
0.409761 0.614967 0.493214
0.428367 0.617301 0.488776
0.449333 0.619975 0.483780
0.470299 0.622649 0.478785
0.491265 0.625323 0.473790
0.512230 0.627998 0.468794
0.534067 0.630113 0.462812
0.556773 0.631669 0.455843
0.579480 0.633226 0.448874
0.602186 0.634782 0.441906
0.624893 0.636339 0.434937
0.646416 0.637057 0.427550
0.665572 0.636099 0.419327
0.684729 0.635142 0.411103
0.703885 0.634184 0.402880
0.723041 0.633227 0.394656
0.740951 0.631831 0.386454
0.752627 0.628248 0.378357
0.764302 0.624665 0.370260
0.775978 0.621082 0.362163
0.787654 0.617499 0.354067
0.799330 0.613916 0.345970
0.337167 0.623351 0.538239
0.340370 0.622265 0.535607
0.343573 0.621180 0.532975
0.346776 0.620094 0.530343
0.349979 0.619008 0.527712
0.353182 0.617923 0.525080
0.364506 0.619077 0.522266
0.377455 0.620680 0.519415
0.390404 0.622282 0.516565
0.403353 0.623885 0.513715
0.416302 0.625487 0.510865
0.433989 0.627843 0.506960
0.454045 0.630576 0.502528
0.474100 0.633308 0.498096
0.494156 0.636041 0.493665
0.514212 0.638773 0.489233
0.535343 0.641073 0.483727
0.557551 0.642940 0.477147
0.579758 0.644806 0.470567
0.601966 0.646673 0.463986
0.624173 0.648540 0.457406
0.645395 0.649652 0.450265
0.664647 0.649253 0.442003
