Assets/1__3DArt/KimSe/artstation_asset/LUTs_pasterls/CUBE/Pastelopolis 01.cube
# Enhanced with VOXCOLOR algorithms
LUT_3D_SIZE 32
0.019608 0.050980 0.101961
0.080364 0.068352 0.101542
0.141121 0.085725 0.101123
0.201877 0.103097 0.100704
0.262634 0.120469 0.100285
0.323390 0.137842 0.099866
0.380459 0.154126 0.097891
0.436791 0.170193 0.095606
0.493122 0.186260 0.093320
0.549454 0.202327 0.091034
0.605786 0.218394 0.088749
0.646770 0.232154 0.087587
0.680082 0.244760 0.086987
0.713393 0.257367 0.086388
0.746704 0.269973 0.085788
0.780015 0.282579 0.085188
0.803364 0.292959 0.085232
0.816750 0.301114 0.085920
0.830136 0.309269 0.086608
0.843522 0.317424 0.087296
0.856908 0.325579 0.087983
0.866967 0.332391 0.088696
0.870371 0.336516 0.089460
0.873775 0.340641 0.090223
0.877179 0.344766 0.090986
0.880583 0.348891 0.091749
0.883512 0.352602 0.092441
0.884065 0.354238 0.092776
0.884617 0.355875 0.093112
0.885170 0.357511 0.093447
0.885722 0.359148 0.093783
0.886275 0.360784 0.094118
0.019996 0.076502 0.109475
0.078807 0.092421 0.108577
0.137618 0.108340 0.107678
0.196429 0.124258 0.106780
0.255240 0.140177 0.105882
0.314051 0.156096 0.104984
0.370667 0.171237 0.102545
0.426844 0.186223 0.099797
0.483021 0.201208 0.097050
0.539198 0.216194 0.094303
0.595376 0.231179 0.091555
0.636817 0.244181 0.089994
0.670889 0.256191 0.089027
0.704962 0.268201 0.088059
0.739035 0.280211 0.087091
0.773108 0.292221 0.086123
0.797248 0.302201 0.085881
0.811456 0.310151 0.086364
0.825664 0.318100 0.086847
0.839872 0.326049 0.087331
0.854080 0.333999 0.087814
0.864836 0.340658 0.088370
0.868690 0.344735 0.089071
0.872543 0.348813 0.089772
0.876396 0.352890 0.090473
0.880250 0.356968 0.091174
0.883576 0.360623 0.091816
0.884269 0.362167 0.092164
0.884961 0.363711 0.092512
0.885654 0.365255 0.092859
0.886346 0.366798 0.093207
0.887038 0.368342 0.093554
0.020384 0.102023 0.116988
0.077250 0.116489 0.115611
0.134115 0.130954 0.114234
0.190981 0.145420 0.112857
0.247846 0.159885 0.111479
0.304712 0.174351 0.110102
0.360875 0.188348 0.107198
0.416898 0.202252 0.103989
0.472920 0.216156 0.100780
0.528943 0.230060 0.097571
0.584965 0.243964 0.094362
0.626863 0.256207 0.092402
0.661697 0.267622 0.091066
0.696532 0.279036 0.089730
0.731366 0.290450 0.088395
0.766201 0.301864 0.087059
0.791133 0.311443 0.086530
0.806163 0.319187 0.086809
0.821192 0.326931 0.087087
0.836222 0.334674 0.087366
0.851252 0.342418 0.087644
0.862706 0.348924 0.088043
0.867008 0.352954 0.088682
0.871311 0.356984 0.089321
0.875614 0.361014 0.089960
0.879916 0.365044 0.090599
0.883640 0.368645 0.091192
0.884473 0.370096 0.091552
0.885305 0.371547 0.091911
0.886137 0.372998 0.092271
0.886969 0.374449 0.092631
0.887802 0.375900 0.092990
0.020772 0.127545 0.124502
0.075692 0.140557 0.122646
0.130612 0.153569 0.120789
0.185533 0.166581 0.118933
0.240453 0.179593 0.117077
0.295373 0.192605 0.115220
0.351083 0.205459 0.111852
0.406951 0.218282 0.108181
0.462819 0.231104 0.104510
0.518687 0.243926 0.100839
0.574555 0.256748 0.097168
0.616909 0.268234 0.094809
0.652505 0.279052 0.093105
0.688101 0.289870 0.091402
0.723697 0.300688 0.089698
0.759294 0.311506 0.087994
0.785017 0.320684 0.087179
0.800869 0.328223 0.087253
0.816721 0.335761 0.087327
0.832572 0.343299 0.087401
0.848424 0.350838 0.087474
0.860575 0.357191 0.087716
0.865327 0.361174 0.088293
0.870079 0.365156 0.088870
0.874831 0.369138 0.089447
0.879583 0.373121 0.090024
0.883705 0.376666 0.090567
0.884677 0.378025 0.090939
0.885649 0.379383 0.091311
0.886621 0.380741 0.091683
0.887593 0.382100 0.092055
0.888565 0.383458 0.092427
0.021160 0.153067 0.132016
0.074135 0.164625 0.129680
0.127110 0.176184 0.127345
0.180084 0.187743 0.125009
0.233059 0.199301 0.122674
0.286034 0.210860 0.120338
0.341291 0.222570 0.116505
0.397004 0.234311 0.112373
0.452718 0.246052 0.108240
0.508432 0.257792 0.104107
0.564145 0.269533 0.099975
0.606955 0.280261 0.097216
0.643313 0.290483 0.095145
0.679671 0.300705 0.093073
0.716028 0.310926 0.091002
0.752386 0.321148 0.088930
0.778902 0.329926 0.087829
0.795575 0.337259 0.087698
0.812249 0.344592 0.087567
0.828922 0.351925 0.087436
0.845596 0.359257 0.087305
0.858445 0.365458 0.087389
0.863646 0.369393 0.087904
0.868847 0.373328 0.088419
0.874048 0.377263 0.088934
0.879249 0.381197 0.089450
0.883769 0.384688 0.089943
0.884881 0.385953 0.090327
0.885993 0.387219 0.090711
0.887105 0.388485 0.091095
0.888216 0.389751 0.091479
0.889328 0.391016 0.091863
0.021548 0.178588 0.139530
0.072578 0.188694 0.136715
0.123607 0.198799 0.133900
0.174636 0.208904 0.131086
0.225665 0.219009 0.128271
0.276695 0.229115 0.125456
0.331499 0.239681 0.121159
0.387058 0.250340 0.116564
0.442617 0.260999 0.111970
0.498176 0.271658 0.107376
0.553735 0.282317 0.102781
0.597001 0.292288 0.099624
0.634120 0.301913 0.097184
0.671240 0.311539 0.094745
0.708359 0.321165 0.092305
0.745479 0.330791 0.089865
0.772786 0.339167 0.088478
0.790282 0.346295 0.088142
0.807777 0.353422 0.087806
0.825272 0.360550 0.087471
0.842768 0.367677 0.087135
0.856314 0.373724 0.087062
0.861965 0.377612 0.087515
0.867615 0.381499 0.087968
0.873265 0.385387 0.088422
0.878916 0.389274 0.088875
0.883833 0.392709 0.089318
0.885085 0.393882 0.089715
0.886336 0.395055 0.090111
0.887588 0.396228 0.090507
0.888840 0.397401 0.090903
0.890092 0.398574 0.091299
0.028188 0.218285 0.150449
0.076954 0.226949 0.147095
0.125721 0.235612 0.143741
0.174487 0.244276 0.140387
0.223254 0.252940 0.137033
0.272020 0.261604 0.133678
0.325883 0.270960 0.128812
0.380765 0.280454 0.123643
0.435647 0.289948 0.118474
0.490529 0.299441 0.113304
0.545411 0.308935 0.108135
0.588828 0.317956 0.104449
0.626511 0.326741 0.101504
0.664195 0.335525 0.098559
0.701878 0.344310 0.095614
0.739562 0.353094 0.092669
0.767586 0.360791 0.090887
0.785952 0.367400 0.090268
0.804317 0.374009 0.089649
0.822682 0.380618 0.089030
0.841048 0.387226 0.088411
0.855348 0.392830 0.088134
0.861517 0.396423 0.088542
0.867685 0.400016 0.088949
0.873854 0.403609 0.089357
0.880023 0.407201 0.089765
0.885394 0.410350 0.090178
0.886771 0.411278 0.090621
0.888149 0.412206 0.091064
0.889527 0.413134 0.091507
0.890904 0.414062 0.091949
0.892282 0.414990 0.092392
0.036077 0.260816 0.162049
0.082518 0.268041 0.158144
0.128958 0.275266 0.154238
0.175398 0.282491 0.150332
0.221838 0.289716 0.146427
0.268278 0.296941 0.142521
0.321102 0.305072 0.137065
0.375203 0.313384 0.131298
0.429304 0.321696 0.125532
0.483404 0.330008 0.119765
0.537505 0.338320 0.113999
0.581010 0.346353 0.109758
0.619218 0.354247 0.106279
0.657426 0.362141 0.102801
0.695634 0.370036 0.099323
0.733842 0.377930 0.095845
0.762569 0.384891 0.093647
0.781814 0.390918 0.092729
0.801059 0.396946 0.091811
0.820304 0.402974 0.090894
0.839550 0.409002 0.089976
0.854613 0.414103 0.089486
0.861315 0.417352 0.089851
0.868016 0.420601 0.090217
0.874718 0.423850 0.090582
0.881419 0.427099 0.090948
0.887254 0.429915 0.091335
0.888754 0.430568 0.091832
0.890255 0.431220 0.092328
0.891756 0.431873 0.092824
0.893257 0.432525 0.093320
0.894757 0.433177 0.093817
0.043967 0.303347 0.173650
0.088081 0.309133 0.169192
0.132195 0.314919 0.164735
0.176309 0.320705 0.160278
0.220423 0.326491 0.155821
0.264537 0.332277 0.151364
0.316322 0.339184 0.145318
0.369641 0.346314 0.138954
0.422960 0.353444 0.132590
0.476279 0.360574 0.126226
0.529598 0.367704 0.119862
0.573193 0.374750 0.115066
0.611925 0.381754 0.111055
0.650658 0.388758 0.107044
0.689390 0.395762 0.103033
0.728123 0.402765 0.099022
0.757552 0.408990 0.096408
0.777677 0.414437 0.095191
0.797802 0.419884 0.093974
0.817927 0.425331 0.092757
0.838051 0.430777 0.091541
0.853879 0.435377 0.090837
0.861113 0.438282 0.091161
0.868347 0.441187 0.091484
0.875581 0.444092 0.091808
0.882815 0.446996 0.092131
0.889114 0.449480 0.092492
0.890737 0.449857 0.093042
0.892361 0.450234 0.093592
0.893985 0.450611 0.094142
0.895609 0.450988 0.094691
0.897233 0.451365 0.095241
0.051857 0.345878 0.185250
0.093644 0.350225 0.180241
0.135432 0.354572 0.175233
0.177220 0.358919 0.170224
0.219007 0.363267 0.165215
0.260795 0.367614 0.160207
0.311541 0.373295 0.153571
0.364079 0.379244 0.146610
0.416616 0.385192 0.139648
0.469154 0.391141 0.132687
0.521692 0.397089 0.125725
0.565376 0.403147 0.120375
0.604633 0.409261 0.115831
0.643890 0.415374 0.111287
0.683147 0.421487 0.106742
0.722404 0.427601 0.102198
0.752534 0.433090 0.099168
0.773539 0.437956 0.097653
0.794544 0.442822 0.096137
0.815549 0.447687 0.094621
0.836553 0.452553 0.093106
0.853145 0.456650 0.092189
0.860912 0.459211 0.092470
0.868678 0.461772 0.092751
0.876444 0.464333 0.093033
0.884210 0.466894 0.093314
0.890974 0.469045 0.093649
0.892720 0.469146 0.094252
0.894467 0.469248 0.094856
0.896214 0.469349 0.095459
0.897961 0.469451 0.096062
0.899708 0.469552 0.096666
0.059746 0.388409 0.196850
0.099208 0.391317 0.191290
0.138669 0.394226 0.185730
0.178131 0.397134 0.180170
0.217592 0.400042 0.174610
0.257054 0.402950 0.169050
0.306761 0.407407 0.161824
0.358517 0.412174 0.154265
0.410273 0.416940 0.146706
0.462029 0.421707 0.139147
0.513785 0.426474 0.131589
0.557558 0.431544 0.125684
0.597340 0.436767 0.120607
0.637121 0.441990 0.115529
0.676903 0.447213 0.110452
0.716684 0.452436 0.105375
0.747517 0.457190 0.101929
0.769402 0.461475 0.100114
0.791286 0.465759 0.098300
0.813171 0.470044 0.096485
0.835055 0.474328 0.094670
0.852411 0.477924 0.093540
0.860710 0.480141 0.093780
0.869009 0.482358 0.094019
0.877307 0.484575 0.094258
0.885606 0.486792 0.094497
0.892834 0.488610 0.094806
0.894704 0.488436 0.095463
0.896574 0.488262 0.096120
0.898444 0.488088 0.096776
0.900314 0.487914 0.097433
0.902184 0.487740 0.098090
0.075388 0.430177 0.206705
0.112298 0.432087 0.200846
0.149208 0.433997 0.194986
0.186119 0.435908 0.189127
0.223029 0.437818 0.183267
0.259940 0.439728 0.177408
0.308078 0.443317 0.169791
0.358462 0.447241 0.161823
0.408847 0.451165 0.153855
0.459231 0.455089 0.145886
0.509615 0.459014 0.137918
0.552989 0.463353 0.131584
0.592857 0.467899 0.126067
0.632725 0.472445 0.120550
0.672593 0.476992 0.115034
0.712462 0.481538 0.109517
0.743703 0.485707 0.105718
0.766318 0.489499 0.103636
0.788933 0.493291 0.101555
0.811548 0.497083 0.099473
0.834163 0.500875 0.097391
0.852192 0.504031 0.096077
0.861049 0.505918 0.096298
0.869907 0.507805 0.096518
0.878764 0.509692 0.096739
0.887621 0.511579 0.096959
0.895341 0.513078 0.097265
0.897369 0.512635 0.097996
0.899397 0.512193 0.098728
0.901425 0.511750 0.099459
0.903454 0.511307 0.100191
0.905482 0.510864 0.100922
0.094905 0.471562 0.215687
0.129152 0.472695 0.209654
0.163399 0.473828 0.203622
0.197646 0.474961 0.197589
0.231893 0.476094 0.191557
0.266139 0.477227 0.185524
0.312445 0.480125 0.177616
0.361162 0.483377 0.169332
0.409879 0.486628 0.161048
0.458596 0.489880 0.152764
0.507313 0.493131 0.144480
0.550043 0.496866 0.137779
0.589779 0.500843 0.131870
0.629515 0.504820 0.125961
0.669251 0.508796 0.120051
0.708988 0.512773 0.114142
0.740491 0.516433 0.110021
0.763762 0.519776 0.107688
0.787032 0.523119 0.105356
0.810303 0.526463 0.103023
0.833573 0.529806 0.100690
0.852230 0.532556 0.099206
0.861659 0.534120 0.099420
0.871088 0.535684 0.099634
0.880517 0.537248 0.099847
0.889946 0.538812 0.100061
0.898171 0.539998 0.100375
0.900375 0.539290 0.101192
0.902579 0.538582 0.102008
0.904783 0.537874 0.102825
0.906988 0.537166 0.103642
0.909192 0.536458 0.104459
0.114422 0.512948 0.224669
0.146006 0.513304 0.218463
0.177589 0.513659 0.212257
0.209173 0.514015 0.206052
0.240756 0.514370 0.199846
0.272339 0.514725 0.193640
0.316811 0.516934 0.185440
0.363861 0.519512 0.176841
0.410911 0.522091 0.168241
0.457961 0.524670 0.159642
0.505011 0.527249 0.151043
0.547097 0.530380 0.143975
0.586701 0.533787 0.137673
0.626305 0.537194 0.131371
0.665909 0.540601 0.125069
0.705513 0.544008 0.118767
0.737279 0.547159 0.114324
0.761205 0.550053 0.111740
0.785131 0.552948 0.109157
0.809058 0.555843 0.106573
0.832984 0.558738 0.103989
0.852268 0.561081 0.102335
0.862269 0.562322 0.102542
0.872270 0.563563 0.102749
0.882271 0.564804 0.102956
0.892271 0.566045 0.103163
0.901002 0.566917 0.103485
0.903382 0.565944 0.104387
0.905762 0.564971 0.105289
0.908142 0.563998 0.106191
0.910521 0.563025 0.107093
0.912901 0.562052 0.107995
0.133940 0.554334 0.233651
0.162860 0.553912 0.227272
0.191780 0.553490 0.220893
0.220699 0.553068 0.214514
0.249619 0.552646 0.208135
0.278539 0.552224 0.201756
0.321178 0.553742 0.193264
0.366561 0.555648 0.184349
0.411944 0.557554 0.175435
0.457326 0.559460 0.166520
0.502709 0.561366 0.157605
0.544151 0.563893 0.150170
0.583623 0.566731 0.143476
0.623095 0.569568 0.136781
0.662567 0.572405 0.130087
0.702039 0.575242 0.123392
0.734066 0.577884 0.118627
0.758648 0.580330 0.115792
0.783230 0.582777 0.112958
0.807812 0.585223 0.110123
0.832394 0.587669 0.107288
0.852307 0.589606 0.105465
0.862879 0.590524 0.105664
0.873452 0.591442 0.105864
0.884024 0.592360 0.106064
0.894596 0.593278 0.106264
0.903833 0.593837 0.106596
0.906388 0.592599 0.107583
0.908944 0.591360 0.108570
0.911500 0.590122 0.109557
0.914055 0.588884 0.110544
0.916611 0.587645 0.111531
0.153457 0.595720 0.242633
0.179714 0.594521 0.236081
0.205970 0.593321 0.229529
0.232226 0.592121 0.222977
0.258483 0.590922 0.216425
0.284739 0.589722 0.209872
0.325545 0.590550 0.201088
0.369260 0.591784 0.191858
0.412976 0.593017 0.182628
0.456691 0.594251 0.173398
0.500407 0.595484 0.164167
0.541205 0.597407 0.156366
0.580545 0.599675 0.149279
0.619885 0.601942 0.142191
0.659225 0.604210 0.135104
0.698565 0.606477 0.128017
0.730854 0.608610 0.122931
0.756092 0.610608 0.119845
0.781329 0.612605 0.116759
0.806567 0.614603 0.113673
0.831805 0.616601 0.110587
0.852345 0.618131 0.108594
0.863489 0.618726 0.108787
0.874633 0.619321 0.108980
0.885777 0.619916 0.109173
0.896921 0.620511 0.109366
0.906664 0.620757 0.109706
0.909395 0.619253 0.110778
0.912126 0.617750 0.111850
0.914858 0.616246 0.112922
0.917589 0.614743 0.113995
0.920320 0.613239 0.115067
0.177790 0.631406 0.249493
0.201449 0.629751 0.242933
0.225107 0.628096 0.236373
0.248766 0.626441 0.229812
0.272425 0.624786 0.223252
0.296083 0.623131 0.216692
0.334777 0.623545 0.207812
0.376478 0.624373 0.198468
0.418179 0.625201 0.189124
0.459880 0.626029 0.179780
0.501581 0.626857 0.170436
0.541342 0.628415 0.162440
0.580133 0.630337 0.155119
0.618925 0.632260 0.147798
0.657716 0.634183 0.140476
0.696508 0.636105 0.133155
0.728732 0.637927 0.127868
0.754388 0.639646 0.124616
0.780044 0.641366 0.121364
0.805701 0.643086 0.118111
0.831357 0.644805 0.114859
0.852359 0.646082 0.112766
0.864050 0.646472 0.112990
0.875741 0.646863 0.113214
0.887432 0.647253 0.113439
0.899123 0.647644 0.113663
0.909358 0.647691 0.114049
0.912314 0.646023 0.115244
0.915271 0.644355 0.116438
0.918227 0.642687 0.117633
0.921183 0.641019 0.118827
0.924140 0.639351 0.120022
0.206938 0.661391 0.254231
0.228065 0.659603 0.247828
0.249192 0.657815 0.241425
0.270319 0.656026 0.235022
0.291445 0.654238 0.228619
0.312572 0.652450 0.222216
0.348875 0.652726 0.213435
0.388214 0.653416 0.204179
0.427553 0.654106 0.194923
0.466891 0.654796 0.185666
0.506230 0.655485 0.176410
0.544560 0.656917 0.168394
0.582387 0.658719 0.160997
0.620213 0.660522 0.153600
0.658040 0.662324 0.146203
0.695867 0.664127 0.138806
0.727699 0.665834 0.133441
0.753537 0.667446 0.130107
0.779375 0.669058 0.126773
0.805213 0.670670 0.123439
0.831051 0.672283 0.120105
0.852348 0.673459 0.117981
0.864561 0.673763 0.118274
0.876774 0.674067 0.118568
0.888988 0.674371 0.118862
0.901201 0.674675 0.119156
0.911917 0.674640 0.119626
0.915147 0.672908 0.120980
0.918378 0.671177 0.122334
0.921608 0.669445 0.123688
0.924838 0.667714 0.125042
0.928069 0.665982 0.126396
0.236086 0.691377 0.258968
0.254681 0.689455 0.252722
0.273276 0.687533 0.246477
0.291871 0.685612 0.240231
0.310466 0.683690 0.233985
0.329061 0.681768 0.227739
0.362974 0.681908 0.219058
0.399950 0.682459 0.209890
0.436926 0.683011 0.200721
0.473902 0.683562 0.191553
0.510879 0.684113 0.182385
0.547779 0.685419 0.174347
0.584640 0.687101 0.166875
0.621502 0.688784 0.159402
0.658364 0.690466 0.151929
0.695226 0.692149 0.144457
0.726666 0.693742 0.139013
0.752686 0.695247 0.135598
0.778706 0.696751 0.132182
0.804726 0.698255 0.128767
0.830745 0.699760 0.125352
0.852337 0.700835 0.123196
0.865072 0.701053 0.123559
0.877808 0.701271 0.123922
0.890543 0.701489 0.124285
0.903279 0.701707 0.124648
0.914476 0.701589 0.125203
0.917980 0.699794 0.126716
0.921484 0.697999 0.128230
0.924989 0.696204 0.129743
0.928493 0.694408 0.131257
0.931998 0.692613 0.132770
0.265235 0.721362 0.263706
0.281298 0.719307 0.257617
0.297361 0.717252 0.251528
0.313424 0.715197 0.245440
0.329487 0.713142 0.239351
0.345550 0.711087 0.233262
0.377072 0.711089 0.224681
0.411686 0.711502 0.215600
0.446300 0.711915 0.206520
0.480914 0.712328 0.197440
0.515528 0.712742 0.188359
0.550997 0.713921 0.180300
0.586894 0.715483 0.172752
0.622791 0.717046 0.165204
0.658688 0.718608 0.157656
0.694585 0.720170 0.150108
0.725634 0.721650 0.144585
0.751835 0.723047 0.141089
0.778037 0.724443 0.137592
0.804238 0.725840 0.134095
0.830439 0.727237 0.130598
0.852326 0.728212 0.128411
0.865584 0.728344 0.128843
0.878841 0.728475 0.129276
0.892099 0.728607 0.129708
0.905357 0.728738 0.130140
0.917034 0.728538 0.130780
0.920813 0.726679 0.132452
0.924591 0.724821 0.134125
0.928370 0.722962 0.135798
0.932148 0.721103 0.137471
0.935927 0.719244 0.139144
0.294383 0.751348 0.268444
0.307914 0.749159 0.262512
0.321445 0.746971 0.256580
0.334976 0.744783 0.250649
0.348507 0.742594 0.244717
0.362039 0.740406 0.238786
0.391170 0.740270 0.230304
0.423422 0.740545 0.221311
0.455674 0.740820 0.212319
0.487925 0.741095 0.203326
0.520177 0.741370 0.194334
0.554216 0.742423 0.186254
0.589148 0.743865 0.178630
0.624080 0.745307 0.171006
0.659012 0.746750 0.163383
0.693944 0.748192 0.155759
0.724601 0.749558 0.150158
0.750984 0.750847 0.146579
0.777367 0.752136 0.143001
0.803751 0.753425 0.139423
0.830134 0.754714 0.135844
0.852315 0.755589 0.133626
0.866095 0.755634 0.134128
0.879875 0.755679 0.134629
0.893655 0.755725 0.135131
0.907435 0.755770 0.135633
0.919593 0.755487 0.136356
0.923646 0.753565 0.138189
0.927698 0.751642 0.140021
0.931751 0.749720 0.141854
0.935803 0.747798 0.143686
0.939856 0.745875 0.145519
0.324303 0.776915 0.272438
0.335583 0.774701 0.266709
0.346863 0.772487 0.260980
0.358143 0.770272 0.255251
0.369422 0.768058 0.249522
0.380702 0.765844 0.243793
0.407459 0.765651 0.235500
0.437311 0.765862 0.226694
0.467163 0.766073 0.217887
0.497015 0.766284 0.209081
0.526867 0.766494 0.200274
0.559309 0.767492 0.192273
0.593046 0.768884 0.184675
0.626784 0.770275 0.177077
0.660521 0.771666 0.169478
0.694259 0.773057 0.161880
0.724309 0.774381 0.156283
0.750671 0.775637 0.152688
0.777034 0.776894 0.149093
0.803396 0.778150 0.145498
0.829759 0.779406 0.141903
0.852083 0.780257 0.139707
0.866330 0.780294 0.140309
0.880577 0.780332 0.140912
0.894824 0.780369 0.141515
0.909072 0.780407 0.142117
0.921673 0.780122 0.142960
0.926044 0.778222 0.145000
0.930415 0.776322 0.147041
0.934786 0.774422 0.149081
0.939158 0.772522 0.151122
0.943529 0.770622 0.153162
0.355769 0.793646 0.274944
0.365358 0.791621 0.269509
0.374947 0.789596 0.264074
0.384537 0.787571 0.258640
0.394126 0.785547 0.253205
0.403716 0.783522 0.247770
0.428128 0.783431 0.239843
0.455505 0.783726 0.231419
0.482883 0.784022 0.222995
0.510260 0.784317 0.214571
0.537637 0.784613 0.206146
0.568152 0.785697 0.198424
0.600235 0.787175 0.191054
0.632319 0.788654 0.183683
0.664402 0.790132 0.176312
0.696486 0.791610 0.168941
0.725496 0.793036 0.163515
0.751434 0.794409 0.160032
0.777371 0.795782 0.156550
0.803309 0.797155 0.153068
0.829247 0.798529 0.149585
0.851407 0.799506 0.147519
0.866012 0.799693 0.148286
0.880617 0.799880 0.149053
0.895222 0.800067 0.149819
0.909827 0.800254 0.150586
0.922794 0.800126 0.151616
0.927574 0.798421 0.153962
0.932353 0.796715 0.156308
0.937132 0.795010 0.158653
0.941911 0.793305 0.160999
0.946691 0.791600 0.163345
0.387234 0.810377 0.277451
0.395133 0.808541 0.272310
0.403032 0.806706 0.267169
0.410931 0.804870 0.262028
0.418830 0.803035 0.256887
0.426729 0.801200 0.251746
0.448798 0.801210 0.244187
0.473700 0.801590 0.236145
0.498603 0.801971 0.228103
0.523505 0.802351 0.220061
0.548408 0.802731 0.212018
0.576995 0.803901 0.204576
0.607424 0.805467 0.197432
0.637854 0.807032 0.190289
0.668283 0.808598 0.183146
0.698712 0.810164 0.176003
0.726683 0.811691 0.170746
0.752196 0.813181 0.167377
0.777709 0.814671 0.164007
0.803222 0.816161 0.160638
0.828734 0.817651 0.157268
0.850731 0.818756 0.155332
0.865694 0.819093 0.156262
0.880656 0.819429 0.157193
0.895619 0.819765 0.158124
0.910582 0.820102 0.159055
0.923916 0.820130 0.160272
0.929103 0.818620 0.162923
0.934291 0.817109 0.165575
0.939478 0.815599 0.168226
0.944665 0.814088 0.170877
0.949853 0.812578 0.173528
0.418699 0.827108 0.279958
0.424908 0.825462 0.275111
0.431116 0.823816 0.270264
0.437325 0.822169 0.265416
0.443534 0.820523 0.260569
0.449742 0.818877 0.255722
0.469467 0.818990 0.248530
0.491895 0.819455 0.240870
0.514323 0.819920 0.233210
0.536751 0.820384 0.225550
0.559178 0.820849 0.217890
0.585838 0.822106 0.210727
0.614613 0.823758 0.203811
0.643388 0.825411 0.196895
0.672164 0.827064 0.189980
0.700939 0.828717 0.183064
0.727871 0.830346 0.177978
0.752959 0.831953 0.174721
0.778046 0.833560 0.171464
0.803134 0.835166 0.168207
0.828222 0.836773 0.164951
0.850054 0.838006 0.163144
0.865375 0.838492 0.164239
0.880696 0.838978 0.165334
0.896017 0.839463 0.166428
0.911338 0.839949 0.167523
0.925038 0.840135 0.168928
0.930633 0.838819 0.171885
0.936228 0.837503 0.174841
0.941824 0.836187 0.177798
0.947419 0.834871 0.180755
0.953014 0.833555 0.183711
0.450164 0.843839 0.282465
0.454682 0.842382 0.277912
0.459201 0.840925 0.273358
0.463719 0.839468 0.268805
0.468238 0.838012 0.264251
0.472756 0.836555 0.259698
0.490137 0.836770 0.252874
0.510090 0.837319 0.245596
0.530043 0.837868 0.238318
0.549996 0.838418 0.231040
0.569949 0.838967 0.223762
0.594681 0.840310 0.216878
0.621802 0.842050 0.210190
0.648923 0.843790 0.203502
0.676045 0.845530 0.196814
0.703166 0.847270 0.190126
0.729058 0.849001 0.185210
0.753721 0.850725 0.182066
0.778384 0.852448 0.178921
0.803047 0.854172 0.175777
0.827710 0.855895 0.172633
0.849378 0.857256 0.170957
0.865057 0.857891 0.172216
0.880736 0.858526 0.173474
0.896415 0.859161 0.174733
0.912093 0.859796 0.175992
0.926159 0.860139 0.177585
0.932163 0.859018 0.180846
0.938166 0.857897 0.184108
0.944169 0.856776 0.187370
0.950173 0.855654 0.190632
0.956176 0.854533 0.193894
0.480120 0.858953 0.284989
0.483200 0.857702 0.280762
0.486281 0.856450 0.276535
0.489362 0.855199 0.272307
0.492443 0.853947 0.268080
0.495524 0.852696 0.263853
0.510711 0.853011 0.257424
0.528318 0.853638 0.250555
0.545926 0.854266 0.243685
0.563534 0.854894 0.236816
0.581142 0.855522 0.229947
0.603973 0.856937 0.223366
0.629415 0.858746 0.216930
0.654858 0.860554 0.210494
0.680300 0.862363 0.204058
0.705742 0.864172 0.197622
0.730540 0.865990 0.192896
0.754693 0.867818 0.189881
0.778846 0.869646 0.186866
0.802999 0.871474 0.183851
0.827152 0.873302 0.180836
0.848584 0.874783 0.179303
0.864575 0.875570 0.180735
0.880567 0.876358 0.182166
0.896558 0.877145 0.183598
0.912549 0.877932 0.185029
0.926947 0.878436 0.186823
0.933384 0.877522 0.190425
0.939820 0.876608 0.194027
0.946256 0.875694 0.197629
0.952692 0.874780 0.201231
0.959128 0.873867 0.204833
0.502527 0.865986 0.287599
0.505435 0.865019 0.283860
0.508342 0.864053 0.280121
0.511250 0.863086 0.276382
0.514157 0.862119 0.272643
0.517065 0.861152 0.268905
0.530808 0.861555 0.263007
0.546718 0.862231 0.256678
0.562628 0.862908 0.250349
0.578538 0.863585 0.244020
0.594448 0.864261 0.237692
0.615511 0.865677 0.231540
0.639150 0.867462 0.225478
0.662789 0.869247 0.219416
0.686429 0.871032 0.213354
0.710068 0.872817 0.207292
0.733496 0.874645 0.202858
0.756713 0.876517 0.200054
0.779931 0.878388 0.197249
0.803148 0.880259 0.194444
0.826365 0.882131 0.191640
0.847202 0.883696 0.190320
0.863278 0.884650 0.191968
