Assets/1__3DArt/KimSe/artstation_asset/LUTs_pasterls/CUBE/Pastelopolis 03 S.cube
# Enhanced with VOXCOLOR algorithms
LUT_3D_SIZE 5
DOMAIN_MIN 0.000000 0.000000 0.000000
DOMAIN_MAX 0.903226 0.903226 0.903226
0.086275 0.113725 0.215686
0.371868 0.142288 0.220548
0.649560 0.182076 0.218182
0.827970 0.222709 0.214635
0.890620 0.245920 0.214413
0.068322 0.312715 0.257070
0.315748 0.293376 0.222973
0.570515 0.289833 0.174765
0.773370 0.299883 0.152949
0.891876 0.314581 0.179881
0.146096 0.559253 0.327606
0.313531 0.508563 0.270027
0.535052 0.473694 0.199733
0.753221 0.457631 0.161316
0.907356 0.450987 0.175901
0.336689 0.778772 0.434609
0.399747 0.725757 0.374004
0.554011 0.676997 0.307895
0.752133 0.642376 0.261438
0.916209 0.620157 0.239136
0.534488 0.900058 0.555922
0.543857 0.875482 0.518700
0.615991 0.840154 0.469786
0.748342 0.802137 0.426813
0.895224 0.774626 0.401808
0.075087 0.169490 0.333042
0.376416 0.170657 0.329923
0.640815 0.192122 0.318366
0.814449 0.227433 0.308350
0.887524 0.261810 0.306998
0.062514 0.381445 0.376292
0.327891 0.338883 0.340479
0.556990 0.310245 0.299788
0.746617 0.306208 0.277940
0.884238 0.326738 0.285710
0.169809 0.617211 0.449695
0.328107 0.552905 0.391112
0.520476 0.499080 0.326606
0.720029 0.471827 0.287014
0.897352 0.469017 0.281564
0.372553 0.809735 0.545594
0.420597 0.756361 0.485474
0.545789 0.702639 0.414439
0.721461 0.666176 0.355450
0.906328 0.651551 0.318225
0.550614 0.909831 0.635459
0.557616 0.889241 0.603571
0.618234 0.859572 0.555390
0.736976 0.830051 0.498106
0.892292 0.813987 0.445726
0.050550 0.233405 0.494234
0.389204 0.220100 0.497016
0.668665 0.228371 0.485467
0.842892 0.255027 0.468919
0.910587 0.282688 0.461097
0.060593 0.450532 0.535994
0.321316 0.400202 0.514747
0.565730 0.360640 0.487805
0.763032 0.345436 0.465636
0.899839 0.356280 0.457608
0.195608 0.674299 0.606023
0.337029 0.608936 0.563938
0.525832 0.546331 0.515871
0.721849 0.506113 0.478597
0.902662 0.493897 0.461762
0.403692 0.842297 0.680970
0.441864 0.794078 0.637181
0.551951 0.738764 0.578805
0.713946 0.695425 0.520948
0.904947 0.676524 0.482010
0.562050 0.922694 0.736807
0.568985 0.906471 0.714179
0.622558 0.882417 0.675260
0.732855 0.860263 0.618404
0.894458 0.853163 0.557205
0.034463 0.303039 0.678331
0.399920 0.299373 0.698047
0.701028 0.308170 0.697529
0.886897 0.325538 0.683056
0.950494 0.336047 0.671292
0.066994 0.513734 0.711243
0.319211 0.476126 0.709637
0.590867 0.446922 0.701146
0.805232 0.429216 0.685102
0.930479 0.421151 0.671603
0.223442 0.720369 0.764413
0.347953 0.668870 0.744836
0.544516 0.616407 0.720280
0.746274 0.572031 0.694370
0.916109 0.543975 0.677272
0.431228 0.868103 0.811154
0.461017 0.830397 0.788721
0.565038 0.782442 0.755230
0.721000 0.735275 0.716301
0.905287 0.705766 0.688720
0.571407 0.934812 0.837137
0.577731 0.922828 0.824931
0.627861 0.903785 0.803716
0.733209 0.883776 0.769421
0.890863 0.874791 0.730381
0.067142 0.372291 0.849365
0.422953 0.400893 0.874489
0.712364 0.430423 0.884730
0.901162 0.454637 0.883677
0.969600 0.455752 0.877759
0.100794 0.567724 0.866007
0.343812 0.551275 0.873436
0.614304 0.548184 0.878961
0.832265 0.549059 0.878170
0.946845 0.540103 0.872705
0.265981 0.751504 0.890001
0.374849 0.715384 0.885715
0.565959 0.687263 0.882303
0.769753 0.665844 0.878433
0.922591 0.649731 0.876349
0.465849 0.882045 0.909389
0.483591 0.852623 0.901585
0.579709 0.820739 0.893064
0.733585 0.791548 0.885573
0.900913 0.775539 0.884435
0.586053 0.941279 0.917570
0.589637 0.932215 0.912001
0.636651 0.919041 0.907481
0.738359 0.904248 0.903802
0.882086 0.895733 0.902197
