Assets/1__3DArt/KimSe/artstation_asset/LUTs_pasterls/CUBE/Pastelopolis 03.cube
# Enhanced with VOXCOLOR algorithms
LUT_3D_SIZE 8
DOMAIN_MIN 0.000000 0.000000 0.000000
DOMAIN_MAX 0.903226 0.903226 0.903226
0.086275 0.113725 0.215686
0.245457 0.128554 0.219658
0.415495 0.147421 0.220402
0.577414 0.169705 0.219207
0.715335 0.194258 0.217152
0.808660 0.217488 0.215062
0.861773 0.234847 0.213927
0.890620 0.245920 0.214413
0.067595 0.218981 0.236509
0.221533 0.217902 0.233765
0.389316 0.222702 0.227723
0.553197 0.232711 0.220260
0.697816 0.246779 0.213008
0.801712 0.261934 0.207858
0.864100 0.273364 0.205525
0.898772 0.280189 0.205619
0.071739 0.347096 0.265020
0.209728 0.331760 0.256060
0.367905 0.322945 0.243728
0.529284 0.320407 0.229962
0.678583 0.323382 0.216554
0.793419 0.329761 0.206117
0.866998 0.334550 0.199981
0.909598 0.336033 0.197537
0.110146 0.487290 0.303847
0.220872 0.461019 0.288809
0.359768 0.440566 0.270751
0.510927 0.426458 0.251248
0.659428 0.418645 0.231850
0.782821 0.416179 0.215170
0.867931 0.414229 0.203136
0.920080 0.410112 0.195525
0.189241 0.628578 0.354828
0.262708 0.596154 0.333783
0.371892 0.567493 0.310675
0.503015 0.544061 0.286482
0.642475 0.526721 0.262204
0.769423 0.515968 0.239621
0.864657 0.507736 0.220532
0.927311 0.498540 0.205305
0.309472 0.751399 0.420831
0.343377 0.720388 0.394928
0.415020 0.690011 0.367971
0.515017 0.662286 0.340722
0.633255 0.638793 0.313839
0.753585 0.621493 0.288125
0.853503 0.608296 0.263887
0.925940 0.595755 0.241036
0.434777 0.840894 0.493073
0.442332 0.817671 0.467118
0.480986 0.792205 0.439379
0.547326 0.766187 0.411150
0.636496 0.741229 0.383560
0.739652 0.720036 0.358056
0.835851 0.703435 0.334253
0.914244 0.689503 0.310467
0.537682 0.900058 0.559115
0.535763 0.887517 0.540729
0.553030 0.870939 0.517575
0.591439 0.851075 0.491487
0.651320 0.828939 0.464448
0.731729 0.806837 0.440241
0.817281 0.788165 0.421448
0.896263 0.773746 0.406541
0.082180 0.144497 0.276850
0.248594 0.150086 0.277874
0.418797 0.163677 0.276006
0.577771 0.183454 0.272505
0.712793 0.207193 0.268449
0.805508 0.230334 0.264845
0.859254 0.247681 0.262517
0.888843 0.259036 0.261486
0.060462 0.256118 0.298055
0.234339 0.249123 0.292360
0.405791 0.249072 0.284174
0.564429 0.255124 0.275021
0.701124 0.265990 0.266240
0.800000 0.278764 0.259480
0.861055 0.288520 0.255425
0.895806 0.294111 0.253605
0.070340 0.386169 0.328064
0.226379 0.367662 0.316618
0.387930 0.354943 0.302338
0.543920 0.348115 0.286980
0.684329 0.346765 0.272143
0.792428 0.349382 0.260061
0.863568 0.351322 0.251900
0.905917 0.350531 0.247220
0.118249 0.523543 0.368062
0.238823 0.496560 0.351448
0.378536 0.473699 0.331681
0.524539 0.455989 0.310513
0.664916 0.443886 0.289572
0.781509 0.437203 0.271223
0.863895 0.431859 0.257125
0.915957 0.425067 0.247257
0.206209 0.657570 0.418575
0.281604 0.626676 0.397257
0.388309 0.597542 0.372982
0.513791 0.572025 0.347191
0.645900 0.551425 0.321220
0.766740 0.536889 0.296922
0.859627 0.525413 0.275966
0.922855 0.513822 0.258872
0.329303 0.770798 0.480333
0.362205 0.742511 0.455742
0.429702 0.713342 0.428772
0.523490 0.685390 0.400580
0.634664 0.660390 0.372178
0.749482 0.640565 0.344671
0.847505 0.624905 0.318754
0.921171 0.610704 0.294629
0.450801 0.852169 0.544325
0.457685 0.831432 0.520805
0.493070 0.807870 0.494551
0.554328 0.782997 0.466801
0.637520 0.758292 0.438679
0.735697 0.736188 0.411583
0.829873 0.718096 0.385845
0.909203 0.702964 0.360541
0.546366 0.905104 0.599703
0.544857 0.894274 0.583843
0.561065 0.879603 0.563429
0.596931 0.861607 0.539660
0.652988 0.841039 0.513936
0.729244 0.819546 0.489029
0.812217 0.800339 0.467738
0.890689 0.784717 0.449625
0.071870 0.178228 0.353962
0.250395 0.175625 0.353850
0.426086 0.182914 0.350540
0.586181 0.198339 0.345137
0.719979 0.219585 0.338715
0.811114 0.241766 0.332755
0.863882 0.258589 0.328724
0.892844 0.269615 0.326446
0.052447 0.294487 0.374802
0.235491 0.282242 0.368663
0.410798 0.277400 0.360029
0.569699 0.279299 0.350000
0.704691 0.286770 0.339652
0.801884 0.297057 0.330680
0.862414 0.304993 0.324509
0.897231 0.309220 0.320965
0.070299 0.425822 0.406193
0.230739 0.404550 0.394505
0.393553 0.388528 0.380103
0.548423 0.378077 0.364342
0.686218 0.373011 0.348522
0.791916 0.372245 0.334671
0.862287 0.371525 0.324463
0.904946 0.368733 0.317899
0.127934 0.560474 0.447086
0.248410 0.532968 0.430575
0.386587 0.508429 0.410892
0.529712 0.488063 0.389573
0.666231 0.472574 0.368072
0.779447 0.462289 0.348536
0.860529 0.453963 0.332897
0.912957 0.444977 0.321520
0.223907 0.687755 0.496161
0.296571 0.658369 0.475842
0.399462 0.629333 0.452149
0.520225 0.602577 0.426530
0.647102 0.579571 0.400344
0.763627 0.561905 0.375450
0.854699 0.547669 0.353795
0.918347 0.534136 0.336176
0.348767 0.791753 0.551965
0.379394 0.766094 0.529745
0.442609 0.738447 0.504385
0.530829 0.710822 0.477104
0.635956 0.684965 0.449015
0.745894 0.663238 0.421429
0.841783 0.645614 0.395652
0.915920 0.630088 0.372293
0.465816 0.864977 0.606261
0.472149 0.846697 0.585870
0.504617 0.825170 0.562255
0.561317 0.801736 0.536526
0.639112 0.777734 0.509731
0.732571 0.755350 0.483180
0.824391 0.736404 0.457854
0.903875 0.720515 0.433584
0.554296 0.911705 0.650728
0.553347 0.902455 0.637306
0.568603 0.889633 0.619848
0.602153 0.873594 0.599149
0.654813 0.854893 0.576181
0.727369 0.834674 0.552806
0.807850 0.815783 0.531569
0.885546 0.799685 0.512773
0.058084 0.214429 0.444347
0.250430 0.206461 0.445838
0.434835 0.208228 0.443203
0.599468 0.218708 0.437272
0.734609 0.236110 0.429064
0.825021 0.255869 0.420553
0.876580 0.271005 0.414492
0.904334 0.280694 0.410963
0.044563 0.333690 0.464327
0.229073 0.317980 0.460264
0.408097 0.309421 0.453293
0.571146 0.307629 0.443913
0.709365 0.311668 0.432840
0.808198 0.319058 0.421769
0.869528 0.324678 0.413387
0.904769 0.327120 0.408254
0.071654 0.465146 0.496186
0.226852 0.442193 0.486393
0.389021 0.424035 0.473968
0.545506 0.411004 0.459565
0.685356 0.402991 0.443984
0.792574 0.399184 0.428923
0.864223 0.395901 0.416973
0.908118 0.391250 0.408976
0.138766 0.596585 0.536646
0.251662 0.569102 0.521951
0.386012 0.543926 0.504397
0.527494 0.522123 0.484911
0.663343 0.504380 0.464478
0.776450 0.491286 0.444832
0.858212 0.480505 0.428477
0.912025 0.469878 0.416499
0.241722 0.717345 0.582608
0.307643 0.689542 0.564621
0.405129 0.661326 0.543426
0.521476 0.634390 0.520082
0.644736 0.610119 0.495657
0.758925 0.590284 0.471774
0.849464 0.574033 0.450827
0.914153 0.559293 0.434142
0.367261 0.812720 0.630748
0.394145 0.789515 0.611894
0.452573 0.763734 0.589769
0.535489 0.737122 0.565385
0.635375 0.711275 0.539726
0.741323 0.688533 0.514099
0.835519 0.669725 0.490415
0.910126 0.653599 0.469842
0.479364 0.878236 0.674293
0.484858 0.862266 0.657639
0.514482 0.842874 0.637767
0.566983 0.821197 0.615596
0.639927 0.798409 0.592031
0.729147 0.776447 0.568228
0.818715 0.757428 0.545663
0.898097 0.741555 0.524923
0.561060 0.919113 0.707866
0.560601 0.911306 0.696957
0.574960 0.900267 0.682794
0.606453 0.886236 0.665935
0.656197 0.869620 0.647049
0.725591 0.851183 0.627246
0.803821 0.833385 0.608582
0.880696 0.817757 0.591937
0.043820 0.252670 0.545014
0.248866 0.243505 0.551135
0.442966 0.242120 0.551760
0.614418 0.248373 0.547356
0.753696 0.261250 0.538805
0.845522 0.277022 0.528328
0.896803 0.289004 0.520281
0.923509 0.296171 0.515421
0.038040 0.373192 0.563662
0.219192 0.356670 0.563887
0.401336 0.346378 0.560773
0.570618 0.342091 0.554028
0.715416 0.343072 0.543832
0.818869 0.347198 0.531579
0.882634 0.349922 0.521361
0.918952 0.350052 0.514865
0.074658 0.503152 0.594359
0.218892 0.480133 0.588278
0.378738 0.461498 0.579915
0.538034 0.447349 0.568952
0.682861 0.437463 0.555453
0.794799 0.431139 0.540457
0.869868 0.425486 0.527550
0.916133 0.419124 0.518778
0.150542 0.630425 0.632224
0.251045 0.603788 0.620901
0.379538 0.579261 0.607503
0.519650 0.557494 0.592041
0.656839 0.538912 0.574765
0.772639 0.524091 0.556663
0.857290 0.511617 0.540827
0.913839 0.500052 0.529380
0.259301 0.744682 0.672925
0.315459 0.718610 0.658496
0.405949 0.692022 0.641642
0.517684 0.666127 0.622754
0.638381 0.641992 0.602353
0.752135 0.621287 0.581501
0.843863 0.604094 0.562948
0.910752 0.589187 0.548786
0.384480 0.832269 0.711863
0.406211 0.811275 0.697178
0.459147 0.787693 0.679730
0.536733 0.762851 0.660146
0.631945 0.738052 0.639106
0.734901 0.715438 0.617660
0.828319 0.696529 0.598113
0.904002 0.680900 0.582277
0.491311 0.890949 0.744124
0.495401 0.877025 0.731619
0.522036 0.859810 0.716393
0.570545 0.840197 0.699143
0.639113 0.819162 0.680574
0.724690 0.798390 0.661629
0.812447 0.780214 0.644048
0.891939 0.765412 0.629123
0.566595 0.926669 0.767213
0.566354 0.920138 0.758925
0.579797 0.910783 0.748379
0.609472 0.898757 0.736011
0.656767 0.884350 0.722279
0.723562 0.868066 0.707755
0.799910 0.852054 0.693956
0.876144 0.837961 0.682262
0.035187 0.292933 0.651923
0.248017 0.288274 0.664338
0.448564 0.288530 0.670293
0.625721 0.293955 0.669964
0.770266 0.304007 0.664008
0.866178 0.315636 0.654179
0.919425 0.323545 0.645609
0.946380 0.327279 0.639980
0.036205 0.411604 0.667783
0.212223 0.398027 0.673199
0.395419 0.389603 0.675472
0.569675 0.385875 0.673582
0.721307 0.386004 0.667090
0.831134 0.387888 0.656516
0.899064 0.387925 0.646430
0.937490 0.385630 0.639618
0.081001 0.537500 0.694410
0.213638 0.516712 0.692856
0.369623 0.500230 0.689969
0.530525 0.487641 0.684540
0.680328 0.478350 0.675853
0.798461 0.471368 0.663901
0.878645 0.464496 0.652420
0.928409 0.457147 0.644482
0.164067 0.659148 0.726460
0.251681 0.634504 0.719371
0.373061 0.612383 0.711513
0.510821 0.592845 0.702075
0.649378 0.575861 0.690574
0.769260 0.561619 0.677007
0.858549 0.549266 0.664344
0.919158 0.538205 0.655492
0.277021 0.766888 0.759321
0.322811 0.742741 0.749112
0.405374 0.718697 0.737791
0.511859 0.695407 0.725165
0.630102 0.673493 0.711217
0.744594 0.654245 0.696290
0.839121 0.638228 0.682858
0.909614 0.625067 0.673479
0.400801 0.848052 0.788164
0.416742 0.828890 0.777798
0.463680 0.807733 0.765735
0.535720 0.785491 0.752292
0.626463 0.763122 0.737850
0.727214 0.742465 0.723111
0.820986 0.725373 0.710186
0.898922 0.712162 0.701174
0.502365 0.901598 0.809936
0.504387 0.889216 0.801296
0.527755 0.874020 0.790883
0.572312 0.856683 0.779234
0.636799 0.837989 0.766889
0.719275 0.819429 0.754617
0.805920 0.803436 0.744031
0.886361 0.791270 0.736755
0.571915 0.933623 0.824245
0.571276 0.928010 0.818242
0.583557 0.920062 0.811114
0.611470 0.909869 0.803254
0.656611 0.897644 0.795015
0.721297 0.883777 0.786748
0.796329 0.870237 0.779463
0.872543 0.858808 0.774698
0.040896 0.333602 0.755638
0.255178 0.337829 0.771744
0.455161 0.344507 0.781755
0.632021 0.353893 0.785825
0.778104 0.365509 0.784421
0.877654 0.376086 0.778334
0.934094 0.381318 0.771724
0.962614 0.381975 0.766812
0.044453 0.448014 0.767257
0.216073 0.440067 0.775814
0.396643 0.436705 0.782125
0.570600 0.437114 0.784982
0.724467 0.440145 0.783633
0.838627 0.443074 0.777623
0.910591 0.442501 0.770386
0.951543 0.438750 0.764913
0.094333 0.567794 0.787143
0.218858 0.550671 0.788841
0.369494 0.538312 0.790326
0.528176 0.529856 0.790170
0.678960 0.524291 0.787337
0.800989 0.519938 0.780974
0.885619 0.514421 0.773658
0.938816 0.507684 0.768393
0.182188 0.682521 0.810710
0.260373 0.660393 0.807190
0.374342 0.641702 0.804079
0.507522 0.626109 0.800394
0.644826 0.613203 0.795395
0.767133 0.602619 0.788460
0.860524 0.593242 0.781475
0.925070 0.584840 0.777043
0.297365 0.783474 0.834076
0.334812 0.761130 0.827612
0.409527 0.739924 0.821204
0.509851 0.720201 0.814570
0.624540 0.702294 0.807529
0.739212 0.687157 0.800075
0.836597 0.675182 0.793749
0.910880 0.666281 0.790619
0.418560 0.859200 0.853341
0.429187 0.841377 0.846528
0.470083 0.822473 0.839116
0.536361 0.803192 0.831384
0.622536 0.784306 0.823632
0.721381 0.767524 0.816449
0.816125 0.754648 0.811281
0.896881 0.746213 0.809724
0.514713 0.909127 0.866793
0.514323 0.897735 0.861029
0.534233 0.884213 0.854519
0.574836 0.869128 0.847766
0.635462 0.853175 0.841243
0.715361 0.837853 0.835709
0.801626 0.825576 0.832350
0.883675 0.817701 0.832452
0.578754 0.938810 0.874762
0.577302 0.933782 0.870348
0.588206 0.926965 0.865824
0.614315 0.918415 0.861588
0.657424 0.908316 0.857959
0.720400 0.897128 0.855331
0.794781 0.886695 0.854223
0.871614 0.878691 0.855689
0.067142 0.372291 0.849365
0.277024 0.388726 0.865634
0.469299 0.405035 0.876730
0.638777 0.421870 0.883217
0.780529 0.438992 0.885674
0.880558 0.452446 0.884213
0.939421 0.457521 0.880944
0.969677 0.455856 0.877756
0.067607 0.483116 0.857350
0.235523 0.482191 0.866271
0.409383 0.485492 0.873790
0.576733 0.492215 0.879153
0.726460 0.501077 0.881782
0.840601 0.508453 0.880748
0.914586 0.509827 0.877456
0.957387 0.505665 0.874038
0.118890 0.596300 0.869490
0.238447 0.583134 0.872634
0.381642 0.575493 0.876198
0.533265 0.572415 0.879213
0.679547 0.572668 0.880860
0.801250 0.573804 0.880020
0.887919 0.572162 0.877478
0.943341 0.567387 0.875128
0.208857 0.703237 0.883268
0.280547 0.683346 0.882314
0.386072 0.668079 0.882302
0.511506 0.657027 0.882631
0.643793 0.649616 0.882758
0.765481 0.645035 0.881949
0.861012 0.641074 0.880637
0.928182 0.636985 0.880231
0.323897 0.796760 0.896582
0.354378 0.775651 0.893224
0.420539 0.756934 0.890606
0.513025 0.740938 0.888652
0.622409 0.727925 0.887279
0.736078 0.718772 0.886442
0.835506 0.713161 0.886562
0.912600 0.710422 0.888515
0.440427 0.867098 0.907353
0.445667 0.849948 0.903346
0.479844 0.832845 0.899672
0.539701 0.816483 0.896639
0.621122 0.801615 0.894520
0.718585 0.790134 0.893876
0.814779 0.783490 0.895267
0.897851 0.781625 0.899141
0.529634 0.913788 0.914473
0.526383 0.902887 0.910805
0.542444 0.890715 0.907345
0.579047 0.877830 0.904568
0.636315 0.864935 0.902887
0.714834 0.853823 0.903046
0.801801 0.846736 0.905489
0.885209 0.844429 0.910408
0.586896 0.941449 0.917802
0.584675 0.936900 0.914572
0.594257 0.931137 0.912004
0.618729 0.924224 0.910508
0.660192 0.916373 0.910403
0.722280 0.908320 0.912194
0.796981 0.901803 0.915801
0.874712 0.897941 0.921180
