Assets/1__3DArt/KimSe/artstation_asset/LUTs_pasterls/CUBE/Pastelopolis 03.cube
# Enhanced with VOXCOLOR algorithms
LUT_3D_SIZE 32
0.086275 0.113725 0.215686
0.126070 0.117432 0.216679
0.165866 0.121139 0.217672
0.205661 0.124847 0.218665
0.245457 0.128554 0.219658
0.285252 0.132261 0.220651
0.328241 0.137156 0.220694
0.371868 0.142288 0.220548
0.415495 0.147421 0.220402
0.459122 0.152553 0.220256
0.502750 0.157685 0.220110
0.541341 0.163520 0.219719
0.577414 0.169705 0.219207
0.613487 0.175890 0.218694
0.649560 0.182076 0.218182
0.685633 0.188261 0.217669
0.715335 0.194258 0.217152
0.738666 0.200065 0.216629
0.761997 0.205873 0.216107
0.785329 0.211681 0.215585
0.808660 0.217488 0.215062
0.827970 0.222709 0.214635
0.839237 0.226755 0.214399
0.850505 0.230801 0.214163
0.861773 0.234847 0.213927
0.873040 0.238893 0.213691
0.883060 0.242546 0.213565
0.886840 0.244233 0.213989
0.890620 0.245920 0.214413
0.894401 0.247606 0.214837
0.898181 0.249293 0.215262
0.901961 0.250980 0.215686
0.081605 0.140039 0.220892
0.121073 0.142752 0.221465
0.160541 0.145465 0.222038
0.200008 0.148178 0.222611
0.239476 0.150891 0.223184
0.278944 0.153604 0.223758
0.321824 0.157640 0.223376
0.365387 0.161940 0.222804
0.408951 0.166241 0.222232
0.452514 0.170541 0.221660
0.496077 0.174842 0.221088
0.534902 0.179948 0.220326
0.571359 0.185456 0.219470
0.607816 0.190965 0.218614
0.644273 0.196474 0.217757
0.680730 0.201982 0.216901
0.710955 0.207388 0.216116
0.734947 0.212691 0.215402
0.758939 0.217994 0.214689
0.782931 0.223297 0.213975
0.806923 0.228600 0.213261
0.826861 0.233369 0.212690
0.838692 0.237072 0.212402
0.850524 0.240774 0.212114
0.862355 0.244476 0.211826
0.874186 0.248179 0.211539
0.884708 0.251512 0.211369
0.888683 0.252999 0.211792
0.892658 0.254487 0.212215
0.896634 0.255975 0.212637
0.900609 0.257462 0.213060
0.904585 0.258950 0.213482
0.076935 0.166353 0.226097
0.116075 0.168072 0.226251
0.155215 0.169791 0.226404
0.194355 0.171509 0.226558
0.233495 0.173228 0.226711
0.272635 0.174947 0.226865
0.315408 0.178124 0.226059
0.358907 0.181592 0.225061
0.402406 0.185061 0.224062
0.445905 0.188530 0.223064
0.489404 0.191998 0.222066
0.528464 0.196376 0.220933
0.565305 0.201208 0.219733
0.602146 0.206040 0.218533
0.638987 0.210872 0.217333
0.675828 0.215703 0.216133
0.706575 0.220519 0.215080
0.731228 0.225317 0.214175
0.755881 0.230115 0.213270
0.780533 0.234913 0.212365
0.805186 0.239711 0.211460
0.825753 0.244030 0.210744
0.838147 0.247388 0.210405
0.850542 0.250747 0.210065
0.862937 0.254106 0.209726
0.875331 0.257464 0.209387
0.886355 0.260478 0.209174
0.890526 0.261766 0.209595
0.894696 0.263054 0.210016
0.898867 0.264343 0.210437
0.903038 0.265631 0.210858
0.907208 0.266919 0.211279
0.072265 0.192667 0.231303
0.111077 0.193392 0.231037
0.149890 0.194116 0.230771
0.188702 0.194841 0.230504
0.227514 0.195565 0.230238
0.266326 0.196290 0.229972
0.308991 0.198608 0.228741
0.352426 0.201245 0.227317
0.395861 0.203881 0.225893
0.439296 0.206518 0.224469
0.482731 0.209155 0.223045
0.522026 0.212804 0.221541
0.559251 0.216959 0.219997
0.596476 0.221114 0.218452
0.633701 0.225269 0.216908
0.670926 0.229425 0.215364
0.702196 0.233649 0.214044
0.727509 0.237942 0.212948
0.752822 0.242236 0.211852
0.778136 0.246529 0.210755
0.803449 0.250823 0.209659
0.824644 0.254690 0.208798
0.837602 0.257705 0.208407
0.850560 0.260720 0.208016
0.863518 0.263735 0.207626
0.876477 0.266750 0.207235
0.888003 0.269444 0.206979
0.892368 0.270533 0.207398
0.896734 0.271622 0.207817
0.901100 0.272711 0.208237
0.905466 0.273800 0.208656
0.909832 0.274889 0.209075
0.067595 0.218981 0.236509
0.106080 0.218711 0.235823
0.144564 0.218442 0.235137
0.183049 0.218172 0.234451
0.221533 0.217902 0.233765
0.260018 0.217632 0.233079
0.302574 0.219092 0.231423
0.345945 0.220897 0.229573
0.389316 0.222702 0.227723
0.432687 0.224507 0.225873
0.476058 0.226312 0.224023
0.515588 0.229232 0.222148
0.553197 0.232711 0.220260
0.590806 0.236189 0.218372
0.628415 0.239667 0.216484
0.666024 0.243146 0.214596
0.697816 0.246779 0.213008
0.723790 0.250568 0.211721
0.749764 0.254357 0.210433
0.775738 0.258146 0.209146
0.801712 0.261934 0.207858
0.823536 0.265351 0.206852
0.837057 0.268022 0.206410
0.850579 0.270693 0.205968
0.864100 0.273364 0.205525
0.877622 0.276035 0.205083
0.889650 0.278409 0.204783
0.894211 0.279299 0.205201
0.898772 0.280189 0.205619
0.903334 0.281079 0.206036
0.907895 0.281968 0.206454
0.912456 0.282858 0.206872
0.062925 0.245295 0.241714
0.101082 0.244031 0.240609
0.139239 0.242767 0.239503
0.177396 0.241503 0.238397
0.215552 0.240239 0.237292
0.253709 0.238975 0.236186
0.296158 0.239575 0.234105
0.339464 0.240549 0.231829
0.382771 0.241522 0.229553
0.426078 0.242495 0.227277
0.469385 0.243468 0.225001
0.509150 0.245660 0.222755
0.547143 0.248462 0.220523
0.585136 0.251264 0.218291
0.623129 0.254065 0.216059
0.661122 0.256867 0.213828
0.693436 0.259910 0.211972
0.720071 0.263194 0.210494
0.746706 0.266478 0.209015
0.773341 0.269762 0.207536
0.799976 0.273046 0.206057
0.822427 0.276011 0.204907
0.836512 0.278338 0.204413
0.850597 0.280666 0.203919
0.864682 0.282993 0.203425
0.878767 0.285321 0.202931
0.891298 0.287375 0.202588
0.896054 0.288066 0.203004
0.900810 0.288756 0.203420
0.905567 0.289447 0.203836
0.910323 0.290137 0.204252
0.915080 0.290828 0.204668
0.064968 0.278333 0.249182
0.102010 0.276196 0.247693
0.139052 0.274059 0.246204
0.176094 0.271922 0.244715
0.213136 0.269785 0.243227
0.250177 0.267648 0.241738
0.292021 0.267407 0.239269
0.334825 0.267546 0.236603
0.377629 0.267684 0.233938
0.420433 0.267823 0.231272
0.463237 0.267961 0.228607
0.502974 0.269394 0.225963
0.541178 0.271475 0.223330
0.579382 0.273556 0.220697
0.617586 0.275637 0.218064
0.655789 0.277718 0.215431
0.688553 0.280123 0.213198
0.715875 0.282851 0.211364
0.743198 0.285578 0.209531
0.770520 0.288306 0.207697
0.797843 0.291034 0.205863
0.820995 0.293496 0.204393
0.835808 0.295427 0.203650
0.850620 0.297359 0.202907
0.865432 0.299290 0.202165
0.880244 0.301221 0.201422
0.893437 0.302895 0.200851
0.898536 0.303282 0.201141
0.903635 0.303669 0.201431
0.908734 0.304056 0.201721
0.913832 0.304443 0.202011
0.918931 0.304830 0.202301
0.068353 0.312715 0.257101
0.104123 0.309729 0.255237
0.139893 0.306744 0.253372
0.175662 0.303758 0.251508
0.211432 0.300772 0.249643
0.247201 0.297787 0.247779
0.288341 0.296709 0.244928
0.330554 0.296012 0.241881
0.372767 0.295315 0.238833
0.414981 0.294618 0.235785
0.457194 0.293921 0.232737
0.496851 0.294590 0.229691
0.535231 0.295941 0.226646
0.573611 0.297293 0.223600
0.611990 0.298644 0.220555
0.650370 0.299996 0.217510
0.683568 0.301752 0.214876
0.711584 0.303914 0.212655
0.739599 0.306075 0.210433
0.767615 0.308236 0.208212
0.795631 0.310397 0.205990
0.819499 0.312346 0.204165
0.835071 0.313871 0.203135
0.850643 0.315395 0.202104
0.866215 0.316920 0.201073
0.881787 0.318445 0.200042
0.895676 0.319726 0.199206
0.901146 0.319788 0.199345
0.906616 0.319851 0.199484
0.912087 0.319914 0.199623
0.917557 0.319976 0.199763
0.923028 0.320039 0.199902
0.071739 0.347096 0.265020
0.106236 0.343262 0.262780
0.140733 0.339428 0.260540
0.175230 0.335594 0.258300
0.209728 0.331760 0.256060
0.244225 0.327926 0.253820
0.284660 0.326010 0.250588
0.326283 0.324478 0.247158
0.367905 0.322945 0.243728
0.409528 0.321413 0.240298
0.451151 0.319881 0.236868
0.490729 0.319785 0.233420
0.529284 0.320407 0.229962
0.567840 0.321029 0.226504
0.606395 0.321651 0.223046
0.644951 0.322274 0.219588
0.678583 0.323382 0.216554
0.707292 0.324977 0.213945
0.736001 0.326571 0.211336
0.764710 0.328166 0.208726
0.793419 0.329761 0.206117
0.818003 0.331197 0.203938
0.834334 0.332314 0.202619
0.850666 0.333432 0.201300
0.866998 0.334550 0.199981
0.883330 0.335668 0.198662
0.897914 0.336556 0.197561
0.903756 0.336294 0.197549
0.909598 0.336033 0.197537
0.915440 0.335771 0.197526
0.921283 0.335509 0.197514
0.927125 0.335248 0.197502
0.075124 0.381478 0.272940
0.108349 0.376796 0.270324
0.141574 0.372113 0.267708
0.174799 0.367430 0.265092
0.208024 0.362748 0.262477
0.241249 0.358065 0.259861
0.280979 0.355311 0.256248
0.322012 0.352944 0.252436
0.363044 0.350576 0.248623
0.404076 0.348208 0.244811
0.445108 0.345840 0.240999
0.484606 0.344980 0.237148
0.523337 0.344873 0.233277
0.562069 0.344766 0.229407
0.600800 0.344658 0.225537
0.639532 0.344551 0.221666
0.673599 0.345012 0.218232
0.703001 0.346040 0.215235
0.732403 0.347068 0.212238
0.761805 0.348096 0.209241
0.791207 0.349124 0.206244
0.816506 0.350047 0.203711
0.833598 0.350758 0.202103
0.850690 0.351469 0.200496
0.867781 0.352180 0.198889
0.884873 0.352892 0.197282
0.900152 0.353387 0.195916
0.906366 0.352801 0.195753
0.912580 0.352215 0.195591
0.918794 0.351629 0.195428
0.925008 0.351043 0.195265
0.931222 0.350457 0.195102
0.078510 0.415860 0.280859
0.110462 0.410329 0.277868
0.142415 0.404798 0.274876
0.174367 0.399266 0.271885
0.206320 0.393735 0.268893
0.238272 0.388204 0.265902
0.277299 0.384613 0.261908
0.317740 0.381410 0.257713
0.358182 0.378206 0.253519
0.398623 0.375003 0.249324
0.439065 0.371800 0.245130
0.478483 0.370175 0.240876
0.517391 0.369338 0.236593
0.556298 0.368502 0.232310
0.595205 0.367665 0.228027
0.634112 0.366829 0.223744
0.668614 0.366641 0.219911
0.698709 0.367103 0.216526
0.728805 0.367565 0.213141
0.758900 0.368026 0.209756
0.788996 0.368488 0.206371
0.815010 0.368897 0.203483
0.832861 0.369201 0.201588
0.850713 0.369506 0.199693
0.868565 0.369811 0.197798
0.886416 0.370115 0.195902
0.902390 0.370217 0.194271
0.908976 0.369307 0.193957
0.915561 0.368396 0.193644
0.922147 0.367486 0.193330
0.928733 0.366576 0.193016
0.935318 0.365665 0.192703
0.091841 0.451309 0.291638
0.121831 0.445193 0.288264
0.151821 0.439077 0.284891
0.181810 0.432962 0.281517
0.211800 0.426846 0.278143
0.241790 0.420731 0.274769
0.279451 0.416466 0.270437
0.318648 0.412571 0.265914
0.357844 0.408676 0.261391
0.397040 0.404781 0.256868
0.436236 0.400887 0.252344
0.475027 0.398585 0.247749
0.513616 0.397079 0.243118
0.552204 0.395574 0.238488
0.590792 0.394069 0.233857
0.629381 0.392563 0.229226
0.663943 0.391769 0.225022
0.694478 0.391686 0.221246
0.725013 0.391603 0.217469
0.755548 0.391520 0.213693
0.786083 0.391437 0.209916
0.812643 0.391354 0.206630
0.831251 0.391271 0.204325
0.849859 0.391187 0.202020
0.868468 0.391104 0.199715
0.887076 0.391021 0.197410
0.903766 0.390749 0.195375
0.910866 0.389534 0.194691
0.917965 0.388319 0.194007
0.925065 0.387104 0.193323
0.932164 0.385890 0.192639
0.939264 0.384675 0.191955
0.110146 0.487290 0.303847
0.137827 0.480722 0.300088
0.165509 0.474155 0.296328
0.193190 0.467587 0.292568
0.220872 0.461019 0.288809
0.248554 0.454451 0.285049
0.284520 0.449595 0.280402
0.322144 0.445080 0.275577
0.359768 0.440566 0.270751
0.397391 0.436051 0.265926
0.435015 0.431537 0.261101
0.472904 0.428602 0.256195
0.510927 0.426458 0.251248
0.548949 0.424314 0.246302
0.586971 0.422170 0.241355
0.624993 0.420025 0.236409
0.659428 0.418645 0.231850
0.690276 0.418029 0.227680
0.721125 0.417412 0.223510
0.751973 0.416796 0.219340
0.782821 0.416179 0.215170
0.809841 0.415615 0.211465
0.829204 0.415153 0.208689
0.848567 0.414691 0.205912
0.867931 0.414229 0.203136
0.887294 0.413767 0.200360
0.904711 0.413131 0.197853
0.912396 0.411621 0.196689
0.920080 0.410112 0.195525
0.927765 0.408603 0.194361
0.935449 0.407094 0.193197
0.943134 0.405584 0.192033
0.128450 0.523271 0.316056
0.153824 0.516252 0.311911
0.179197 0.509232 0.307765
0.204571 0.502212 0.303620
0.229944 0.495192 0.299475
0.255318 0.488172 0.295330
0.289589 0.482724 0.290366
0.325640 0.477589 0.285239
0.361692 0.472455 0.280112
0.397743 0.467321 0.274985
0.433794 0.462186 0.269857
0.470782 0.458620 0.264640
0.508238 0.455837 0.259378
0.545693 0.453054 0.254116
0.583149 0.450271 0.248854
0.620605 0.447488 0.243592
0.654914 0.445521 0.238679
0.686075 0.444372 0.234115
0.717236 0.443222 0.229551
0.748397 0.442072 0.224988
0.779558 0.440922 0.220424
0.807039 0.439875 0.216299
0.827157 0.439035 0.213052
0.847275 0.438194 0.209805
0.867394 0.437354 0.206558
0.887512 0.436514 0.203311
0.905656 0.435513 0.200331
0.913925 0.433709 0.198687
0.922195 0.431905 0.197043
0.930464 0.430101 0.195399
0.938734 0.428298 0.193755
0.947003 0.426494 0.192111
0.146755 0.559253 0.328265
0.169820 0.551781 0.323734
0.192886 0.544309 0.319203
0.215951 0.536837 0.314672
0.239016 0.529365 0.310141
0.262082 0.521893 0.305610
0.294658 0.515853 0.300331
0.329137 0.510099 0.294901
0.363616 0.504344 0.289472
0.398094 0.498590 0.284043
0.432573 0.492836 0.278614
0.468659 0.488637 0.273086
0.505549 0.485215 0.267508
0.542438 0.481794 0.261930
0.579328 0.478372 0.256352
0.616218 0.474950 0.250774
0.650399 0.472398 0.245507
0.681874 0.470714 0.240550
0.713348 0.469031 0.235592
0.744822 0.467348 0.230635
0.776296 0.465664 0.225678
0.804237 0.464136 0.221134
0.825110 0.462917 0.217416
0.845983 0.461698 0.213698
0.866857 0.460479 0.209980
0.887730 0.459260 0.206262
0.906601 0.457895 0.202809
0.915455 0.455796 0.200685
0.924310 0.453698 0.198561
0.933164 0.451600 0.196437
0.942019 0.449502 0.194313
0.950873 0.447404 0.192189
0.165060 0.595234 0.340474
0.185817 0.587310 0.335557
0.206574 0.579386 0.330640
0.227331 0.571462 0.325724
0.248089 0.563538 0.320807
0.268846 0.555614 0.315890
0.299727 0.548982 0.310295
0.332633 0.542608 0.304564
0.365540 0.536234 0.298833
0.398446 0.529860 0.293102
0.431352 0.523486 0.287370
0.466536 0.518654 0.281531
0.502860 0.514594 0.275638
0.539183 0.510534 0.269744
0.575506 0.506473 0.263851
0.611830 0.502413 0.257957
0.645885 0.499274 0.252335
0.677672 0.497057 0.246984
0.709459 0.494840 0.241633
0.741246 0.492623 0.236282
0.773033 0.490407 0.230932
0.801434 0.488396 0.225968
0.823063 0.486799 0.221779
0.844691 0.485201 0.217590
0.866320 0.483604 0.213401
0.887949 0.482007 0.209213
0.907546 0.480277 0.205288
0.916985 0.477884 0.202684
0.926425 0.475491 0.200079
0.935864 0.473099 0.197475
0.945304 0.470706 0.194871
0.954743 0.468313 0.192267
0.189241 0.628578 0.354828
0.207608 0.620472 0.349567
0.225975 0.612366 0.344306
0.244341 0.604260 0.339045
0.262708 0.596154 0.333783
0.281075 0.588048 0.328522
0.309947 0.581049 0.322654
0.340920 0.574271 0.316664
0.371892 0.567493 0.310675
0.402865 0.560716 0.304686
0.433838 0.553938 0.298696
0.467703 0.548632 0.292613
0.503015 0.544061 0.286482
0.538327 0.539491 0.280352
0.573639 0.534921 0.274222
0.608951 0.530350 0.268091
0.642475 0.526721 0.262204
0.674212 0.524033 0.256558
0.705949 0.521345 0.250912
0.737686 0.518657 0.245267
0.769423 0.515968 0.239621
0.797988 0.513532 0.234325
0.820211 0.511600 0.229727
0.842434 0.509668 0.225130
0.864657 0.507736 0.220532
0.886880 0.505805 0.215934
0.907085 0.503760 0.211580
0.917198 0.501150 0.208442
0.927311 0.498540 0.205305
0.937423 0.495930 0.202168
0.947536 0.493320 0.199030
0.957649 0.490710 0.195893
0.219299 0.659283 0.371329
0.235193 0.651265 0.365764
0.251087 0.643248 0.360199
0.266981 0.635230 0.354634
0.282875 0.627212 0.349069
0.298770 0.619195 0.343505
0.325317 0.612054 0.337407
0.353996 0.605088 0.331203
0.382674 0.598123 0.324999
0.411353 0.591157 0.318795
0.440031 0.584192 0.312591
0.472160 0.578569 0.306331
0.506016 0.573618 0.300042
0.539871 0.568666 0.293754
0.573726 0.563715 0.287466
0.607581 0.558764 0.281177
0.640170 0.554739 0.275112
0.671493 0.551642 0.269271
0.702817 0.548544 0.263430
0.734140 0.545447 0.257588
0.765463 0.542349 0.251747
0.793898 0.539544 0.246205
0.816555 0.537321 0.241260
0.839212 0.535099 0.236315
0.861869 0.532876 0.231371
0.884526 0.530654 0.226426
0.905219 0.528344 0.221685
0.916093 0.525594 0.217961
0.926968 0.522844 0.214238
0.937842 0.520093 0.210514
0.948717 0.517343 0.206791
0.959591 0.514593 0.203067
0.249356 0.689988 0.387830
0.262778 0.682059 0.381961
0.276199 0.674129 0.376093
0.289621 0.666200 0.370224
0.303043 0.658271 0.364356
0.316464 0.650341 0.358487
0.340688 0.643059 0.352160
0.367072 0.635905 0.345742
0.393456 0.628752 0.339323
0.419840 0.621599 0.332904
0.446224 0.614445 0.326486
0.476618 0.608506 0.320048
0.509016 0.603174 0.313602
0.541414 0.597841 0.307156
0.573813 0.592509 0.300709
0.606211 0.587177 0.294263
0.637865 0.582757 0.288021
0.668775 0.579251 0.281984
0.699684 0.575744 0.275947
0.730594 0.572237 0.269910
0.761504 0.568731 0.263873
0.789807 0.565555 0.258085
0.812898 0.563042 0.252793
0.835989 0.560529 0.247501
0.859080 0.558016 0.242210
0.882171 0.555503 0.236918
0.903353 0.552928 0.231790
0.914989 0.550037 0.227480
0.926625 0.547147 0.223171
0.938261 0.544257 0.218861
0.949898 0.541367 0.214551
0.961534 0.538477 0.210242
0.279414 0.720694 0.404331
0.290363 0.712852 0.398159
0.301312 0.705011 0.391986
0.312261 0.697170 0.385814
0.323210 0.689329 0.379642
0.334159 0.681488 0.373470
0.356058 0.674064 0.366913
0.380148 0.666723 0.360280
0.404238 0.659381 0.353647
0.428327 0.652040 0.347014
0.452417 0.644699 0.340380
0.481075 0.638443 0.333766
0.512016 0.632730 0.327162
0.542958 0.627017 0.320557
0.573900 0.621303 0.313953
0.604841 0.615590 0.307348
0.635560 0.610775 0.300930
0.666056 0.606859 0.294697
0.696552 0.602944 0.288464
0.727048 0.599028 0.282232
0.757544 0.595112 0.275999
0.785716 0.591567 0.269964
0.809241 0.588763 0.264326
0.832766 0.585960 0.258687
0.856291 0.583156 0.253049
0.879816 0.580353 0.247410
0.901487 0.577512 0.241895
0.913885 0.574481 0.236999
0.926283 0.571451 0.232103
0.938680 0.568421 0.227208
0.951078 0.565390 0.222312
0.963476 0.562360 0.217416
0.309472 0.751399 0.420831
0.317948 0.743646 0.414356
0.326424 0.735893 0.407880
0.334901 0.728140 0.401404
0.343377 0.720388 0.394928
0.351854 0.712635 0.388453
0.371429 0.705069 0.381667
0.393224 0.697540 0.374819
0.415020 0.690011 0.367971
0.436815 0.682482 0.361123
0.458610 0.674953 0.354275
0.485532 0.668381 0.347484
0.515017 0.662286 0.340722
0.544502 0.656192 0.333959
0.573986 0.650097 0.327197
0.603471 0.644003 0.320434
0.633255 0.638793 0.313839
0.663337 0.634468 0.307410
0.693420 0.630143 0.300982
0.723502 0.625818 0.294553
0.753585 0.621493 0.288125
0.781626 0.617578 0.281844
0.805585 0.614484 0.275858
0.829544 0.611390 0.269873
0.853503 0.608296 0.263887
0.877462 0.605202 0.257902
0.899621 0.602096 0.252000
0.912780 0.598925 0.246518
0.925940 0.595755 0.241036
0.939099 0.592584 0.235554
0.952259 0.589414 0.230072
0.965418 0.586244 0.224590
0.340037 0.778772 0.437956
0.346371 0.771266 0.431297
0.352705 0.763761 0.424638
0.359039 0.756256 0.417978
0.365373 0.748751 0.411319
0.371707 0.741246 0.404660
0.389034 0.733705 0.397714
0.408560 0.726156 0.390710
0.428085 0.718608 0.383706
0.447611 0.711059 0.376702
0.467136 0.703511 0.369699
0.492206 0.696761 0.362779
0.520048 0.690410 0.355900
0.547889 0.684059 0.349022
0.575731 0.677708 0.342144
0.603573 0.671357 0.335266
0.632196 0.665848 0.328556
0.661601 0.661180 0.322015
0.691006 0.656512 0.315475
0.720411 0.651844 0.308934
0.749816 0.647176 0.302393
0.777483 0.642947 0.295972
0.801677 0.639596 0.289791
0.825871 0.636245 0.283609
0.850064 0.632894 0.277427
0.874258 0.629543 0.271246
0.896738 0.626209 0.265113
0.910651 0.622961 0.259226
0.924565 0.619712 0.253339
0.938478 0.616463 0.247452
0.952391 0.613215 0.241565
0.966304 0.609966 0.235678
0.371617 0.799479 0.456328
0.376469 0.792540 0.449726
0.381321 0.785602 0.443124
0.386174 0.778663 0.436521
0.391026 0.771724 0.429919
0.395878 0.764786 0.423316
0.411108 0.757603 0.416348
0.428413 0.750372 0.409306
0.445719 0.743140 0.402264
0.463024 0.735909 0.395222
0.480329 0.728677 0.388180
0.503315 0.722028 0.381226
0.529140 0.715669 0.374317
0.554966 0.709310 0.367408
0.580791 0.702952 0.360498
0.606617 0.696593 0.353589
0.633629 0.690975 0.346891
0.661829 0.686097 0.340405
0.690029 0.681219 0.333919
0.718228 0.676341 0.327434
0.746428 0.671463 0.320948
0.773237 0.667030 0.314598
0.797267 0.663489 0.308522
0.821297 0.659949 0.302446
0.845326 0.656408 0.296369
0.869356 0.652867 0.290293
0.891823 0.649382 0.284241
0.906473 0.646179 0.278311
0.921124 0.642976 0.272382
0.935775 0.639772 0.266452
0.950426 0.636569 0.260523
0.965077 0.633366 0.254593
0.403197 0.820187 0.474700
0.406567 0.813814 0.468155
0.409938 0.807442 0.461609
0.413308 0.801070 0.455064
0.416679 0.794698 0.448518
0.420049 0.788325 0.441973
0.433182 0.781501 0.434982
0.448267 0.774587 0.427902
0.463352 0.767672 0.420822
0.478437 0.760758 0.413742
0.493522 0.753843 0.406661
0.514424 0.747294 0.399674
0.538233 0.740928 0.392734
0.562042 0.734562 0.385793
0.585852 0.728195 0.378852
0.609661 0.721829 0.371912
0.635063 0.716102 0.365226
0.662057 0.711014 0.358795
0.689051 0.705926 0.352364
0.716046 0.700838 0.345933
0.743040 0.695749 0.339502
0.768992 0.691114 0.333224
0.792857 0.687383 0.327253
0.816723 0.683652 0.321282
0.840588 0.679921 0.315311
0.864454 0.676191 0.309340
0.886907 0.672555 0.303369
0.902295 0.669397 0.297397
0.917684 0.666239 0.291425
0.933073 0.663081 0.285452
0.948461 0.659924 0.279480
0.963850 0.656766 0.273508
0.434777 0.840894 0.493073
0.436666 0.835088 0.486584
0.438554 0.829283 0.480095
0.440443 0.823477 0.473607
0.442332 0.817671 0.467118
0.444220 0.811865 0.460629
0.455256 0.805400 0.453616
0.468121 0.798802 0.446498
0.480986 0.792205 0.439379
0.493850 0.785607 0.432261
0.506715 0.779010 0.425143
0.525532 0.772561 0.418122
0.547326 0.766187 0.411150
0.569119 0.759813 0.404178
0.590912 0.753439 0.397206
0.612705 0.747065 0.390234
0.636496 0.741229 0.383560
0.662285 0.735931 0.377184
0.688074 0.730633 0.370808
0.713863 0.725334 0.364432
0.739652 0.720036 0.358056
0.764746 0.715197 0.351850
0.788447 0.711276 0.345985
0.812149 0.707356 0.340119
0.835851 0.703435 0.334253
0.859552 0.699514 0.328387
0.881991 0.695728 0.322497
0.898118 0.692616 0.316482
0.914244 0.689503 0.310467
0.930370 0.686391 0.304453
0.946496 0.683278 0.298438
0.962623 0.680165 0.292423
0.466357 0.861602 0.511445
0.466764 0.856362 0.505013
0.467171 0.851123 0.498581
0.467578 0.845884 0.492150
0.467985 0.840644 0.485718
0.468391 0.835405 0.479286
0.477330 0.829298 0.472250
0.487974 0.823017 0.465094
0.498619 0.816737 0.457937
0.509264 0.810456 0.450781
0.519908 0.804176 0.443624
0.536641 0.797828 0.436570
0.556418 0.791446 0.429567
0.576195 0.785064 0.422564
0.595972 0.778683 0.415561
0.615749 0.772301 0.408557
0.637929 0.766356 0.401895
0.662513 0.760848 0.395574
0.687097 0.755340 0.389253
0.711681 0.749831 0.382932
0.736265 0.744323 0.376611
0.760500 0.739281 0.370476
0.784037 0.735170 0.364716
0.807575 0.731059 0.358956
0.831113 0.726949 0.353195
0.854650 0.722838 0.347435
0.877076 0.718901 0.341625
0.893940 0.715834 0.335567
0.910804 0.712767 0.329510
0.927668 0.709700 0.323453
0.944532 0.706632 0.317396
0.961396 0.703565 0.311338
0.496136 0.880489 0.529244
0.495335 0.875847 0.522997
0.494534 0.871205 0.516751
0.493733 0.866563 0.510504
0.492931 0.861922 0.504257
0.492130 0.857280 0.498010
0.499165 0.851586 0.491037
0.507767 0.845682 0.483918
0.516369 0.839777 0.476800
0.524971 0.833873 0.469681
0.533573 0.827968 0.462563
0.548306 0.821785 0.455513
0.566106 0.815463 0.448496
0.583906 0.809140 0.441480
0.601706 0.802818 0.434464
0.619506 0.796496 0.427448
0.640062 0.790499 0.420811
0.663374 0.784827 0.414553
0.686686 0.779156 0.408294
0.709998 0.773485 0.402036
0.733310 0.767814 0.395778
0.756606 0.762604 0.389747
0.779872 0.758318 0.384170
0.803138 0.754031 0.378593
0.826404 0.749745 0.373016
0.849670 0.745459 0.367439
0.871980 0.741384 0.361814
0.889509 0.738368 0.355949
0.907039 0.735353 0.350084
0.924568 0.732337 0.344219
0.942098 0.729321 0.338354
0.959627 0.726306 0.332489
0.516909 0.890273 0.544180
0.516269 0.886385 0.538758
0.515628 0.882496 0.533336
0.514988 0.878608 0.527915
0.514347 0.874719 0.522493
0.513707 0.870831 0.517071
0.519806 0.865822 0.510585
0.527253 0.860590 0.503886
0.534699 0.855358 0.497187
0.542146 0.850126 0.490488
0.549593 0.844894 0.483789
0.562754 0.839198 0.476930
0.578773 0.833269 0.469992
0.594791 0.827340 0.463053
0.610809 0.821411 0.456115
0.626828 0.815482 0.449176
0.645691 0.809719 0.442629
0.667398 0.804120 0.436474
0.689105 0.798522 0.430319
0.710812 0.792924 0.424165
0.732520 0.787325 0.418010
0.754476 0.782129 0.412239
0.776932 0.777738 0.407237
