Assets/1__3DArt/KimSe/artstation_asset/LUTs_pasterls/CUBE/Pastelopolis 02.cube
# Enhanced with VOXCOLOR algorithms
LUT_3D_SIZE 32
0.113725 0.094118 0.105882
0.164081 0.101160 0.101248
0.214438 0.108201 0.096614
0.264794 0.115243 0.091980
0.315151 0.122285 0.087345
0.365507 0.129326 0.082711
0.419551 0.138863 0.083581
0.474333 0.148899 0.085552
0.529114 0.158935 0.087523
0.583896 0.168971 0.089493
0.638677 0.179007 0.091464
0.682280 0.188519 0.097086
0.720292 0.197770 0.104534
0.758305 0.207021 0.111982
0.796317 0.216272 0.119429
0.834330 0.225523 0.126877
0.862598 0.233321 0.134746
0.881123 0.239668 0.143036
0.899647 0.246015 0.151326
0.918172 0.252362 0.159616
0.936696 0.258709 0.167906
0.950977 0.264024 0.175243
0.956769 0.267275 0.180673
0.962561 0.270526 0.186103
0.968353 0.273777 0.191534
0.974145 0.277028 0.196964
0.979144 0.279948 0.201820
0.980178 0.281213 0.203809
0.981212 0.282479 0.205798
0.982246 0.283744 0.207787
0.983280 0.285010 0.209776
0.984314 0.286275 0.211765
0.119056 0.123821 0.112665
0.166915 0.129343 0.107764
0.214775 0.134864 0.102863
0.262635 0.140386 0.097962
0.310495 0.145907 0.093061
0.358355 0.151428 0.088160
0.411120 0.159533 0.088378
0.464866 0.168155 0.089620
0.518612 0.176777 0.090863
0.572359 0.185399 0.092105
0.626105 0.194021 0.093347
0.669628 0.202390 0.098340
0.708040 0.210633 0.105208
0.746451 0.218876 0.112075
0.784863 0.227119 0.118943
0.823275 0.235362 0.125811
0.852230 0.242365 0.133323
0.871727 0.248128 0.141480
0.891225 0.253890 0.149636
0.910723 0.259653 0.157793
0.930220 0.265415 0.165949
0.945393 0.270236 0.173272
0.951917 0.273174 0.178926
0.958440 0.276111 0.184581
0.964963 0.279049 0.190236
0.971486 0.281986 0.195891
0.977139 0.284611 0.200978
0.978437 0.285671 0.203227
0.979736 0.286732 0.205476
0.981035 0.287792 0.207726
0.982333 0.288853 0.209975
0.983632 0.289914 0.212224
0.124386 0.153525 0.119447
0.169749 0.157526 0.114279
0.215113 0.161527 0.109111
0.260476 0.165528 0.103943
0.305839 0.169529 0.098776
0.351203 0.173530 0.093608
0.402689 0.180204 0.093175
0.455400 0.187411 0.093689
0.508111 0.194619 0.094202
0.560821 0.201827 0.094716
0.613532 0.209035 0.095230
0.656976 0.216261 0.099594
0.695787 0.223496 0.105881
0.734598 0.230732 0.112169
0.773409 0.237967 0.118457
0.812220 0.245202 0.124745
0.841861 0.251409 0.131900
0.862332 0.256587 0.139923
0.882803 0.261766 0.147946
0.903274 0.266944 0.155969
0.923744 0.272122 0.163992
0.939810 0.276449 0.171300
0.947064 0.279073 0.177179
0.954319 0.281697 0.183059
0.961573 0.284321 0.188938
0.968827 0.286944 0.194817
0.975133 0.289274 0.200135
0.976696 0.290129 0.202645
0.978260 0.290985 0.205154
0.979823 0.291841 0.207664
0.981386 0.292696 0.210174
0.982949 0.293552 0.212683
0.129717 0.183228 0.126230
0.172583 0.185709 0.120795
0.215450 0.188190 0.115360
0.258317 0.190671 0.109925
0.301184 0.193151 0.104491
0.344051 0.195632 0.099056
0.394258 0.200874 0.097971
0.445933 0.206668 0.097757
0.497609 0.212461 0.097542
0.549284 0.218255 0.097328
0.600959 0.224049 0.097113
0.644325 0.230132 0.100847
0.683535 0.236360 0.106555
0.722745 0.242587 0.112263
0.761955 0.248815 0.117971
0.801165 0.255042 0.123679
0.831493 0.260453 0.130478
0.852937 0.265047 0.138367
0.874381 0.269641 0.146256
0.895825 0.274235 0.154145
0.917269 0.278829 0.162034
0.934226 0.282661 0.169328
0.942212 0.284972 0.175432
0.950197 0.287282 0.181536
0.958183 0.289592 0.187640
0.966168 0.291903 0.193744
0.973128 0.293937 0.199292
0.974956 0.294587 0.202062
0.976783 0.295238 0.204832
0.978611 0.295889 0.207602
0.980439 0.296540 0.210372
0.982267 0.297191 0.213142
0.135047 0.212932 0.133012
0.175417 0.213892 0.127310
0.215788 0.214853 0.121609
0.256158 0.215813 0.115907
0.296528 0.216774 0.110206
0.336898 0.217734 0.104504
0.385827 0.221544 0.102768
0.436467 0.225924 0.101825
0.487107 0.230304 0.100882
0.537747 0.234684 0.099939
0.588387 0.239063 0.098997
0.631673 0.244003 0.102101
0.671282 0.249223 0.107229
0.710892 0.254443 0.112357
0.750501 0.259662 0.117485
0.790111 0.264882 0.122613
0.821124 0.269497 0.129055
0.843541 0.273506 0.136810
0.865958 0.277516 0.144566
0.888375 0.281526 0.152321
0.910793 0.285535 0.160077
0.928643 0.288874 0.167357
0.937360 0.290871 0.173685
0.946076 0.292867 0.180014
0.954793 0.294864 0.186342
0.963509 0.296861 0.192671
0.971122 0.298599 0.198450
0.973215 0.299045 0.201480
0.975307 0.299491 0.204510
0.977400 0.299937 0.207541
0.979492 0.300383 0.210571
0.981585 0.300829 0.213601
0.140378 0.242635 0.139795
0.178251 0.242076 0.133826
0.216125 0.241516 0.127858
0.253999 0.240956 0.121889
0.291872 0.240396 0.115921
0.329746 0.239836 0.109952
0.377396 0.242214 0.107565
0.427000 0.245180 0.105893
0.476605 0.248146 0.104222
0.526209 0.251112 0.102551
0.575814 0.254078 0.100880
0.619021 0.257874 0.103355
0.659030 0.262086 0.107903
0.699039 0.266298 0.112451
0.739047 0.270510 0.116999
0.779056 0.274722 0.121547
0.810755 0.278541 0.127632
0.834146 0.281966 0.135254
0.857536 0.285391 0.142876
0.880926 0.288816 0.150498
0.904317 0.292242 0.158120
0.923059 0.295086 0.165385
0.932507 0.296770 0.171939
0.941955 0.298453 0.178492
0.951403 0.300136 0.185045
0.960850 0.301819 0.191598
0.969116 0.303262 0.197607
0.971474 0.303503 0.200898
0.973831 0.303744 0.204188
0.976188 0.303985 0.207479
0.978545 0.304227 0.210770
0.980903 0.304468 0.214060
0.152910 0.283552 0.148046
0.188193 0.281805 0.141894
0.223477 0.280058 0.135742
0.258760 0.278311 0.129590
0.294044 0.276564 0.123437
0.329327 0.274817 0.117285
0.375213 0.275902 0.114369
0.423220 0.277552 0.112100
0.471226 0.279203 0.109831
0.519233 0.280854 0.107561
0.567239 0.282505 0.105292
0.609855 0.285116 0.107173
0.649776 0.288207 0.111129
0.689697 0.291298 0.115085
0.729618 0.294389 0.119042
0.769539 0.297480 0.122998
0.801583 0.300326 0.128678
0.825750 0.302927 0.136081
0.849917 0.305527 0.143485
0.874084 0.308128 0.150889
0.898252 0.310728 0.158293
0.917764 0.312829 0.165476
0.927966 0.313929 0.172221
0.938168 0.315029 0.178965
0.948370 0.316129 0.185709
0.958572 0.317229 0.192453
0.967515 0.318112 0.198665
0.970166 0.317908 0.202216
0.972816 0.317705 0.205767
0.975467 0.317501 0.209318
0.978117 0.317297 0.212869
0.980768 0.317093 0.216420
0.166882 0.326711 0.156590
0.199556 0.323843 0.150271
0.232231 0.320976 0.143953
0.264906 0.318109 0.137634
0.297580 0.315241 0.131315
0.330255 0.312374 0.124996
0.374280 0.312192 0.121575
0.420576 0.312548 0.118734
0.466872 0.312903 0.115893
0.513168 0.313259 0.113052
0.559463 0.313614 0.110211
0.601386 0.315031 0.111505
0.641122 0.316979 0.114867
0.680857 0.318927 0.118228
0.720593 0.320875 0.121590
0.760329 0.322823 0.124952
0.792649 0.324660 0.130217
0.817554 0.326388 0.137386
0.842459 0.328116 0.144554
0.867364 0.329843 0.151723
0.892269 0.331571 0.158891
0.912525 0.332877 0.165980
0.923486 0.333340 0.172908
0.934447 0.333803 0.179837
0.945408 0.334266 0.186765
0.956369 0.334730 0.193694
0.965994 0.334999 0.200102
0.968944 0.334303 0.203914
0.971894 0.333606 0.207725
0.974844 0.332909 0.211537
0.977793 0.332213 0.215348
0.980743 0.331516 0.219159
0.180854 0.369870 0.165135
0.210920 0.365882 0.158649
0.240985 0.361894 0.152164
0.271051 0.357907 0.145678
0.301117 0.353919 0.139192
0.331182 0.349931 0.132706
0.373347 0.348483 0.128781
0.417933 0.347543 0.125368
0.462518 0.346604 0.121955
0.507103 0.345664 0.118542
0.551688 0.344724 0.115129
0.592917 0.344947 0.115836
0.632467 0.345751 0.118604
0.672018 0.346556 0.121371
0.711568 0.347360 0.124139
0.751119 0.348165 0.126906
0.783716 0.348995 0.131756
0.809358 0.349849 0.138690
0.835001 0.350704 0.145623
0.860643 0.351559 0.152557
0.886286 0.352414 0.159490
0.907287 0.352926 0.166483
0.919007 0.352752 0.173596
0.930727 0.352578 0.180709
0.942446 0.352404 0.187822
0.954166 0.352230 0.194934
0.964474 0.351887 0.201540
0.967723 0.350697 0.205612
0.970971 0.349508 0.209684
0.974220 0.348318 0.213755
0.977469 0.347129 0.217827
0.980718 0.345939 0.221899
0.194826 0.413029 0.173680
0.222283 0.407921 0.167027
0.249740 0.402813 0.160375
0.277196 0.397704 0.153722
0.304653 0.392596 0.147069
0.332110 0.387488 0.140416
0.372415 0.384774 0.135987
0.415289 0.382539 0.132002
0.458163 0.380304 0.128017
0.501038 0.378069 0.124032
0.543912 0.375833 0.120048
0.584447 0.374862 0.120168
0.623813 0.374524 0.122341
0.663178 0.374185 0.124514
0.702544 0.373846 0.126687
0.741909 0.373507 0.128860
0.774782 0.373329 0.133296
0.801162 0.373311 0.139994
0.827542 0.373293 0.146692
0.853923 0.373275 0.153391
0.880303 0.373257 0.160089
0.902049 0.372974 0.166987
0.914528 0.372163 0.174284
0.927006 0.371352 0.181581
0.939485 0.370541 0.188878
0.951963 0.369730 0.196175
0.962953 0.368774 0.202978
0.966501 0.367092 0.207310
0.970049 0.365409 0.211642
0.973597 0.363727 0.215974
0.977145 0.362045 0.220306
0.980693 0.360362 0.224638
0.208799 0.456188 0.182225
0.233646 0.449959 0.175405
0.258494 0.443731 0.168586
0.283342 0.437502 0.161766
0.308190 0.431274 0.154946
0.333037 0.425045 0.148127
0.371482 0.421065 0.143193
0.412646 0.417535 0.138636
0.453809 0.414004 0.134079
0.494973 0.410473 0.129523
0.536137 0.406943 0.124966
0.575978 0.404778 0.124500
0.615159 0.403296 0.126078
0.654339 0.401814 0.127657
0.693519 0.400331 0.129236
0.732700 0.398849 0.130814
0.765849 0.397663 0.134835
0.792966 0.396772 0.141298
0.820084 0.395881 0.147762
0.847202 0.394990 0.154225
0.874320 0.394099 0.160688
0.896811 0.393023 0.167490
0.910048 0.391575 0.174972
0.923286 0.390126 0.182453
0.936523 0.388678 0.189934
0.949760 0.387230 0.197416
0.961433 0.385661 0.204416
0.965280 0.383486 0.209008
0.969127 0.381311 0.213601
0.972973 0.379136 0.218193
0.976820 0.376960 0.222785
0.980667 0.374785 0.227378
0.227028 0.498282 0.189891
0.249519 0.491485 0.183073
0.272010 0.484687 0.176256
0.294501 0.477889 0.169439
0.316993 0.471092 0.162621
0.339484 0.464294 0.155804
0.375922 0.459550 0.150569
0.415150 0.455218 0.145651
0.454378 0.450885 0.140732
0.493606 0.446552 0.135814
0.532834 0.442219 0.130895
0.571634 0.439247 0.129976
0.610219 0.436954 0.131056
0.648804 0.434662 0.132136
0.687388 0.432369 0.133216
0.725973 0.430076 0.134296
0.759046 0.428135 0.137942
0.786607 0.426546 0.144152
0.814167 0.424956 0.150362
0.841728 0.423367 0.156572
0.869289 0.421777 0.162782
0.892303 0.420045 0.169468
0.906225 0.418029 0.177105
0.920147 0.416013 0.184742
0.934069 0.413996 0.192380
0.947991 0.411980 0.200017
0.960285 0.409858 0.207197
0.964441 0.407207 0.212096
0.968596 0.404556 0.216994
0.972751 0.401906 0.221892
0.976906 0.399255 0.226790
0.981061 0.396604 0.231688
0.247386 0.539845 0.197117
0.267646 0.532753 0.190387
0.287907 0.525662 0.183656
0.308168 0.518571 0.176926
0.328429 0.511479 0.170195
0.348689 0.504388 0.163464
0.383049 0.499133 0.158030
0.420229 0.494244 0.152855
0.457409 0.489356 0.147680
0.494589 0.484468 0.142505
0.531769 0.479579 0.137331
0.569352 0.475992 0.136025
0.607136 0.473056 0.136655
0.644920 0.470119 0.137284
0.682705 0.467182 0.137913
0.720489 0.464246 0.138543
0.753309 0.461677 0.141831
0.781165 0.459476 0.147780
0.809021 0.457275 0.153728
0.836878 0.455073 0.159676
0.864734 0.452872 0.165624
0.888161 0.450555 0.172182
0.902730 0.448005 0.179961
0.917300 0.445454 0.187740
0.931869 0.442904 0.195519
0.946439 0.440354 0.203298
0.959325 0.437709 0.210651
0.963793 0.434592 0.215878
0.968261 0.431474 0.221104
0.972729 0.428356 0.226331
0.977197 0.425238 0.231557
0.981665 0.422121 0.236784
0.267743 0.581407 0.204344
0.285774 0.574022 0.197700
0.303804 0.566637 0.191056
0.321834 0.559252 0.184412
0.339865 0.551867 0.177769
0.357895 0.544482 0.171125
0.390177 0.538715 0.165491
0.425308 0.533271 0.160060
0.460440 0.527827 0.154628
0.495572 0.522383 0.149197
0.530703 0.516940 0.143766
0.567070 0.512738 0.142074
0.604053 0.509157 0.142253
0.641037 0.505577 0.142431
0.678021 0.501996 0.142610
0.715004 0.498415 0.142789
0.747572 0.495219 0.145721
0.775724 0.492406 0.151407
0.803875 0.489593 0.157094
0.832027 0.486780 0.162780
0.860179 0.483967 0.168466
0.884019 0.481064 0.174897
0.899236 0.477980 0.182817
0.914453 0.474896 0.190738
0.929670 0.471812 0.198658
0.944887 0.468728 0.206579
0.958364 0.465561 0.214105
0.963145 0.461976 0.219660
0.967926 0.458392 0.225215
0.972707 0.454807 0.230770
0.977488 0.451222 0.236325
0.982268 0.447637 0.241880
0.288101 0.622969 0.211570
0.303901 0.615291 0.205013
0.319701 0.607612 0.198456
0.335501 0.599934 0.191899
0.351301 0.592255 0.185342
0.367101 0.584577 0.178785
0.397304 0.578297 0.172953
0.430387 0.572298 0.167265
0.463471 0.566298 0.161577
0.496554 0.560299 0.155889
0.529638 0.554300 0.150201
0.564788 0.549483 0.148123
0.600971 0.545259 0.147851
0.637154 0.541034 0.147579
0.673337 0.536810 0.147307
0.709520 0.532585 0.147035
0.741835 0.528760 0.149611
0.770282 0.525336 0.155035
0.798729 0.521912 0.160459
0.827176 0.518487 0.165884
0.855623 0.515063 0.171308
0.879876 0.511574 0.177611
0.895741 0.507956 0.185674
0.911605 0.504338 0.193736
0.927470 0.500720 0.201798
0.943335 0.497103 0.209860
0.957404 0.493413 0.217559
0.962497 0.489361 0.223442
0.967591 0.485309 0.229325
0.972685 0.481257 0.235209
0.977778 0.477206 0.241092
0.982872 0.473154 0.246975
0.308459 0.664532 0.218797
0.322029 0.656560 0.212327
0.335598 0.648587 0.205856
0.349168 0.640615 0.199386
0.362737 0.632643 0.192916
0.376306 0.624671 0.186446
0.404431 0.617880 0.180414
0.435466 0.611325 0.174469
0.466501 0.604770 0.168525
0.497537 0.598215 0.162580
0.528572 0.591660 0.156636
0.562505 0.586229 0.154172
0.597888 0.581360 0.153450
0.633270 0.576492 0.152727
0.668653 0.571623 0.152004
0.704035 0.566755 0.151281
0.736098 0.562302 0.153501
0.764840 0.558266 0.158663
0.793583 0.554230 0.163825
0.822326 0.550194 0.168988
0.851068 0.546158 0.174150
0.875734 0.542083 0.180326
0.892246 0.537932 0.188530
0.908758 0.533780 0.196733
0.925270 0.529629 0.204937
0.941782 0.525477 0.213141
0.956443 0.521264 0.221013
0.961850 0.516745 0.227224
0.967256 0.512227 0.233436
0.972663 0.507708 0.239648
0.978069 0.503189 0.245859
0.983475 0.498671 0.252071
0.330047 0.700582 0.224781
0.341735 0.692666 0.218485
0.353423 0.684750 0.212188
0.365111 0.676835 0.205891
0.376799 0.668919 0.199594
0.388487 0.661004 0.193297
0.414606 0.654079 0.187211
0.443612 0.647353 0.181166
0.472617 0.640627 0.175122
0.501622 0.633901 0.169078
0.530627 0.627175 0.163034
0.563194 0.621485 0.160311
0.597542 0.616314 0.159248
0.631890 0.611142 0.158186
0.666238 0.605971 0.157124
0.700586 0.600799 0.156061
0.732153 0.596024 0.157990
0.760938 0.591644 0.162908
0.789724 0.587265 0.167827
0.818509 0.582885 0.172745
0.847295 0.578506 0.177664
0.872170 0.574090 0.183718
0.889226 0.569601 0.192043
0.906281 0.565112 0.200367
0.923336 0.560624 0.208692
0.940392 0.556135 0.217017
0.955559 0.551586 0.225053
0.961287 0.546737 0.231650
0.967014 0.541888 0.238246
0.972742 0.537039 0.244843
0.978470 0.532190 0.251439
0.984197 0.527341 0.258036
0.352866 0.731119 0.229524
0.363022 0.723610 0.223487
0.373177 0.716101 0.217450
0.383333 0.708593 0.211413
0.393488 0.701084 0.205376
0.403643 0.693575 0.199339
0.427830 0.686896 0.193344
0.454823 0.680384 0.187356
0.481817 0.673871 0.181369
0.508810 0.667358 0.175382
0.535803 0.660845 0.169394
0.566854 0.655252 0.166538
0.599933 0.650119 0.165248
0.633013 0.644986 0.163957
0.666092 0.639852 0.162667
0.699172 0.634719 0.161376
0.730000 0.629925 0.163078
0.758575 0.625470 0.167771
0.787151 0.621016 0.172464
0.815727 0.616561 0.177157
0.844303 0.612107 0.181851
0.869185 0.607594 0.187788
0.886679 0.602964 0.196213
0.904174 0.598335 0.204637
0.921668 0.593705 0.213062
0.939162 0.589076 0.221487
0.954751 0.584378 0.229681
0.960808 0.579335 0.236719
0.966866 0.574293 0.243756
0.972923 0.569250 0.250794
0.978980 0.564208 0.257832
0.985038 0.559165 0.264869
0.375685 0.761656 0.234267
0.384308 0.754554 0.228490
0.392931 0.747452 0.222713
0.401554 0.740350 0.216936
0.410176 0.733248 0.211158
0.418799 0.726146 0.205381
0.441054 0.719713 0.199476
0.466035 0.713414 0.193546
0.491016 0.707115 0.187616
0.515998 0.700815 0.181685
0.540979 0.694516 0.175755
0.570513 0.689019 0.172766
0.602325 0.683924 0.171247
0.634136 0.678829 0.169728
0.665947 0.673734 0.168210
0.697758 0.668638 0.166691
0.727847 0.663826 0.168166
0.756213 0.659296 0.172633
0.784579 0.654767 0.177101
0.812945 0.650237 0.181569
0.841311 0.645707 0.186037
0.866199 0.641098 0.191857
0.884133 0.636327 0.200382
0.902066 0.631557 0.208908
0.920000 0.626787 0.217433
0.937933 0.622017 0.225958
0.953942 0.617169 0.234308
0.960330 0.611933 0.241787
0.966717 0.606697 0.249266
0.973104 0.601461 0.256745
0.979491 0.596225 0.264224
0.985878 0.590989 0.271703
0.398504 0.792194 0.239010
0.405595 0.785498 0.233493
0.412685 0.778803 0.227975
0.419775 0.772108 0.222458
0.426865 0.765413 0.216941
0.433955 0.758717 0.211423
0.454278 0.752530 0.205609
0.477247 0.746444 0.199736
0.500216 0.740358 0.193863
0.523186 0.734272 0.187989
0.546155 0.728186 0.182116
0.574173 0.722786 0.178993
0.604716 0.717729 0.177247
0.635259 0.712672 0.175500
0.665801 0.707615 0.173753
0.696344 0.702558 0.172006
0.725694 0.697727 0.173254
0.753850 0.693122 0.177496
0.782006 0.688518 0.181739
0.810163 0.683913 0.185981
0.838319 0.679308 0.190224
0.863214 0.674601 0.195927
0.881586 0.669691 0.204552
0.899959 0.664780 0.213178
0.918332 0.659869 0.221803
0.936704 0.654958 0.230428
0.953134 0.649961 0.238936
0.959851 0.644532 0.246856
0.966568 0.639102 0.254776
0.973285 0.633672 0.262696
0.980002 0.628243 0.270617
0.986719 0.622813 0.278537
0.421323 0.822731 0.243753
0.426881 0.816442 0.238496
0.432438 0.810154 0.233238
0.437996 0.803866 0.227980
0.443554 0.797577 0.222723
0.449111 0.791289 0.217465
0.467502 0.785347 0.211742
0.488459 0.779474 0.205926
0.509416 0.773602 0.200109
0.530373 0.767730 0.194293
0.551331 0.761857 0.188477
0.577833 0.756554 0.185221
0.607107 0.751535 0.183246
0.636381 0.746516 0.181271
0.665656 0.741497 0.179296
0.694930 0.736478 0.177320
0.723541 0.731628 0.178341
0.751487 0.726948 0.182359
0.779434 0.722269 0.186376
0.807380 0.717589 0.190393
0.835327 0.712909 0.194410
0.860228 0.708105 0.199997
0.879040 0.703054 0.208722
0.897852 0.698002 0.217448
0.916663 0.692951 0.226173
0.935475 0.687900 0.234899
0.952326 0.682753 0.243564
0.959373 0.677130 0.251925
0.966419 0.671507 0.260286
0.973466 0.665883 0.268648
0.980513 0.660260 0.277009
0.987560 0.654637 0.285370
0.443365 0.848749 0.247682
0.447669 0.842948 0.242704
0.451973 0.837146 0.237726
0.456277 0.831345 0.232747
0.460581 0.825543 0.227769
0.464885 0.819742 0.222791
0.481501 0.814164 0.217221
0.500579 0.808632 0.211532
0.519658 0.803099 0.205843
0.538736 0.797567 0.200155
0.557814 0.792034 0.194466
0.582802 0.786971 0.191149
0.610745 0.782143 0.189018
0.638687 0.777315 0.186888
0.666630 0.772487 0.184757
0.694572 0.767659 0.182627
0.722340 0.762948 0.183470
0.749932 0.758356 0.187286
0.777525 0.753764 0.191103
0.805118 0.749172 0.194919
0.832710 0.744580 0.198736
0.857495 0.739841 0.204218
0.876662 0.734808 0.213031
0.895830 0.729776 0.221843
0.914997 0.724743 0.230656
0.934165 0.719710 0.239468
0.951370 0.714570 0.248287
0.958761 0.708891 0.257135
0.966152 0.703212 0.265983
0.973543 0.697533 0.274831
0.980934 0.691854 0.283679
0.988325 0.686174 0.292527
0.463854 0.865729 0.249982
0.467462 0.860575 0.245322
0.471071 0.855420 0.240663
0.474679 0.850266 0.236004
0.478287 0.845112 0.231344
0.481896 0.839958 0.226685
0.497052 0.834982 0.221392
0.514517 0.830043 0.215972
0.531983 0.825103 0.210552
0.549448 0.820163 0.205132
0.566914 0.815224 0.199712
0.590391 0.810689 0.196478
0.616875 0.806357 0.194337
0.643359 0.802026 0.192197
0.669843 0.797694 0.190056
0.696326 0.793362 0.187915
0.723043 0.789106 0.188678
0.749994 0.784927 0.192344
0.776944 0.780748 0.196009
0.803894 0.776569 0.199675
0.830845 0.772390 0.203341
0.855264 0.768040 0.208743
0.874621 0.763345 0.217616
0.893978 0.758650 0.226490
0.913335 0.753955 0.235363
0.932692 0.749260 0.244237
0.950117 0.744437 0.253202
0.957882 0.738978 0.262628
0.965646 0.733518 0.272053
0.973411 0.728058 0.281479
0.981175 0.722598 0.290905
0.988940 0.717138 0.300330
0.484342 0.882709 0.252282
0.487255 0.878202 0.247941
0.490168 0.873695 0.243600
0.493081 0.869188 0.239260
0.495993 0.864681 0.234919
0.498906 0.860174 0.230578
0.512602 0.855800 0.225562
0.528455 0.851454 0.220411
0.544308 0.847107 0.215260
0.560160 0.842760 0.210109
0.576013 0.838414 0.204958
0.597980 0.834408 0.201807
0.623005 0.830572 0.199656
0.648030 0.826736 0.197506
0.673055 0.822901 0.195355
0.698080 0.819065 0.193204
0.723747 0.815264 0.193886
0.750055 0.811499 0.197401
0.776363 0.807733 0.200916
0.802671 0.803967 0.204431
0.828979 0.800201 0.207946
0.853033 0.796238 0.213268
0.872580 0.791881 0.222202
0.892126 0.787524 0.231136
0.911673 0.783167 0.240071
0.931219 0.778809 0.249005
0.948865 0.774305 0.258117
0.957003 0.769064 0.268121
0.965141 0.763824 0.278124
0.973279 0.758583 0.288127
0.981417 0.753343 0.298130
0.989555 0.748102 0.308134
0.504830 0.899689 0.254582
0.507048 0.895829 0.250560
0.509265 0.891969 0.246538
0.511482 0.888109 0.242516
0.513700 0.884250 0.238494
0.515917 0.880390 0.234472
0.528153 0.876618 0.229733
0.542393 0.872865 0.224851
0.556633 0.869111 0.219969
0.570872 0.865357 0.215086
0.585112 0.861603 0.210204
0.605570 0.858126 0.207136
0.629136 0.854786 0.204975
0.652702 0.851447 0.202814
0.676268 0.848108 0.200654
0.699834 0.844768 0.198493
0.724450 0.841422 0.199094
0.750116 0.838070 0.202459
0.775782 0.834717 0.205823
0.801447 0.831365 0.209187
0.827113 0.828012 0.212551
0.850802 0.824437 0.217792
0.870538 0.820418 0.226787
0.890274 0.816398 0.235783
0.910011 0.812378 0.244778
0.929747 0.808359 0.253773
0.947612 0.804172 0.263033
0.956124 0.799151 0.273614
0.964635 0.794130 0.284194
0.973147 0.789109 0.294775
0.981658 0.784088 0.305356
0.990170 0.779067 0.315937
0.525318 0.916669 0.256882
0.526840 0.913456 0.253179
0.528362 0.910244 0.249475
0.529884 0.907031 0.245772
0.531406 0.903818 0.242069
0.532927 0.900606 0.238365
0.543704 0.897436 0.233904
0.556331 0.894276 0.229290
0.568957 0.891115 0.224677
0.581584 0.887954 0.220064
0.594211 0.884793 0.215450
0.613159 0.881844 0.212465
0.635266 0.879001 0.210294
0.657374 0.876158 0.208123
0.679481 0.873315 0.205952
0.701588 0.870471 0.203781
0.725154 0.867580 0.204303
0.750177 0.864641 0.207516
0.775201 0.861702 0.210729
0.800224 0.858762 0.213943
0.825247 0.855823 0.217156
0.848571 0.852636 0.222317
0.868497 0.848954 0.231373
0.888423 0.845272 0.240429
0.908348 0.841590 0.249485
0.928274 0.837908 0.258541
0.946359 0.834040 0.267948
0.955245 0.829238 0.279106
0.964130 0.824436 0.290265
0.973015 0.819634 0.301423
0.981900 0.814832 0.312582
0.990785 0.810031 0.323740
0.544503 0.931912 0.258800
0.545470 0.929315 0.255427
0.546436 0.926717 0.252055
0.547402 0.924120 0.248683
0.548368 0.921522 0.245310
0.549334 0.918925 0.241938
0.558777 0.916339 0.237773
0.569916 0.913756 0.233449
0.581054 0.911173 0.229126
0.592192 0.908590 0.224802
0.603331 0.906007 0.220479
0.620833 0.903583 0.217603
0.641516 0.901239 0.215451
0.662200 0.898896 0.213299
0.682884 0.896552 0.211148
0.703568 0.894208 0.208996
0.726082 0.891786 0.209458
0.750428 0.889285 0.212534
0.774773 0.886783 0.215610
0.799118 0.884282 0.218686
0.823463 0.881781 0.221762
0.846385 0.879015 0.226848
0.866459 0.875719 0.235956
0.886534 0.872424 0.245063
0.906609 0.869128 0.254171
0.926684 0.865832 0.263278
0.944958 0.862332 0.272827
0.954232 0.857813 0.284583
0.963505 0.853295 0.296339
0.972778 0.848776 0.308095
0.982051 0.844257 0.319852
0.991325 0.839738 0.331608
0.557171 0.938471 0.258805
0.558281 0.936328 0.255825
0.559392 0.934185 0.252845
0.560502 0.932043 0.249865
0.561612 0.929900 0.246884
0.562722 0.927757 0.243904
0.571466 0.925665 0.240134
0.581737 0.923584 0.236205
0.592008 0.921502 0.232276
0.602279 0.919420 0.228347
0.612550 0.917338 0.224418
0.628931 0.915425 0.221784
0.648367 0.913597 0.219798
0.667803 0.911768 0.217811
0.687239 0.909940 0.215825
0.706675 0.908111 0.213838
0.728137 0.906228 0.214348
0.751624 0.904290 0.217354
0.775111 0.902352 0.220360
0.798598 0.900414 0.223366
0.822085 0.898475 0.226372
0.844417 0.896294 0.231413
0.864439 0.893627 0.240523
