Assets/1__3DArt/KimSe/artstation_asset/LUTs_pasterls/CUBE/Pastelopolis 01 S.cube
# Enhanced with VOXCOLOR algorithms
LUT_3D_SIZE 8
DOMAIN_MIN 0.000000 0.000000 0.000000
DOMAIN_MAX 0.903226 0.903226 0.903226
0.019608 0.050980 0.101961
0.262634 0.120469 0.100285
0.493122 0.186260 0.093320
0.680082 0.244760 0.086987
0.803364 0.292959 0.085232
0.856908 0.325579 0.087983
0.877179 0.344766 0.090986
0.884617 0.355875 0.093112
0.021160 0.153067 0.132016
0.225798 0.196879 0.120483
0.432042 0.237911 0.102189
0.608871 0.274812 0.084744
0.735571 0.306721 0.073755
0.806138 0.332934 0.072344
0.849011 0.355817 0.077042
0.875958 0.376378 0.084720
0.043919 0.303347 0.173618
0.208521 0.322107 0.151647
0.389096 0.339693 0.121612
0.555516 0.356288 0.092749
0.686584 0.372407 0.072259
0.773363 0.390158 0.066353
0.834405 0.411204 0.071916
0.875899 0.433511 0.083467
0.094558 0.471562 0.215456
0.218319 0.470596 0.186122
0.371456 0.470210 0.147394
0.525705 0.471398 0.109649
0.659724 0.475315 0.081307
0.759771 0.485240 0.071251
0.833388 0.501597 0.076774
0.883774 0.520419 0.090116
0.176675 0.631406 0.248749
0.260064 0.619315 0.217569
0.383926 0.609348 0.175723
0.522953 0.602595 0.133840
0.656332 0.600159 0.100876
0.764878 0.604992 0.087655
0.844822 0.616075 0.092303
0.898306 0.628533 0.105296
0.291482 0.751348 0.266510
0.339037 0.738670 0.239657
0.432353 0.729521 0.202147
0.550942 0.724304 0.163230
0.676242 0.723319 0.131054
0.785520 0.727664 0.116837
0.864963 0.735007 0.120283
0.916374 0.741119 0.131556
0.414015 0.827108 0.276836
0.436556 0.818579 0.256320
0.501381 0.814293 0.226748
0.594975 0.814030 0.194992
0.703565 0.817356 0.167478
0.805833 0.823500 0.154534
0.881582 0.829344 0.157883
0.930717 0.832154 0.168996
0.521741 0.873019 0.288080
0.532463 0.869711 0.274966
0.574548 0.869852 0.254274
0.642401 0.873234 0.230694
0.728741 0.879375 0.209051
0.818512 0.886974 0.198703
0.889732 0.892921 0.203645
0.938639 0.895474 0.217680
0.053926 0.084917 0.205557
0.293378 0.145261 0.192491
0.510571 0.202859 0.177325
0.682188 0.254359 0.165457
0.794186 0.297533 0.160330
0.845678 0.331099 0.161588
0.870307 0.358398 0.164000
0.882979 0.379088 0.166228
0.050559 0.205732 0.235358
0.270774 0.239364 0.211921
0.462621 0.266924 0.188396
0.614810 0.289835 0.169622
0.722038 0.309851 0.158785
0.788710 0.330663 0.156587
0.838143 0.356749 0.158058
0.874781 0.387462 0.160546
0.076815 0.361171 0.271510
0.254588 0.368533 0.240867
0.418464 0.370443 0.208822
0.558266 0.370604 0.181483
0.668441 0.372525 0.163223
0.751076 0.381912 0.156755
0.820229 0.402169 0.157193
0.875475 0.431569 0.160237
0.135609 0.523929 0.307042
0.261290 0.511477 0.272970
0.395056 0.495680 0.234624
0.523679 0.480880 0.199751
0.637807 0.470919 0.174266
0.733477 0.471542 0.163228
0.815937 0.484123 0.162259
0.883529 0.505702 0.165519
0.226857 0.671102 0.336649
0.302048 0.649350 0.303173
0.404464 0.626114 0.262533
0.518848 0.605383 0.223316
0.632718 0.590505 0.192436
0.735569 0.586067 0.177036
0.824034 0.591459 0.174097
0.897152 0.602915 0.176764
0.345926 0.777167 0.356502
0.382780 0.758217 0.327525
0.455578 0.739302 0.290252
0.550858 0.723064 0.252232
0.656253 0.711581 0.219904
0.757188 0.707279 0.201261
0.842867 0.708373 0.195684
0.913510 0.711638 0.196655
0.464432 0.842593 0.371163
0.478784 0.830942 0.348372
0.527896 0.820842 0.318098
0.602631 0.813375 0.285657
0.693395 0.809213 0.255941
0.785500 0.808635 0.236344
0.863403 0.809384 0.228801
0.927134 0.809551 0.228543
0.562211 0.881053 0.384280
0.568197 0.876556 0.368984
0.600857 0.874178 0.347431
0.656534 0.874187 0.322901
0.730030 0.876577 0.298767
0.810322 0.880797 0.281330
0.879803 0.884610 0.274421
0.935846 0.886649 0.275513
0.092520 0.139968 0.325983
0.325418 0.191193 0.306413
0.530555 0.241683 0.287192
0.690061 0.287923 0.272650
0.793972 0.327753 0.265441
0.843896 0.361405 0.265109
0.870498 0.392249 0.266572
0.885646 0.417355 0.268589
0.091700 0.276395 0.358522
0.307028 0.298370 0.329766
0.485264 0.314412 0.303508
0.622804 0.326942 0.283226
0.720108 0.338675 0.271027
0.784893 0.355280 0.266922
0.837154 0.381744 0.265884
0.878534 0.416151 0.265549
0.127056 0.432486 0.392816
0.297861 0.428319 0.359065
0.445733 0.417443 0.326029
0.568377 0.405175 0.298438
0.666252 0.396402 0.279523
0.745422 0.398651 0.270850
0.817521 0.415877 0.267446
0.879998 0.445999 0.265704
0.196300 0.585057 0.424526
0.312131 0.563131 0.389575
0.427707 0.535579 0.351821
0.536885 0.508528 0.317687
0.635913 0.487277 0.291946
0.725575 0.479004 0.278176
0.810516 0.485686 0.272130
0.887719 0.504720 0.269276
0.294876 0.715483 0.450540
0.358852 0.687456 0.417678
0.442072 0.654973 0.378617
0.535310 0.623625 0.340593
0.631171 0.598077 0.309337
0.724874 0.584031 0.290271
0.814865 0.581832 0.280983
0.899491 0.588681 0.276719
0.412650 0.804734 0.469099
0.440292 0.782602 0.441086
0.495661 0.757420 0.405438
0.570149 0.732981 0.368263
0.655863 0.712383 0.334745
0.744696 0.699084 0.310979
0.830291 0.692833 0.297487
0.912877 0.691662 0.290679
0.521496 0.858125 0.483153
0.530330 0.845297 0.461248
0.566453 0.831572 0.432384
0.623943 0.818674 0.400425
0.696509 0.807939 0.368951
0.775333 0.800621 0.343116
0.850972 0.796163 0.325925
0.924595 0.793639 0.316106
0.605858 0.888480 0.494061
0.609267 0.883709 0.479194
0.634224 0.879740 0.458954
0.678451 0.877115 0.435267
0.738447 0.876201 0.410125
0.806945 0.877323 0.386888
0.872066 0.879549 0.369194
0.933499 0.881726 0.357955
0.135801 0.216465 0.450563
0.359043 0.259085 0.429340
0.552681 0.303300 0.410211
0.702492 0.345301 0.396057
0.800927 0.382579 0.388528
0.849770 0.414948 0.387081
0.876432 0.444908 0.387580
0.891767 0.469465 0.389135
0.144531 0.361849 0.486973
0.342124 0.373408 0.458547
0.507387 0.381145 0.432772
0.636716 0.387185 0.412399
0.730111 0.393955 0.399100
0.793643 0.407028 0.393074
0.844979 0.430652 0.390263
0.886290 0.462271 0.388646
0.192704 0.512121 0.520928
0.344267 0.499309 0.489071
0.477162 0.480486 0.457488
0.589097 0.460946 0.430279
0.680184 0.445543 0.410302
0.755440 0.441889 0.399192
0.825300 0.453630 0.393101
0.888378 0.478291 0.389058
0.272580 0.649358 0.549825
0.371654 0.622192 0.517912
0.470866 0.588459 0.482752
0.565555 0.554491 0.449882
0.653035 0.525780 0.423486
0.734922 0.509674 0.406847
0.816249 0.508570 0.397108
0.895274 0.520214 0.390912
0.375312 0.759914 0.572039
0.426909 0.730063 0.542927
0.493865 0.693680 0.507413
0.569739 0.656547 0.471492
0.649560 0.623573 0.439988
0.731577 0.600685 0.417565
0.816754 0.589582 0.403507
0.904612 0.588714 0.394949
0.486509 0.831174 0.587142
0.506747 0.809160 0.562978
0.548246 0.781795 0.531198
0.605303 0.752911 0.496464
0.672884 0.725783 0.462839
0.747451 0.704256 0.435174
0.827509 0.690132 0.415824
0.914475 0.683075 0.403784
0.581601 0.872275 0.597773
0.587184 0.860092 0.579298
0.613260 0.845112 0.554073
0.656046 0.829067 0.524576
0.711650 0.813468 0.493209
0.775927 0.800169 0.463364
0.845653 0.790616 0.439363
0.923655 0.785048 0.422892
0.651008 0.894830 0.604672
0.653369 0.890488 0.592185
0.672261 0.885843 0.575037
0.706339 0.881495 0.553979
0.753419 0.878014 0.529815
0.809411 0.876452 0.503426
0.868214 0.877249 0.478256
0.932096 0.879465 0.458033
0.184679 0.313317 0.568264
0.395003 0.348252 0.549856
0.576839 0.386700 0.534594
0.718309 0.424701 0.523732
0.813036 0.459298 0.517820
0.861183 0.488625 0.516114
0.886530 0.513754 0.515874
0.900357 0.533442 0.516757
0.208787 0.458011 0.607734
0.382452 0.462520 0.584164
0.535045 0.466002 0.562390
0.659234 0.469462 0.544469
0.751451 0.474213 0.531722
0.813206 0.484068 0.524683
0.860124 0.501686 0.520845
0.896990 0.524688 0.518766
0.271392 0.594732 0.641039
0.398412 0.578351 0.615229
0.517521 0.557726 0.588443
0.622362 0.536798 0.564089
0.709365 0.519237 0.544686
0.779407 0.511093 0.532179
0.842158 0.515146 0.524529
0.899491 0.529030 0.519655
0.360090 0.711632 0.666972
0.439894 0.684868 0.641659
0.525025 0.651742 0.612269
0.608960 0.617297 0.583229
0.687304 0.585996 0.558036
0.759722 0.563934 0.539899
0.831911 0.553804 0.527995
0.905163 0.554218 0.520320
0.462732 0.800374 0.685077
0.502448 0.773597 0.662641
0.556553 0.739389 0.633634
0.618979 0.702328 0.602517
0.685138 0.666435 0.573044
0.753940 0.636691 0.549249
0.828844 0.616275 0.532508
0.911852 0.605448 0.521811
0.562621 0.854096 0.695766
0.577452 0.835368 0.677815
0.608903 0.810115 0.652547
0.652527 0.781167 0.623024
0.704690 0.751123 0.592094
0.764390 0.723290 0.563486
0.834451 0.701521 0.541314
0.918250 0.687521 0.526749
0.641422 0.883917 0.702048
0.645560 0.873933 0.688770
0.664609 0.860066 0.669265
0.695973 0.843486 0.644711
0.737250 0.825393 0.616421
0.787410 0.807614 0.586344
0.848379 0.793386 0.559772
0.924724 0.784291 0.540499
0.695988 0.899773 0.705026
0.698228 0.896329 0.696133
0.712593 0.891855 0.683374
0.738327 0.886798 0.666610
0.774185 0.881711 0.645762
0.818408 0.877986 0.619973
0.869571 0.877184 0.592456
0.932006 0.878726 0.568696
0.244049 0.427691 0.664993
0.436999 0.456442 0.652895
0.604475 0.488893 0.643992
0.736432 0.521586 0.638294
0.827147 0.551616 0.635495
0.874466 0.575539 0.634480
0.898018 0.593170 0.633766
0.909741 0.605553 0.633723
0.285827 0.556803 0.702823
0.435536 0.559718 0.687003
0.574525 0.563681 0.672433
0.692294 0.568373 0.660163
0.782032 0.573724 0.650855
0.840249 0.580761 0.644787
0.879972 0.590350 0.640834
0.908989 0.601411 0.638477
0.360357 0.671073 0.732930
0.464773 0.657880 0.715672
0.571119 0.642693 0.697225
0.669168 0.627209 0.679682
0.751683 0.613069 0.664662
0.814555 0.603186 0.653666
0.866077 0.599125 0.646221
0.911877 0.599902 0.641454
0.452685 0.763966 0.754996
0.515803 0.743752 0.738367
0.589734 0.718867 0.718205
0.665419 0.691824 0.697205
0.736062 0.664919 0.677614
0.797851 0.641270 0.661833
0.856312 0.623360 0.650592
0.916321 0.611750 0.643329
0.549351 0.831432 0.769234
0.579903 0.812074 0.754947
0.625383 0.786408 0.735395
0.678799 0.756613 0.713128
0.734706 0.724719 0.690437
0.790520 0.693149 0.670159
0.850862 0.665748 0.654839
0.920738 0.645241 0.644954
0.634125 0.870505 0.776293
0.645809 0.857364 0.765324
0.671579 0.838382 0.748696
0.706972 0.814607 0.727895
0.748456 0.787173 0.704480
0.795098 0.757547 0.680823
0.851879 0.730484 0.661384
0.924398 0.709944 0.648464
0.696275 0.891733 0.779414
0.700174 0.884830 0.771530
0.715510 0.874245 0.758996
0.740020 0.860199 0.742042
0.771795 0.843120 0.721135
0.810675 0.823872 0.697120
0.860909 0.806374 0.674848
0.928387 0.793631 0.658520
0.737880 0.902971 0.780252
0.740185 0.900519 0.774885
0.751697 0.896940 0.766925
0.771916 0.892312 0.755847
0.800034 0.886902 0.741187
0.835264 0.881749 0.721529
0.878176 0.878845 0.699392
0.933654 0.878318 0.679949
0.316363 0.541578 0.736659
0.487966 0.566161 0.731560
0.637132 0.592534 0.728648
0.756083 0.618562 0.727543
0.840159 0.642213 0.727693
0.885688 0.659823 0.727743
0.907754 0.670502 0.726793
0.917829 0.676431 0.725696
0.371990 0.645124 0.768373
0.499475 0.649653 0.759917
0.622040 0.655864 0.752579
0.728873 0.662768 0.746563
0.812216 0.669482 0.741893
0.865458 0.674844 0.738219
0.898160 0.678412 0.734999
0.919355 0.680570 0.732484
0.451812 0.733417 0.793089
0.537349 0.726031 0.783333
0.629972 0.718674 0.773240
0.718402 0.711248 0.763584
0.793966 0.703676 0.754959
0.849153 0.695887 0.747900
0.889568 0.688166 0.742480
0.922616 0.681148 0.738730
0.540975 0.803167 0.810836
0.590874 0.790773 0.801429
0.654439 0.776312 0.790237
0.721783 0.760099 0.778367
0.784986 0.742429 0.766790
0.837333 0.723392 0.756701
0.882273 0.704405 0.749093
0.926288 0.687594 0.744210
0.626857 0.852709 0.821984
0.650422 0.840770 0.814123
0.689249 0.825151 0.803384
0.736008 0.806021 0.790808
0.784677 0.783596 0.777420
0.830586 0.757656 0.764741
0.876785 0.731065 0.754942
0.929392 0.707833 0.748920
0.695863 0.880978 0.827006
0.705138 0.872871 0.821224
0.727310 0.860987 0.812294
0.757937 0.845044 0.800723
0.793324 0.824935 0.787164
0.831228 0.800198 0.772864
0.875282 0.774554 0.761022
0.931498 0.752769 0.753572
0.743569 0.896395 0.828715
0.747007 0.892065 0.824639
0.760258 0.885199 0.818080
0.781249 0.875380 0.808917
0.808143 0.862400 0.797226
0.840119 0.845994 0.783328
0.880140 0.829242 0.770364
0.933611 0.815602 0.761220
0.774556 0.904667 0.828834
0.776434 0.903004 0.825870
0.786109 0.900544 0.821828
0.803202 0.897072 0.816239
0.827027 0.892542 0.808681
0.856734 0.887326 0.798135
0.892068 0.883041 0.786036
0.936505 0.880400 0.775544
0.397683 0.640762 0.787537
0.546281 0.663942 0.789453
0.674435 0.685416 0.791512
0.777448 0.705080 0.793812
0.852439 0.722459 0.796217
0.895161 0.734690 0.797569
0.915885 0.740155 0.796875
0.924520 0.740773 0.794696
0.462836 0.718686 0.813271
0.568222 0.725258 0.810664
0.671370 0.732952 0.808818
0.763217 0.740988 0.807622
0.836831 0.748499 0.806849
0.884521 0.753497 0.805748
0.911901 0.754644 0.803731
0.927089 0.752766 0.801203
0.541664 0.782899 0.832723
0.609329 0.780079 0.828164
0.685974 0.778583 0.824100
0.761509 0.777629 0.820502
0.827731 0.776445 0.817300
0.875906 0.773672 0.814297
0.907994 0.768609 0.811461
0.930263 0.762050 0.809104
0.622137 0.832519 0.846437
0.659816 0.825783 0.841683
0.711739 0.819286 0.836769
0.769056 0.812471 0.831824
0.824285 0.804815 0.826992
0.869498 0.795341 0.822609
0.904340 0.784231 0.819308
0.933422 0.772895 0.817439
0.694471 0.867516 0.855054
0.711285 0.860674 0.851135
0.742836 0.852804 0.846430
0.782812 0.843492 0.841128
0.825663 0.832383 0.835497
0.865558 0.818674 0.830246
0.901259 0.803503 0.826690
0.936081 0.789114 0.825385
0.748899 0.887818 0.858866
0.755037 0.882988 0.856158
0.773198 0.876639 0.852452
0.799840 0.868374 0.847803
0.831691 0.857891 0.842402
0.865425 0.844541 0.836961
0.900001 0.829984 0.833203
0.937852 0.816727 0.831977
0.784882 0.899132 0.859883
0.786809 0.896446 0.858090
0.797764 0.892567 0.855627
0.816298 0.887207 0.852335
0.840873 0.880178 0.848188
0.869883 0.871173 0.843490
0.902086 0.861625 0.839708
0.939054 0.853300 0.837878
0.806934 0.905056 0.859721
0.807841 0.904080 0.858297
0.815826 0.902686 0.856974
0.830766 0.900710 0.855460
0.852121 0.898088 0.853503
0.878786 0.894966 0.850742
0.908020 0.892166 0.847692
0.940113 0.890070 0.845393
