Assets/1__3DArt/KimSe/artstation_asset/LUTs_pasterls/CUBE/Pastelopolis 02.cube
# Enhanced with VOXCOLOR algorithms
LUT_3D_SIZE 8
DOMAIN_MIN 0.000000 0.000000 0.000000
DOMAIN_MAX 0.903226 0.903226 0.903226
0.113725 0.094118 0.105882
0.315151 0.122285 0.087345
0.529114 0.158935 0.087523
0.720292 0.197770 0.104534
0.862598 0.233321 0.134746
0.936696 0.258709 0.167906
0.968353 0.273777 0.191534
0.981212 0.282479 0.205798
0.135047 0.212932 0.133012
0.296528 0.216774 0.110206
0.487107 0.230304 0.100882
0.671282 0.249223 0.107229
0.821124 0.269497 0.129055
0.910793 0.285535 0.160077
0.954793 0.294864 0.186342
0.975307 0.299491 0.204510
0.180854 0.369870 0.165135
0.301117 0.353919 0.139192
0.462518 0.346604 0.121955
0.632467 0.345751 0.118604
0.783716 0.348995 0.131756
0.886286 0.352414 0.159490
0.942446 0.352404 0.187822
0.970971 0.349508 0.209684
0.247386 0.539845 0.197117
0.328429 0.511479 0.170195
0.457409 0.489356 0.147680
0.607136 0.473056 0.136655
0.753309 0.461677 0.141831
0.864734 0.452872 0.165624
0.931869 0.442904 0.195519
0.968261 0.431474 0.221104
0.330047 0.700582 0.224781
0.376799 0.668919 0.199594
0.472617 0.640627 0.175122
0.597542 0.616314 0.159248
0.732153 0.596024 0.157990
0.847295 0.578506 0.177664
0.923336 0.560624 0.208692
0.967014 0.541888 0.238246
0.421323 0.822731 0.243753
0.443554 0.797577 0.222723
0.509416 0.773602 0.200109
0.607107 0.751535 0.183246
0.723541 0.731628 0.178341
0.835327 0.712909 0.194410
0.916663 0.692951 0.226173
0.966419 0.671507 0.260286
0.504830 0.899689 0.254582
0.513700 0.884250 0.238494
0.556633 0.869111 0.219969
0.629136 0.854786 0.204975
0.724450 0.841422 0.199094
0.827113 0.828012 0.212551
0.910011 0.812378 0.244778
0.964635 0.794130 0.284194
0.569839 0.945030 0.258809
0.574856 0.938278 0.248459
0.602962 0.931831 0.235426
0.655217 0.925955 0.224144
0.730192 0.920670 0.219238
0.820707 0.915170 0.230982
0.902358 0.907457 0.263319
0.961064 0.896536 0.308526
0.137877 0.137875 0.213318
0.335731 0.160629 0.193522
0.543083 0.191686 0.188851
0.727526 0.225266 0.198783
0.865113 0.256371 0.221036
0.937551 0.278927 0.247462
0.968996 0.292675 0.266767
0.982103 0.300877 0.278799
0.159330 0.263362 0.239018
0.329488 0.260039 0.210668
0.515988 0.266921 0.196184
0.690163 0.279880 0.196952
0.829705 0.295085 0.212407
0.913536 0.307612 0.237138
0.955791 0.314932 0.258662
0.976335 0.318456 0.273762
0.203817 0.417687 0.269152
0.333643 0.395968 0.238031
0.492049 0.383290 0.216272
0.652569 0.377508 0.207950
0.793191 0.376340 0.215033
0.889137 0.376377 0.236033
0.943239 0.374071 0.258636
0.971835 0.369556 0.276309
0.267349 0.578191 0.299078
0.353811 0.547078 0.269272
0.479861 0.522048 0.243262
0.622170 0.502748 0.227488
0.759893 0.488395 0.226346
0.865940 0.477031 0.242625
0.931688 0.465064 0.265658
0.968612 0.451969 0.285970
0.345397 0.725320 0.324961
0.393303 0.694147 0.299013
0.485715 0.665516 0.272015
0.604920 0.640285 0.251618
0.733575 0.618744 0.243822
0.845397 0.599990 0.255299
0.921379 0.581028 0.278489
0.966518 0.561257 0.301928
0.431364 0.834637 0.342496
0.453115 0.811490 0.321468
0.515425 0.788543 0.296935
0.608260 0.766857 0.275976
0.720162 0.746991 0.264733
0.830085 0.728303 0.272311
0.912594 0.708457 0.295510
0.964940 0.687067 0.322862
0.510089 0.903113 0.351655
0.518356 0.889538 0.335458
0.558498 0.875634 0.315332
0.627206 0.862118 0.296834
0.718896 0.849332 0.285270
0.820137 0.836525 0.290425
0.904560 0.821611 0.313431
0.962442 0.804046 0.345007
0.570602 0.943062 0.353766
0.575374 0.937794 0.342701
0.602099 0.932477 0.328080
0.652145 0.927442 0.313861
0.724566 0.922793 0.304232
0.813656 0.917863 0.308416
0.896401 0.910783 0.331015
0.958299 0.900476 0.366401
0.166357 0.201218 0.346119
0.356742 0.215606 0.323244
0.555633 0.238843 0.312853
0.733002 0.265606 0.315187
0.866506 0.291255 0.328875
0.938180 0.310274 0.347737
0.969868 0.321986 0.362011
0.983357 0.329112 0.371198
0.187863 0.328761 0.368879
0.352250 0.317879 0.337740
0.530740 0.317540 0.318885
0.697369 0.324007 0.313599
0.831813 0.333773 0.321538
0.914100 0.342497 0.338660
0.956517 0.347456 0.354438
0.977667 0.349609 0.365848
0.231009 0.476181 0.395816
0.356263 0.449650 0.363236
0.507571 0.432026 0.338679
0.660850 0.421478 0.325725
0.795956 0.416021 0.326225
0.889680 0.412819 0.339542
0.943748 0.408398 0.355565
0.973072 0.402557 0.368533
0.291676 0.623805 0.422392
0.374545 0.591216 0.392739
0.494532 0.564078 0.365482
0.630231 0.542296 0.346408
0.762420 0.525361 0.339614
0.865858 0.511864 0.348263
0.931525 0.498524 0.363999
0.969423 0.484593 0.378688
0.365393 0.755096 0.444859
0.410677 0.725220 0.420349
0.497959 0.696942 0.393428
0.611193 0.671336 0.370974
0.734527 0.648952 0.358535
0.843710 0.629400 0.362689
0.919863 0.610157 0.378157
0.966487 0.590481 0.395341
0.446076 0.850258 0.458960
0.466252 0.829335 0.439847
0.524339 0.807769 0.416192
0.611821 0.786778 0.394210
0.718675 0.767125 0.379438
0.826049 0.748632 0.380402
0.909118 0.729489 0.395886
0.963691 0.709228 0.416694
0.519492 0.909283 0.464697
0.527059 0.897500 0.450165
0.564130 0.884860 0.431145
0.628496 0.872148 0.412356
0.715709 0.859829 0.398417
0.814427 0.847511 0.398045
0.899472 0.833604 0.413587
0.960117 0.817574 0.438094
0.574959 0.943315 0.463851
0.579404 0.939106 0.453488
0.604327 0.934579 0.439589
0.651529 0.930088 0.425436
0.720651 0.925794 0.414527
0.807494 0.921235 0.414567
0.890620 0.914892 0.430015
0.955368 0.905800 0.456913
0.196785 0.282297 0.489412
0.376341 0.287454 0.464105
0.565240 0.301946 0.449071
0.735425 0.321053 0.444863
0.865703 0.340574 0.450683
0.937727 0.355437 0.462065
0.970280 0.364419 0.471098
0.984349 0.369862 0.477081
0.218829 0.406787 0.509262
0.368341 0.389649 0.478452
0.535955 0.382734 0.457138
0.696211 0.382934 0.446791
0.828756 0.387254 0.447549
0.912493 0.391955 0.456877
0.956579 0.394207 0.466584
0.978822 0.394674 0.474022
0.260939 0.542880 0.532559
0.372688 0.513643 0.501935
0.513764 0.492447 0.476890
0.660611 0.477981 0.460740
0.793202 0.468736 0.455413
0.887784 0.462536 0.461210
0.943500 0.456186 0.470599
0.974183 0.449286 0.478862
0.319044 0.674340 0.554981
0.392336 0.642173 0.528156
0.503647 0.614371 0.502081
0.632678 0.591172 0.481740
0.760968 0.572424 0.470822
0.863861 0.557365 0.472684
0.930723 0.543298 0.481538
0.970148 0.529357 0.490946
0.388809 0.787859 0.572996
0.428719 0.760359 0.551728
0.509269 0.733486 0.527256
0.615930 0.708435 0.505265
0.734140 0.685965 0.490483
0.841285 0.666262 0.488928
0.918069 0.647580 0.497615
0.966407 0.629130 0.509182
0.464402 0.868026 0.582650
0.482137 0.849659 0.566775
0.535344 0.830000 0.546199
0.616925 0.810257 0.525872
0.718217 0.791295 0.510342
0.822548 0.773425 0.506978
0.905808 0.755659 0.516222
0.962389 0.737566 0.531373
0.532364 0.917159 0.584403
0.539124 0.907162 0.572626
0.572899 0.895914 0.556629
0.632502 0.884170 0.540059
0.714581 0.872455 0.526589
0.809909 0.860765 0.523397
0.894802 0.848246 0.533502
0.957701 0.834524 0.552242
0.582746 0.945148 0.580676
0.586817 0.941727 0.571915
0.609673 0.937800 0.560297
0.653593 0.933711 0.548337
0.718834 0.929658 0.538731
0.802682 0.925409 0.537413
0.885410 0.919945 0.548209
0.952456 0.912566 0.568642
0.227334 0.378677 0.629845
0.393324 0.375623 0.604564
0.571017 0.381693 0.587418
0.734041 0.393068 0.578967
0.862010 0.406204 0.578729
0.935563 0.416478 0.583592
0.969703 0.422145 0.587694
0.984608 0.425349 0.590418
0.250728 0.494574 0.647723
0.381076 0.473833 0.620364
0.536016 0.462045 0.599258
0.689996 0.456957 0.586027
0.822010 0.456279 0.581248
0.908913 0.456952 0.583698
0.955728 0.456260 0.587712
0.979440 0.454766 0.591282
0.292312 0.614980 0.667466
0.386411 0.585923 0.641663
0.515192 0.563294 0.618741
0.655325 0.546397 0.601664
0.786498 0.534298 0.592369
0.883656 0.525551 0.591878
0.942238 0.517548 0.595378
0.974806 0.509880 0.599449
0.348276 0.727329 0.685386
0.408949 0.697815 0.663523
0.509696 0.671255 0.640997
0.631382 0.648170 0.621783
0.756242 0.628760 0.608963
0.859818 0.612919 0.605762
0.928916 0.598828 0.608958
0.970399 0.585703 0.614048
0.414541 0.821600 0.698533
0.447457 0.797651 0.681806
0.520000 0.773456 0.661765
0.619316 0.750182 0.642630
0.732211 0.728697 0.628039
0.837689 0.709706 0.623001
0.915580 0.692466 0.626580
0.965920 0.676334 0.633830
0.485390 0.886473 0.703659
0.500116 0.871022 0.691745
0.547917 0.853884 0.675778
0.623099 0.836117 0.659269
0.718355 0.818577 0.645558
0.819251 0.801991 0.640406
0.902446 0.786328 0.645388
0.960864 0.771358 0.656315
0.548095 0.925794 0.701918
0.553935 0.917594 0.693345
0.584278 0.907925 0.681495
0.638859 0.897440 0.668900
0.715359 0.886669 0.658182
0.806639 0.875962 0.654690
0.890682 0.865275 0.661532
0.955281 0.854516 0.676172
0.593765 0.947987 0.696185
0.597414 0.945198 0.689436
0.618077 0.941796 0.680927
0.658474 0.938094 0.672441
0.719439 0.934311 0.665864
0.799651 0.930440 0.665329
0.881167 0.926020 0.673782
0.949756 0.920722 0.690157
0.257115 0.487375 0.749808
0.407575 0.479817 0.728058
0.573096 0.479808 0.712450
0.728850 0.484824 0.703395
0.855082 0.492300 0.700515
0.931127 0.498177 0.701405
0.967631 0.500366 0.701943
0.983759 0.501031 0.702051
0.282450 0.587382 0.765881
0.394557 0.567209 0.744379
0.536425 0.553855 0.726632
0.683225 0.545965 0.714070
0.813958 0.542007 0.707348
0.903996 0.539562 0.705839
0.953891 0.536281 0.705963
0.979268 0.532890 0.706640
0.324010 0.687554 0.782140
0.401950 0.662128 0.762759
0.518175 0.641242 0.744519
0.650511 0.624641 0.729732
0.779152 0.611835 0.720000
0.878511 0.601924 0.716416
0.940148 0.593101 0.716320
0.974739 0.585263 0.717711
0.378357 0.778578 0.795792
0.427404 0.753903 0.779825
0.517329 0.730986 0.762727
0.630780 0.710380 0.747320
0.751228 0.692412 0.735862
0.855025 0.677356 0.730936
0.926408 0.664370 0.731183
0.970014 0.653082 0.733972
0.441731 0.853235 0.804687
0.468032 0.833745 0.792814
0.532404 0.813617 0.778334
0.623846 0.793774 0.764059
0.730722 0.774980 0.752483
0.833974 0.758158 0.747274
0.912730 0.743502 0.748679
0.964943 0.730822 0.753910
0.508464 0.903631 0.806583
0.520256 0.891235 0.798450
0.562698 0.877200 0.787541
0.631359 0.862326 0.776131
0.720197 0.847334 0.766437
0.817006 0.833125 0.762466
0.899463 0.820432 0.766000
0.959214 0.809428 0.774896
0.566542 0.934094 0.803236
0.571347 0.927557 0.797473
0.598379 0.919622 0.789784
0.648053 0.910808 0.781822
0.718875 0.901591 0.775306
0.805525 0.892526 0.773814
0.887785 0.884182 0.779836
0.953184 0.876834 0.792417
0.608292 0.951338 0.797457
0.611314 0.949016 0.792476
0.629803 0.946111 0.786964
0.666732 0.942894 0.782156
0.723347 0.939584 0.779295
0.799439 0.936341 0.781012
0.878791 0.933154 0.789242
0.947688 0.930059 0.803962
0.286496 0.594753 0.840428
0.420991 0.586638 0.823663
0.574124 0.583824 0.811686
0.722437 0.585129 0.804714
0.846729 0.589037 0.802324
0.925335 0.592195 0.802274
0.964595 0.592170 0.801369
0.982251 0.590884 0.800139
0.313813 0.674909 0.854010
0.410937 0.658025 0.838317
0.540581 0.645929 0.825200
0.679391 0.637984 0.815702
0.807151 0.633275 0.810270
0.898962 0.629862 0.808244
0.951525 0.625604 0.807095
0.978533 0.621227 0.806467
0.355446 0.753411 0.866786
0.421272 0.733068 0.853100
0.526326 0.715929 0.840075
0.650269 0.701943 0.829328
0.774533 0.690844 0.821974
0.874242 0.681972 0.818702
0.938020 0.673997 0.817854
0.974237 0.667044 0.818393
0.408425 0.823527 0.876819
0.449004 0.804089 0.865809
0.529547 0.785913 0.854032
0.634699 0.769411 0.843375
0.749489 0.754848 0.835357
0.851855 0.742531 0.831730
0.924394 0.732147 0.831849
0.969414 0.723691 0.834267
0.469374 0.880186 0.882693
0.490701 0.864894 0.874711
0.548000 0.849174 0.865165
0.631955 0.833662 0.855892
0.732423 0.818919 0.848528
0.832420 0.805790 0.845530
0.910957 0.794883 0.847321
0.964105 0.786388 0.852386
0.532691 0.918160 0.883109
0.541949 0.908359 0.877804
0.579655 0.897387 0.871014
0.642368 0.885819 0.864232
0.725072 0.874209 0.858901
0.817450 0.863422 0.857644
0.898264 0.854451 0.861737
0.958229 0.847735 0.870105
0.586868 0.941389 0.879910
0.590434 0.936107 0.876163
0.614470 0.929787 0.871682
0.659819 0.922842 0.867585
0.725542 0.915674 0.864987
0.807631 0.908904 0.866170
0.887369 0.903318 0.872651
0.952264 0.899359 0.884130
0.625222 0.954729 0.875310
0.627389 0.952688 0.871778
0.643871 0.950228 0.868639
0.677747 0.947592 0.866787
0.730493 0.944997 0.867044
0.802621 0.942725 0.871040
0.879240 0.940980 0.879685
0.947024 0.939922 0.893181
0.315580 0.689596 0.905232
0.434188 0.682250 0.892919
0.575154 0.678529 0.884762
0.716101 0.678349 0.880784
0.838249 0.681103 0.880477
0.919221 0.684322 0.881692
0.961349 0.684798 0.881433
0.980581 0.683068 0.880239
0.344929 0.751318 0.916881
0.428950 0.737967 0.905766
0.547128 0.728028 0.896869
0.677701 0.721476 0.890914
0.801470 0.717923 0.888142
0.893966 0.715956 0.887776
0.948749 0.713090 0.887482
0.977285 0.709204 0.886947
0.386567 0.810006 0.926654
0.442548 0.794321 0.917320
0.537502 0.781099 0.908747
0.652996 0.770504 0.902064
0.771901 0.762473 0.898011
0.870673 0.756568 0.896899
0.935804 0.751322 0.897191
0.973233 0.746400 0.898016
0.438307 0.861462 0.933725
0.472088 0.846497 0.926508
0.544261 0.832762 0.919110
0.641382 0.820625 0.912808
0.750064 0.810322 0.908602
0.850097 0.802169 0.907590
0.922965 0.795746 0.909051
0.968659 0.790796 0.911825
0.497352 0.902644 0.937563
0.514235 0.890696 0.932539
0.565008 0.878860 0.926926
0.641927 0.867616 0.921927
0.736246 0.857388 0.918588
0.832890 0.848931 0.918482
0.910653 0.842657 0.921613
0.963755 0.838545 0.926776
0.558111 0.930529 0.937671
0.564395 0.922584 0.934455
0.597363 0.914188 0.930835
0.654556 0.905794 0.927772
0.731900 0.897841 0.926169
0.820556 0.891148 0.927688
0.899596 0.886434 0.932780
0.958577 0.883830 0.940441
0.609032 0.948110 0.935347
0.610706 0.943591 0.933210
0.631581 0.938570 0.931196
0.672989 0.933419 0.930047
0.734506 0.928506 0.930466
0.813048 0.924514 0.933892
0.890372 0.922016 0.940804
0.953394 0.921083 0.950564
0.644066 0.958360 0.931837
0.645158 0.956455 0.929967
0.659612 0.954309 0.928890
0.690726 0.952216 0.929276
0.740231 0.950444 0.931689
0.809113 0.949450 0.937147
0.883046 0.949390 0.945652
0.948550 0.950118 0.956840
