Assets/1__3DArt/KimSe/artstation_asset/LUTs_pasterls/CUBE/Pastelopolis 01 S.cube
# Enhanced with VOXCOLOR algorithms
LUT_3D_SIZE 5
DOMAIN_MIN 0.000000 0.000000 0.000000
DOMAIN_MAX 0.903226 0.903226 0.903226
0.019608 0.050980 0.101961
0.436791 0.170193 0.095606
0.746704 0.269973 0.085788
0.866967 0.332391 0.088696
0.884617 0.355875 0.093112
0.036046 0.260816 0.162029
0.349909 0.303428 0.123232
0.635318 0.340628 0.079696
0.797821 0.375938 0.066689
0.875028 0.415457 0.083045
0.133282 0.554334 0.233212
0.336837 0.542473 0.172941
0.591347 0.537275 0.104479
0.784669 0.547326 0.077282
0.890787 0.574156 0.096915
0.320956 0.776915 0.270207
0.420292 0.757767 0.218667
0.621733 0.751023 0.153780
0.814850 0.756979 0.123173
0.920519 0.767111 0.139239
0.521741 0.873019 0.288080
0.560798 0.869462 0.260227
0.685326 0.876201 0.219066
0.839100 0.888708 0.197645
0.938639 0.895474 0.217680
0.082432 0.124032 0.294144
0.476053 0.216789 0.261741
0.744253 0.297795 0.238992
0.853545 0.359378 0.236334
0.884536 0.406238 0.239988
0.101009 0.371746 0.351190
0.412166 0.376064 0.295061
0.628874 0.368716 0.253138
0.771118 0.378455 0.237577
0.877143 0.428964 0.235972
0.226017 0.639337 0.406489
0.394777 0.594150 0.343241
0.579309 0.547394 0.281413
0.747180 0.527211 0.249691
0.892243 0.546089 0.244107
0.423690 0.817384 0.442979
0.482559 0.781171 0.390262
0.617569 0.745990 0.326627
0.774403 0.725604 0.282710
0.916176 0.721494 0.269219
0.594619 0.886685 0.465218
0.616125 0.879023 0.434952
0.703301 0.875970 0.392356
0.824694 0.878450 0.353340
0.934040 0.882555 0.334812
0.159491 0.263639 0.510912
0.520536 0.333045 0.477539
0.761973 0.402150 0.457047
0.865222 0.458267 0.452124
0.896006 0.500873 0.453707
0.213375 0.518045 0.575006
0.468480 0.497062 0.525154
0.659663 0.470572 0.484089
0.790923 0.464213 0.462655
0.892574 0.497910 0.454872
0.367332 0.733677 0.621071
0.489272 0.678982 0.569590
0.627087 0.614940 0.513121
0.762232 0.570545 0.474327
0.904115 0.563436 0.457064
0.549464 0.855970 0.646224
0.582756 0.820145 0.606519
0.665958 0.773119 0.550671
0.776573 0.730705 0.498396
0.918186 0.707294 0.467993
0.673718 0.897426 0.656644
0.686924 0.890141 0.635164
0.742208 0.881824 0.600880
0.826337 0.876659 0.556108
0.931927 0.879072 0.513322
0.260186 0.456235 0.686668
0.573558 0.506486 0.670386
0.788871 0.560614 0.663296
0.886946 0.601958 0.661360
0.911958 0.623457 0.660466
0.360441 0.663321 0.746269
0.554346 0.646482 0.719464
0.727480 0.629429 0.694390
0.842181 0.618394 0.677148
0.913742 0.619156 0.668727
0.523732 0.808883 0.780961
0.607804 0.773489 0.754529
0.716517 0.725984 0.720139
0.817057 0.677071 0.689740
0.921025 0.640530 0.672742
0.668984 0.881319 0.794641
0.690803 0.859733 0.776144
0.744990 0.822647 0.743684
0.816694 0.775061 0.705308
0.926838 0.734573 0.678669
0.747832 0.903620 0.796394
0.757390 0.899011 0.786892
0.792860 0.890930 0.769104
0.849030 0.881729 0.739716
0.934187 0.878465 0.706197
0.397683 0.640762 0.787537
0.644501 0.680223 0.790982
0.817248 0.714138 0.795089
0.903642 0.737071 0.797703
0.924520 0.740773 0.794696
0.520549 0.768257 0.828507
0.658938 0.767130 0.821341
0.796433 0.768945 0.816036
0.888240 0.768040 0.811466
0.929407 0.760008 0.806986
0.659583 0.851067 0.851089
0.715515 0.838631 0.843128
0.800623 0.823743 0.833980
0.877190 0.803691 0.825420
0.934815 0.780191 0.821509
0.760661 0.891995 0.859539
0.775186 0.883436 0.854634
0.818572 0.869169 0.846648
0.874119 0.847759 0.837433
0.938238 0.824526 0.833556
0.806934 0.905056 0.859721
0.813101 0.903078 0.857294
0.841064 0.899435 0.854539
0.885710 0.894217 0.850023
0.940113 0.890070 0.845393
