Assets/1__3DArt/KimSe/artstation_asset/LUTs_pasterls/CUBE/Pastelopolis 01.cube
# Enhanced with VOXCOLOR algorithms
LUT_3D_SIZE 8
DOMAIN_MIN 0.000000 0.000000 0.000000
DOMAIN_MAX 0.903226 0.903226 0.903226
0.019608 0.050980 0.101961
0.262634 0.120469 0.100285
0.493122 0.186260 0.093320
0.680082 0.244760 0.086987
0.803364 0.292959 0.085232
0.856908 0.325579 0.087983
0.877179 0.344766 0.090986
0.884617 0.355875 0.093112
0.021160 0.153067 0.132016
0.233059 0.199301 0.122674
0.452718 0.246052 0.108240
0.643313 0.290483 0.095145
0.778902 0.329926 0.087829
0.845596 0.359257 0.087305
0.874048 0.377263 0.088934
0.885993 0.387219 0.090711
0.043967 0.303347 0.173650
0.220423 0.326491 0.155821
0.422960 0.353444 0.132590
0.611925 0.381754 0.111055
0.757552 0.408990 0.096408
0.838051 0.430777 0.091541
0.875581 0.444092 0.091808
0.892361 0.450234 0.093592
0.094905 0.471562 0.215687
0.231893 0.476094 0.191557
0.409879 0.486628 0.161048
0.589779 0.500843 0.131870
0.740491 0.516433 0.110021
0.833573 0.529806 0.100690
0.880517 0.537248 0.099847
0.902579 0.538582 0.102008
0.177790 0.631406 0.249493
0.272425 0.624786 0.223252
0.418179 0.625201 0.189124
0.580133 0.630337 0.155119
0.728732 0.637927 0.127868
0.831357 0.644805 0.114859
0.887432 0.647253 0.113439
0.915271 0.644355 0.116438
0.294383 0.751348 0.268444
0.348507 0.742594 0.244717
0.455674 0.740820 0.212319
0.589148 0.743865 0.178630
0.724601 0.749558 0.150158
0.830134 0.754714 0.135844
0.893655 0.755725 0.135131
0.927698 0.751642 0.140021
0.418699 0.827108 0.279958
0.443534 0.820523 0.260569
0.514323 0.819920 0.233210
0.614613 0.823758 0.203811
0.727871 0.830346 0.177978
0.828222 0.836773 0.164951
0.896017 0.839463 0.166428
0.936228 0.837503 0.174841
0.524935 0.873019 0.290209
0.535872 0.870291 0.277207
0.579329 0.871550 0.257013
0.648885 0.876178 0.234026
0.736452 0.883301 0.212820
0.825578 0.890960 0.202444
0.894301 0.895969 0.206929
0.940283 0.897209 0.220380
0.053926 0.084917 0.205557
0.294897 0.146717 0.192386
0.515863 0.208689 0.176962
0.691900 0.266162 0.164787
0.807341 0.315215 0.159406
0.858188 0.350092 0.160666
0.878197 0.371866 0.163358
0.886120 0.385074 0.165944
0.050560 0.205733 0.235359
0.285572 0.246979 0.213127
0.500054 0.288403 0.190792
0.673396 0.327930 0.173021
0.792368 0.363532 0.162833
0.851071 0.390962 0.160571
0.877407 0.408541 0.161030
0.889266 0.418498 0.161904
0.076853 0.361172 0.271529
0.276491 0.380895 0.244002
0.474042 0.402866 0.214958
0.645467 0.425696 0.189928
0.773432 0.447852 0.172844
0.844794 0.465967 0.165905
0.879778 0.477038 0.164193
0.896510 0.481642 0.163996
0.135868 0.523932 0.307173
0.284644 0.526211 0.277808
0.455273 0.533035 0.243999
0.619414 0.542866 0.212519
0.754669 0.554057 0.188604
0.839505 0.563664 0.176871
0.884311 0.568246 0.173310
0.906788 0.567400 0.172669
0.227678 0.671109 0.337068
0.322127 0.663445 0.308849
0.457231 0.661560 0.273471
0.604509 0.663747 0.238300
0.739733 0.668234 0.209428
0.835312 0.672207 0.193724
0.889911 0.672223 0.188879
0.918822 0.667515 0.188430
0.348044 0.777178 0.357584
0.396993 0.768200 0.332700
0.492109 0.764883 0.299897
0.611230 0.765708 0.265715
0.733900 0.769027 0.235934
0.832484 0.772051 0.218500
0.894553 0.771417 0.213415
0.929961 0.766423 0.214060
0.467838 0.842605 0.372906
0.487776 0.836015 0.352311
0.548289 0.834239 0.324754
0.636115 0.836231 0.295152
0.737576 0.840735 0.268176
0.830536 0.845314 0.251533
0.896022 0.846763 0.247358
0.936986 0.844393 0.250136
0.564531 0.881060 0.385468
0.572065 0.878151 0.370906
0.608442 0.878572 0.350465
0.668875 0.881880 0.327486
0.746912 0.887397 0.305476
0.828808 0.893528 0.291372
0.894177 0.897566 0.289055
0.939556 0.898637 0.294861
0.092520 0.139968 0.325983
0.327585 0.193294 0.306265
0.538077 0.250096 0.286690
0.703835 0.304974 0.271731
0.812592 0.353335 0.264183
0.861577 0.388958 0.263851
0.881650 0.411868 0.265682
0.890086 0.426108 0.268190
0.091705 0.276398 0.358523
0.324698 0.309078 0.331005
0.529001 0.343865 0.305439
0.690465 0.378447 0.285319
0.800678 0.410580 0.272821
0.856188 0.436085 0.268186
0.882114 0.452794 0.266756
0.894366 0.462420 0.266434
0.127111 0.432499 0.392834
0.323778 0.445487 0.362542
0.509761 0.461442 0.332050
0.667491 0.479071 0.305794
0.784603 0.496926 0.286918
0.851154 0.511944 0.277393
0.885077 0.521046 0.273104
0.902148 0.524477 0.270837
0.196566 0.585086 0.424622
0.339678 0.583320 0.395106
0.496905 0.585793 0.361845
0.645648 0.591305 0.330588
0.768072 0.598512 0.305813
0.846376 0.604891 0.291674
0.889383 0.607217 0.285117
0.912188 0.604981 0.281779
0.295637 0.715530 0.450824
0.382498 0.706445 0.424265
0.503046 0.702024 0.391095
0.633752 0.701099 0.357577
0.754496 0.702367 0.328943
0.841889 0.703566 0.311237
0.893917 0.701667 0.303165
0.923138 0.695947 0.299604
0.414502 0.804795 0.469803
0.456853 0.795863 0.446970
0.538565 0.791100 0.417055
0.641646 0.789574 0.385385
0.749299 0.790182 0.356723
0.838370 0.790822 0.337730
0.896973 0.788712 0.329229
0.932472 0.783250 0.326392
0.524408 0.858184 0.484268
0.540416 0.852021 0.465394
0.590856 0.849298 0.440633
0.665434 0.849401 0.413783
0.753268 0.851513 0.388479
0.836291 0.853875 0.370727
0.897342 0.853975 0.362885
0.937723 0.851249 0.361418
0.607829 0.888513 0.494818
0.613439 0.885828 0.481093
0.643546 0.885596 0.462871
0.694796 0.887538 0.442563
0.762281 0.891195 0.422682
0.835064 0.895449 0.408070
0.895270 0.898253 0.401816
0.938929 0.898858 0.401824
0.135801 0.216465 0.450563
0.361123 0.261130 0.429204
0.559883 0.311502 0.409767
0.715664 0.361946 0.395257
0.818711 0.407587 0.387446
0.866640 0.441933 0.386001
0.887068 0.464168 0.386803
0.896001 0.478077 0.388780
0.144548 0.361857 0.486977
0.358708 0.384821 0.460217
0.548436 0.412447 0.435771
0.700329 0.441817 0.416159
0.806116 0.470168 0.402938
0.861332 0.493099 0.396411
0.887915 0.508107 0.393154
0.900805 0.516689 0.391645
0.192812 0.512160 0.520957
0.368843 0.517598 0.493235
0.537691 0.527547 0.465332
0.682940 0.540358 0.440687
0.792792 0.554310 0.421790
0.857140 0.566374 0.410465
0.890984 0.573500 0.404006
0.908629 0.575797 0.400107
0.272958 0.649442 0.549934
0.398101 0.643534 0.524219
0.536938 0.641972 0.495046
0.669658 0.643660 0.466920
0.780496 0.647373 0.443422
0.853366 0.650960 0.428120
0.894899 0.651518 0.419387
0.918005 0.648478 0.414175
0.376249 0.760046 0.572319
0.449949 0.749882 0.550214
0.552882 0.743340 0.522268
0.665510 0.739684 0.493275
0.771013 0.738038 0.467322
0.849595 0.736810 0.449353
0.898452 0.733560 0.439324
0.927500 0.727567 0.433820
0.488569 0.831328 0.587776
0.523171 0.822824 0.569326
0.590638 0.817013 0.544908
0.676780 0.813440 0.518419
0.768211 0.811495 0.493420
0.846269 0.809886 0.475058
0.900123 0.806638 0.464933
0.934803 0.801198 0.460151
0.584701 0.872411 0.598738
0.597386 0.866990 0.583634
0.638120 0.863648 0.563851
0.699303 0.862108 0.542055
0.772696 0.861943 0.520830
0.844336 0.862127 0.504453
0.899548 0.861007 0.495304
0.938312 0.858108 0.491632
0.653080 0.894902 0.605320
0.657669 0.892656 0.594124
0.682147 0.891957 0.579776
0.724400 0.892662 0.563904
0.780941 0.894516 0.548160
0.843572 0.896892 0.535524
0.897418 0.898444 0.528109
0.938446 0.898483 0.525003
0.184679 0.313317 0.568264
0.396449 0.349707 0.549778
0.581858 0.392560 0.534352
0.727495 0.436617 0.523314
0.825445 0.477223 0.517274
0.872953 0.507970 0.515578
0.893945 0.527538 0.515477
0.903306 0.539594 0.516571
0.208820 0.458028 0.607743
0.394913 0.472238 0.586133
0.566365 0.492933 0.566528
0.708344 0.516753 0.550418
0.810861 0.540565 0.538706
0.866886 0.559877 0.531618
0.894547 0.572138 0.527220
0.908091 0.578757 0.524791
0.271585 0.594812 0.641089
0.417296 0.594003 0.619580
0.564686 0.598880 0.597656
0.696514 0.607428 0.577613
0.799840 0.617658 0.561168
0.862935 0.626648 0.549804
0.897116 0.631617 0.542372
0.915373 0.632610 0.537684
0.360669 0.711798 0.667124
0.460679 0.703034 0.647876
0.577480 0.698568 0.625685
0.692888 0.697323 0.603559
0.792173 0.698163 0.583968
0.860023 0.699365 0.569630
0.900255 0.698555 0.560367
0.923593 0.695137 0.554618
0.464027 0.800627 0.685423
0.521085 0.790282 0.669564
0.604432 0.782558 0.649121
0.698012 0.777025 0.627197
0.787859 0.773158 0.606532
0.857381 0.770055 0.590696
0.902783 0.766046 0.580731
0.931338 0.760435 0.575008
0.565229 0.854377 0.696474
0.591379 0.846742 0.683753
0.644396 0.840512 0.666557
0.713525 0.835557 0.647304
0.788510 0.831651 0.628289
0.854986 0.828268 0.613021
0.903404 0.824349 0.603565
0.936633 0.819428 0.598837
0.645182 0.884146 0.703080
0.654884 0.879661 0.692855
0.686497 0.876090 0.679312
0.734782 0.873384 0.664068
0.793878 0.871416 0.648726
0.853691 0.869811 0.635958
0.902302 0.867792 0.627947
0.938669 0.864991 0.624415
0.698469 0.899888 0.705709
0.702436 0.898129 0.697984
0.721819 0.897140 0.688330
0.755545 0.896874 0.677758
0.801381 0.897236 0.667236
0.853616 0.898011 0.658280
0.900471 0.898492 0.652186
0.938142 0.898029 0.649001
0.244049 0.427691 0.664993
0.437688 0.457155 0.652870
0.606881 0.491781 0.643926
0.740850 0.527470 0.638192
0.833132 0.560474 0.635380
0.880148 0.585080 0.634376
0.901592 0.599925 0.633682
0.911159 0.608550 0.633680
0.285875 0.556828 0.702836
0.442597 0.565857 0.688572
0.592770 0.581090 0.676070
0.721494 0.599426 0.665798
0.818091 0.617971 0.657946
0.873595 0.632615 0.652312
0.901736 0.641148 0.648067
0.915542 0.644999 0.645315
0.360619 0.671186 0.732995
0.475804 0.667875 0.718915
0.599461 0.669975 0.704745
0.714901 0.675497 0.691553
0.809121 0.682536 0.680149
0.869516 0.688512 0.671299
0.903333 0.691222 0.664856
0.921717 0.690827 0.660643
0.453421 0.764199 0.755173
0.528337 0.755345 0.742836
0.622088 0.750166 0.728726
0.718738 0.747665 0.714360
0.805090 0.746850 0.701034
0.866971 0.746416 0.690350
0.905282 0.744708 0.682905
0.928314 0.741315 0.678354
0.550914 0.831778 0.769601
0.591671 0.822668 0.759815
0.655852 0.815329 0.747224
0.730713 0.809472 0.733417
0.805012 0.804774 0.719864
0.865218 0.800816 0.708688
0.906677 0.796733 0.701273
0.934145 0.792074 0.697311
0.637118 0.870870 0.776981
0.655424 0.864553 0.769510
0.695324 0.858803 0.759321
0.748950 0.853617 0.747657
0.808706 0.848960 0.735751
0.863980 0.844784 0.725649
0.906602 0.840832 0.719225
0.937718 0.836901 0.716540
0.700475 0.892007 0.780366
0.707529 0.888467 0.774513
0.731342 0.885126 0.766744
0.768460 0.882021 0.757908
0.814885 0.879173 0.748864
0.863674 0.876607 0.741087
0.905504 0.874229 0.736250
0.938777 0.871897 0.734851
0.740629 0.903099 0.780872
0.743860 0.901673 0.776283
0.758891 0.900570 0.770825
0.785327 0.899757 0.765060
0.821821 0.899207 0.759494
0.864561 0.898947 0.754795
0.904444 0.898724 0.751738
0.938088 0.898001 0.750879
0.316363 0.541578 0.736659
0.488212 0.566421 0.731555
0.637996 0.593593 0.728638
0.757674 0.620722 0.727535
0.842320 0.645467 0.727694
0.887742 0.663319 0.727749
0.909044 0.672964 0.726793
0.918340 0.677517 0.725694
0.372031 0.645144 0.768383
0.502514 0.652503 0.760730
0.630117 0.664173 0.754570
0.742089 0.677928 0.749778
0.828926 0.691631 0.746103
0.881365 0.701915 0.742881
0.908793 0.706982 0.739668
0.922232 0.708237 0.737038
0.452035 0.733512 0.793142
0.542249 0.730737 0.784973
0.642939 0.732079 0.777267
0.739985 0.735963 0.770253
0.822060 0.740876 0.764068
0.877320 0.744699 0.758776
0.909433 0.745798 0.754447
0.927138 0.744540 0.751417
0.541601 0.803362 0.810970
0.596668 0.796263 0.803660
0.669716 0.791954 0.795809
0.747907 0.789630 0.787945
0.820378 0.788503 0.780538
0.874941 0.787569 0.774278
0.910253 0.785762 0.769768
0.932078 0.782983 0.767196
0.628192 0.852995 0.822244
0.656233 0.845803 0.816539
0.704252 0.839819 0.809613
0.762599 0.834839 0.802119
0.822612 0.830650 0.794701
0.873677 0.827055 0.788467
0.910688 0.823715 0.784502
0.936228 0.820509 0.782971
0.698424 0.881271 0.827458
0.710566 0.876304 0.823322
0.739890 0.871526 0.817917
0.780805 0.866985 0.811806
0.827821 0.862727 0.805584
0.873291 0.858900 0.800385
0.910258 0.855686 0.797502
0.938603 0.853163 0.797247
0.747168 0.896600 0.829310
0.751908 0.893824 0.826176
0.769570 0.890942 0.822247
0.797923 0.888030 0.817916
0.834267 0.885173 0.813601
0.873904 0.882575 0.810120
0.909513 0.880506 0.808536
0.939220 0.879040 0.809333
0.776912 0.904757 0.829215
0.779139 0.903572 0.826608
0.790698 0.902512 0.823957
0.811505 0.901533 0.821496
0.840706 0.900622 0.819428
0.875712 0.899916 0.818059
0.909379 0.899444 0.817816
0.938721 0.898845 0.819142
0.397683 0.640762 0.787537
0.546323 0.663988 0.789453
0.674583 0.685605 0.791515
0.777722 0.705467 0.793820
0.852815 0.723041 0.796231
0.895519 0.735312 0.797585
0.916109 0.740588 0.796886
0.924608 0.740962 0.794700
0.462856 0.718696 0.813276
0.568992 0.726057 0.810914
0.673519 0.735396 0.809469
0.766871 0.745627 0.808717
0.841638 0.755564 0.808340
0.889319 0.762691 0.807472
0.915228 0.765301 0.805537
0.927832 0.764419 0.803037
0.541777 0.782946 0.832749
0.610643 0.781432 0.828659
0.689628 0.782723 0.825395
0.767909 0.785766 0.822757
0.836539 0.789504 0.820528
0.885345 0.792279 0.818340
0.914990 0.792749 0.816093
0.931474 0.791237 0.814135
0.622458 0.832617 0.846500
0.661494 0.827384 0.842347
0.716293 0.824268 0.838545
0.777291 0.822686 0.835061
0.836175 0.822058 0.831889
0.883116 0.821630 0.829186
0.915003 0.820637 0.827301
0.935008 0.819050 0.826416
0.695158 0.867658 0.855170
0.713190 0.862157 0.851842
0.747662 0.857602 0.848399
0.791792 0.853898 0.844958
0.839308 0.850939 0.841695
0.882235 0.848685 0.839171
0.914978 0.846995 0.838084
0.937994 0.845782 0.838488
0.750227 0.887960 0.859054
0.757241 0.884013 0.856753
0.777813 0.880182 0.854206
0.808322 0.876607 0.851562
0.845057 0.873421 0.849040
0.882694 0.870918 0.847325
0.914817 0.869360 0.847193
0.939906 0.868770 0.848625
0.786757 0.899227 0.860119
0.789228 0.896981 0.858503
0.801784 0.894557 0.856893
0.823181 0.892113 0.855370
0.851728 0.889819 0.854072
0.884375 0.888029 0.853519
0.914888 0.887078 0.854261
0.940733 0.886978 0.856259
0.808163 0.905096 0.859870
0.809301 0.904259 0.858487
0.818016 0.903392 0.857613
0.834423 0.902504 0.857235
0.858007 0.901642 0.857351
0.887016 0.901056 0.858120
0.915540 0.900931 0.859673
0.940684 0.901025 0.862000
