Assets/1__3DArt/KimSe/artstation_asset/LUTs_pasterls/CUBE/Pastelopolis 04 S.cube
# Enhanced with VOXCOLOR algorithms
LUT_3D_SIZE 5
DOMAIN_MIN 0.000000 0.000000 0.000000
DOMAIN_MAX 0.903226 0.903226 0.903226
0.101961 0.137255 0.070588
0.335012 0.159822 0.085621
0.531941 0.180844 0.094032
0.631513 0.194308 0.098612
0.655752 0.199104 0.101218
0.129783 0.247408 0.155879
0.305053 0.257568 0.141548
0.498130 0.265515 0.111360
0.633890 0.264802 0.096576
0.678664 0.254106 0.112604
0.182904 0.393139 0.288662
0.301856 0.397073 0.252625
0.480766 0.406935 0.197158
0.641400 0.401733 0.161885
0.712750 0.371731 0.169547
0.260195 0.534723 0.436101
0.329884 0.532714 0.400695
0.481104 0.547014 0.351175
0.646925 0.549189 0.303307
0.746847 0.521041 0.274636
0.349934 0.633199 0.551719
0.386808 0.631345 0.535649
0.497047 0.646758 0.513540
0.644374 0.662247 0.472980
0.766396 0.658515 0.413379
0.106456 0.157472 0.171789
0.340171 0.165199 0.183014
0.541938 0.166569 0.173263
0.647221 0.169220 0.156434
0.673217 0.178296 0.142669
0.135940 0.280970 0.254812
0.325270 0.282974 0.248335
0.509582 0.277063 0.228970
0.654954 0.269339 0.209772
0.726968 0.264081 0.191377
0.193679 0.427084 0.375932
0.314962 0.429631 0.347257
0.488033 0.436174 0.305961
0.663638 0.435207 0.272053
0.790336 0.421754 0.252068
0.274282 0.557861 0.501290
0.341219 0.561426 0.468199
0.488613 0.583013 0.422119
0.668327 0.601853 0.370483
0.829845 0.602835 0.324812
0.359334 0.644151 0.592348
0.398051 0.649129 0.580172
0.508423 0.674335 0.561276
0.662762 0.709095 0.517481
0.817947 0.735087 0.442808
0.105348 0.176335 0.311059
0.348604 0.183037 0.331813
0.564299 0.177660 0.314823
0.678604 0.170826 0.278647
0.706183 0.172332 0.251582
0.140799 0.318491 0.384529
0.325071 0.318601 0.395201
0.523355 0.307874 0.388775
0.680282 0.290757 0.363302
0.768607 0.278470 0.327454
0.206531 0.466729 0.486412
0.323525 0.467385 0.476889
0.501525 0.471339 0.460097
0.685599 0.466862 0.435282
0.840114 0.454691 0.409799
0.290593 0.587398 0.582935
0.355454 0.591540 0.564944
0.501963 0.615176 0.540662
0.687599 0.640512 0.505913
0.878025 0.652520 0.471447
0.369423 0.660200 0.647377
0.409115 0.668166 0.641357
0.520931 0.700911 0.633138
0.683610 0.753471 0.603256
0.863466 0.804942 0.543708
0.100112 0.193511 0.456327
0.355813 0.210858 0.499887
0.591977 0.208208 0.497333
0.721532 0.194782 0.458928
0.753035 0.183480 0.426626
0.142763 0.350748 0.515097
0.323930 0.360187 0.543490
0.545424 0.358555 0.555764
0.714839 0.336109 0.534304
0.802371 0.307390 0.499974
0.216010 0.499146 0.593351
0.330018 0.504910 0.602192
0.520296 0.516590 0.613030
0.710568 0.510188 0.607207
0.861742 0.487222 0.592799
0.302960 0.610760 0.662255
0.366615 0.616741 0.660168
0.515635 0.643486 0.664797
0.703259 0.669814 0.663355
0.892817 0.679869 0.657457
0.377536 0.672817 0.704288
0.416393 0.682162 0.704372
0.529538 0.718225 0.713210
0.697721 0.776675 0.716587
0.883483 0.835785 0.702325
0.086920 0.202922 0.564926
0.348183 0.237929 0.635273
0.604355 0.244910 0.672534
0.758628 0.229161 0.665634
0.801158 0.203959 0.641089
0.138504 0.368366 0.613839
0.317581 0.390525 0.655314
0.557266 0.407997 0.695452
0.745458 0.394581 0.702958
0.828384 0.355992 0.683150
0.217319 0.514523 0.672957
0.326546 0.526874 0.691841
0.527208 0.555607 0.726217
0.730374 0.565806 0.749681
0.864094 0.546293 0.754759
0.306929 0.619850 0.723594
0.365560 0.627485 0.729446
0.517419 0.662078 0.755435
0.713125 0.701524 0.788962
0.885847 0.722703 0.817128
0.379862 0.676623 0.752631
0.415478 0.686515 0.756123
0.529473 0.724576 0.779668
0.703650 0.785607 0.818093
0.882917 0.847806 0.855986
