Assets/1__3DArt/KimSe/artstation_asset/LUTs_pasterls/CUBE/Pastelopolis 03 S.cube
# Enhanced with VOXCOLOR algorithms
LUT_3D_SIZE 32
0.086275 0.113725 0.215686
0.126070 0.117432 0.216679
0.165866 0.121139 0.217672
0.205661 0.124847 0.218665
0.245457 0.128554 0.219658
0.285252 0.132261 0.220651
0.328241 0.137156 0.220694
0.371868 0.142288 0.220548
0.415495 0.147421 0.220402
0.459122 0.152553 0.220256
0.502750 0.157685 0.220110
0.541341 0.163520 0.219719
0.577414 0.169705 0.219207
0.613487 0.175890 0.218694
0.649560 0.182076 0.218182
0.685633 0.188261 0.217669
0.715335 0.194258 0.217152
0.738666 0.200065 0.216629
0.761997 0.205873 0.216107
0.785329 0.211681 0.215585
0.808660 0.217488 0.215062
0.827970 0.222709 0.214635
0.839237 0.226755 0.214399
0.850505 0.230801 0.214163
0.861773 0.234847 0.213927
0.873040 0.238893 0.213691
0.883060 0.242546 0.213565
0.886840 0.244233 0.213989
0.890620 0.245920 0.214413
0.894401 0.247606 0.214837
0.898181 0.249293 0.215262
0.901961 0.250980 0.215686
0.081605 0.140039 0.220892
0.120821 0.142704 0.221132
0.160037 0.145369 0.221373
0.199254 0.148033 0.221614
0.238470 0.150698 0.221855
0.277686 0.153363 0.222095
0.319956 0.157257 0.221080
0.362836 0.161397 0.219813
0.405716 0.165537 0.218546
0.448597 0.169678 0.217280
0.491477 0.173818 0.216013
0.529663 0.178732 0.214628
0.565501 0.184034 0.213183
0.601340 0.189335 0.211738
0.637179 0.194637 0.210294
0.673018 0.199938 0.208849
0.702932 0.205193 0.207731
0.726921 0.210400 0.206940
0.750910 0.215607 0.206149
0.774899 0.220813 0.205358
0.798888 0.226020 0.204567
0.819071 0.230775 0.204147
0.831643 0.234627 0.204469
0.844215 0.238479 0.204791
0.856787 0.242330 0.205113
0.869359 0.246182 0.205435
0.880634 0.249700 0.205952
0.885424 0.251550 0.207445
0.890214 0.253400 0.208937
0.895004 0.255250 0.210430
0.899795 0.257100 0.211923
0.904585 0.258950 0.213415
0.076935 0.166353 0.226097
0.115572 0.167976 0.225586
0.154209 0.169598 0.225074
0.192846 0.171220 0.224563
0.231483 0.172843 0.224052
0.270120 0.174465 0.223540
0.311670 0.177359 0.221465
0.353804 0.180506 0.219078
0.395937 0.183654 0.216691
0.438071 0.186802 0.214303
0.480204 0.189950 0.211916
0.517985 0.193945 0.209536
0.553589 0.198362 0.207159
0.589194 0.202780 0.204782
0.624798 0.207198 0.202406
0.660403 0.211616 0.200029
0.690528 0.216128 0.198311
0.715175 0.220734 0.197251
0.739822 0.225340 0.196192
0.764469 0.229946 0.195132
0.789115 0.234552 0.194073
0.810172 0.238842 0.193660
0.824048 0.242499 0.194540
0.837925 0.246156 0.195420
0.851801 0.249813 0.196299
0.865677 0.253470 0.197179
0.878208 0.256853 0.198339
0.884008 0.258866 0.200900
0.889808 0.260879 0.203461
0.895608 0.262893 0.206023
0.901408 0.264906 0.208584
0.907208 0.266919 0.211145
0.072265 0.192667 0.231303
0.110323 0.193247 0.230039
0.148380 0.193827 0.228776
0.186438 0.194407 0.227512
0.224496 0.194987 0.226248
0.262553 0.195567 0.224985
0.303385 0.197460 0.221851
0.344771 0.199616 0.218343
0.386158 0.201771 0.214835
0.427545 0.203927 0.211327
0.468931 0.206082 0.207819
0.506307 0.209157 0.204444
0.541677 0.212691 0.201135
0.577047 0.216225 0.197826
0.612418 0.219759 0.194517
0.647788 0.223293 0.191209
0.678125 0.227063 0.188890
0.703430 0.231068 0.187562
0.728734 0.235073 0.186234
0.754039 0.239079 0.184906
0.779343 0.243084 0.183578
0.801273 0.246909 0.183172
0.816454 0.250371 0.184610
0.831635 0.253834 0.186048
0.846815 0.257296 0.187486
0.861996 0.260758 0.188924
0.875781 0.264007 0.190727
0.882592 0.266183 0.194356
0.889402 0.268359 0.197986
0.896212 0.270536 0.201615
0.903022 0.272712 0.205244
0.909832 0.274889 0.208874
0.067595 0.218981 0.236509
0.105074 0.218519 0.234493
0.142552 0.218056 0.232477
0.180030 0.217594 0.230461
0.217508 0.217131 0.228445
0.254987 0.216669 0.226430
0.295100 0.217561 0.222237
0.335739 0.218725 0.217608
0.376379 0.219888 0.212979
0.417019 0.221052 0.208351
0.457658 0.222215 0.203722
0.494629 0.224369 0.199352
0.529765 0.227020 0.195111
0.564901 0.229670 0.190870
0.600037 0.232320 0.186629
0.635173 0.234970 0.182388
0.665722 0.237998 0.179470
0.691684 0.241402 0.177873
0.717647 0.244807 0.176276
0.743609 0.248212 0.174680
0.769571 0.251616 0.173083
0.792374 0.254975 0.172684
0.808859 0.258243 0.174680
0.825344 0.261511 0.176676
0.841829 0.264779 0.178672
0.858314 0.268047 0.180668
0.873355 0.271160 0.183114
0.881175 0.273500 0.187812
0.888996 0.275839 0.192510
0.896816 0.278179 0.197208
0.904636 0.280519 0.201905
0.912456 0.282858 0.206603
0.062925 0.245295 0.241714
0.099824 0.243790 0.238946
0.136723 0.242286 0.236178
0.173622 0.240781 0.233410
0.210521 0.239276 0.230642
0.247420 0.237771 0.227874
0.286814 0.237663 0.222622
0.326707 0.237834 0.216873
0.366600 0.238005 0.211124
0.406493 0.238176 0.205375
0.446386 0.238347 0.199625
0.482951 0.239582 0.194260
0.517853 0.241348 0.189087
0.552755 0.243115 0.183914
0.587656 0.244881 0.178741
0.622558 0.246647 0.173568
0.653319 0.248932 0.170049
0.679939 0.251736 0.168184
0.706559 0.254540 0.166319
0.733179 0.257344 0.164454
0.759799 0.260148 0.162588
0.783475 0.263042 0.162196
0.801265 0.266115 0.164750
0.819054 0.269189 0.167304
0.836844 0.272262 0.169858
0.854633 0.275335 0.172412
0.870929 0.278313 0.175501
0.879759 0.280816 0.181268
0.888589 0.283319 0.187034
0.897419 0.285822 0.192800
0.906250 0.288325 0.198566
0.915080 0.290828 0.204332
0.064954 0.278333 0.249167
0.100628 0.275952 0.245772
0.136302 0.273571 0.242376
0.171975 0.271190 0.238980
0.207649 0.268810 0.235584
0.243323 0.266429 0.232188
0.281830 0.265480 0.226148
0.320904 0.264818 0.219579
0.359978 0.264155 0.213010
0.399052 0.263493 0.206441
0.438126 0.262830 0.199872
0.474349 0.263309 0.193780
0.509146 0.264358 0.187925
0.543943 0.265407 0.182071
0.578739 0.266455 0.176217
0.613536 0.267504 0.170362
0.644566 0.269152 0.166343
0.671828 0.271397 0.164160
0.699090 0.273643 0.161976
0.726352 0.275889 0.159793
0.753615 0.278134 0.157609
0.778073 0.280521 0.157040
0.796924 0.283191 0.159699
0.815774 0.285860 0.162359
0.834624 0.288530 0.165018
0.853475 0.291199 0.167677
0.870789 0.293792 0.170924
0.880418 0.296000 0.177104
0.890047 0.298209 0.183285
0.899675 0.300418 0.189465
0.909304 0.302626 0.195646
0.918933 0.304835 0.201826
0.068322 0.312715 0.257070
0.102642 0.309491 0.253071
0.136961 0.306268 0.249072
0.171281 0.303045 0.245073
0.205600 0.299821 0.241074
0.239920 0.296598 0.237075
0.277507 0.294841 0.230302
0.315748 0.293376 0.222973
0.353988 0.291912 0.215645
0.392229 0.290448 0.208316
0.430470 0.288983 0.200987
0.466362 0.288738 0.194221
0.501080 0.289103 0.187736
0.535797 0.289468 0.181250
0.570515 0.289833 0.174765
0.605233 0.290197 0.168280
0.636542 0.291228 0.163781
0.664444 0.292923 0.161269
0.692345 0.294619 0.158757
0.720247 0.296315 0.156245
0.748148 0.298011 0.153733
0.773370 0.299883 0.152949
0.793233 0.302107 0.155624
0.813096 0.304331 0.158298
0.832959 0.306554 0.160973
0.852822 0.308778 0.163647
0.871105 0.310935 0.166953
0.881491 0.312758 0.173417
0.891876 0.314581 0.179881
0.902262 0.316404 0.186345
0.912648 0.318226 0.192809
0.923033 0.320049 0.199273
0.071691 0.347096 0.264973
0.104656 0.343031 0.260371
0.137621 0.338965 0.255769
0.170586 0.334899 0.251167
0.203551 0.330833 0.246565
0.236517 0.326767 0.241963
0.273184 0.324201 0.234456
0.310591 0.321935 0.226367
0.347998 0.319669 0.218279
0.385406 0.317403 0.210191
0.422813 0.315136 0.202103
0.458375 0.314168 0.194662
0.493014 0.313849 0.187546
0.527652 0.313529 0.180429
0.562291 0.313210 0.173313
0.596929 0.312890 0.166197
0.628519 0.313304 0.161218
0.657060 0.314450 0.158378
0.685600 0.315596 0.155537
0.714141 0.316742 0.152697
0.742681 0.317888 0.149856
0.768667 0.319244 0.148859
0.789542 0.321023 0.151548
0.810418 0.322801 0.154238
0.831293 0.324579 0.156927
0.852168 0.326358 0.159616
0.871422 0.328079 0.162982
0.882564 0.329516 0.169729
0.893706 0.330953 0.176477
0.904848 0.332390 0.183224
0.915991 0.333827 0.189972
0.927133 0.335264 0.196719
0.075059 0.381478 0.272875
0.106670 0.376570 0.267670
0.138281 0.371662 0.262465
0.169892 0.366753 0.257260
0.201502 0.361845 0.252055
0.233113 0.356937 0.246850
0.268860 0.353562 0.238609
0.305434 0.350494 0.229761
0.342008 0.347426 0.220914
0.378583 0.344357 0.212066
0.415157 0.341289 0.203218
0.450388 0.339598 0.195104
0.484947 0.338594 0.187356
0.519507 0.337591 0.179609
0.554067 0.336587 0.171861
0.588626 0.335583 0.164114
0.620496 0.335380 0.158655
0.649675 0.335976 0.155487
0.678855 0.336572 0.152318
0.708035 0.337168 0.149149
0.737215 0.337764 0.145980
0.763964 0.338606 0.144769
0.785852 0.339939 0.147473
0.807739 0.341271 0.150177
0.829627 0.342604 0.152882
0.851515 0.343937 0.155586
0.871738 0.345222 0.159011
0.883637 0.346274 0.166042
0.895536 0.347325 0.173073
0.907435 0.348376 0.180104
0.919334 0.349427 0.187135
0.931233 0.350478 0.194166
0.078427 0.415860 0.280778
0.108684 0.410109 0.274970
0.138940 0.404359 0.269162
0.169197 0.398608 0.263354
0.199453 0.392857 0.257545
0.229710 0.387106 0.251737
0.264537 0.382922 0.242763
0.300278 0.379052 0.233156
0.336018 0.375182 0.223548
0.371759 0.371312 0.213941
0.407500 0.367442 0.204333
0.442401 0.365027 0.195545
0.476881 0.363340 0.187166
0.511362 0.361652 0.178788
0.545842 0.359964 0.170409
0.580323 0.358277 0.162031
0.612472 0.357456 0.156093
0.642291 0.357502 0.152596
0.672110 0.357548 0.149098
0.701929 0.357595 0.145601
0.731748 0.357641 0.142104
0.759261 0.357967 0.140679
0.782161 0.358854 0.143398
0.805061 0.359742 0.146117
0.827962 0.360629 0.148836
0.850862 0.361516 0.151555
0.872055 0.362366 0.155040
0.884710 0.363031 0.162355
0.897366 0.363697 0.169669
0.910021 0.364362 0.176983
0.922677 0.365027 0.184298
0.935332 0.365693 0.191612
0.091649 0.451309 0.291447
0.119970 0.444987 0.285198
0.148291 0.438665 0.278949
0.176612 0.432344 0.272700
0.204932 0.426022 0.266451
0.233253 0.419701 0.260201
0.266749 0.414893 0.250808
0.301281 0.410388 0.240785
0.335812 0.405884 0.230763
0.370344 0.401379 0.220740
0.404876 0.396875 0.210718
0.439159 0.393854 0.201553
0.473318 0.391575 0.192817
0.507478 0.389297 0.184081
0.541637 0.387018 0.175345
0.575797 0.384739 0.166609
0.607986 0.383370 0.160333
0.638204 0.382909 0.156516
0.668422 0.382448 0.152699
0.698641 0.381988 0.148882
0.728859 0.381527 0.145065
0.756880 0.381368 0.143315
0.780506 0.381814 0.145701
0.804131 0.382260 0.148086
0.827757 0.382706 0.150472
0.851382 0.383152 0.152857
0.873271 0.383562 0.156001
0.886476 0.383797 0.162937
0.899681 0.384033 0.169874
0.912886 0.384268 0.176810
0.926091 0.384503 0.183747
0.939296 0.384738 0.190683
0.109798 0.487290 0.303500
0.135892 0.480534 0.296891
0.161987 0.473777 0.290281
0.188081 0.467021 0.283672
0.214175 0.460264 0.277063
0.240269 0.453508 0.270454
0.272230 0.448169 0.260798
0.305364 0.443113 0.250532
0.338499 0.438058 0.240267
0.371633 0.433002 0.230002
0.404767 0.427946 0.219737
0.438290 0.424379 0.210344
0.472007 0.421556 0.201387
0.505725 0.418733 0.192431
0.539442 0.415910 0.183474
0.573159 0.413087 0.174518
0.605267 0.411202 0.167974
0.635765 0.410256 0.163841
0.666263 0.409310 0.159709
0.696761 0.408364 0.155577
0.727259 0.407418 0.151445
0.755660 0.406789 0.149316
0.779868 0.406796 0.151193
0.804075 0.406802 0.153070
0.828282 0.406809 0.154947
0.852490 0.406816 0.156825
0.874938 0.406785 0.159427
0.888589 0.406568 0.165655
0.902239 0.406351 0.171883
0.915890 0.406134 0.178111
0.929541 0.405917 0.184339
0.943192 0.405700 0.190567
0.127947 0.523271 0.315553
0.151815 0.516080 0.308584
0.175682 0.508889 0.301614
0.199550 0.501698 0.294645
0.223418 0.494507 0.287675
0.247286 0.487315 0.280706
0.277711 0.481445 0.270788
0.309448 0.475838 0.260280
0.341185 0.470231 0.249772
0.372921 0.464625 0.239264
0.404658 0.459018 0.228756
0.437421 0.454904 0.219135
0.470696 0.451537 0.209958
0.503971 0.448169 0.200781
0.537247 0.444802 0.191604
0.570522 0.441435 0.182427
0.602549 0.439035 0.175615
0.633326 0.437604 0.171167
0.664104 0.436172 0.166720
0.694882 0.434740 0.162272
0.725659 0.433309 0.157825
0.754441 0.432210 0.155316
0.779230 0.431777 0.156685
0.804019 0.431345 0.158054
0.828808 0.430912 0.159423
0.853597 0.430479 0.160792
0.876604 0.430007 0.162853
0.890701 0.429338 0.168373
0.904798 0.428669 0.173892
0.918894 0.428000 0.179411
0.932991 0.427331 0.184931
0.947088 0.426662 0.190450
0.146096 0.559253 0.327606
0.167737 0.551627 0.320276
0.189378 0.544001 0.312947
0.211020 0.536375 0.305617
0.232661 0.528749 0.298288
0.254302 0.521123 0.290958
0.283192 0.514720 0.280778
0.313531 0.508563 0.270027
0.343871 0.502405 0.259276
0.374210 0.496247 0.248525
0.404550 0.490090 0.237774
0.436552 0.485429 0.227926
0.469385 0.481518 0.218528
0.502218 0.477606 0.209131
0.535052 0.473694 0.199733
0.567885 0.469783 0.190336
0.599830 0.466868 0.183256
0.630887 0.464951 0.178493
0.661945 0.463034 0.173730
0.693002 0.461117 0.168967
0.724059 0.459199 0.164205
0.753221 0.457631 0.161316
0.778592 0.456759 0.162177
0.803963 0.455887 0.163038
0.829334 0.455015 0.163899
0.854704 0.454143 0.164760
0.878271 0.453230 0.166279
0.892813 0.452109 0.171090
0.907356 0.450987 0.175901
0.921898 0.449866 0.180712
0.936441 0.448745 0.185523
0.950983 0.447623 0.190334
0.164245 0.595234 0.339659
0.183659 0.587173 0.331969
0.203074 0.579113 0.324279
0.222489 0.571052 0.316590
0.241904 0.562991 0.308900
0.261319 0.554930 0.301210
0.288673 0.547996 0.290768
0.317615 0.541287 0.279774
0.346557 0.534579 0.268781
0.375499 0.527870 0.257787
0.404441 0.521161 0.246793
0.435682 0.515954 0.236717
0.468074 0.511498 0.227099
0.500465 0.507042 0.217481
0.532856 0.502586 0.207863
0.565248 0.498130 0.198245
0.597112 0.494701 0.190897
0.628449 0.492298 0.185819
0.659786 0.489896 0.180741
0.691122 0.487493 0.175663
0.722459 0.485090 0.170584
0.752002 0.483051 0.167317
0.777954 0.481740 0.167670
0.803907 0.480429 0.168022
0.829859 0.479118 0.168375
0.855812 0.477807 0.168728
0.879937 0.476453 0.169706
0.894925 0.474879 0.173808
0.909914 0.473306 0.177910
0.924902 0.471732 0.182013
0.939891 0.470159 0.186115
0.954879 0.468585 0.190217
0.188125 0.628578 0.353712
0.205270 0.620350 0.345803
0.222415 0.612123 0.337894
0.239560 0.603896 0.329985
0.256706 0.595668 0.322076
0.273851 0.587441 0.314167
0.299451 0.580190 0.303664
0.326741 0.573134 0.292643
0.354031 0.566079 0.281621
0.381322 0.559023 0.270600
0.408612 0.551967 0.259579
0.438789 0.546357 0.249465
0.470409 0.541468 0.239805
0.502029 0.536580 0.230145
0.533649 0.531692 0.220486
0.565269 0.526804 0.210826
0.596722 0.522944 0.203333
0.628007 0.520112 0.198006
0.659292 0.517279 0.192679
0.690578 0.514447 0.187352
0.721863 0.511615 0.182025
0.751477 0.509164 0.178395
0.777749 0.507474 0.178156
0.804021 0.505784 0.177917
0.830293 0.504094 0.177679
0.856565 0.502405 0.177440
0.881019 0.500677 0.177768
0.896382 0.498758 0.180928
0.911746 0.496839 0.184088
0.927109 0.494920 0.187248
0.942472 0.493001 0.190408
0.957835 0.491082 0.193568
0.217736 0.659283 0.369767
0.232569 0.651158 0.361779
0.247401 0.643032 0.353791
0.262234 0.634907 0.345803
0.277067 0.626781 0.337816
0.291899 0.618656 0.329828
0.315525 0.611303 0.319468
0.340910 0.604104 0.308633
0.366295 0.596905 0.297799
0.391679 0.589707 0.286964
0.417064 0.582508 0.276130
0.445872 0.576636 0.266170
0.476391 0.571428 0.256647
0.506910 0.566220 0.247125
0.537430 0.561011 0.237602
0.567949 0.555803 0.228080
0.598660 0.551596 0.220564
0.629563 0.548391 0.215055
0.660465 0.545186 0.209546
0.691368 0.541980 0.204037
0.722270 0.538775 0.198528
0.751648 0.535968 0.194550
0.777977 0.533960 0.193637
0.804306 0.531952 0.192724
0.830636 0.529943 0.191811
0.856965 0.527935 0.190897
0.881517 0.525901 0.190467
0.897184 0.523744 0.192451
0.912851 0.521587 0.194434
0.928518 0.519429 0.196418
0.944185 0.517272 0.198402
0.959852 0.515114 0.200386
0.247347 0.689988 0.385821
0.259867 0.681965 0.377755
0.272388 0.673941 0.369688
0.284908 0.665918 0.361622
0.297428 0.657895 0.353555
0.309948 0.649871 0.345489
0.331600 0.642416 0.335271
0.355079 0.635074 0.324624
0.378558 0.627732 0.313976
0.402037 0.620390 0.303328
0.425515 0.613048 0.292681
0.452954 0.606915 0.282875
0.482373 0.601387 0.273489
0.511792 0.595859 0.264104
0.541210 0.590331 0.254719
0.570629 0.584802 0.245333
0.600598 0.580249 0.237795
0.631118 0.576670 0.232104
0.661638 0.573092 0.226412
0.692158 0.569513 0.220721
0.722677 0.565934 0.215030
0.751819 0.562773 0.210706
0.778205 0.560446 0.209118
0.804592 0.558119 0.207530
0.830978 0.555792 0.205942
0.857364 0.553465 0.204354
0.882015 0.551126 0.203166
0.897985 0.548730 0.203973
0.913956 0.546334 0.204781
0.929927 0.543938 0.205588
0.945897 0.541542 0.206396
0.961868 0.539146 0.207203
0.276959 0.720694 0.401876
0.287166 0.712772 0.393730
0.297374 0.704851 0.385585
0.307581 0.696929 0.377440
0.317789 0.689008 0.369295
0.327996 0.681086 0.361150
0.347675 0.673528 0.351075
0.369248 0.666043 0.340614
0.390821 0.658559 0.330153
0.412394 0.651074 0.319693
0.433967 0.643589 0.309232
0.460037 0.637195 0.299580
0.488355 0.631347 0.290331
0.516673 0.625498 0.281083
0.544991 0.619650 0.271835
0.573309 0.613802 0.262587
0.602537 0.608902 0.255026
0.632674 0.604950 0.249152
0.662811 0.600998 0.243279
0.692948 0.597046 0.237405
0.723084 0.593094 0.231532
0.751990 0.589577 0.226862
0.778434 0.586932 0.224599
0.804877 0.584286 0.222337
0.831320 0.581640 0.220074
0.857764 0.578995 0.217811
0.882512 0.576351 0.215864
0.898787 0.573717 0.215496
0.915061 0.571082 0.215127
0.931336 0.568448 0.214758
0.947610 0.565813 0.214390
0.963884 0.563178 0.214021
0.306570 0.751399 0.417930
0.314465 0.743579 0.409706
0.322360 0.735760 0.401482
0.330255 0.727940 0.393258
0.338150 0.720121 0.385035
0.346045 0.712301 0.376811
0.363750 0.704641 0.366879
0.383417 0.697013 0.356605
0.403084 0.689385 0.346331
0.422751 0.681757 0.336057
0.442418 0.674129 0.325783
0.467119 0.667474 0.316284
0.494337 0.661306 0.307173
0.521554 0.655138 0.298062
0.548772 0.648969 0.288951
0.575989 0.642801 0.279840
0.604475 0.637554 0.272257
0.634229 0.633229 0.266201
0.663983 0.628904 0.260145
0.693738 0.624578 0.254090
0.723492 0.620253 0.248034
0.752161 0.616382 0.243018
0.778662 0.613417 0.240080
0.805162 0.610453 0.237143
0.831663 0.607489 0.234206
0.858163 0.604525 0.231268
0.883010 0.601576 0.228563
0.899588 0.598703 0.227018
0.916166 0.595830 0.225473
0.932744 0.592957 0.223929
0.949323 0.590084 0.222384
0.965901 0.587211 0.220839
0.336689 0.778772 0.434609
0.342590 0.771212 0.426431
0.348491 0.763652 0.418254
0.354392 0.756092 0.410076
0.360293 0.748532 0.401899
0.366194 0.740972 0.393722
0.381982 0.733369 0.384015
0.399747 0.725757 0.374004
0.417512 0.718145 0.363992
0.435277 0.710533 0.353980
0.453042 0.702920 0.343968
0.476245 0.696131 0.334678
0.502167 0.689753 0.325751
0.528089 0.683375 0.316823
0.554011 0.676997 0.307895
0.579933 0.670619 0.298967
0.607454 0.665110 0.291415
0.636572 0.660470 0.285241
0.665691 0.655830 0.279066
0.694809 0.651189 0.272891
0.723928 0.646549 0.266716
0.752133 0.642376 0.261438
0.778511 0.639135 0.257953
0.804889 0.635894 0.254468
0.831267 0.632653 0.250982
0.857646 0.629412 0.247497
0.882441 0.626207 0.244173
0.899325 0.623182 0.241655
0.916209 0.620157 0.239136
0.933093 0.617132 0.236617
0.949977 0.614107 0.234098
0.966861 0.611081 0.231580
0.367824 0.799479 0.452535
0.372368 0.792495 0.444655
0.376912 0.785510 0.436774
0.381456 0.778525 0.428894
0.386000 0.771541 0.421013
0.390544 0.764556 0.413133
0.404527 0.757327 0.403819
0.420397 0.750048 0.394219
0.436268 0.742770 0.384619
0.452138 0.735492 0.375019
0.468009 0.728213 0.365420
0.489457 0.721542 0.356451
0.513694 0.715175 0.347798
0.537931 0.708808 0.339145
0.562168 0.702441 0.330492
0.586405 0.696074 0.321839
0.612512 0.690471 0.314429
0.640489 0.685633 0.308261
0.668467 0.680795 0.302094
0.696444 0.675957 0.295926
0.724421 0.671119 0.289759
0.751705 0.666749 0.284387
0.777602 0.663315 0.280608
0.803499 0.659881 0.276829
0.829397 0.656447 0.273050
0.855294 0.653013 0.269271
0.879740 0.649650 0.265607
0.896934 0.646646 0.262519
0.914127 0.643642 0.259431
0.931321 0.640638 0.256343
0.948514 0.637634 0.253255
0.965708 0.634630 0.250167
0.398959 0.820187 0.470462
0.402146 0.813777 0.462879
0.405333 0.807368 0.455295
0.408520 0.800959 0.447711
0.411707 0.794550 0.440127
0.414894 0.788140 0.432543
0.427072 0.781285 0.423623
0.441048 0.774340 0.414435
0.455024 0.767396 0.405247
0.469000 0.760451 0.396059
0.482976 0.753506 0.386871
0.502669 0.746954 0.378223
0.525221 0.740598 0.369845
0.547773 0.734241 0.361467
0.570324 0.727885 0.353089
0.592876 0.721529 0.344711
0.617570 0.715833 0.337442
0.644406 0.710797 0.331282
0.671242 0.705761 0.325122
0.698079 0.700725 0.318962
0.724915 0.695689 0.312801
0.751277 0.691123 0.307337
0.776694 0.687496 0.303264
0.802110 0.683868 0.299191
0.827526 0.680241 0.295117
0.852942 0.676613 0.291044
0.877039 0.673093 0.287040
0.894543 0.670110 0.283383
0.912046 0.667127 0.279726
0.929549 0.664144 0.276068
0.947052 0.661161 0.272411
0.964555 0.658178 0.268754
0.430094 0.840894 0.488389
0.431924 0.835060 0.481102
0.433754 0.829226 0.473815
0.435584 0.823392 0.466528
0.437414 0.817558 0.459241
0.439244 0.811724 0.451954
0.449617 0.805243 0.443427
0.461698 0.798632 0.434651
0.473780 0.792021 0.425875
0.485861 0.785410 0.417099
0.497942 0.778799 0.408323
0.515881 0.772365 0.399996
0.536747 0.766020 0.391893
0.557614 0.759674 0.383790
0.578481 0.753329 0.375686
0.599348 0.746983 0.367583
0.622629 0.741194 0.360455
0.648324 0.735960 0.354302
0.674018 0.730727 0.348150
0.699713 0.725493 0.341997
0.725408 0.720259 0.335844
0.750850 0.715496 0.330286
0.775785 0.711676 0.325919
0.800720 0.707855 0.321552
0.825655 0.704035 0.317185
0.850590 0.700214 0.312818
0.874338 0.696537 0.308474
0.892151 0.693575 0.304247
0.909964 0.690612 0.300021
0.927777 0.687650 0.295794
0.945590 0.684688 0.291567
0.963402 0.681726 0.287341
0.461228 0.861602 0.506316
0.461701 0.856343 0.499326
0.462175 0.851084 0.492336
0.462648 0.845826 0.485345
0.463121 0.840567 0.478355
0.463594 0.835308 0.471365
0.472162 0.829201 0.463230
0.482349 0.822924 0.454866
0.492536 0.816647 0.446503
0.502722 0.810369 0.438139
0.512909 0.804092 0.429775
0.529093 0.797777 0.421768
0.548274 0.791442 0.413940
0.567456 0.785108 0.406112
0.586638 0.778773 0.398284
0.605819 0.772438 0.390455
0.627687 0.766555 0.383469
0.652241 0.761124 0.377323
0.676794 0.755692 0.371178
0.701348 0.750261 0.365032
0.725902 0.744829 0.358887
0.750422 0.739870 0.353236
0.774876 0.735856 0.348575
0.799330 0.731842 0.343914
0.823784 0.727829 0.339252
0.848238 0.723815 0.334591
0.871637 0.719980 0.329907
0.889760 0.717039 0.325111
0.907882 0.714098 0.320316
0.926005 0.711157 0.315520
0.944127 0.708216 0.310724
0.962250 0.705274 0.305928
0.490814 0.880489 0.523922
0.490177 0.875835 0.517328
0.489541 0.871182 0.510734
0.488904 0.866529 0.504140
0.488268 0.861875 0.497547
0.487632 0.857222 0.490953
0.494544 0.851540 0.483251
0.502965 0.845653 0.475327
0.511387 0.839765 0.467403
0.519808 0.833877 0.459480
0.528230 0.827990 0.451556
0.542698 0.821853 0.443870
0.560188 0.815591 0.436302
0.577679 0.809329 0.428734
0.595170 0.803067 0.421166
0.612661 0.796805 0.413599
0.633073 0.790880 0.406751
0.656408 0.785293 0.400625
0.679742 0.779706 0.394498
0.703077 0.774119 0.388372
0.726411 0.768532 0.382245
0.749933 0.763409 0.376549
0.773830 0.759213 0.371714
0.797727 0.755018 0.366879
0.821624 0.750823 0.362044
0.845522 0.746627 0.357208
0.868503 0.742646 0.352334
0.886905 0.739732 0.347265
0.905307 0.736819 0.342196
0.923709 0.733906 0.337126
0.942112 0.730993 0.332057
0.960514 0.728080 0.326988
0.512651 0.890273 0.539922
0.512142 0.886376 0.534223
0.511634 0.882478 0.528523
0.511125 0.878580 0.522824
0.510617 0.874682 0.517125
0.510108 0.870784 0.511426
0.516109 0.865786 0.504357
0.523411 0.860567 0.497013
0.530714 0.855348 0.489670
0.538016 0.850130 0.482327
0.545319 0.844911 0.474984
0.558267 0.839251 0.467616
0.574038 0.833371 0.460236
0.589809 0.827491 0.452856
0.605581 0.821610 0.445476
0.621352 0.815730 0.438096
0.640100 0.810024 0.431382
0.661825 0.804493 0.425332
0.683550 0.798962 0.419283
0.705276 0.793431 0.413233
0.727001 0.787900 0.407184
0.749138 0.782773 0.401681
0.772098 0.778454 0.397272
