Assets/1__3DArt/KimSe/artstation_asset/LUTs_pasterls/CUBE/Pastelopolis 04 S.cube
# Enhanced with VOXCOLOR algorithms
LUT_3D_SIZE 8
DOMAIN_MIN 0.000000 0.000000 0.000000
DOMAIN_MAX 0.903226 0.903226 0.903226
0.101961 0.137255 0.070588
0.234972 0.150037 0.080095
0.368419 0.163125 0.087122
0.485264 0.175384 0.092174
0.573049 0.185818 0.095720
0.621859 0.192850 0.098076
0.645180 0.196883 0.099897
0.655752 0.199104 0.101218
0.114993 0.194339 0.112890
0.225315 0.202562 0.114168
0.346306 0.210557 0.108975
0.460942 0.217258 0.100909
0.555959 0.221903 0.093270
0.618984 0.223913 0.090687
0.653839 0.223895 0.094769
0.667036 0.222058 0.102857
0.135777 0.267274 0.172598
0.224104 0.272225 0.165638
0.331733 0.278092 0.149093
0.442551 0.282889 0.128855
0.543156 0.285067 0.110394
0.618915 0.283078 0.101902
0.665100 0.277127 0.105962
0.683212 0.267935 0.117660
0.164827 0.349769 0.246633
0.232157 0.351826 0.232648
0.325636 0.357110 0.207707
0.430729 0.362304 0.178510
0.534485 0.364586 0.151414
0.620559 0.360402 0.136523
0.677216 0.349128 0.137311
0.702426 0.332716 0.147680
0.202215 0.435705 0.330825
0.249997 0.434697 0.312192
0.328743 0.439786 0.283531
0.425986 0.446451 0.250433
0.529761 0.450635 0.218440
0.622923 0.446615 0.197220
0.688663 0.432661 0.190934
0.722928 0.411937 0.193916
0.248243 0.516018 0.415954
0.279624 0.512238 0.397399
0.343655 0.516648 0.372272
0.430362 0.524514 0.342990
0.529466 0.531388 0.312324
0.624871 0.530484 0.286150
0.697568 0.518799 0.268777
0.742408 0.499496 0.257664
0.298726 0.582602 0.489736
0.318145 0.577768 0.475265
0.368364 0.581354 0.458038
0.442353 0.589578 0.437280
0.532280 0.598679 0.412716
0.625078 0.602425 0.384985
0.702249 0.596801 0.357469
0.757573 0.583609 0.331759
0.349934 0.633199 0.551719
0.361433 0.629558 0.542653
0.398819 0.632899 0.533271
0.458756 0.641177 0.521276
0.536620 0.652033 0.504642
0.623453 0.660742 0.479875
0.702415 0.662729 0.448078
0.766396 0.658515 0.413379
0.105293 0.149002 0.122855
0.237519 0.156671 0.131624
0.371136 0.162862 0.134353
0.488860 0.167732 0.133090
0.578028 0.171638 0.129578
0.628645 0.175769 0.125073
0.653134 0.181086 0.120620
0.663964 0.185804 0.117143
0.118194 0.210568 0.165382
0.238242 0.215739 0.167191
0.358890 0.218157 0.162798
0.469578 0.218518 0.155257
0.562200 0.217632 0.147163
0.628383 0.217068 0.141009
0.669168 0.217786 0.136874
0.686187 0.218354 0.133266
0.139692 0.286153 0.224142
0.237874 0.289391 0.218158
0.344547 0.291317 0.204778
0.450697 0.291600 0.188488
0.548732 0.290116 0.173160
0.629356 0.287077 0.163249
0.685994 0.282916 0.158791
0.714646 0.277107 0.156421
0.169886 0.368943 0.295239
0.242781 0.370529 0.282031
0.334744 0.373823 0.260379
0.436275 0.376802 0.235641
0.538757 0.377789 0.212544
0.631101 0.374798 0.197098
0.701896 0.367437 0.189983
0.745161 0.356354 0.187027
0.208507 0.452675 0.374138
0.257719 0.452681 0.355668
0.334585 0.457926 0.328794
0.429470 0.464838 0.298430
0.533123 0.470247 0.269047
0.633159 0.469957 0.246813
0.715309 0.462583 0.233489
0.773796 0.449865 0.225633
0.255594 0.528962 0.452241
0.286794 0.527403 0.433325
0.348982 0.533710 0.408069
0.433923 0.543900 0.378886
0.533193 0.554254 0.348133
0.634824 0.559444 0.319281
0.723537 0.556817 0.295138
0.794304 0.548097 0.275597
0.306099 0.591382 0.518829
0.325297 0.589104 0.504272
0.374255 0.595263 0.486618
0.447095 0.606778 0.465123
0.537255 0.620551 0.439233
0.634719 0.631697 0.407742
0.724536 0.636293 0.373252
0.801709 0.634615 0.340010
0.355090 0.638477 0.572672
0.367508 0.637380 0.564756
0.405054 0.643316 0.556338
0.464890 0.654723 0.544991
0.543013 0.669744 0.528336
0.632107 0.684840 0.501198
0.718022 0.695589 0.463699
0.795308 0.700919 0.421956
0.106559 0.160224 0.190165
0.239677 0.165134 0.200306
0.375353 0.167195 0.201073
0.495693 0.167233 0.195123
0.587510 0.166336 0.184926
0.640263 0.167224 0.172996
0.665860 0.171518 0.162135
0.676959 0.176317 0.154059
0.120251 0.227981 0.231359
0.242307 0.230985 0.236309
0.363905 0.229800 0.234566
0.475549 0.225819 0.228148
0.569969 0.220557 0.218818
0.639528 0.216809 0.207919
0.684742 0.216260 0.196034
0.706382 0.216971 0.183095
0.143536 0.307346 0.287938
0.243215 0.308822 0.285713
0.349905 0.307785 0.277550
0.456067 0.304564 0.266012
0.555384 0.299686 0.253267
0.640222 0.294450 0.241209
0.704486 0.290037 0.229633
0.743502 0.285603 0.217059
0.175844 0.391132 0.354832
0.249141 0.391540 0.345314
0.340393 0.392783 0.329731
0.441391 0.393465 0.311324
0.544770 0.392517 0.292874
0.641747 0.389017 0.277321
0.722709 0.383250 0.264819
0.781695 0.375455 0.253365
0.216342 0.473052 0.426915
0.265085 0.472827 0.411724
0.340752 0.477263 0.390386
0.434733 0.483423 0.366086
0.538905 0.488746 0.341645
0.643573 0.490122 0.320429
0.737342 0.486639 0.303773
0.815105 0.479357 0.290516
0.264455 0.545416 0.496309
0.295040 0.544613 0.479947
0.355918 0.551444 0.458549
0.439784 0.562606 0.433536
0.539279 0.574995 0.406260
0.645130 0.584329 0.378254
0.745241 0.587961 0.352329
0.835578 0.586567 0.330537
0.314468 0.603517 0.554428
0.333472 0.602515 0.541673
0.381524 0.610093 0.526304
0.453603 0.623908 0.507135
0.544097 0.641497 0.483112
0.645241 0.659004 0.451804
0.744828 0.671990 0.416025
0.839008 0.679195 0.381994
0.360828 0.646405 0.599748
0.373990 0.646851 0.593334
0.411728 0.654660 0.586670
0.471768 0.668935 0.577165
0.550740 0.688446 0.562140
0.642843 0.710943 0.535309
0.735913 0.731544 0.496298
0.825696 0.746978 0.452818
0.106141 0.171049 0.268505
0.241607 0.175679 0.282386
0.381113 0.176263 0.284047
0.505781 0.173876 0.275821
0.601568 0.169895 0.260308
0.656905 0.167541 0.241371
0.683610 0.169094 0.224752
0.695004 0.171986 0.212883
0.121359 0.245943 0.307156
0.241281 0.248349 0.316961
0.365341 0.245965 0.319431
0.481635 0.239956 0.315012
0.580908 0.231766 0.304415
0.653825 0.224491 0.288478
0.701748 0.220847 0.270093
0.727507 0.219477 0.251067
0.147098 0.329522 0.360119
0.243529 0.330130 0.363112
0.351492 0.327976 0.361416
0.461258 0.323043 0.355231
0.564734 0.315683 0.344893
0.653051 0.307422 0.330547
0.721757 0.300611 0.313662
0.768910 0.295134 0.295216
0.182040 0.414494 0.421367
0.252688 0.414019 0.417044
0.344255 0.414279 0.409134
0.447266 0.413664 0.398262
0.553386 0.411016 0.385056
0.653561 0.405664 0.370096
0.740398 0.398938 0.354650
0.810701 0.391733 0.339276
0.224712 0.494740 0.485346
0.271827 0.493985 0.475144
0.347119 0.497797 0.461622
0.441637 0.503312 0.445645
0.547106 0.508077 0.428060
0.654527 0.509332 0.409893
0.755000 0.506804 0.393158
0.845700 0.501849 0.378978
0.273762 0.563295 0.544993
0.303490 0.562573 0.532885
0.363651 0.569432 0.517940
0.447190 0.580950 0.500094
0.547112 0.594337 0.479405
0.655400 0.605768 0.455782
0.762272 0.612550 0.432472
0.865249 0.615028 0.413129
0.322995 0.617104 0.593972
0.341789 0.616672 0.584177
0.389243 0.624983 0.573022
0.460911 0.640275 0.558758
0.551787 0.660548 0.539807
0.655485 0.682559 0.513021
0.761571 0.701212 0.481410
0.867198 0.714183 0.452043
0.366637 0.655545 0.630815
0.380276 0.656881 0.626100
0.418162 0.665989 0.621864
0.478570 0.682614 0.615505
0.558683 0.706088 0.604247
0.653865 0.735216 0.581418
0.753072 0.764428 0.546217
0.852727 0.788459 0.506871
0.104351 0.181520 0.353389
0.243219 0.188315 0.373381
0.388008 0.189840 0.379164
0.518546 0.187178 0.371859
0.619650 0.181713 0.353555
0.678246 0.176382 0.329183
0.706247 0.174063 0.308183
0.718055 0.173554 0.293751
0.121614 0.263677 0.388568
0.238239 0.267504 0.404138
0.366273 0.266559 0.412166
0.489718 0.261015 0.411031
0.595881 0.251589 0.400101
0.672102 0.240785 0.379955
0.721061 0.232545 0.357072
0.749453 0.227077 0.335662
0.150107 0.351259 0.436454
0.241650 0.352580 0.445012
0.352254 0.351773 0.450367
0.468129 0.347523 0.450082
0.577759 0.339209 0.442547
0.668911 0.327582 0.426592
0.738858 0.316420 0.406641
0.790389 0.307381 0.386735
0.187813 0.437182 0.490669
0.254624 0.436892 0.491850
0.347639 0.438094 0.492181
0.454666 0.438073 0.489490
0.565050 0.434809 0.482205
0.667329 0.426855 0.468948
0.755790 0.416780 0.452997
0.831535 0.407225 0.437839
0.232662 0.515710 0.545650
0.277665 0.514891 0.540917
0.353467 0.519182 0.536147
0.449873 0.525101 0.529750
0.557532 0.529682 0.520547
0.666306 0.529581 0.507493
0.768773 0.525261 0.493551
0.865224 0.519415 0.482001
0.282528 0.580614 0.595217
0.311320 0.579951 0.587972
0.371368 0.587082 0.580760
0.455353 0.599011 0.572006
0.556057 0.612859 0.560461
0.665357 0.624567 0.544623
0.774622 0.631511 0.527731
0.883143 0.634591 0.514245
0.330918 0.630343 0.635016
0.349434 0.630253 0.628659
0.396546 0.639024 0.622866
0.468118 0.655181 0.615500
0.559424 0.676926 0.604607
0.664558 0.701158 0.586734
0.773765 0.722343 0.564309
0.884956 0.737883 0.543848
0.372077 0.664550 0.663871
0.385841 0.666405 0.660874
0.423755 0.676381 0.659572
0.484567 0.694660 0.657644
0.565874 0.720933 0.652514
0.663686 0.754578 0.637945
0.767113 0.789420 0.612453
0.872676 0.819060 0.583240
0.101135 0.191285 0.436699
0.243270 0.202577 0.464691
0.393767 0.207135 0.478627
0.531219 0.205961 0.477570
0.639230 0.200329 0.462224
0.702746 0.192485 0.437046
0.733140 0.185906 0.414418
0.745959 0.181253 0.398917
0.120596 0.279213 0.467471
0.235216 0.286797 0.488908
0.368231 0.290147 0.504057
0.499903 0.287912 0.509005
0.614216 0.279569 0.501458
0.694404 0.266116 0.481044
0.743485 0.252604 0.457313
0.772242 0.241591 0.437172
0.151717 0.369622 0.509129
0.239682 0.373790 0.522601
0.354093 0.377405 0.535146
0.477330 0.377135 0.541929
0.594395 0.370687 0.539478
0.688477 0.356818 0.525118
0.757057 0.340407 0.505710
0.807740 0.325775 0.488384
0.191915 0.455830 0.555637
0.255658 0.457447 0.561479
0.351200 0.462364 0.569520
0.463600 0.466037 0.575321
0.579582 0.464873 0.575439
0.683736 0.455360 0.566619
0.770097 0.440839 0.553449
0.843899 0.426567 0.542064
0.238643 0.532570 0.601848
0.281833 0.532832 0.601766
0.359022 0.539616 0.605075
0.458557 0.548222 0.608365
0.569586 0.554579 0.608862
0.679275 0.553649 0.603672
0.779622 0.546213 0.595707
0.873673 0.537073 0.589724
0.289205 0.594211 0.642370
0.317145 0.594182 0.639351
0.377662 0.602577 0.639517
0.462946 0.615900 0.640376
0.565189 0.630775 0.639788
0.674890 0.642207 0.635112
0.782775 0.647586 0.628263
0.889454 0.649065 0.623361
0.337065 0.640448 0.674152
0.355129 0.640876 0.670845
0.402078 0.650258 0.670495
0.473914 0.667066 0.671072
0.565911 0.689417 0.670618
0.671723 0.713913 0.665780
0.780832 0.734982 0.657114
0.891355 0.750621 0.649049
0.376594 0.671421 0.696443
0.389928 0.673588 0.694785
0.427595 0.684096 0.696544
0.488702 0.703193 0.700062
0.571064 0.730587 0.703330
0.670698 0.765559 0.701416
0.775704 0.801766 0.691676
0.881915 0.833113 0.678480
0.095729 0.198904 0.508010
0.239419 0.215891 0.543884
0.394368 0.224706 0.568411
0.538497 0.226143 0.578517
0.654513 0.221265 0.573013
0.725209 0.211530 0.553774
0.759938 0.200962 0.533335
0.774861 0.191974 0.518259
0.117665 0.290714 0.534995
0.231005 0.302890 0.561422
0.368064 0.311818 0.584523
0.507023 0.314622 0.598603
0.629719 0.309452 0.599758
0.715702 0.295346 0.585416
0.766252 0.277730 0.565162
0.794486 0.261350 0.547810
0.151215 0.382656 0.570884
0.236797 0.390280 0.588020
0.354330 0.399572 0.607270
0.484063 0.405334 0.622350
0.608737 0.403582 0.628410
0.707355 0.390563 0.620741
0.775116 0.371030 0.605789
0.822060 0.351529 0.592357
0.193480 0.468523 0.610464
0.254842 0.472498 0.619537
0.352388 0.482254 0.633832
0.469707 0.491679 0.647817
0.591776 0.495681 0.656933
0.699328 0.488281 0.656077
0.783434 0.472165 0.648785
0.850908 0.454471 0.642307
0.241682 0.543524 0.649315
0.283042 0.545167 0.652352
0.361174 0.555329 0.661716
0.463782 0.568375 0.673346
0.579010 0.579253 0.683702
0.691093 0.581050 0.688447
0.788754 0.573587 0.688743
0.875386 0.562893 0.689460
0.292882 0.602526 0.682823
0.319588 0.603274 0.682600
0.380210 0.613468 0.688239
0.466929 0.629301 0.697214
0.571590 0.647009 0.707153
0.682943 0.660667 0.714809
0.788728 0.666945 0.719722
0.888861 0.668539 0.724604
0.340627 0.646139 0.708576
0.357783 0.647098 0.707304
0.404303 0.657262 0.711182
0.476534 0.675074 0.718771
0.569817 0.698579 0.728492
0.676990 0.724112 0.737542
0.785060 0.745948 0.744088
0.890822 0.762479 0.749708
0.379242 0.675073 0.726031
0.391726 0.677463 0.725195
0.428867 0.688404 0.729506
0.490171 0.708045 0.738154
0.573645 0.735967 0.749894
0.675014 0.771080 0.761542
0.780346 0.807053 0.769288
0.883730 0.838755 0.774072
0.086920 0.202922 0.564926
0.231084 0.226353 0.607878
0.389119 0.240514 0.643382
0.539055 0.245803 0.666955
0.663254 0.242902 0.675772
0.742654 0.232198 0.668192
0.783294 0.217889 0.653984
0.801158 0.203959 0.641089
0.112477 0.298335 0.590688
0.224116 0.314716 0.620998
0.363315 0.329225 0.651720
0.507698 0.337715 0.676304
0.638169 0.337139 0.689709
0.731677 0.324526 0.686689
0.786080 0.304696 0.673708
0.814584 0.283743 0.659771
0.148635 0.391386 0.622368
0.231487 0.401537 0.641956
0.350068 0.415870 0.666879
0.484202 0.427931 0.690448
0.615737 0.432478 0.707089
0.720828 0.423586 0.710028
0.790397 0.404585 0.702504
0.833775 0.382708 0.692930
0.192749 0.476655 0.656218
0.251059 0.481889 0.667254
0.348537 0.495580 0.686150
0.468882 0.510879 0.707327
0.596582 0.521827 0.725839
0.709722 0.520693 0.735062
0.794080 0.508123 0.735437
0.854418 0.491066 0.733481
0.242255 0.550056 0.689034
0.280614 0.552011 0.693831
0.357672 0.564671 0.707149
0.461854 0.582339 0.725164
0.581338 0.599675 0.744248
0.698286 0.608810 0.759149
0.795442 0.607296 0.768166
0.872744 0.600134 0.775019
0.294324 0.607106 0.717224
0.318346 0.607705 0.718449
0.377321 0.619063 0.727462
0.464477 0.637752 0.742269
0.572068 0.660171 0.760741
0.687568 0.680283 0.779524
0.792966 0.692973 0.795521
0.883890 0.699495 0.809433
0.342272 0.648962 0.738637
0.357329 0.649795 0.738402
0.402271 0.660383 0.744930
0.474421 0.679561 0.757603
0.569622 0.705639 0.775440
0.680127 0.735221 0.796488
0.788299 0.761713 0.816723
0.886735 0.782534 0.834756
0.379862 0.676623 0.752631
0.390970 0.679011 0.752269
0.427079 0.690229 0.758283
0.488387 0.710568 0.770753
0.573301 0.739667 0.789241
0.677407 0.776343 0.812332
0.783678 0.813973 0.835304
0.882917 0.847806 0.855986
