Assets/1__3DArt/KimSe/artstation_asset/LUTs_pasterls/CUBE/Pastelopolis 04.cube
# Enhanced with VOXCOLOR algorithms
LUT_3D_SIZE 5
DOMAIN_MIN 0.000000 0.000000 0.000000
DOMAIN_MAX 0.903226 0.903226 0.903226
0.101961 0.137255 0.070588
0.335012 0.159822 0.085621
0.531941 0.180844 0.094032
0.631513 0.194308 0.098612
0.655752 0.199104 0.101218
0.129804 0.247393 0.155910
0.311346 0.256540 0.155812
0.508784 0.262782 0.145182
0.633807 0.260417 0.133237
0.672204 0.251287 0.126370
0.183343 0.392809 0.289321
0.308809 0.392829 0.274954
0.493615 0.395774 0.247983
0.643696 0.386704 0.214628
0.705964 0.364066 0.189073
0.262426 0.533050 0.439449
0.334033 0.528150 0.417571
0.488098 0.537500 0.386423
0.649360 0.537368 0.339049
0.743197 0.514343 0.289377
0.352063 0.631603 0.554913
0.388294 0.629259 0.540961
0.498415 0.643867 0.522134
0.644719 0.659050 0.481707
0.765031 0.655915 0.418680
0.106456 0.157472 0.171789
0.342003 0.168156 0.181027
0.545846 0.176210 0.166716
0.649215 0.180781 0.148452
0.673015 0.181933 0.140085
0.135957 0.280964 0.254826
0.341974 0.288193 0.251427
0.534832 0.287409 0.227837
0.654718 0.276267 0.197579
0.693319 0.259129 0.175527
0.193942 0.426946 0.376216
0.330926 0.430330 0.363733
0.514605 0.434558 0.333514
0.662837 0.422855 0.289022
0.729267 0.393897 0.247505
0.275517 0.557169 0.502720
0.348770 0.557956 0.487041
0.501782 0.572721 0.461779
0.663751 0.576530 0.414023
0.765163 0.553879 0.352663
0.360490 0.643493 0.593708
0.399802 0.646960 0.586592
0.510360 0.667365 0.577899
0.656693 0.688564 0.547226
0.779925 0.688918 0.481639
0.105348 0.176335 0.311059
0.350219 0.185481 0.329667
0.567878 0.185562 0.307723
0.680663 0.180276 0.270020
0.706126 0.175318 0.248828
0.140855 0.318486 0.384535
0.340280 0.326236 0.391300
0.548417 0.323859 0.369349
0.683583 0.304180 0.324775
0.729104 0.277099 0.287080
0.206940 0.466613 0.486537
0.339049 0.472802 0.482639
0.529640 0.481680 0.462150
0.688688 0.469787 0.416204
0.765188 0.436327 0.364889
0.292058 0.586813 0.583555
0.363496 0.591320 0.575874
0.517572 0.612541 0.564295
0.685709 0.623881 0.529201
0.798474 0.607380 0.472342
0.370702 0.659645 0.647965
0.411105 0.666535 0.645859
0.523728 0.693203 0.648926
0.676494 0.725348 0.638293
0.809474 0.738628 0.591916
0.100112 0.193511 0.456327
0.356324 0.211589 0.499125
0.593168 0.210576 0.494783
0.722319 0.197597 0.455840
0.753080 0.184354 0.425663
0.142861 0.350741 0.515099
0.330633 0.364964 0.540518
0.558233 0.369639 0.542631
0.718487 0.347899 0.506812
0.776453 0.312359 0.464443
0.216597 0.499018 0.593396
0.337587 0.509617 0.602578
0.536369 0.528675 0.607395
0.715522 0.524361 0.582688
0.809733 0.493361 0.540924
0.304766 0.610116 0.662481
0.371415 0.617716 0.663437
0.526367 0.646827 0.671965
0.706054 0.670934 0.665850
0.837313 0.669941 0.637885
0.379038 0.672203 0.704502
0.417984 0.681177 0.706156
0.532190 0.713818 0.721407
0.694739 0.759173 0.737326
0.844486 0.793466 0.732003
0.086920 0.202922 0.564926
0.348225 0.237986 0.635208
0.604458 0.245099 0.672313
0.758704 0.229384 0.665367
0.801167 0.204026 0.641007
0.138546 0.368364 0.613839
0.318581 0.391423 0.654833
0.559553 0.410530 0.693053
0.746440 0.398402 0.696875
0.821581 0.360067 0.672805
0.217571 0.514468 0.672952
0.327874 0.527906 0.691688
0.530651 0.559352 0.724286
0.732256 0.573156 0.741700
0.849012 0.556624 0.736099
0.307718 0.619570 0.723574
0.366764 0.627606 0.729604
0.520278 0.663844 0.755591
0.714822 0.706054 0.786165
0.868980 0.730423 0.805990
0.380524 0.676357 0.752612
0.416068 0.686114 0.756204
0.530378 0.723681 0.780784
0.703395 0.782561 0.821401
0.872129 0.840791 0.861165
