Assets/1__3DArt/KimSe/artstation_asset/LUTs_pasterls/CUBE/Pastelopolis 02 S.cube
# Enhanced with VOXCOLOR algorithms
LUT_3D_SIZE 32
0.113725 0.094118 0.105882
0.164081 0.101160 0.101248
0.214438 0.108201 0.096614
0.264794 0.115243 0.091980
0.315151 0.122285 0.087345
0.365507 0.129326 0.082711
0.419551 0.138863 0.083581
0.474333 0.148899 0.085552
0.529114 0.158935 0.087523
0.583896 0.168971 0.089493
0.638677 0.179007 0.091464
0.682280 0.188519 0.097086
0.720292 0.197770 0.104534
0.758305 0.207021 0.111982
0.796317 0.216272 0.119429
0.834330 0.225523 0.126877
0.862598 0.233321 0.134746
0.881123 0.239668 0.143036
0.899647 0.246015 0.151326
0.918172 0.252362 0.159616
0.936696 0.258709 0.167906
0.950977 0.264024 0.175243
0.956769 0.267275 0.180673
0.962561 0.270526 0.186103
0.968353 0.273777 0.191534
0.974145 0.277028 0.196964
0.979144 0.279948 0.201820
0.980178 0.281213 0.203809
0.981212 0.282479 0.205798
0.982246 0.283744 0.207787
0.983280 0.285010 0.209776
0.984314 0.286275 0.211765
0.119056 0.123821 0.112665
0.166501 0.129264 0.107624
0.213946 0.134707 0.102584
0.261392 0.140150 0.097543
0.308837 0.145593 0.092502
0.356283 0.151036 0.087462
0.408092 0.158948 0.087321
0.460773 0.167354 0.088160
0.513454 0.175760 0.088999
0.566136 0.184165 0.089838
0.618817 0.192571 0.090676
0.661396 0.200717 0.095190
0.698925 0.208733 0.101541
0.736453 0.216750 0.107891
0.773982 0.224766 0.114242
0.811510 0.232783 0.120593
0.840055 0.239643 0.127710
0.859617 0.245348 0.135595
0.879179 0.251053 0.143479
0.898741 0.256758 0.151363
0.918303 0.262463 0.159247
0.933885 0.267316 0.166500
0.941508 0.270466 0.172488
0.949132 0.273616 0.178476
0.956755 0.276766 0.184464
0.964378 0.279916 0.190452
0.971147 0.282778 0.195981
0.973644 0.284205 0.199215
0.976141 0.285632 0.202449
0.978638 0.287059 0.205684
0.981135 0.288486 0.208918
0.983632 0.289914 0.212152
0.124386 0.153525 0.119447
0.168921 0.157369 0.114000
0.213455 0.161214 0.108553
0.257990 0.165058 0.103106
0.302524 0.168902 0.097660
0.347058 0.172747 0.092213
0.396632 0.179033 0.091061
0.447213 0.185809 0.090768
0.497794 0.192584 0.090475
0.548375 0.199360 0.090182
0.598956 0.206135 0.089889
0.640513 0.212915 0.093294
0.677557 0.219697 0.098547
0.714602 0.226479 0.103801
0.751646 0.233261 0.109055
0.788690 0.240043 0.114308
0.817512 0.245965 0.120675
0.838112 0.251028 0.128153
0.858711 0.256091 0.135632
0.879310 0.261154 0.143110
0.899909 0.266218 0.150589
0.916794 0.270609 0.157756
0.926248 0.273658 0.164302
0.935702 0.276706 0.170848
0.945157 0.279755 0.177394
0.954611 0.282804 0.183940
0.963150 0.285609 0.190142
0.967110 0.287198 0.194621
0.971070 0.288786 0.199100
0.975030 0.290375 0.203580
0.978990 0.291963 0.208059
0.982949 0.293552 0.212539
0.129717 0.183228 0.126230
0.171340 0.185474 0.120376
0.212964 0.187720 0.114523
0.254587 0.189965 0.108670
0.296211 0.192211 0.102817
0.337834 0.194457 0.096963
0.385172 0.199118 0.094800
0.433653 0.204264 0.093376
0.482134 0.209409 0.091951
0.530615 0.214554 0.090526
0.579096 0.219699 0.089101
0.619630 0.225113 0.091397
0.656190 0.230660 0.095554
0.692750 0.236208 0.099711
0.729311 0.241755 0.103867
0.765871 0.247303 0.108024
0.794969 0.252287 0.113639
0.816606 0.256708 0.120712
0.838243 0.261129 0.127784
0.859879 0.265551 0.134857
0.881516 0.269972 0.141930
0.899702 0.273902 0.149013
0.910988 0.276849 0.156117
0.922273 0.279797 0.163220
0.933559 0.282744 0.170324
0.944844 0.285692 0.177428
0.955153 0.288439 0.184302
0.960575 0.290190 0.190027
0.965998 0.291940 0.195751
0.971421 0.293690 0.201476
0.976844 0.295440 0.207201
0.982267 0.297191 0.212926
0.135047 0.212932 0.133012
0.173760 0.213579 0.126752
0.212472 0.214226 0.120493
0.251185 0.214873 0.114233
0.289897 0.215520 0.107974
0.328610 0.216167 0.101714
0.373712 0.219204 0.098540
0.420093 0.222719 0.095983
0.466474 0.226234 0.093427
0.512854 0.229748 0.090870
0.559235 0.233263 0.088313
0.598746 0.237310 0.089501
0.634822 0.241623 0.092561
0.670899 0.245937 0.095620
0.706975 0.250250 0.098680
0.743051 0.254563 0.101740
0.772426 0.258609 0.106603
0.795100 0.262388 0.113270
0.817774 0.266168 0.119937
0.840448 0.269947 0.126604
0.863122 0.273726 0.133271
0.882610 0.277195 0.140269
0.895727 0.280041 0.147931
0.908844 0.282887 0.155593
0.921960 0.285733 0.163254
0.935077 0.288579 0.170916
0.947155 0.291270 0.178463
0.954041 0.293182 0.185433
0.960927 0.295094 0.192403
0.967813 0.297005 0.199373
0.974699 0.298917 0.206343
0.981585 0.300829 0.213313
0.140378 0.242635 0.139795
0.176179 0.241684 0.133129
0.211981 0.240732 0.126463
0.247782 0.239780 0.119797
0.283584 0.238828 0.113131
0.319385 0.237877 0.106465
0.362253 0.239289 0.102280
0.406533 0.241173 0.098591
0.450814 0.243058 0.094903
0.495094 0.244943 0.091214
0.539375 0.246828 0.087526
0.577863 0.249508 0.087605
0.613455 0.252587 0.089567
0.649047 0.255665 0.091530
0.684639 0.258744 0.093493
0.720232 0.261823 0.095455
0.749883 0.264931 0.099567
0.773595 0.268068 0.105829
0.797306 0.271206 0.112090
0.821017 0.274343 0.118351
0.844729 0.277481 0.124612
0.865519 0.280488 0.131526
0.880467 0.283232 0.139746
0.895414 0.285977 0.147965
0.910362 0.288722 0.156185
0.925310 0.291467 0.164404
0.939158 0.294100 0.172623
0.947507 0.296174 0.180838
0.955856 0.298247 0.189054
0.964205 0.300321 0.197269
0.972554 0.302394 0.205484
0.980903 0.304468 0.213700
0.152896 0.283549 0.148039
0.185914 0.281346 0.141082
0.218932 0.279143 0.134126
0.251950 0.276940 0.127169
0.284968 0.274737 0.120213
0.317986 0.272534 0.113256
0.358641 0.272561 0.108333
0.400824 0.273034 0.103817
0.443007 0.273506 0.099301
0.485190 0.273979 0.094785
0.527373 0.274452 0.090269
0.564815 0.275891 0.089507
0.599887 0.277813 0.090623
0.634959 0.279735 0.091738
0.670031 0.281657 0.092854
0.705103 0.283579 0.093969
0.734884 0.285720 0.097480
0.759376 0.288080 0.103387
0.783868 0.290441 0.109294
0.808359 0.292801 0.115201
0.832851 0.295161 0.121108
0.854584 0.297485 0.127901
0.870801 0.299736 0.136467
0.887017 0.301988 0.145032
0.903234 0.304240 0.153597
0.919451 0.306492 0.162162
0.934507 0.308650 0.170803
0.943759 0.310339 0.179822
0.953011 0.312027 0.188841
0.962263 0.313716 0.197860
0.971516 0.315405 0.206879
0.980768 0.317093 0.215899
0.166851 0.326705 0.156575
0.197111 0.323321 0.149351
0.227371 0.319936 0.142127
0.257631 0.316551 0.134903
0.287892 0.313166 0.127679
0.318152 0.309781 0.120456
0.356600 0.308470 0.114849
0.396686 0.307575 0.109567
0.436772 0.306679 0.104284
0.476857 0.305784 0.099001
0.516943 0.304888 0.093719
0.553335 0.305110 0.092170
0.587879 0.305892 0.092488
0.622423 0.306673 0.092806
0.656968 0.307454 0.093124
0.691512 0.308236 0.093442
0.721394 0.309404 0.096383
0.746615 0.310959 0.101946
0.771835 0.312515 0.107509
0.797056 0.314070 0.113072
0.822276 0.315625 0.118636
0.844881 0.317222 0.125301
0.862254 0.318903 0.134169
0.879627 0.320583 0.143037
0.897000 0.322264 0.151905
0.914373 0.323944 0.160774
0.930524 0.325544 0.169786
0.940568 0.326738 0.179521
0.950612 0.327933 0.189256
0.960655 0.329127 0.198990
0.970699 0.330322 0.208725
0.980743 0.331516 0.218460
0.180806 0.369862 0.165111
0.208309 0.365295 0.157620
0.235811 0.360728 0.150129
0.263313 0.356161 0.142638
0.290815 0.351594 0.135146
0.318317 0.347028 0.127655
0.354558 0.344380 0.121366
0.392547 0.342116 0.115316
0.430536 0.339852 0.109267
0.468525 0.337588 0.103218
0.506513 0.335324 0.097168
0.541854 0.334330 0.094832
0.575871 0.333970 0.094353
0.609888 0.333611 0.093874
0.643904 0.333251 0.093395
0.677921 0.332892 0.092915
0.707904 0.333087 0.095285
0.733853 0.333838 0.100505
0.759803 0.334589 0.105724
0.785752 0.335339 0.110944
0.811701 0.336090 0.116163
0.835177 0.336960 0.122700
0.853707 0.338069 0.131871
0.872236 0.339178 0.141042
0.890765 0.340287 0.150214
0.909295 0.341396 0.159385
0.926542 0.342437 0.168770
0.937377 0.343138 0.179220
0.948212 0.343838 0.189670
0.959047 0.344538 0.200121
0.969883 0.345239 0.210571
0.980718 0.345939 0.221021
0.194762 0.413018 0.173647
0.219506 0.407269 0.165889
0.244250 0.401520 0.158130
0.268994 0.395772 0.150372
0.293739 0.390023 0.142613
0.318483 0.384274 0.134855
0.352517 0.380289 0.127882
0.388408 0.376657 0.121066
0.424300 0.373025 0.114250
0.460192 0.369393 0.107434
0.496084 0.365760 0.100618
0.530374 0.363549 0.097495
0.563863 0.362049 0.096218
0.597352 0.360549 0.094942
0.630841 0.359048 0.093665
0.664330 0.357548 0.092388
0.694414 0.356771 0.094188
0.721092 0.356717 0.099063
0.747770 0.356663 0.103939
0.774448 0.356609 0.108815
0.801126 0.356555 0.113690
0.825474 0.356698 0.120099
0.845160 0.357236 0.129573
0.864845 0.357773 0.139048
0.884531 0.358311 0.148522
0.904217 0.358848 0.157997
0.922559 0.359331 0.167753
0.934186 0.359537 0.178919
0.945813 0.359743 0.190085
0.957439 0.359950 0.201251
0.969066 0.360156 0.212417
0.980693 0.360362 0.223583
0.208717 0.456174 0.182184
0.230703 0.449243 0.174158
0.252690 0.442313 0.166132
0.274676 0.435382 0.158106
0.296662 0.428452 0.150080
0.318649 0.421521 0.142055
0.350475 0.416199 0.134398
0.384270 0.411198 0.126816
0.418064 0.406198 0.119233
0.451859 0.401197 0.111650
0.485654 0.396197 0.104068
0.518893 0.392769 0.100158
0.551855 0.390128 0.098084
0.584816 0.387486 0.096010
0.617778 0.384845 0.093936
0.650739 0.382204 0.091862
0.680924 0.380454 0.093090
0.708331 0.379595 0.097622
0.735738 0.378737 0.102154
0.763145 0.377878 0.106686
0.790552 0.377020 0.111217
0.815770 0.376436 0.117498
0.836613 0.376402 0.127276
0.857455 0.376368 0.137053
0.878297 0.376334 0.146831
0.899139 0.376301 0.156609
0.918577 0.376224 0.166737
0.930995 0.375937 0.178618
0.943413 0.375649 0.190500
0.955831 0.375361 0.202381
0.968249 0.375073 0.214263
0.980667 0.374785 0.226144
0.226837 0.498250 0.189795
0.246488 0.490716 0.181739
0.266139 0.483183 0.173683
0.285790 0.475649 0.165627
0.305441 0.468115 0.157571
0.325092 0.460581 0.149514
0.354943 0.454467 0.141523
0.386834 0.448636 0.133544
0.418725 0.442805 0.125565
0.450616 0.436974 0.117586
0.482507 0.431144 0.109606
0.514717 0.426920 0.105228
0.547086 0.423500 0.102651
0.579455 0.420080 0.100073
0.611824 0.416660 0.097495
0.644194 0.413240 0.094917
0.674291 0.410783 0.095774
0.702118 0.409289 0.100064
0.729944 0.407795 0.104355
0.757771 0.406301 0.108645
0.785597 0.404807 0.112936
0.811318 0.403620 0.119112
0.832826 0.403044 0.129057
0.854335 0.402468 0.139003
0.875844 0.401892 0.148949
0.897353 0.401316 0.158895
0.917399 0.400699 0.169217
0.930131 0.399880 0.181424
0.942864 0.399061 0.193630
0.955596 0.398242 0.205836
0.968329 0.397423 0.218043
0.981061 0.396604 0.230249
0.247038 0.539786 0.196944
0.264566 0.531939 0.188976
0.282093 0.524091 0.181008
0.299620 0.516243 0.173040
0.317147 0.508396 0.165072
0.334674 0.500548 0.157104
0.362666 0.493914 0.148951
0.392750 0.487522 0.140761
0.422834 0.481130 0.132570
0.452918 0.474738 0.124380
0.483002 0.468347 0.116190
0.514193 0.463537 0.111503
0.545937 0.459519 0.108568
0.577682 0.455501 0.105634
0.609426 0.451483 0.102699
0.641170 0.447465 0.099764
0.671088 0.444434 0.100347
0.699179 0.442390 0.104448
0.727270 0.440346 0.108549
0.755361 0.438301 0.112649
0.783453 0.436257 0.116750
0.809490 0.434526 0.122833
0.831421 0.433422 0.132879
0.853351 0.432319 0.142925
0.875282 0.431215 0.152972
0.897213 0.430112 0.163018
0.917623 0.428964 0.173446
0.930431 0.427595 0.185782
0.943240 0.426227 0.198118
0.956048 0.424858 0.210454
0.968856 0.423489 0.222790
0.981665 0.422121 0.235126
0.267240 0.581323 0.204092
0.282643 0.573161 0.196213
0.298047 0.565000 0.188333
0.313450 0.556838 0.180454
0.328853 0.548677 0.172574
0.344257 0.540515 0.164694
0.370388 0.533361 0.156380
0.398666 0.526408 0.147978
0.426943 0.519455 0.139576
0.455220 0.512502 0.131175
0.483497 0.505549 0.122773
0.513669 0.500154 0.117778
0.544789 0.495539 0.114486
0.575908 0.490923 0.111194
0.607027 0.486307 0.107903
0.638147 0.481691 0.104611
0.667884 0.478086 0.104921
0.696240 0.475491 0.108832
0.724596 0.472896 0.112743
0.752952 0.470301 0.116653
0.781308 0.467706 0.120564
0.807663 0.465433 0.126554
0.830015 0.463801 0.136701
0.852368 0.462170 0.146848
0.874720 0.460539 0.156995
0.897073 0.458908 0.167141
0.917847 0.457229 0.177675
0.930731 0.455311 0.190140
0.943616 0.453393 0.202606
0.956500 0.451474 0.215071
0.969384 0.449556 0.227537
0.982268 0.447637 0.240002
0.287442 0.622859 0.211241
0.300721 0.614384 0.203450
0.314001 0.605908 0.195658
0.327280 0.597433 0.187867
0.340560 0.588957 0.180076
0.353839 0.580482 0.172284
0.378111 0.572808 0.163808
0.404581 0.565294 0.155195
0.431052 0.557780 0.146582
0.457522 0.550266 0.137969
0.483992 0.542752 0.129356
0.513145 0.536772 0.124052
0.543640 0.531558 0.120404
0.574134 0.526344 0.116755
0.604629 0.521130 0.113106
0.635123 0.515917 0.109458
0.664681 0.511737 0.109494
0.693302 0.508592 0.113215
0.721922 0.505446 0.116936
0.750543 0.502301 0.120658
0.779164 0.499155 0.124379
0.805835 0.496339 0.130275
0.828610 0.494180 0.140523
0.851384 0.492022 0.150770
0.874158 0.489863 0.161017
0.896932 0.487705 0.171265
0.918071 0.485494 0.181903
0.931031 0.483026 0.194499
0.943991 0.480558 0.207094
0.956951 0.478090 0.219689
0.969912 0.475622 0.232284
0.982872 0.473154 0.244879
0.307643 0.664396 0.218390
0.318799 0.655606 0.210687
0.329955 0.646817 0.202984
0.341110 0.638027 0.195281
0.352266 0.629238 0.187578
0.363422 0.620449 0.179874
0.385834 0.612255 0.171237
0.410497 0.604180 0.162412
0.435161 0.596105 0.153588
0.459824 0.588030 0.144764
0.484487 0.579955 0.135939
0.512622 0.573389 0.130327
0.542491 0.567577 0.126322
0.572361 0.561766 0.122316
0.602230 0.555954 0.118310
0.632100 0.550142 0.114305
0.661478 0.545389 0.114067
0.690363 0.541693 0.117599
0.719248 0.537997 0.121130
0.748134 0.534301 0.124662
0.777019 0.530605 0.128193
0.804008 0.527245 0.133996
0.827204 0.524559 0.144344
0.850400 0.521873 0.154692
0.873596 0.519187 0.165040
0.896792 0.516501 0.175388
0.918295 0.513760 0.186132
0.931331 0.510742 0.198857
0.944367 0.507724 0.211582
0.957403 0.504706 0.224306
0.970439 0.501688 0.237031
0.983475 0.498671 0.249756
0.328930 0.700395 0.224224
0.338378 0.691675 0.216741
0.347825 0.682955 0.209259
0.357272 0.674235 0.201776
0.366719 0.665515 0.194293
0.376166 0.656795 0.186811
0.396945 0.648504 0.178239
0.419989 0.640298 0.169449
0.443034 0.632092 0.160660
0.466078 0.623886 0.151870
0.489123 0.615680 0.143080
0.516247 0.608904 0.137376
0.545411 0.602844 0.133215
0.574575 0.596784 0.129053
0.603739 0.590724 0.124892
0.632903 0.584664 0.120730
0.661938 0.579629 0.120349
0.690843 0.575619 0.123749
0.719749 0.571608 0.127149
0.748655 0.567598 0.130548
0.777561 0.563588 0.133948
0.804613 0.559895 0.139669
0.827958 0.556836 0.150031
0.851303 0.553778 0.160393
0.874648 0.550720 0.170755
0.897993 0.547661 0.181117
0.919600 0.544540 0.191871
0.932520 0.541100 0.204583
0.945439 0.537660 0.217296
0.958358 0.534220 0.230009
0.971278 0.530781 0.242722
0.984197 0.527341 0.255434
0.351303 0.730858 0.228744
0.359457 0.722591 0.221614
0.367611 0.714324 0.214484
0.375765 0.706056 0.207354
0.383919 0.697789 0.200224
0.392073 0.689521 0.193094
0.411444 0.681554 0.184815
0.433057 0.673648 0.176306
0.454671 0.665741 0.167797
0.476285 0.657834 0.159289
0.497899 0.649927 0.150780
0.524022 0.643319 0.145199
0.552399 0.637360 0.141083
0.580777 0.631401 0.136967
0.609154 0.625442 0.132850
0.637531 0.619483 0.128734
0.666061 0.614459 0.128339
0.694743 0.610370 0.131665
0.723425 0.606281 0.134992
0.752107 0.602193 0.138318
0.780789 0.598104 0.141644
0.807651 0.594287 0.147292
0.830872 0.591011 0.157582
0.854092 0.587736 0.167871
0.877313 0.584461 0.178161
0.900534 0.581186 0.188451
0.921987 0.577834 0.199119
0.934597 0.574100 0.211678
0.947207 0.570367 0.224237
0.959817 0.566633 0.236797
0.972428 0.562899 0.249356
0.985038 0.559165 0.261915
0.373676 0.761321 0.233263
0.380537 0.753507 0.226486
0.387398 0.745692 0.219709
0.394258 0.737877 0.212931
0.401119 0.730062 0.206154
0.407980 0.722247 0.199377
0.425943 0.714605 0.191391
0.446126 0.706997 0.183163
0.466309 0.699390 0.174935
0.486492 0.691782 0.166707
0.506675 0.684174 0.158479
0.531797 0.677733 0.153023
0.559388 0.671875 0.148951
0.586978 0.666017 0.144880
0.614569 0.660159 0.140809
0.642160 0.654301 0.136738
0.670185 0.649288 0.136329
0.698643 0.645121 0.139582
0.727101 0.640954 0.142835
0.755559 0.636787 0.146088
0.784017 0.632620 0.149341
0.810688 0.628678 0.154915
0.833785 0.625186 0.165132
0.856882 0.621694 0.175350
0.879979 0.618202 0.185567
0.903076 0.614710 0.195785
0.924373 0.611129 0.206367
0.936674 0.607101 0.218773
0.948975 0.603073 0.231179
0.961276 0.599045 0.243585
0.973577 0.595017 0.255991
0.985878 0.590989 0.268396
0.396049 0.791784 0.237783
0.401617 0.784422 0.231358
0.407184 0.777060 0.224934
0.412752 0.769698 0.218509
0.418319 0.762336 0.212084
0.423887 0.754974 0.205659
0.440442 0.747656 0.197966
0.459194 0.740347 0.190019
0.477946 0.733039 0.182072
0.496699 0.725730 0.174125
0.515451 0.718421 0.166179
0.539572 0.712147 0.160846
0.566376 0.706390 0.156820
0.593180 0.700633 0.152794
0.619985 0.694876 0.148768
0.646789 0.689119 0.144742
0.674308 0.684118 0.144319
0.702542 0.679873 0.147498
0.730777 0.675627 0.150678
0.759011 0.671382 0.153857
0.787245 0.667137 0.157037
0.813726 0.663070 0.162538
0.836699 0.659361 0.172683
0.859671 0.655653 0.182829
0.882644 0.651944 0.192974
0.905617 0.648235 0.203119
0.926759 0.644424 0.213615
0.938751 0.640102 0.225868
0.950743 0.635779 0.238120
0.962735 0.631457 0.250373
0.974727 0.627135 0.262625
0.986719 0.622813 0.274877
0.418422 0.822247 0.242303
0.422696 0.815338 0.236231
0.426971 0.808428 0.230159
0.431245 0.801519 0.224087
0.435519 0.794609 0.218014
0.439794 0.787700 0.211942
0.454941 0.780707 0.204542
0.472262 0.773697 0.196876
0.489584 0.766688 0.189210
0.506906 0.759678 0.181544
0.524227 0.752669 0.173878
0.547346 0.746561 0.168669
0.573364 0.740905 0.164688
0.599382 0.735249 0.160708
0.625400 0.729593 0.156727
0.651418 0.723937 0.152746
0.678432 0.718947 0.152309
0.706442 0.714624 0.155415
0.734453 0.710300 0.158521
0.762463 0.705977 0.161627
0.790474 0.701653 0.164733
0.816764 0.697462 0.170161
0.839612 0.693537 0.180234
0.862461 0.689611 0.190307
0.885310 0.685685 0.200380
0.908158 0.681759 0.210453
0.929146 0.677718 0.220863
0.940829 0.673102 0.232962
0.952511 0.668486 0.245061
0.964194 0.663870 0.257160
0.975877 0.659253 0.269259
0.987560 0.654637 0.281358
0.440018 0.848191 0.246008
0.443266 0.841826 0.240314
0.446514 0.835461 0.234620
0.449762 0.829096 0.228925
0.453011 0.822731 0.223231
0.456259 0.816366 0.217536
0.470136 0.809834 0.210498
0.486139 0.803269 0.203190
0.502141 0.796704 0.195882
0.518144 0.790139 0.188575
0.534147 0.783574 0.181267
0.556253 0.777788 0.176254
0.581411 0.772390 0.172389
0.606569 0.766992 0.168523
0.631727 0.761595 0.164657
0.656885 0.756197 0.160792
0.683289 0.751372 0.160382
0.710937 0.747119 0.163426
0.738586 0.742866 0.166471
0.766235 0.738612 0.169516
0.793884 0.734359 0.172561
0.819869 0.730190 0.177916
0.842526 0.726187 0.187894
0.865183 0.722185 0.197871
0.887840 0.718182 0.207848
0.910498 0.714180 0.217825
0.931280 0.710049 0.228141
0.942689 0.705274 0.240149
0.954098 0.700499 0.252157
0.965507 0.695724 0.264165
0.976916 0.690949 0.276173
0.988325 0.686174 0.288181
0.460061 0.865097 0.248086
0.462817 0.859459 0.242819
0.465573 0.853822 0.237552
0.468329 0.848185 0.232286
0.471085 0.842548 0.227019
0.473841 0.836911 0.221752
0.486723 0.831114 0.215213
0.501630 0.825285 0.208419
0.516538 0.819456 0.201624
0.531445 0.813627 0.194830
0.546353 0.807798 0.188036
0.567423 0.802638 0.183364
0.591575 0.797814 0.179753
0.615727 0.792990 0.176142
0.639879 0.788165 0.172532
0.664031 0.783341 0.168921
0.689612 0.778986 0.168620
0.716624 0.775101 0.171628
0.743635 0.771215 0.174636
0.770646 0.767330 0.177644
0.797658 0.763445 0.180652
0.823109 0.759588 0.185935
0.845440 0.755789 0.195770
0.867771 0.751990 0.205605
0.890102 0.748191 0.215440
0.912433 0.744392 0.225275
0.932910 0.740449 0.235478
0.944116 0.735787 0.247520
0.955322 0.731125 0.259562
0.966528 0.726463 0.271605
0.977734 0.721801 0.283647
0.988940 0.717138 0.295689
0.480103 0.882002 0.250163
0.482367 0.877093 0.245324
0.484631 0.872184 0.240485
0.486895 0.867274 0.235646
0.489158 0.862365 0.230808
0.491422 0.857456 0.225969
0.503310 0.852394 0.219928
0.517122 0.847300 0.213647
0.530934 0.842207 0.207366
0.544746 0.837114 0.201086
0.558559 0.832021 0.194805
0.578593 0.827489 0.190474
0.601739 0.823238 0.187118
0.624885 0.818987 0.183762
0.648031 0.814736 0.180406
0.671176 0.810484 0.177050
0.695936 0.806600 0.176857
0.722310 0.803083 0.179829
0.748684 0.799565 0.182800
0.775058 0.796048 0.185771
0.801431 0.792530 0.188742
0.826349 0.788987 0.193954
0.848354 0.785391 0.203647
0.870359 0.781796 0.213340
0.892364 0.778200 0.223032
0.914369 0.774605 0.232725
0.934540 0.770850 0.242815
0.945543 0.766301 0.254892
0.956546 0.761751 0.266968
0.967549 0.757202 0.279044
0.978552 0.752652 0.291120
0.989555 0.748102 0.303196
0.500146 0.898908 0.252241
0.501918 0.894726 0.247829
0.503689 0.890545 0.243418
0.505461 0.886364 0.239007
0.507232 0.882183 0.234596
0.509004 0.878001 0.230185
0.519897 0.873673 0.224643
0.532614 0.869316 0.218876
0.545331 0.864958 0.213108
0.558048 0.860601 0.207341
0.570765 0.856244 0.201573
0.589763 0.852339 0.197583
0.611903 0.848662 0.194482
0.634043 0.844984 0.191381
0.656182 0.841306 0.188280
0.678322 0.837628 0.185179
0.702260 0.834214 0.185095
0.727996 0.831065 0.188030
0.753733 0.827915 0.190964
0.779469 0.824765 0.193899
0.805205 0.821616 0.196833
0.829589 0.818385 0.201973
0.851268 0.814993 0.211523
0.872947 0.811601 0.221074
0.894626 0.808209 0.230625
0.916305 0.804817 0.240175
0.936170 0.801251 0.250152
0.946970 0.796814 0.262263
0.957770 0.792377 0.274373
0.968570 0.787940 0.286483
0.979370 0.783503 0.298593
0.990170 0.779067 0.310704
0.520189 0.915813 0.254318
0.521468 0.912360 0.250334
0.522748 0.908906 0.246351
0.524027 0.905453 0.242368
0.525306 0.902000 0.238384
0.526586 0.898546 0.234401
0.536484 0.894953 0.229359
0.548105 0.891331 0.224105
0.559727 0.887710 0.218850
0.571349 0.884088 0.213596
0.582971 0.880467 0.208342
0.600934 0.877190 0.204693
0.622067 0.874085 0.201847
0.643201 0.870981 0.199001
0.664334 0.867876 0.196154
0.685468 0.864772 0.193308
0.708584 0.861829 0.193333
0.733683 0.859047 0.196231
0.758781 0.856265 0.199128
0.783880 0.853483 0.202026
0.808979 0.850701 0.204924
0.832829 0.847784 0.209991
0.854182 0.844595 0.219400
0.875535 0.841407 0.228808
0.896888 0.838218 0.238217
0.918240 0.835030 0.247625
0.937801 0.831652 0.257490
0.948397 0.827328 0.269634
0.958994 0.823003 0.281778
0.969591 0.818679 0.293922
0.980188 0.814355 0.306067
0.990785 0.810031 0.318211
0.539180 0.931024 0.256139
0.540075 0.928258 0.252583
0.540971 0.925493 0.249028
0.541866 0.922728 0.245472
0.542762 0.919962 0.241917
0.543658 0.917197 0.238361
0.552626 0.914308 0.233814
0.563209 0.911394 0.229067
0.573792 0.908481 0.224321
0.584375 0.905567 0.219574
0.594958 0.902653 0.214828
0.611890 0.899992 0.211518
0.631996 0.897458 0.208926
0.652103 0.894923 0.206334
0.672209 0.892388 0.203742
0.692315 0.889854 0.201151
0.714580 0.887394 0.201286
0.739001 0.885008 0.204148
0.763423 0.882623 0.207010
0.787845 0.880238 0.209873
0.812267 0.877853 0.212735
0.835562 0.875287 0.217738
0.856602 0.872360 0.227023
0.877642 0.869434 0.236307
0.898682 0.866507 0.245592
0.919722 0.863581 0.254876
0.939000 0.860452 0.264659
0.949465 0.856309 0.276931
0.959930 0.852166 0.289203
0.970395 0.848024 0.301474
0.980860 0.843881 0.313746
0.991325 0.839738 0.326018
0.552912 0.937760 0.256676
0.553966 0.935483 0.253549
0.555020 0.933206 0.250423
0.556073 0.930929 0.247296
0.557127 0.928652 0.244170
0.558181 0.926375 0.241043
0.566545 0.924041 0.236966
0.576372 0.921694 0.232699
0.586198 0.919348 0.228432
0.596025 0.917002 0.224165
0.605852 0.914656 0.219897
0.621777 0.912553 0.216916
0.640751 0.910572 0.214577
0.659725 0.908590 0.212239
0.678699 0.906609 0.209900
0.697673 0.904628 0.207562
0.718935 0.902715 0.207810
0.742483 0.900869 0.210645
0.766031 0.899024 0.213480
0.789580 0.897178 0.216315
0.813128 0.895332 0.219150
0.835759 0.893311 0.224125
0.856553 0.890940 0.233377
