Assets/1__3DArt/KimSe/artstation_asset/LUTs_pasterls/CUBE/Pastelopolis 04.cube
# Enhanced with VOXCOLOR algorithms
LUT_3D_SIZE 32
0.101961 0.137255 0.070588
0.135214 0.140450 0.072965
0.168467 0.143646 0.075342
0.201719 0.146841 0.077718
0.234972 0.150037 0.080095
0.268225 0.153232 0.082472
0.301606 0.156518 0.084119
0.335012 0.159822 0.085621
0.368419 0.163125 0.087122
0.401825 0.166429 0.088624
0.435232 0.169733 0.090125
0.461926 0.172654 0.091245
0.485264 0.175384 0.092174
0.508602 0.178114 0.093103
0.531941 0.180844 0.094032
0.555279 0.183574 0.094961
0.573049 0.185818 0.095720
0.585252 0.187576 0.096309
0.597454 0.189334 0.096898
0.609657 0.191092 0.097487
0.621859 0.192850 0.098076
0.631513 0.194308 0.098612
0.636069 0.195167 0.099040
0.640625 0.196025 0.099468
0.645180 0.196883 0.099897
0.649736 0.197742 0.100325
0.653704 0.198507 0.100723
0.654728 0.198805 0.100971
0.655752 0.199104 0.101218
0.656776 0.199403 0.101466
0.657800 0.199701 0.101713
0.658824 0.200000 0.101961
0.105219 0.151526 0.081163
0.137181 0.154435 0.083259
0.169144 0.157345 0.085354
0.201106 0.160254 0.087449
0.233068 0.163164 0.089545
0.265031 0.166073 0.091640
0.297950 0.169042 0.092913
0.331060 0.172024 0.094021
0.364170 0.175005 0.095129
0.397280 0.177987 0.096237
0.430390 0.180968 0.097345
0.457234 0.183540 0.098081
0.480946 0.185907 0.098632
0.504658 0.188274 0.099182
0.528370 0.190641 0.099732
0.552082 0.193008 0.100283
0.570317 0.194901 0.100710
0.583074 0.196321 0.101015
0.595831 0.197741 0.101319
0.608588 0.199161 0.101623
0.621345 0.200581 0.101928
0.631483 0.201719 0.102214
0.636383 0.202294 0.102463
0.641283 0.202869 0.102712
0.646183 0.203444 0.102961
0.651083 0.204018 0.103210
0.655344 0.204510 0.103443
0.656410 0.204583 0.103593
0.657476 0.204657 0.103743
0.658543 0.204731 0.103892
0.659609 0.204805 0.104042
0.660675 0.204879 0.104192
0.108477 0.165797 0.091739
0.139149 0.168420 0.093553
0.169821 0.171044 0.095367
0.200493 0.173667 0.097181
0.231165 0.176290 0.098995
0.261837 0.178914 0.100808
0.294293 0.181567 0.101706
0.327107 0.184226 0.102421
0.359921 0.186885 0.103135
0.392734 0.189544 0.103850
0.425548 0.192203 0.104564
0.452543 0.194426 0.104917
0.476629 0.196430 0.105089
0.500714 0.198434 0.105261
0.524800 0.200437 0.105433
0.548885 0.202441 0.105605
0.567584 0.203984 0.105701
0.580896 0.205066 0.105720
0.594207 0.206148 0.105740
0.607519 0.207230 0.105760
0.620830 0.208312 0.105779
0.631453 0.209131 0.105815
0.636697 0.209422 0.105885
0.641941 0.209713 0.105955
0.647185 0.210004 0.106025
0.652430 0.210295 0.106095
0.656984 0.210512 0.106162
0.658093 0.210362 0.106214
0.659201 0.210211 0.106267
0.660309 0.210060 0.106319
0.661418 0.209909 0.106371
0.662526 0.209758 0.106424
0.111735 0.180068 0.102314
0.141117 0.182405 0.103847
0.170498 0.184742 0.105379
0.199880 0.187080 0.106912
0.229261 0.189417 0.108444
0.258643 0.191754 0.109977
0.290637 0.194091 0.110500
0.323155 0.196428 0.110821
0.355672 0.198765 0.111141
0.388189 0.201102 0.111462
0.420706 0.203439 0.111783
0.447852 0.205312 0.111753
0.472311 0.206952 0.111546
0.496770 0.208593 0.111340
0.521229 0.210234 0.111134
0.545689 0.211875 0.110927
0.564851 0.213068 0.110692
0.578717 0.213812 0.110426
0.592584 0.214556 0.110161
0.606450 0.215299 0.109896
0.620316 0.216043 0.109631
0.631422 0.216542 0.109417
0.637011 0.216549 0.109308
0.642599 0.216557 0.109199
0.648188 0.216564 0.109089
0.653776 0.216572 0.108980
0.658625 0.216515 0.108881
0.659775 0.216140 0.108836
0.660926 0.215764 0.108791
0.662076 0.215389 0.108746
0.663227 0.215013 0.108700
0.664377 0.214637 0.108655
0.114993 0.194339 0.112890
0.143084 0.196390 0.114141
0.171175 0.198441 0.115392
0.199266 0.200492 0.116643
0.227357 0.202544 0.117894
0.255449 0.204595 0.119145
0.286981 0.206616 0.119293
0.319202 0.208630 0.119220
0.351423 0.210645 0.119148
0.383644 0.212659 0.119075
0.415865 0.214674 0.119003
0.443160 0.216197 0.118589
0.467993 0.217475 0.118004
0.492826 0.218753 0.117419
0.517659 0.220031 0.116834
0.542492 0.221309 0.116250
0.562119 0.222151 0.115682
0.576539 0.222557 0.115132
0.590960 0.222963 0.114582
0.605381 0.223369 0.114032
0.619801 0.223775 0.113482
0.631392 0.223953 0.113019
0.637325 0.223677 0.112730
0.643258 0.223401 0.112442
0.649190 0.223124 0.112153
0.655123 0.222848 0.111865
0.660265 0.222518 0.111601
0.661458 0.221918 0.111458
0.662650 0.221317 0.111315
0.663843 0.220717 0.111172
0.665036 0.220117 0.111029
0.666228 0.219517 0.110887
0.118251 0.208610 0.123465
0.145052 0.210375 0.124435
0.171852 0.212140 0.125405
0.198653 0.213905 0.126374
0.225454 0.215670 0.127344
0.252254 0.217436 0.128313
0.283325 0.219140 0.128086
0.315249 0.220832 0.127620
0.347174 0.222525 0.127154
0.379098 0.224217 0.126688
0.411023 0.225909 0.126222
0.438469 0.227083 0.125425
0.463675 0.227998 0.124461
0.488882 0.228913 0.123498
0.514089 0.229828 0.122535
0.539295 0.230743 0.121572
0.559386 0.231234 0.120673
0.574361 0.231302 0.119838
0.589336 0.231370 0.119003
0.604312 0.231438 0.118168
0.619287 0.231506 0.117333
0.631362 0.231364 0.116621
0.637639 0.230805 0.116153
0.643916 0.230245 0.115685
0.650192 0.229685 0.115218
0.656469 0.229125 0.114750
0.661906 0.228521 0.114320
0.663140 0.227696 0.114080
0.664375 0.226871 0.113839
0.665610 0.226046 0.113599
0.666845 0.225221 0.113358
0.668079 0.224396 0.113118
0.123798 0.227536 0.139174
0.149291 0.229060 0.139857
0.174784 0.230584 0.140541
0.200277 0.232108 0.141224
0.225769 0.233632 0.141907
0.251262 0.235156 0.142590
0.281695 0.236665 0.142020
0.313116 0.238172 0.141199
0.344537 0.239679 0.140378
0.375958 0.241186 0.139557
0.407378 0.242693 0.138736
0.434852 0.243650 0.137532
0.460353 0.244333 0.136137
0.485853 0.245015 0.134742
0.511353 0.245698 0.133348
0.536853 0.246380 0.131953
0.557405 0.246607 0.130627
0.573007 0.246378 0.129371
0.588610 0.246150 0.128115
0.604213 0.245922 0.126858
0.619816 0.245693 0.125602
0.632471 0.245244 0.124501
0.639231 0.244352 0.123712
0.645991 0.243461 0.122923
0.652752 0.242569 0.122134
0.659512 0.241678 0.121345
0.665372 0.240746 0.120616
0.666731 0.239610 0.120190
0.668090 0.238474 0.119764
0.669449 0.237338 0.119339
0.670809 0.236202 0.118913
0.672168 0.235066 0.118487
0.129804 0.247393 0.155910
0.153985 0.248685 0.156306
0.178166 0.249976 0.156701
0.202347 0.251268 0.157097
0.226529 0.252560 0.157493
0.250710 0.253851 0.157888
0.280470 0.255191 0.156981
0.311346 0.256540 0.155812
0.342222 0.257889 0.154644
0.373098 0.259238 0.153476
0.403974 0.260587 0.152308
0.431451 0.261354 0.150694
0.457229 0.261830 0.148857
0.483006 0.262306 0.147019
0.508784 0.262782 0.145182
0.534562 0.263258 0.143345
0.555574 0.263238 0.141574
0.571818 0.262721 0.139869
0.588063 0.262205 0.138164
0.604308 0.261689 0.136459
0.620553 0.261172 0.134754
0.633807 0.260417 0.133237
0.641078 0.259184 0.132098
0.648350 0.257952 0.130959
0.655622 0.256719 0.129821
0.662894 0.255486 0.128682
0.669203 0.254215 0.127628
0.670703 0.252751 0.126999
0.672204 0.251287 0.126370
0.673704 0.249822 0.125741
0.675204 0.248358 0.125112
0.676704 0.246894 0.124483
0.135809 0.267250 0.172645
0.158679 0.268310 0.172754
0.181548 0.269369 0.172862
0.204418 0.270428 0.172970
0.227288 0.271488 0.173078
0.250158 0.272547 0.173187
0.279245 0.273716 0.171942
0.309576 0.274907 0.170426
0.339907 0.276099 0.168911
0.370238 0.277290 0.167396
0.400569 0.278481 0.165880
0.428049 0.279058 0.163856
0.454105 0.279327 0.161576
0.480160 0.279597 0.159297
0.506216 0.279866 0.157017
0.532271 0.280136 0.154738
0.553742 0.279869 0.152521
0.570629 0.279064 0.150367
0.587516 0.278260 0.148213
0.604403 0.277455 0.146059
0.621290 0.276651 0.143906
0.635143 0.275590 0.141973
0.642926 0.274016 0.140485
0.650709 0.272442 0.138996
0.658492 0.270868 0.137507
0.666276 0.269295 0.136018
0.673035 0.267684 0.134639
0.674676 0.265892 0.133807
0.676317 0.264099 0.132975
0.677958 0.262307 0.132143
0.679599 0.260514 0.131311
0.681239 0.258722 0.130479
0.141814 0.287108 0.189381
0.163372 0.287935 0.189202
0.184931 0.288762 0.189023
0.206489 0.289589 0.188843
0.228047 0.290416 0.188664
0.249606 0.291243 0.188485
0.278020 0.292242 0.186903
0.307806 0.293275 0.185040
0.337592 0.294308 0.183178
0.367378 0.295341 0.181315
0.397164 0.296374 0.179453
0.424648 0.296761 0.177017
0.450981 0.296824 0.174295
0.477314 0.296887 0.171574
0.503647 0.296951 0.168852
0.529980 0.297014 0.166130
0.551911 0.296499 0.163468
0.569440 0.295407 0.160865
0.586970 0.294315 0.158263
0.604499 0.293222 0.155660
0.622028 0.292130 0.153057
0.636479 0.290763 0.150710
0.644773 0.288848 0.148871
0.653068 0.286933 0.147032
0.661363 0.285018 0.145194
0.669657 0.283103 0.143355
0.676867 0.281154 0.141651
0.678648 0.279033 0.140616
0.680430 0.276912 0.139580
0.682212 0.274792 0.138545
0.683994 0.272671 0.137510
0.685775 0.270550 0.136475
0.147819 0.306965 0.206116
0.168066 0.307560 0.205650
0.188313 0.308154 0.205183
0.208560 0.308749 0.204717
0.228807 0.309344 0.204250
0.249053 0.309939 0.203783
0.276795 0.310767 0.201864
0.306036 0.311643 0.199654
0.335277 0.312518 0.197445
0.364518 0.313393 0.195235
0.393759 0.314268 0.193025
0.421246 0.314465 0.190179
0.447857 0.314321 0.187015
0.474468 0.314178 0.183851
0.501078 0.314035 0.180687
0.527689 0.313892 0.177522
0.550080 0.313130 0.174415
0.568251 0.311750 0.171363
0.586423 0.310369 0.168312
0.604594 0.308989 0.165261
0.622765 0.307609 0.162209
0.637815 0.305936 0.159446
0.646621 0.303680 0.157257
0.655427 0.301424 0.155069
0.664233 0.299167 0.152881
0.673039 0.296911 0.150692
0.680698 0.294623 0.148662
0.682621 0.292174 0.147424
0.684543 0.289725 0.146186
0.686466 0.287276 0.144948
0.688388 0.284827 0.143709
0.690311 0.282378 0.142471
0.155916 0.327989 0.225809
0.174861 0.328358 0.225044
0.193806 0.328728 0.224280
0.212751 0.329098 0.223515
0.231696 0.329468 0.222750
0.250642 0.329838 0.221986
0.277553 0.330587 0.219800
0.306058 0.331413 0.217331
0.334562 0.332239 0.214861
0.363067 0.333065 0.212391
0.391571 0.333890 0.209922
0.418882 0.334055 0.206744
0.445595 0.333889 0.203213
0.472308 0.333722 0.199681
0.499021 0.333556 0.196150
0.525734 0.333390 0.192618
0.548479 0.332560 0.189100
0.567257 0.331067 0.185593
0.586034 0.329573 0.182087
0.604812 0.328080 0.178581
0.623590 0.326586 0.175075
0.639248 0.324759 0.171861
0.648669 0.322265 0.169234
0.658090 0.319771 0.166606
0.667511 0.317277 0.163979
0.676932 0.314783 0.161351
0.685150 0.312246 0.158902
0.687355 0.309491 0.157343
0.689560 0.306736 0.155785
0.691764 0.303981 0.154227
0.693969 0.301226 0.152668
0.696174 0.298471 0.151110
0.165058 0.349595 0.246980
0.182707 0.349744 0.245912
0.200355 0.349892 0.244844
0.218003 0.350041 0.243776
0.235652 0.350189 0.242708
0.253300 0.350338 0.241641
0.279302 0.351055 0.239224
0.306975 0.351885 0.236538
0.334648 0.352716 0.233852
0.362320 0.353546 0.231167
0.389993 0.354377 0.228481
0.417036 0.354588 0.225011
0.443764 0.354491 0.221150
0.470491 0.354393 0.217289
0.497219 0.354296 0.213427
0.523947 0.354198 0.209566
0.546994 0.353390 0.205654
0.566360 0.351871 0.201689
0.585726 0.350352 0.197725
0.605092 0.348833 0.193761
0.624458 0.347314 0.189797
0.640731 0.345408 0.186117
0.650818 0.342728 0.183005
0.660906 0.340047 0.179894
0.670993 0.337367 0.176782
0.681081 0.334687 0.173671
0.689913 0.331946 0.170755
0.692471 0.328896 0.168818
0.695028 0.325846 0.166881
0.697585 0.322796 0.164944
0.700143 0.319746 0.163007
0.702700 0.316696 0.161070
0.174201 0.371202 0.268150
0.190552 0.371129 0.266779
0.206904 0.371056 0.265408
0.223255 0.370984 0.264037
0.239607 0.370911 0.262666
0.255958 0.370838 0.261295
0.281051 0.371522 0.258648
0.307892 0.372357 0.255746
0.334733 0.373192 0.252844
0.361574 0.374028 0.249942
0.388415 0.374863 0.247039
0.415190 0.375122 0.243278
0.441932 0.375093 0.239087
0.468675 0.375064 0.234896
0.495417 0.375035 0.230705
0.522160 0.375006 0.226514
0.545508 0.374219 0.222208
0.565462 0.372675 0.217785
0.585417 0.371130 0.213363
0.605371 0.369586 0.208941
0.625326 0.368041 0.204519
0.642213 0.366056 0.200372
0.652967 0.363190 0.196777
0.663721 0.360324 0.193181
0.674475 0.357457 0.189586
0.685229 0.354591 0.185990
0.694676 0.351645 0.182608
0.697586 0.348300 0.180292
0.700496 0.344956 0.177977
0.703406 0.341611 0.175661
0.706316 0.338266 0.173346
0.709226 0.334921 0.171030
0.183343 0.392809 0.289321
0.198398 0.392515 0.287647
0.213453 0.392221 0.285972
0.228507 0.391926 0.284298
0.243562 0.391632 0.282624
0.258617 0.391338 0.280950
0.282800 0.391989 0.278072
0.308809 0.392829 0.274954
0.334818 0.393669 0.271835
0.360827 0.394509 0.268717
0.386837 0.395349 0.265598
0.413344 0.395656 0.261545
0.440101 0.395695 0.257024
0.466858 0.395735 0.252503
0.493615 0.395774 0.247983
0.520372 0.395814 0.243462
0.544022 0.395049 0.238762
0.564565 0.393479 0.233881
0.585108 0.391908 0.229001
0.605651 0.390338 0.224121
0.626193 0.388768 0.219241
0.643696 0.386704 0.214628
0.655116 0.383652 0.210548
0.666537 0.380600 0.206469
0.677957 0.377547 0.202389
0.689378 0.374495 0.198310
0.699439 0.371345 0.194461
0.702702 0.367705 0.191767
0.705964 0.364066 0.189073
0.709227 0.360426 0.186379
0.712490 0.356786 0.183684
0.715753 0.353146 0.180990
0.192486 0.414416 0.310492
0.206244 0.413900 0.308514
0.220001 0.413385 0.306537
0.233759 0.412869 0.304559
0.247517 0.412354 0.302582
0.261275 0.411838 0.300605
0.284549 0.412456 0.297496
0.309726 0.413301 0.294161
0.334904 0.414146 0.290827
0.360081 0.414991 0.287492
0.385258 0.415835 0.284157
0.411499 0.416189 0.279812
0.438270 0.416297 0.274961
0.465042 0.416405 0.270111
0.491813 0.416514 0.265260
0.518585 0.416622 0.260410
0.542537 0.415878 0.255315
0.563668 0.414282 0.249977
0.584799 0.412687 0.244639
0.605930 0.411091 0.239301
0.627061 0.409496 0.233963
0.645178 0.407352 0.228883
0.657265 0.404114 0.224320
0.669352 0.400876 0.219757
0.681439 0.397637 0.215193
0.693526 0.394399 0.210630
0.704202 0.391045 0.206315
0.707817 0.387110 0.203242
0.711432 0.383175 0.200169
0.715048 0.379241 0.197096
0.718663 0.375306 0.194023
0.722279 0.371371 0.190950
0.202959 0.435147 0.331941
0.215509 0.434447 0.329724
0.228059 0.433747 0.327506
0.240609 0.433048 0.325289
0.253159 0.432348 0.323072
0.265709 0.431648 0.320854
0.288009 0.432267 0.317612
0.312259 0.433150 0.314164
0.336508 0.434033 0.310717
0.360758 0.434916 0.307269
0.385008 0.435800 0.303822
0.410821 0.436267 0.299301
0.437416 0.436527 0.294244
0.464011 0.436787 0.289186
0.490607 0.437047 0.284129
0.517202 0.437307 0.279071
0.541291 0.436692 0.273684
0.562874 0.435202 0.267966
0.584457 0.433713 0.262249
0.606040 0.432223 0.256531
0.627623 0.430733 0.250814
0.646267 0.428645 0.245317
0.659032 0.425361 0.240261
0.671796 0.422077 0.235205
0.684561 0.418793 0.230150
0.697326 0.415509 0.225094
0.708648 0.412083 0.220293
0.712750 0.407948 0.216764
0.716852 0.403812 0.213236
0.720954 0.399676 0.209708
0.725056 0.395540 0.206179
0.729159 0.391404 0.202651
0.214763 0.455002 0.353670
0.226195 0.454155 0.351276
0.237626 0.453308 0.348881
0.249057 0.452461 0.346487
0.260489 0.451615 0.344093
0.271920 0.450768 0.341699
0.293180 0.451422 0.338419
0.316406 0.452377 0.334962
0.339633 0.453332 0.331506
0.362859 0.454287 0.328049
0.386085 0.455241 0.324592
0.411312 0.455890 0.320012
0.437540 0.456385 0.314871
0.463767 0.456880 0.309729
0.489994 0.457375 0.304588
0.516222 0.457870 0.299447
0.540285 0.457491 0.293867
0.562183 0.456238 0.287848
0.584081 0.454986 0.281830
0.605980 0.453733 0.275811
0.627878 0.452480 0.269793
0.646962 0.450582 0.263928
0.660416 0.447393 0.258372
0.673870 0.444204 0.252816
0.687324 0.441015 0.247259
0.700778 0.437826 0.241703
0.712777 0.434461 0.236396
0.717500 0.430218 0.232335
0.722223 0.425974 0.228275
0.726946 0.421731 0.224214
0.731669 0.417488 0.220154
0.736392 0.413245 0.216093
0.226568 0.474857 0.375398
0.236880 0.473863 0.372827
0.247193 0.472869 0.370257
0.257505 0.471875 0.367686
0.267818 0.470881 0.365115
0.278130 0.469887 0.362544
0.298351 0.470577 0.359227
0.320554 0.471604 0.355761
0.342757 0.472630 0.352294
0.364960 0.473657 0.348828
0.387163 0.474683 0.345362
0.411803 0.475512 0.340723
0.437663 0.476242 0.335498
0.463523 0.476972 0.330273
0.489382 0.477702 0.325047
0.515242 0.478433 0.319822
0.539279 0.478290 0.314050
0.561492 0.477274 0.307730
0.583706 0.476259 0.301411
0.605920 0.475243 0.295091
0.628133 0.474228 0.288772
0.647657 0.472519 0.282540
0.661800 0.469425 0.276483
0.675943 0.466330 0.270426
0.690086 0.463236 0.264369
0.704229 0.460142 0.258312
0.716906 0.456838 0.252499
0.722249 0.452488 0.247906
0.727593 0.448137 0.243314
0.732937 0.443787 0.238721
0.738281 0.439436 0.234128
0.743625 0.435085 0.229536
0.238372 0.494712 0.397127
0.247566 0.493571 0.394379
0.256760 0.492430 0.391632
0.265953 0.491289 0.388884
0.275147 0.490148 0.386136
0.284341 0.489007 0.383389
0.303523 0.489732 0.380034
0.324702 0.490830 0.376559
0.345881 0.491929 0.373083
0.367061 0.493027 0.369608
0.388240 0.494125 0.366132
0.412295 0.495135 0.361434
0.437787 0.496100 0.356125
0.463278 0.497065 0.350816
0.488770 0.498030 0.345507
0.514262 0.498995 0.340198
0.538273 0.499089 0.334233
0.560802 0.498310 0.327612
0.583331 0.497532 0.320992
0.605859 0.496753 0.314371
0.628388 0.495975 0.307751
0.648352 0.494456 0.301151
0.663184 0.491457 0.294593
0.678016 0.488457 0.288036
0.692848 0.485458 0.281478
0.707680 0.482458 0.274921
0.721035 0.479216 0.268602
0.726999 0.474758 0.263477
0.732964 0.470300 0.258352
0.738929 0.465842 0.253228
0.744893 0.461384 0.248103
0.750858 0.456926 0.242978
0.250176 0.514567 0.418855
0.258251 0.513279 0.415931
0.266326 0.511991 0.413007
0.274401 0.510703 0.410082
0.282476 0.509415 0.407158
0.290551 0.508127 0.404233
0.308694 0.508887 0.400842
0.328850 0.510057 0.397357
0.349006 0.511227 0.393872
0.369162 0.512397 0.390387
0.389318 0.513567 0.386902
0.412786 0.514757 0.382145
0.437910 0.515957 0.376752
0.463034 0.517158 0.371359
0.488158 0.518358 0.365966
0.513283 0.519558 0.360573
0.537267 0.519888 0.354416
0.560111 0.519346 0.347494
0.582955 0.518805 0.340573
0.605799 0.518264 0.333651
0.628643 0.517722 0.326730
0.649047 0.516393 0.319762
0.664568 0.513488 0.312704
0.680089 0.510584 0.305646
0.695611 0.507679 0.298588
0.711132 0.504774 0.291529
0.725164 0.501593 0.284705
0.731749 0.497028 0.279048
0.738335 0.492462 0.273391
0.744920 0.487897 0.267734
0.751506 0.483332 0.262077
0.758091 0.478767 0.256420
0.262426 0.533050 0.439449
0.269500 0.531664 0.436430
0.276574 0.530278 0.433411
0.283648 0.528892 0.430392
0.290722 0.527506 0.427373
0.297796 0.526121 0.424353
0.314911 0.526917 0.420996
0.334033 0.528150 0.417571
0.353156 0.529383 0.414146
0.372278 0.530616 0.410721
0.391401 0.531849 0.407296
0.414198 0.533213 0.402567
0.438831 0.534642 0.397185
0.463465 0.536071 0.391804
0.488098 0.537500 0.386423
0.512731 0.538929 0.381042
0.536557 0.539511 0.374790
0.559575 0.539246 0.367667
0.582594 0.538981 0.360544
0.605612 0.538716 0.353420
0.628630 0.538451 0.346297
0.649360 0.537368 0.339049
0.665512 0.534650 0.331549
0.681665 0.531932 0.324050
0.697818 0.529214 0.316550
0.713970 0.526495 0.309051
0.728644 0.523470 0.301768
0.735920 0.518906 0.295573
0.743197 0.514343 0.289377
0.750473 0.509779 0.283181
0.757750 0.505216 0.276985
0.765026 0.500652 0.270790
0.275567 0.548786 0.457773
0.281875 0.547402 0.454823
0.288184 0.546017 0.451873
0.294493 0.544633 0.448923
0.300802 0.543248 0.445973
0.307111 0.541863 0.443024
0.323220 0.542698 0.439843
0.341289 0.543977 0.436617
0.359358 0.545255 0.433390
0.377428 0.546534 0.430163
0.395497 0.547812 0.426937
0.417451 0.549335 0.422409
0.441348 0.550980 0.417231
0.465244 0.552625 0.412054
0.489141 0.554271 0.406876
0.513038 0.555916 0.401698
0.536441 0.556783 0.395546
0.559350 0.556873 0.388420
0.582260 0.556963 0.381295
0.605170 0.557053 0.374169
0.628079 0.557143 0.367043
0.648909 0.556420 0.359685
0.665577 0.554072 0.351863
0.682246 0.551723 0.344041
0.698914 0.549374 0.336219
0.715583 0.547026 0.328396
0.730824 0.544345 0.320753
0.738933 0.540002 0.314005
0.747041 0.535658 0.307257
0.755149 0.531315 0.300509
0.763257 0.526972 0.293761
0.771366 0.522628 0.287012
0.288707 0.564523 0.476097
0.294251 0.563140 0.473216
0.299794 0.561756 0.470335
0.305338 0.560373 0.467455
0.310882 0.558990 0.464574
0.316426 0.557606 0.461694
0.331529 0.558479 0.458690
0.348545 0.559803 0.455662
0.365561 0.561127 0.452634
0.382577 0.562451 0.449606
0.399592 0.563775 0.446578
0.420704 0.565457 0.442252
0.443864 0.567319 0.437278
0.467024 0.569180 0.432303
0.490184 0.571041 0.427328
0.513344 0.572903 0.422353
0.536324 0.574056 0.416302
0.559125 0.574500 0.409174
0.581927 0.574945 0.402046
0.604728 0.575390 0.394917
0.627529 0.575835 0.387789
0.648458 0.575472 0.380322
0.665642 0.573493 0.372177
0.682826 0.571514 0.364032
0.700011 0.569535 0.355887
0.717195 0.567556 0.347742
0.733005 0.565220 0.339738
0.741945 0.561097 0.332437
0.750885 0.556974 0.325137
0.759825 0.552850 0.317836
0.768765 0.548727 0.310536
0.777705 0.544604 0.303235
0.301847 0.580260 0.494420
0.306626 0.578878 0.491609
0.311405 0.577496 0.488798
0.316183 0.576114 0.485986
0.320962 0.574731 0.483175
0.325740 0.573349 0.480364
0.339839 0.574260 0.477537
0.355801 0.575630 0.474708
0.371763 0.576999 0.471878
0.387726 0.578369 0.469049
0.403688 0.579738 0.466219
0.423958 0.581580 0.462095
0.446381 0.583657 0.457324
0.468804 0.585735 0.452552
0.491227 0.587812 0.447781
0.513650 0.589889 0.443009
0.536208 0.591328 0.437058
0.558900 0.592128 0.429927
0.581593 0.592927 0.422797
0.604286 0.593727 0.415666
0.626978 0.594527 0.408535
0.648007 0.594523 0.400959
0.665707 0.592914 0.392491
0.683407 0.591305 0.384023
0.701107 0.589696 0.375556
0.718808 0.588087 0.367088
0.735186 0.586095 0.358723
0.744958 0.582192 0.350870
0.754730 0.578289 0.343017
0.764501 0.574386 0.335164
0.774273 0.570483 0.327311
0.784045 0.566580 0.319458
0.314988 0.595997 0.512744
0.319001 0.594616 0.510002
0.323015 0.593235 0.507260
0.327028 0.591854 0.504518
0.331042 0.590473 0.501776
0.335055 0.589092 0.499034
0.348148 0.590041 0.496384
0.363057 0.591456 0.493753
0.377966 0.592871 0.491122
0.392875 0.594286 0.488491
0.407784 0.595701 0.485860
0.427211 0.597702 0.481938
0.448897 0.599996 0.477370
0.470583 0.602289 0.472801
0.492270 0.604583 0.468233
0.513956 0.606876 0.463665
0.536091 0.608600 0.457814
0.558675 0.609755 0.450681
0.581259 0.610910 0.443548
0.603844 0.612064 0.436414
0.626428 0.613219 0.429281
0.647556 0.613575 0.421595
0.665772 0.612336 0.412805
0.683988 0.611096 0.404014
0.702204 0.609857 0.395224
0.720420 0.608617 0.386434
0.737367 0.606971 0.377708
0.747971 0.603288 0.369302
0.758574 0.599605 0.360897
0.769177 0.595922 0.352492
0.779781 0.592239 0.344086
0.790384 0.588556 0.335681
0.327948 0.610841 0.530083
0.331276 0.609493 0.527448
0.334603 0.608145 0.524812
0.337931 0.606797 0.522177
0.341259 0.605450 0.519541
0.344587 0.604102 0.516906
0.356705 0.605087 0.514452
0.370580 0.606538 0.512035
0.384455 0.607990 0.509618
0.398330 0.609441 0.507201
0.412206 0.610893 0.504784
0.430779 0.613036 0.501094
0.451701 0.615526 0.496766
0.472623 0.618016 0.492439
0.493545 0.620505 0.488112
0.514467 0.622995 0.483785
0.536138 0.624991 0.478088
0.558558 0.626495 0.471020
0.580978 0.627999 0.463953
0.603398 0.629503 0.456885
0.625818 0.631006 0.449818
0.646991 0.631728 0.442093
0.665669 0.630886 0.433055
0.684346 0.630044 0.424016
0.703024 0.629202 0.414978
0.721702 0.628360 0.405939
0.739171 0.627095 0.396922
0.750600 0.623714 0.388009
0.762028 0.620333 0.379096
0.773456 0.616952 0.370183
0.784884 0.613571 0.361270
0.796313 0.610189 0.352357
0.340005 0.621222 0.542498
0.343045 0.620067 0.540156
0.346086 0.618911 0.537813
0.349126 0.617756 0.535471
0.352166 0.616601 0.533128
0.355206 0.615445 0.530786
0.366497 0.616455 0.528624
0.379437 0.617898 0.526498
0.392377 0.619342 0.524372
0.405317 0.620785 0.522247
0.418257 0.622228 0.520121
0.435918 0.624432 0.516814
0.455939 0.627017 0.512917
0.475959 0.629601 0.509020
0.495980 0.632186 0.505123
0.516001 0.634771 0.501226
0.537000 0.636976 0.495948
0.558978 0.638800 0.489288
0.580957 0.640625 0.482629
0.602935 0.642450 0.475970
0.624913 0.644275 0.469311
0.645855 0.645389 0.461900
0.664724 0.645083 0.452986
