Assets/1__3DArt/KimSe/artstation_asset/LUTs_pasterls/CUBE/Pastelopolis 01 S.cube
# Enhanced with VOXCOLOR algorithms
LUT_3D_SIZE 32
0.019608 0.050980 0.101961
0.080364 0.068352 0.101542
0.141121 0.085725 0.101123
0.201877 0.103097 0.100704
0.262634 0.120469 0.100285
0.323390 0.137842 0.099866
0.380459 0.154126 0.097891
0.436791 0.170193 0.095606
0.493122 0.186260 0.093320
0.549454 0.202327 0.091034
0.605786 0.218394 0.088749
0.646770 0.232154 0.087587
0.680082 0.244760 0.086987
0.713393 0.257367 0.086388
0.746704 0.269973 0.085788
0.780015 0.282579 0.085188
0.803364 0.292959 0.085232
0.816750 0.301114 0.085920
0.830136 0.309269 0.086608
0.843522 0.317424 0.087296
0.856908 0.325579 0.087983
0.866967 0.332391 0.088696
0.870371 0.336516 0.089460
0.873775 0.340641 0.090223
0.877179 0.344766 0.090986
0.880583 0.348891 0.091749
0.883512 0.352602 0.092441
0.884065 0.354238 0.092776
0.884617 0.355875 0.093112
0.885170 0.357511 0.093447
0.885722 0.359148 0.093783
0.886275 0.360784 0.094118
0.019996 0.076502 0.109475
0.078353 0.092269 0.108440
0.136710 0.108037 0.107405
0.195067 0.123804 0.106369
0.253425 0.139572 0.105334
0.311782 0.155339 0.104299
0.367492 0.170087 0.101600
0.422672 0.184630 0.098569
0.477852 0.199173 0.095537
0.533033 0.213716 0.092506
0.588213 0.228259 0.089474
0.628875 0.240773 0.087649
0.662279 0.252273 0.086427
0.695682 0.263773 0.085204
0.729086 0.275273 0.083982
0.762489 0.286773 0.082760
0.786416 0.296400 0.082363
0.800866 0.304154 0.082790
0.815316 0.311909 0.083218
0.829765 0.319663 0.083646
0.844215 0.327418 0.084074
0.855477 0.334082 0.084673
0.860364 0.338564 0.085615
0.865251 0.343047 0.086558
0.870137 0.347529 0.087500
0.875024 0.352011 0.088442
0.879354 0.356151 0.089365
0.880903 0.358576 0.090189
0.882452 0.361000 0.091014
0.884002 0.363425 0.091838
0.885551 0.365850 0.092662
0.887100 0.368275 0.093487
0.020384 0.102023 0.116988
0.076342 0.116186 0.115337
0.132300 0.130349 0.113686
0.188258 0.144512 0.112035
0.244216 0.158674 0.110384
0.300173 0.172837 0.108732
0.354524 0.186047 0.105309
0.408553 0.199066 0.101532
0.462582 0.212085 0.097754
0.516611 0.225105 0.093977
0.570640 0.238124 0.090200
0.610981 0.249393 0.087711
0.644476 0.259786 0.085866
0.677972 0.270179 0.084021
0.711467 0.280573 0.082176
0.744963 0.290966 0.080332
0.769468 0.299840 0.079493
0.784981 0.307194 0.079661
0.800495 0.314548 0.079828
0.816009 0.321903 0.079996
0.831523 0.329257 0.080164
0.843988 0.335773 0.080649
0.850357 0.340612 0.081771
0.856726 0.345452 0.082892
0.863095 0.350291 0.084014
0.869464 0.355131 0.085136
0.875196 0.359700 0.086289
0.877742 0.362913 0.087602
0.880288 0.366126 0.088916
0.882834 0.369340 0.090229
0.885380 0.372553 0.091542
0.887926 0.375766 0.092856
0.020772 0.127545 0.124502
0.074331 0.140103 0.122235
0.127889 0.152661 0.119968
0.181448 0.165219 0.117700
0.235007 0.177777 0.115433
0.288565 0.190335 0.113166
0.341556 0.202007 0.109018
0.394434 0.213503 0.104495
0.447312 0.224998 0.099972
0.500190 0.236494 0.095448
0.553068 0.247989 0.090925
0.593086 0.258012 0.087772
0.626673 0.267299 0.085305
0.660261 0.276586 0.082838
0.693849 0.285873 0.080371
0.727437 0.295160 0.077904
0.752519 0.303280 0.076624
0.769097 0.310234 0.076531
0.785675 0.317188 0.076439
0.802252 0.324142 0.076346
0.818830 0.331096 0.076254
0.832499 0.337464 0.076626
0.840350 0.342660 0.077927
0.848202 0.347857 0.079227
0.856053 0.353054 0.080528
0.863904 0.358251 0.081829
0.871038 0.363248 0.083213
0.874580 0.367250 0.085016
0.878123 0.371252 0.086818
0.881666 0.375254 0.088620
0.885208 0.379256 0.090422
0.888751 0.383257 0.092225
0.021160 0.153067 0.132016
0.072320 0.164020 0.129133
0.123479 0.174973 0.126249
0.174638 0.185926 0.123366
0.225798 0.196879 0.120483
0.276957 0.207833 0.117599
0.328589 0.217968 0.112727
0.380315 0.227939 0.107458
0.432042 0.237911 0.102189
0.483768 0.247882 0.096920
0.535495 0.257854 0.091650
0.575191 0.266631 0.087834
0.608871 0.274812 0.084744
0.642551 0.282992 0.081655
0.676230 0.291173 0.078565
0.709910 0.299354 0.075476
0.735571 0.306721 0.073755
0.753213 0.313274 0.073402
0.770854 0.319827 0.073049
0.788496 0.326381 0.072697
0.806138 0.332934 0.072344
0.821010 0.339155 0.072602
0.830344 0.344709 0.074082
0.839677 0.350263 0.075562
0.849011 0.355817 0.077042
0.858345 0.361371 0.078522
0.866880 0.366797 0.080137
0.871419 0.371588 0.082429
0.875958 0.376378 0.084720
0.880498 0.381168 0.087011
0.885037 0.385958 0.089302
0.889576 0.390748 0.091593
0.021548 0.178588 0.139530
0.070308 0.187937 0.136030
0.119068 0.197285 0.132531
0.167829 0.206633 0.129031
0.216589 0.215982 0.125532
0.265349 0.225330 0.122032
0.315621 0.233928 0.116437
0.366197 0.242376 0.110421
0.416772 0.250823 0.104406
0.467347 0.259271 0.098391
0.517922 0.267719 0.092376
0.557296 0.275251 0.087896
0.591068 0.282325 0.084184
0.624840 0.289399 0.080472
0.658612 0.296473 0.076760
0.692384 0.303547 0.073048
0.718623 0.310161 0.070885
0.737329 0.316314 0.070272
0.756034 0.322467 0.069660
0.774739 0.328620 0.069047
0.793445 0.334773 0.068434
0.809521 0.340845 0.068579
0.820337 0.346757 0.070238
0.831153 0.352668 0.071897
0.841969 0.358579 0.073556
0.852785 0.364490 0.075216
0.862721 0.370346 0.077062
0.868257 0.375925 0.079842
0.873793 0.381504 0.082622
0.879329 0.387082 0.085402
0.884865 0.392661 0.088182
0.890401 0.398239 0.090962
0.028174 0.218285 0.150440
0.074413 0.226074 0.146281
0.120653 0.233864 0.142123
0.166893 0.241653 0.137965
0.213132 0.249442 0.133807
0.259372 0.257232 0.129649
0.308184 0.264398 0.123300
0.357509 0.271439 0.116514
0.406835 0.278481 0.109727
0.456161 0.285522 0.102941
0.505487 0.292563 0.096154
0.544564 0.298931 0.090990
0.578517 0.304963 0.086637
0.612469 0.310994 0.082284
0.646422 0.317025 0.077930
0.680375 0.323057 0.073577
0.707206 0.328873 0.070952
0.726916 0.334475 0.070054
0.746626 0.340076 0.069157
0.766335 0.345678 0.068260
0.786045 0.351279 0.067362
0.803158 0.356950 0.067354
0.815077 0.362761 0.069124
0.826997 0.368572 0.070894
0.838916 0.374382 0.072664
0.850835 0.380193 0.074434
0.861798 0.385986 0.076425
0.867978 0.391695 0.079524
0.874158 0.397403 0.082624
0.880338 0.403111 0.085723
0.886518 0.408819 0.088822
0.892698 0.414528 0.091921
0.036046 0.260816 0.162029
0.079741 0.267055 0.157203
0.123437 0.273295 0.152378
0.167132 0.279535 0.147553
0.210827 0.285775 0.142727
0.254522 0.292014 0.137902
0.301852 0.297770 0.130795
0.349909 0.303428 0.123232
0.397966 0.309087 0.115670
0.446023 0.314745 0.108107
0.494080 0.320404 0.100544
0.532866 0.325624 0.094691
0.567016 0.330625 0.089693
0.601167 0.335627 0.084695
0.635318 0.340628 0.079696
0.669469 0.345630 0.074698
0.696895 0.350640 0.071606
0.717597 0.355660 0.070419
0.738300 0.360679 0.069232
0.759002 0.365699 0.068045
0.779704 0.370719 0.066858
0.797821 0.375938 0.066689
0.810768 0.381556 0.068556
0.823714 0.387175 0.070423
0.836660 0.392793 0.072290
0.849607 0.398412 0.074157
0.861521 0.404045 0.076277
0.868275 0.409751 0.079661
0.875028 0.415457 0.083045
0.881782 0.421163 0.086429
0.888535 0.426869 0.089813
0.895289 0.432575 0.093198
0.043919 0.303347 0.173618
0.085070 0.308037 0.168125
0.126220 0.312727 0.162633
0.167371 0.317417 0.157140
0.208521 0.322107 0.151647
0.249671 0.326797 0.146155
0.295520 0.331142 0.138290
0.342308 0.335417 0.129951
0.389096 0.339693 0.121612
0.435884 0.343969 0.113273
0.482672 0.348244 0.104933
0.521167 0.352317 0.098392
0.555516 0.356288 0.092749
0.589865 0.360260 0.087105
0.624213 0.364231 0.081462
0.658562 0.368202 0.075819
0.686584 0.372407 0.072259
0.708279 0.376845 0.070783
0.729974 0.381283 0.069306
0.751668 0.385720 0.067830
0.773363 0.390158 0.066353
0.792484 0.394926 0.066024
0.806458 0.400352 0.067988
0.820431 0.405778 0.069952
0.834405 0.411204 0.071916
0.848379 0.416630 0.073880
0.861245 0.422103 0.076129
0.868572 0.427807 0.079798
0.875899 0.433511 0.083467
0.883226 0.439215 0.087136
0.890553 0.444919 0.090805
0.897880 0.450623 0.094474
0.051792 0.345878 0.185207
0.090398 0.349018 0.179047
0.129004 0.352158 0.172887
0.167610 0.355299 0.166727
0.206215 0.358439 0.160568
0.244821 0.361579 0.154408
0.289188 0.364513 0.145785
0.334707 0.367406 0.136669
0.380226 0.370299 0.127554
0.425745 0.373192 0.118438
0.471264 0.376085 0.109323
0.509468 0.379010 0.102092
0.544015 0.381951 0.095804
0.578562 0.384892 0.089516
0.613109 0.387834 0.083228
0.647656 0.390775 0.076940
0.676273 0.394174 0.072913
0.698960 0.398030 0.071147
0.721647 0.401886 0.069381
0.744335 0.405742 0.067615
0.767022 0.409598 0.065849
0.787147 0.413913 0.065359
0.802148 0.419147 0.067420
0.817149 0.424381 0.069481
0.832150 0.429615 0.071542
0.847151 0.434849 0.073604
0.860968 0.440161 0.075980
0.868869 0.445863 0.079934
0.876769 0.451565 0.083888
0.884670 0.457267 0.087843
0.892570 0.462969 0.091797
0.900471 0.468671 0.095751
0.059665 0.388409 0.196796
0.095726 0.390000 0.189969
0.131787 0.391590 0.183142
0.167848 0.393181 0.176315
0.203910 0.394771 0.169488
0.239971 0.396362 0.162661
0.282856 0.397885 0.153280
0.327106 0.399395 0.143388
0.371356 0.400905 0.133496
0.415606 0.402415 0.123604
0.459857 0.403925 0.113712
0.497770 0.405703 0.105793
0.532515 0.407614 0.098860
0.567260 0.409525 0.091927
0.602005 0.411437 0.084994
0.636750 0.413348 0.078061
0.665962 0.415941 0.073567
0.689642 0.419215 0.071511
0.713321 0.422489 0.069456
0.737001 0.425763 0.067400
0.760681 0.429038 0.065345
0.781810 0.432901 0.064694
0.797838 0.437943 0.066852
0.813866 0.442984 0.069010
0.829894 0.448026 0.071169
0.845922 0.453068 0.073327
0.860691 0.458219 0.075832
0.869165 0.463919 0.080071
0.877639 0.469619 0.084310
0.886113 0.475319 0.088549
0.894587 0.481018 0.092788
0.903061 0.486718 0.097027
0.075197 0.430177 0.206578
0.108701 0.430724 0.199415
0.142205 0.431272 0.192252
0.175708 0.431820 0.185088
0.209212 0.432368 0.177925
0.242716 0.432915 0.170762
0.283983 0.433519 0.160944
0.326803 0.434134 0.150594
0.369622 0.434748 0.140244
0.412442 0.435363 0.129894
0.455261 0.435978 0.119544
0.492717 0.437014 0.111171
0.527491 0.438260 0.103787
0.562265 0.439507 0.096403
0.597039 0.440753 0.089019
0.631813 0.442000 0.081634
0.661405 0.444044 0.076794
0.685816 0.446884 0.074497
0.710227 0.449725 0.072200
0.734638 0.452566 0.069903
0.759048 0.455407 0.067607
0.780874 0.458884 0.066801
0.797530 0.463635 0.068979
0.814185 0.468386 0.071158
0.830841 0.473137 0.073336
0.847496 0.477888 0.075514
0.862829 0.482747 0.078051
0.871548 0.488148 0.082384
0.880267 0.493550 0.086717
0.888987 0.498951 0.091050
0.897706 0.504352 0.095382
0.906425 0.509753 0.099715
0.094558 0.471562 0.215456
0.125499 0.471321 0.208122
0.156439 0.471079 0.200789
0.187379 0.470838 0.193455
0.218319 0.470596 0.186122
0.249259 0.470355 0.178788
0.288839 0.470284 0.168692
0.330148 0.470247 0.158043
0.371456 0.470210 0.147394
0.412764 0.470173 0.136745
0.454072 0.470137 0.126096
0.490987 0.470634 0.117388
0.525705 0.471398 0.109649
0.560423 0.472163 0.101910
0.595141 0.472927 0.094172
0.629860 0.473692 0.086433
0.659724 0.475315 0.081307
0.684736 0.477796 0.078793
0.709748 0.480278 0.076279
0.734759 0.482759 0.073765
0.759771 0.485240 0.071251
0.782139 0.488365 0.070295
0.799222 0.492776 0.072455
0.816305 0.497186 0.074614
0.833388 0.501597 0.076774
0.850471 0.506008 0.078933
0.866174 0.510509 0.081454
0.874974 0.515464 0.085785
0.883774 0.520419 0.090116
0.892574 0.525373 0.094447
0.901374 0.530328 0.098778
0.910175 0.535282 0.103109
0.113920 0.512948 0.224334
0.142296 0.511917 0.216830
0.170673 0.510887 0.209326
0.199049 0.509856 0.201822
0.227426 0.508825 0.194318
0.255802 0.507794 0.186814
0.293696 0.507048 0.176440
0.333492 0.506360 0.165492
0.373289 0.505672 0.154544
0.413086 0.504984 0.143596
0.452883 0.504295 0.132648
0.489257 0.504254 0.123604
0.523919 0.504537 0.115511
0.558582 0.504819 0.107418
0.593244 0.505101 0.099325
0.627907 0.505384 0.091233
0.658044 0.506586 0.085821
0.683656 0.508708 0.083089
0.709268 0.510830 0.080358
0.734881 0.512952 0.077627
0.760493 0.515074 0.074896
0.783404 0.517846 0.073789
0.800915 0.521916 0.075930
0.818425 0.525987 0.078070
0.835936 0.530057 0.080211
0.853446 0.534128 0.082352
0.869518 0.538272 0.084858
0.878400 0.542780 0.089187
0.887281 0.547288 0.093515
0.896162 0.551795 0.097844
0.905043 0.556303 0.102173
0.913924 0.560811 0.106502
0.133282 0.554334 0.233212
0.159094 0.552514 0.225537
0.184907 0.550694 0.217863
0.210720 0.548873 0.210188
0.236533 0.547053 0.202514
0.262345 0.545233 0.194839
0.298552 0.543813 0.184188
0.336837 0.542473 0.172941
0.375123 0.541134 0.161694
0.413408 0.539794 0.150448
0.451694 0.538454 0.139201
0.487527 0.537874 0.129820
0.522133 0.537675 0.121373
0.556740 0.537475 0.112926
0.591347 0.537275 0.104479
0.625954 0.537076 0.096032
0.656364 0.537857 0.090334
0.682576 0.539620 0.087386
0.708789 0.541382 0.084437
0.735002 0.543145 0.081489
0.761215 0.544908 0.078541
0.784669 0.547326 0.077282
0.802607 0.551057 0.079405
0.820545 0.554787 0.081527
0.838483 0.558518 0.083649
0.856421 0.562248 0.085771
0.872863 0.566034 0.088261
0.881825 0.570095 0.092588
0.890787 0.574156 0.096915
0.899750 0.578218 0.101242
0.908712 0.582279 0.105569
0.917674 0.586340 0.109896
0.152643 0.595720 0.242090
0.175892 0.593110 0.234245
0.199141 0.590501 0.226400
0.222390 0.587891 0.218555
0.245639 0.585282 0.210710
0.268888 0.582672 0.202865
0.303408 0.580578 0.191936
0.340182 0.578587 0.180390
0.376956 0.576595 0.168845
0.413730 0.574604 0.157299
0.450504 0.572613 0.145753
0.485797 0.571495 0.136037
0.520348 0.570813 0.127235
0.554899 0.570131 0.118434
0.589450 0.569449 0.109632
0.624001 0.568767 0.100831
0.654683 0.569128 0.094847
0.681497 0.570532 0.091682
0.708310 0.571935 0.088516
0.735124 0.573338 0.085351
0.761937 0.574741 0.082185
0.785934 0.576807 0.080776
0.804300 0.580197 0.082880
0.822665 0.583588 0.084983
0.841031 0.586978 0.087087
0.859396 0.590368 0.089190
0.876208 0.593796 0.091664
0.885251 0.597411 0.095989
0.894294 0.601025 0.100314
0.903338 0.604640 0.104639
0.912381 0.608255 0.108964
0.921424 0.611869 0.113289
0.176675 0.631406 0.248749
0.197522 0.628383 0.240954
0.218370 0.625361 0.233159
0.239217 0.622338 0.225364
0.260064 0.619315 0.217569
0.280912 0.616293 0.209774
0.313663 0.613894 0.198842
0.348795 0.611621 0.187282
0.383926 0.609348 0.175723
0.419058 0.607075 0.164163
0.454190 0.604801 0.152604
0.488722 0.603464 0.142786
0.522953 0.602595 0.133840
0.557185 0.601727 0.124894
0.591416 0.600858 0.115948
0.625648 0.599989 0.107002
0.656332 0.600159 0.100876
0.683468 0.601367 0.097571
0.710605 0.602576 0.094266
0.737742 0.603784 0.090961
0.764878 0.604992 0.087655
0.789155 0.606825 0.086137
0.807710 0.609909 0.088192
0.826266 0.612992 0.090248
0.844822 0.616075 0.092303
0.863378 0.619158 0.094358
0.880338 0.622251 0.096781
0.889322 0.625392 0.101039
0.898306 0.628533 0.105296
0.907290 0.631674 0.109554
0.916274 0.634816 0.113812
0.925258 0.637957 0.118069
0.205377 0.661391 0.253189
0.223984 0.658332 0.245665
0.242592 0.655273 0.238140
0.261200 0.652213 0.230615
0.279807 0.649154 0.223091
0.298415 0.646095 0.215566
0.329315 0.643763 0.204905
0.362674 0.641577 0.193617
0.396033 0.639391 0.182329
0.429392 0.637205 0.171040
0.462751 0.635019 0.159752
0.496303 0.633783 0.150069
0.529950 0.633023 0.141188
0.563598 0.632262 0.132307
0.597246 0.631501 0.123426
0.630894 0.630740 0.114545
0.661309 0.630949 0.108421
0.688492 0.632127 0.105053
0.715674 0.633305 0.101686
0.742856 0.634482 0.098318
0.770039 0.635660 0.094951
0.794330 0.637382 0.093365
0.812839 0.640190 0.095343
0.831348 0.642999 0.097320
0.849857 0.645808 0.099298
0.868366 0.648617 0.101276
0.885255 0.651397 0.103611
0.894039 0.654038 0.107736
0.902823 0.656680 0.111861
0.911607 0.659321 0.115986
0.920392 0.661962 0.120111
0.929176 0.664603 0.124236
0.234078 0.691377 0.257629
0.250446 0.688281 0.250375
0.266814 0.685185 0.243121
0.283182 0.682089 0.235867
0.299550 0.678993 0.228613
0.315918 0.675897 0.221359
0.344968 0.673632 0.210969
0.376554 0.671533 0.199952
0.408140 0.669434 0.188935
0.439726 0.667336 0.177918
0.471312 0.665237 0.166901
0.503883 0.664102 0.157351
0.536948 0.663450 0.148535
0.570012 0.662797 0.139720
0.603076 0.662144 0.130904
0.636140 0.661492 0.122088
0.666287 0.661739 0.115965
0.693515 0.662886 0.112535
0.720743 0.664034 0.109106
0.747971 0.665181 0.105676
0.775199 0.666328 0.102246
0.799505 0.667938 0.100593
0.817968 0.670472 0.102493
0.836430 0.673007 0.104393
0.854893 0.675541 0.106293
0.873355 0.678075 0.108193
0.890171 0.680544 0.110442
0.898756 0.682685 0.114434
0.907340 0.684826 0.118426
0.915925 0.686967 0.122418
0.924509 0.689108 0.126410
0.933094 0.691249 0.130402
0.262780 0.721362 0.262070
0.276908 0.718229 0.255086
0.291037 0.715097 0.248102
0.305165 0.711964 0.241118
0.319294 0.708831 0.234135
0.333422 0.705698 0.227151
0.360621 0.703500 0.217032
0.390434 0.701489 0.206286
0.420247 0.699478 0.195541
0.450060 0.697466 0.184795
0.479872 0.695455 0.174049
0.511464 0.694421 0.164633
0.543945 0.693877 0.155883
0.576425 0.693332 0.147132
0.608906 0.692788 0.138382
0.641387 0.692243 0.129631
0.671264 0.692529 0.123510
0.698538 0.693646 0.120018
0.725812 0.694763 0.116526
0.753085 0.695879 0.113033
0.780359 0.696996 0.109541
0.804680 0.698494 0.107821
0.823096 0.700754 0.109643
0.841512 0.703014 0.111466
0.859928 0.705274 0.113288
0.878344 0.707534 0.115110
0.895088 0.709691 0.117272
0.903472 0.711332 0.121132
0.911857 0.712973 0.124991
0.920242 0.714614 0.128850
0.928627 0.716255 0.132709
0.937011 0.717896 0.136569
0.291482 0.751348 0.266510
0.303370 0.748178 0.259797
0.315259 0.745009 0.253083
0.327148 0.741839 0.246370
0.339037 0.738670 0.239657
0.350925 0.735500 0.232943
0.376273 0.733369 0.223096
0.404313 0.731445 0.212621
0.432353 0.729521 0.202147
0.460393 0.727597 0.191672
0.488433 0.725673 0.181198
0.519045 0.724740 0.171916
0.550942 0.724304 0.163230
0.582839 0.723867 0.154545
0.614736 0.723431 0.145860
0.646633 0.722994 0.137174
0.676242 0.723319 0.131054
0.703561 0.724405 0.127500
0.730881 0.725492 0.123946
0.758200 0.726578 0.120391
0.785520 0.727664 0.116837
0.809856 0.729050 0.115049
0.828225 0.731036 0.116793
0.846594 0.733021 0.118538
0.864963 0.735007 0.120283
0.883332 0.736993 0.122028
0.900004 0.738837 0.124103
0.908189 0.739978 0.127829
0.916374 0.741119 0.131556
0.924559 0.742260 0.135282
0.932744 0.743401 0.139009
0.940929 0.744542 0.142735
0.320956 0.776915 0.270207
0.330876 0.773827 0.263814
0.340795 0.770739 0.257421
0.350715 0.767652 0.251029
0.360634 0.764564 0.244636
0.370554 0.761476 0.238244
0.394064 0.759509 0.228764
0.420292 0.757767 0.218667
0.446520 0.756024 0.208570
0.472748 0.754281 0.198474
0.498976 0.752539 0.188377
0.528449 0.751788 0.179333
0.559543 0.751533 0.170815
0.590638 0.751278 0.162297
0.621733 0.751023 0.153780
0.652827 0.750768 0.145262
0.681960 0.751197 0.139223
0.709132 0.752310 0.135664
0.736304 0.753423 0.132104
0.763475 0.754536 0.128544
0.790647 0.755649 0.124984
0.814850 0.756979 0.123173
0.833115 0.758746 0.124862
0.851381 0.760514 0.126551
0.869646 0.762281 0.128240
0.887912 0.764048 0.129929
0.904470 0.765642 0.131944
0.912495 0.766377 0.135591
0.920519 0.767111 0.139239
0.928543 0.767845 0.142886
0.936567 0.768579 0.146533
0.944591 0.769313 0.150180
0.351976 0.793646 0.272417
0.360467 0.790877 0.266445
0.368959 0.788107 0.260474
0.377450 0.785338 0.254502
0.385942 0.782569 0.248531
0.394433 0.779799 0.242559
0.416131 0.778194 0.233642
0.440469 0.776820 0.224136
0.464807 0.775447 0.214630
0.489146 0.774074 0.205123
0.513484 0.772700 0.195617
0.541500 0.772292 0.187019
0.571354 0.772365 0.178874
0.601208 0.772439 0.170729
0.631062 0.772512 0.162585
0.660916 0.772586 0.154440
0.689162 0.773250 0.148642
0.715799 0.774504 0.145190
0.742436 0.775758 0.141738
0.769072 0.777012 0.138286
0.795709 0.778266 0.134834
0.819483 0.779655 0.133091
0.837530 0.781315 0.134768
0.855578 0.782975 0.136444
0.873625 0.784635 0.138121
0.891672 0.786295 0.139797
0.908035 0.787764 0.141807
0.915977 0.788278 0.145482
0.923918 0.788792 0.149158
0.931860 0.789306 0.152833
0.939801 0.789820 0.156508
0.947742 0.790334 0.160184
0.382996 0.810377 0.274627
0.390059 0.807926 0.269076
0.397122 0.805475 0.263526
0.404186 0.803024 0.257976
0.411249 0.800574 0.252426
0.418312 0.798123 0.246875
0.438197 0.796878 0.238521
0.460646 0.795874 0.229605
0.483094 0.794870 0.220689
0.505543 0.793866 0.211773
0.527992 0.792862 0.202858
0.554550 0.792795 0.194705
0.583164 0.793198 0.186933
0.611778 0.793600 0.179161
0.640392 0.794002 0.171389
0.669005 0.794404 0.163618
0.696363 0.795303 0.158060
0.722465 0.796698 0.154716
0.748567 0.798093 0.151372
0.774669 0.799488 0.148028
0.800771 0.800883 0.144684
0.824116 0.802331 0.143010
0.841945 0.803884 0.144674
0.859774 0.805437 0.146338
0.877604 0.806989 0.148002
0.895433 0.808542 0.149666
0.911601 0.809885 0.151670
0.919459 0.810179 0.155373
0.927318 0.810473 0.159077
0.935176 0.810767 0.162780
0.943035 0.811061 0.166484
0.950893 0.811355 0.170187
0.414015 0.827108 0.276836
0.419651 0.824975 0.271707
0.425286 0.822843 0.266578
0.430921 0.820711 0.261449
0.436556 0.818579 0.256320
0.442192 0.816446 0.251191
0.460263 0.815562 0.243399
0.480822 0.814927 0.235074
0.501381 0.814293 0.226748
0.521940 0.813658 0.218423
0.542499 0.813024 0.210098
0.567601 0.813299 0.202390
0.594975 0.814030 0.194992
0.622348 0.814761 0.187593
0.649721 0.815492 0.180194
0.677094 0.816222 0.172796
0.703565 0.817356 0.167478
0.729132 0.818892 0.164242
0.754699 0.820428 0.161006
0.780266 0.821964 0.157770
0.805833 0.823500 0.154534
0.828749 0.825006 0.152928
0.846360 0.826452 0.154579
0.863971 0.827898 0.156231
0.881582 0.829344 0.157883
0.899194 0.830790 0.159534
0.915166 0.832007 0.161533
0.922941 0.832081 0.165264
0.930717 0.832154 0.168996
0.938493 0.832228 0.172727
0.946269 0.832302 0.176459
0.954044 0.832376 0.180191
0.445035 0.843839 0.279046
0.449242 0.842025 0.274339
0.453449 0.840211 0.269631
0.457657 0.838397 0.264923
0.461864 0.836583 0.260215
0.466071 0.834770 0.255507
0.482330 0.834246 0.248277
0.500999 0.833981 0.240543
0.519668 0.833716 0.232808
0.538338 0.833451 0.225073
0.557007 0.833185 0.217338
0.580652 0.833803 0.210076
0.606785 0.834863 0.203051
0.632918 0.835922 0.196025
0.659051 0.836981 0.188999
0.685184 0.838041 0.181973
0.710766 0.839409 0.176896
0.735798 0.841086 0.173769
0.760831 0.842763 0.170641
0.785863 0.844441 0.167513
0.810895 0.846118 0.164385
0.833381 0.847682 0.162846
0.850775 0.849021 0.164485
0.868168 0.850360 0.166124
0.885561 0.851698 0.167764
0.902954 0.853037 0.169403
0.918731 0.854128 0.171395
0.926424 0.853982 0.175155
0.934117 0.853836 0.178915
0.941809 0.853689 0.182675
0.949502 0.853543 0.186434
0.957195 0.853397 0.190194
0.474797 0.858953 0.281441
0.477788 0.857460 0.277167
0.480779 0.855967 0.272894
0.483770 0.854474 0.268620
0.486762 0.852982 0.264346
0.489753 0.851489 0.260072
0.504282 0.851298 0.253407
0.521120 0.851367 0.246264
0.537957 0.851436 0.239120
0.554794 0.851506 0.231977
0.571631 0.851575 0.224833
0.593790 0.852494 0.218022
0.618610 0.853839 0.211376
0.643429 0.855184 0.204731
0.668248 0.856529 0.198085
0.693068 0.857873 0.191439
0.717688 0.859447 0.186615
0.742110 0.861250 0.183611
0.766532 0.863053 0.180608
0.790954 0.864856 0.177605
0.815375 0.866658 0.174602
0.837385 0.868281 0.173152
0.854571 0.869542 0.174810
0.871757 0.870804 0.176467
0.888942 0.872065 0.178124
0.906128 0.873327 0.179782
0.921729 0.874327 0.181806
0.929404 0.874022 0.185667
0.937079 0.873717 0.189527
0.944755 0.873411 0.193387
0.952430 0.873106 0.197247
0.960105 0.872801 0.201107
0.498269 0.865986 0.284761
0.501105 0.864826 0.280985
0.503941 0.863666 0.277208
0.506776 0.862506 0.273432
0.509612 0.861346 0.269656
0.512448 0.860186 0.265880
0.525665 0.860185 0.259794
0.540959 0.860414 0.253245
0.556252 0.860644 0.246697
0.571546 0.860874 0.240149
0.586839 0.861104 0.233601
0.607365 0.862123 0.227265
0.630505 0.863537 0.221035
0.653646 0.864951 0.214805
0.676787 0.866365 0.208575
0.699928 0.867779 0.202345
0.723215 0.869411 0.197833
0.746647 0.871262 0.195038
0.770079 0.873114 0.192243
0.793511 0.874965 0.189448
0.816944 0.876816 0.186652
0.838242 0.878495 0.185399
0.855274 0.879827 0.187227
