Assets/1__3DArt/KimSe/artstation_asset/LUTs_pasterls/CUBE/Pastelopolis 04.cube
# Enhanced with VOXCOLOR algorithms
LUT_3D_SIZE 8
DOMAIN_MIN 0.000000 0.000000 0.000000
DOMAIN_MAX 0.903226 0.903226 0.903226
0.101961 0.137255 0.070588
0.234972 0.150037 0.080095
0.368419 0.163125 0.087122
0.485264 0.175384 0.092174
0.573049 0.185818 0.095720
0.621859 0.192850 0.098076
0.645180 0.196883 0.099897
0.655752 0.199104 0.101218
0.114993 0.194339 0.112890
0.227357 0.202544 0.117894
0.351423 0.210645 0.119148
0.467993 0.217475 0.118004
0.562119 0.222151 0.115682
0.619801 0.223775 0.113482
0.649190 0.223124 0.112153
0.662650 0.221317 0.111315
0.135809 0.267250 0.172645
0.227288 0.271488 0.173078
0.339907 0.276099 0.168911
0.454105 0.279327 0.161576
0.553742 0.279869 0.152521
0.621290 0.276651 0.143906
0.658492 0.270868 0.137507
0.676317 0.264099 0.132975
0.165058 0.349595 0.246980
0.235652 0.350189 0.242708
0.334648 0.352716 0.233852
0.443764 0.354491 0.221150
0.546994 0.353390 0.205654
0.624458 0.347314 0.189797
0.670993 0.337367 0.176782
0.695028 0.325846 0.166881
0.202959 0.435147 0.331941
0.253159 0.432348 0.323072
0.336508 0.434033 0.310717
0.437416 0.436527 0.294244
0.541291 0.436692 0.273684
0.627623 0.430733 0.250814
0.684561 0.418793 0.230150
0.716852 0.403812 0.213236
0.250176 0.514567 0.418855
0.282476 0.509415 0.407158
0.349006 0.511227 0.393872
0.437910 0.515957 0.376752
0.537267 0.519888 0.354416
0.628643 0.517722 0.326730
0.695611 0.507679 0.298588
0.738335 0.492462 0.273391
0.301847 0.580260 0.494420
0.320962 0.574731 0.483175
0.371763 0.576999 0.471878
0.446381 0.583657 0.457324
0.536208 0.591328 0.437058
0.626978 0.594527 0.408535
0.701107 0.589696 0.375556
0.754730 0.578289 0.343017
0.352063 0.631603 0.554913
0.363073 0.627752 0.546716
0.400299 0.630693 0.539127
0.460177 0.638507 0.529068
0.537863 0.648960 0.513808
0.624008 0.657543 0.488804
0.701899 0.659740 0.455337
0.765031 0.655915 0.418680
0.105293 0.149002 0.122855
0.238066 0.157405 0.131188
0.372774 0.165695 0.132668
0.491427 0.173350 0.129737
0.580794 0.179899 0.124621
0.630293 0.184479 0.119784
0.653460 0.187167 0.116851
0.663790 0.188472 0.115457
0.118194 0.210568 0.165382
0.243579 0.217358 0.168799
0.370684 0.222528 0.165738
0.484971 0.225739 0.158529
0.575321 0.226804 0.149329
0.630666 0.225522 0.140697
0.659156 0.222666 0.134293
0.672066 0.218925 0.129668
0.139715 0.286138 0.224172
0.245360 0.290536 0.223514
0.361378 0.293959 0.216443
0.473022 0.295154 0.204805
0.568203 0.293238 0.190470
0.632878 0.287435 0.176128
0.669261 0.279119 0.164377
0.686930 0.269814 0.155230
0.170044 0.368841 0.295458
0.250232 0.370482 0.291126
0.351954 0.373308 0.280937
0.459706 0.374724 0.265717
0.559938 0.372668 0.246604
0.635366 0.364896 0.225901
0.681742 0.352709 0.207462
0.706523 0.338656 0.192409
0.209008 0.452347 0.374839
0.263566 0.451274 0.367096
0.348360 0.454364 0.355045
0.448801 0.457848 0.337943
0.551297 0.458475 0.315654
0.636833 0.452053 0.289188
0.694558 0.438780 0.263390
0.728753 0.421956 0.241122
0.256885 0.528112 0.454059
0.290788 0.525021 0.444200
0.357608 0.528682 0.432486
0.446009 0.535051 0.416490
0.544602 0.540359 0.394510
0.635875 0.538941 0.365106
0.704215 0.528839 0.332827
0.749675 0.512976 0.302527
0.308174 0.590012 0.521759
0.328172 0.586509 0.512477
0.378926 0.590632 0.503394
0.453023 0.599087 0.491200
0.542276 0.608538 0.473115
0.632978 0.613258 0.445098
0.708165 0.609326 0.409732
0.764266 0.598186 0.372881
0.356503 0.637544 0.574668
0.368919 0.635855 0.568700
0.406774 0.640781 0.563797
0.466703 0.650455 0.556866
0.544051 0.662666 0.544949
0.629658 0.672798 0.522298
0.707427 0.676023 0.488493
0.771526 0.672380 0.448696
0.106559 0.160224 0.190165
0.240469 0.166171 0.199575
0.377743 0.171167 0.198245
0.499472 0.175082 0.189495
0.591644 0.177852 0.176608
0.642825 0.179362 0.164138
0.666464 0.180018 0.155843
0.676767 0.180058 0.151254
0.120253 0.227981 0.231359
0.249028 0.233681 0.236015
0.378708 0.236889 0.231544
0.495033 0.237356 0.220298
0.587082 0.235062 0.204760
0.643724 0.230255 0.188722
0.672992 0.224413 0.176207
0.686302 0.218357 0.167386
0.143565 0.307336 0.287957
0.252656 0.311553 0.288458
0.370948 0.314357 0.281076
0.484117 0.314243 0.267134
0.580434 0.310179 0.248286
0.646132 0.301378 0.227550
0.683537 0.289936 0.209598
0.702178 0.277857 0.195645
0.175993 0.391064 0.354966
0.258573 0.393213 0.351860
0.361983 0.396581 0.342377
0.470892 0.398131 0.326583
0.571957 0.395447 0.305071
0.648259 0.385876 0.279658
0.695935 0.371224 0.255634
0.722382 0.354683 0.235707
0.216775 0.472836 0.427341
0.272461 0.472868 0.421228
0.358144 0.477324 0.410913
0.459266 0.482056 0.394937
0.562328 0.483471 0.372525
0.648712 0.476818 0.343583
0.708082 0.462437 0.313544
0.744700 0.444186 0.286978
0.265514 0.544857 0.497407
0.299829 0.543198 0.489536
0.366805 0.548487 0.480254
0.455306 0.556587 0.466731
0.554154 0.563592 0.446763
0.646275 0.563421 0.417557
0.716516 0.553884 0.383223
0.764973 0.538164 0.349963
0.316135 0.602618 0.556194
0.336533 0.600570 0.548784
0.387243 0.606261 0.542212
0.461242 0.616545 0.533157
0.550677 0.628141 0.518615
0.642247 0.635139 0.493369
0.719236 0.633116 0.458593
0.778244 0.623409 0.420570
0.361957 0.645793 0.600950
0.375355 0.645623 0.596676
0.413741 0.652174 0.594158
0.474067 0.663757 0.590562
0.551936 0.678277 0.582956
0.638431 0.691160 0.564926
0.717476 0.697016 0.534108
0.783473 0.695319 0.494833
0.106141 0.171049 0.268505
0.242379 0.176665 0.281585
0.383463 0.180018 0.280936
0.509533 0.181276 0.269623
0.605739 0.180730 0.251144
0.659594 0.178955 0.231626
0.684348 0.177101 0.217856
0.694888 0.175517 0.209820
0.121366 0.245943 0.307156
0.247727 0.251443 0.315460
0.379796 0.254015 0.312938
0.501070 0.252952 0.300874
0.598682 0.247986 0.281238
0.659469 0.239513 0.258423
0.690969 0.230174 0.239658
0.705476 0.221438 0.226604
0.147153 0.329514 0.360131
0.252736 0.333779 0.363629
0.372345 0.336933 0.358907
0.489641 0.336625 0.345776
0.591115 0.331213 0.324875
0.661126 0.319515 0.298824
0.701368 0.304687 0.274936
0.722049 0.289699 0.256532
0.182243 0.414435 0.421449
0.262070 0.416969 0.420700
0.366029 0.421471 0.414303
0.477634 0.424025 0.400771
0.582482 0.421508 0.379489
0.662501 0.410540 0.351092
0.713254 0.393569 0.322493
0.742461 0.374787 0.298671
0.225227 0.494552 0.485604
0.279348 0.495349 0.481622
0.365066 0.501386 0.474694
0.467489 0.507914 0.462168
0.572788 0.510807 0.442205
0.662003 0.504579 0.413155
0.724462 0.489684 0.380861
0.764428 0.470704 0.351845
0.274911 0.562811 0.545656
0.308475 0.562169 0.539931
0.375179 0.569030 0.534009
0.464064 0.579110 0.524539
0.564077 0.588316 0.508712
0.658350 0.590155 0.482388
0.731602 0.582132 0.448947
0.783784 0.567673 0.415650
0.324733 0.616327 0.595035
0.344977 0.615348 0.589477
0.395424 0.622423 0.585759
0.469518 0.634601 0.580674
0.559774 0.648704 0.571127
0.653302 0.658772 0.551165
0.733204 0.659842 0.520463
0.795918 0.653030 0.485137
0.367801 0.655017 0.631538
0.381690 0.655901 0.628605
0.420385 0.663800 0.628297
0.481281 0.677307 0.628247
0.560330 0.694527 0.625778
0.648977 0.711103 0.614422
0.730743 0.721039 0.590062
0.799807 0.723152 0.555753
0.104351 0.181520 0.353389
0.243765 0.188997 0.372759
0.389691 0.192431 0.376730
0.521269 0.192277 0.366997
0.622738 0.189171 0.346357
0.680332 0.184225 0.321540
0.706921 0.179555 0.302805
0.718048 0.175972 0.291375
0.121631 0.263677 0.388568
0.243109 0.270282 0.402402
0.377584 0.273788 0.405345
0.505427 0.272673 0.396557
0.610988 0.266124 0.376575
0.678038 0.254325 0.349255
0.713023 0.241281 0.325151
0.729392 0.229561 0.308301
0.150205 0.351250 0.436461
0.248779 0.356232 0.444308
0.368970 0.360982 0.445288
0.491674 0.361897 0.436826
0.600829 0.356378 0.417747
0.677768 0.342441 0.389179
0.722553 0.324369 0.360882
0.746248 0.306519 0.339059
0.188118 0.437118 0.490721
0.262100 0.440253 0.493223
0.365524 0.446712 0.492336
0.480492 0.451412 0.484428
0.591168 0.450265 0.467097
0.677478 0.438834 0.438945
0.733228 0.420137 0.408064
0.766369 0.399648 0.382155
0.233360 0.515506 0.545815
0.283917 0.516961 0.544397
0.368691 0.524958 0.542493
0.472591 0.534027 0.535998
0.581440 0.539382 0.521725
0.675568 0.534650 0.496034
0.742930 0.520254 0.464597
0.787446 0.501584 0.435855
0.283962 0.580085 0.595640
0.315764 0.580231 0.592185
0.381595 0.588720 0.590479
0.470879 0.601122 0.586676
0.572803 0.613166 0.577372
0.670691 0.618006 0.557196
0.748448 0.612756 0.528375
0.805444 0.600997 0.498715
0.333007 0.629491 0.635694
0.352536 0.629353 0.631989
0.402353 0.637706 0.631433
0.476535 0.651855 0.631091
0.568087 0.668793 0.627954
0.664678 0.682723 0.615874
0.748821 0.688191 0.593056
0.816328 0.685969 0.564840
0.373459 0.663970 0.664332
0.387313 0.665587 0.662504
0.425990 0.674625 0.664301
0.487456 0.690029 0.667967
0.568114 0.710181 0.671269
0.659942 0.731128 0.668331
0.745820 0.746405 0.653823
0.819271 0.754190 0.629332
0.101135 0.191285 0.436699
0.243533 0.202902 0.464373
0.394593 0.208372 0.477372
0.532575 0.208398 0.475054
0.640799 0.203892 0.458492
0.703855 0.196224 0.433090
0.733550 0.188509 0.411653
0.745999 0.182392 0.397703
0.120619 0.279213 0.467471
0.237960 0.288627 0.487778
0.374911 0.294990 0.499608
0.509551 0.295817 0.499421
0.623999 0.289570 0.485562
0.698895 0.275727 0.459567
0.738643 0.259390 0.433660
0.757557 0.244582 0.414805
0.151850 0.369612 0.509133
0.243818 0.376393 0.521878
0.364264 0.384257 0.531184
0.492301 0.388287 0.531947
0.609973 0.384785 0.520788
0.695616 0.370510 0.496036
0.746522 0.350384 0.467990
0.774130 0.330346 0.445727
0.192297 0.455762 0.555666
0.260156 0.460011 0.561804
0.362398 0.469380 0.568293
0.480546 0.477688 0.569566
0.597882 0.479860 0.561409
0.692411 0.470138 0.539750
0.755039 0.451552 0.512086
0.793320 0.430844 0.488276
0.239471 0.532353 0.601942
0.285838 0.534558 0.603246
0.368943 0.544917 0.607428
0.474094 0.557401 0.609353
0.587182 0.566664 0.604730
0.688007 0.565449 0.588000
0.762244 0.553714 0.563339
0.812766 0.537451 0.540071
0.290822 0.593649 0.642611
0.320365 0.594507 0.641345
0.384774 0.604677 0.644228
0.474233 0.619751 0.647337
0.578458 0.635418 0.647025
0.681263 0.644738 0.637318
0.765252 0.644301 0.618722
0.828587 0.637552 0.598417
0.339359 0.639541 0.674540
0.357749 0.640126 0.672512
0.406509 0.649659 0.675119
0.480544 0.665798 0.679949
0.573528 0.685826 0.684373
0.674012 0.704450 0.682872
0.763798 0.715928 0.672477
0.837613 0.720511 0.657032
0.378100 0.670803 0.696707
0.391302 0.672873 0.695635
0.429473 0.682838 0.699318
0.491225 0.700009 0.706648
0.573498 0.723089 0.715969
0.669067 0.748777 0.722688
0.760277 0.770485 0.721194
0.839640 0.785829 0.711690
0.095729 0.198904 0.508010
0.239514 0.216006 0.543765
0.394670 0.225149 0.567940
0.538998 0.227017 0.577570
0.655102 0.222543 0.571607
0.725637 0.212868 0.552284
0.760110 0.201888 0.532299
0.774888 0.192377 0.517807
0.117685 0.290714 0.534995
0.232180 0.303766 0.560913
0.371054 0.314201 0.582474
0.511497 0.318613 0.594074
0.634465 0.314670 0.592025
0.718105 0.300701 0.574467
0.763822 0.282116 0.552206
0.785983 0.264278 0.534257
0.151327 0.382648 0.570885
0.238626 0.391592 0.587634
0.359029 0.403214 0.605259
0.491293 0.411594 0.617186
0.616708 0.412096 0.618435
0.711521 0.400024 0.604325
0.769572 0.379933 0.582830
0.801691 0.358865 0.564196
0.193804 0.468466 0.610471
0.256925 0.473827 0.619552
0.357736 0.486204 0.632890
0.478213 0.498800 0.644206
0.601611 0.505872 0.648324
0.704816 0.500452 0.639048
0.775348 0.484661 0.621112
0.819409 0.465802 0.604429
0.242384 0.543342 0.649336
0.285062 0.546061 0.652824
0.366146 0.558503 0.662296
0.471979 0.574568 0.672658
0.589043 0.588714 0.679378
0.697179 0.593149 0.676023
0.779392 0.586763 0.664085
0.836685 0.575411 0.651712
0.294252 0.602055 0.682878
0.321504 0.603327 0.683268
0.384085 0.614815 0.689922
0.473309 0.632453 0.699495
0.579734 0.652159 0.708704
0.688038 0.667294 0.712040
0.779282 0.673735 0.708078
0.849779 0.674213 0.701905
0.342573 0.645380 0.708664
0.359631 0.646441 0.707831
0.407010 0.656880 0.712965
0.480596 0.674830 0.722410
0.574876 0.697991 0.734192
0.679535 0.721876 0.744155
0.775663 0.740556 0.748572
0.856515 0.753455 0.749214
0.380520 0.674556 0.726092
0.392784 0.676894 0.725453
0.430133 0.687604 0.730646
0.491857 0.706355 0.741165
0.575485 0.732189 0.755964
0.674762 0.762604 0.772059
0.771676 0.791111 0.784181
0.857555 0.814741 0.791292
0.086920 0.202922 0.564926
0.231101 0.226373 0.607857
0.389173 0.240590 0.643297
0.539146 0.245953 0.666781
0.663364 0.243122 0.675513
0.742738 0.232427 0.667919
0.783332 0.218046 0.653796
0.801167 0.204026 0.641007
0.112487 0.298335 0.590688
0.224412 0.314972 0.620867
0.364125 0.329957 0.651164
0.508981 0.338998 0.675012
0.639625 0.338912 0.687391
0.732510 0.326524 0.683163
0.785285 0.306624 0.669117
0.811330 0.285446 0.654401
0.148692 0.391382 0.622368
0.231976 0.401944 0.641836
0.351415 0.417100 0.666256
0.486424 0.430216 0.688771
0.618399 0.435878 0.703677
0.722458 0.427905 0.703982
0.788491 0.409466 0.693303
0.825555 0.387816 0.680712
0.192915 0.476626 0.656216
0.251665 0.482308 0.667209
0.350161 0.496996 0.685734
0.471660 0.513709 0.705878
0.600099 0.526347 0.722384
0.712065 0.526967 0.727949
0.791223 0.515879 0.723242
0.841276 0.499864 0.715952
0.242616 0.549962 0.689027
0.281292 0.552269 0.693868
0.359306 0.565857 0.707076
0.464725 0.585002 0.724405
0.585184 0.604308 0.741786
0.701091 0.615797 0.752918
0.792080 0.616575 0.756019
0.856153 0.611320 0.756235
0.295031 0.606864 0.717206
0.319151 0.607603 0.718482
0.378772 0.619525 0.727644
0.466920 0.639231 0.742364
0.575427 0.663122 0.760126
0.690114 0.685131 0.776548
0.789515 0.699830 0.788060
0.866866 0.708325 0.796440
0.343280 0.648571 0.738608
0.358249 0.649361 0.738357
0.403458 0.660083 0.745136
0.476144 0.679529 0.758218
0.571867 0.705955 0.776447
0.681600 0.735818 0.797289
0.784787 0.762500 0.816056
0.871931 0.783795 0.831634
0.380524 0.676357 0.752612
0.391535 0.678670 0.752220
0.427698 0.689807 0.758440
0.489173 0.709904 0.771442
0.574206 0.738427 0.790847
0.677601 0.773724 0.815299
0.780453 0.809144 0.839643
0.872129 0.840791 0.861165
