Assets/1__3DArt/KimSe/artstation_asset/LUTs_pasterls/CUBE/Pastelopolis 02 S.cube
# Enhanced with VOXCOLOR algorithms
LUT_3D_SIZE 8
DOMAIN_MIN 0.000000 0.000000 0.000000
DOMAIN_MAX 0.903226 0.903226 0.903226
0.113725 0.094118 0.105882
0.315151 0.122285 0.087345
0.529114 0.158935 0.087523
0.720292 0.197770 0.104534
0.862598 0.233321 0.134746
0.936696 0.258709 0.167906
0.968353 0.273777 0.191534
0.981212 0.282479 0.205798
0.135047 0.212932 0.133012
0.289897 0.215520 0.107974
0.466474 0.226234 0.093427
0.634822 0.241623 0.092561
0.772426 0.258609 0.106603
0.863122 0.273726 0.133271
0.921960 0.285733 0.163254
0.960927 0.295094 0.192403
0.180806 0.369862 0.165111
0.290815 0.351594 0.135146
0.430536 0.339852 0.109267
0.575871 0.333970 0.094353
0.707904 0.333087 0.095285
0.811701 0.336090 0.116163
0.890765 0.340287 0.150214
0.948212 0.343838 0.189670
0.247038 0.539786 0.196944
0.317147 0.508396 0.165072
0.422834 0.481130 0.132570
0.545937 0.459519 0.108568
0.671088 0.444434 0.100347
0.783453 0.436257 0.116750
0.875282 0.431215 0.152972
0.943240 0.426227 0.198118
0.328930 0.700395 0.224224
0.366719 0.665515 0.194293
0.443034 0.632092 0.160660
0.545411 0.602844 0.133215
0.661938 0.579629 0.120349
0.777561 0.563588 0.133948
0.874648 0.550720 0.170755
0.945439 0.537660 0.217296
0.418422 0.822247 0.242303
0.435519 0.794609 0.218014
0.489584 0.766688 0.189210
0.573364 0.740905 0.164688
0.678432 0.718947 0.152309
0.790474 0.701653 0.164733
0.885310 0.685685 0.200380
0.952511 0.668486 0.245061
0.500146 0.898908 0.252241
0.507232 0.882183 0.234596
0.545331 0.864958 0.213108
0.611903 0.848662 0.194482
0.702260 0.834214 0.185095
0.805205 0.821616 0.196833
0.894626 0.808209 0.230625
0.957770 0.792377 0.274373
0.566645 0.944497 0.257213
0.571492 0.937342 0.246423
0.598605 0.930216 0.232543
0.649505 0.923686 0.220229
0.723290 0.918035 0.214334
0.813989 0.912812 0.225566
0.897602 0.905885 0.258172
0.958919 0.895859 0.304244
0.137877 0.137875 0.213318
0.333884 0.159469 0.193307
0.536452 0.187102 0.187777
0.715078 0.216071 0.196375
0.847833 0.242719 0.217132
0.920594 0.264415 0.242999
0.957948 0.282474 0.263509
0.977558 0.296377 0.277323
0.159329 0.263361 0.239017
0.315978 0.255382 0.208989
0.478971 0.254310 0.190578
0.628515 0.258183 0.185362
0.750519 0.265427 0.193496
0.837133 0.275702 0.212629
0.902443 0.289116 0.235352
0.952858 0.304412 0.259087
0.203780 0.417681 0.269137
0.314560 0.388184 0.234344
0.440105 0.364464 0.206057
0.566064 0.347442 0.188691
0.681664 0.337665 0.185128
0.780298 0.336266 0.197423
0.865770 0.341281 0.220109
0.937425 0.350201 0.248753
0.267095 0.578160 0.298973
0.334185 0.537279 0.263850
0.426186 0.499540 0.229654
0.531935 0.468281 0.203369
0.642097 0.445842 0.190351
0.748908 0.434327 0.196401
0.846658 0.430084 0.217429
0.930491 0.429550 0.246841
0.344590 0.725224 0.324628
0.376898 0.684030 0.292763
0.440739 0.642567 0.257255
0.528123 0.605570 0.226471
0.631227 0.576496 0.207277
0.740887 0.558038 0.208223
0.843231 0.546108 0.226534
0.930953 0.536853 0.253587
0.429280 0.834395 0.341636
0.441513 0.803577 0.315877
0.485252 0.770319 0.284512
0.556252 0.738801 0.255181
0.649063 0.712151 0.234534
0.754522 0.692677 0.232143
0.853475 0.677323 0.247129
0.937275 0.663281 0.270306
0.506738 0.902726 0.350271
0.510708 0.884967 0.331389
0.541745 0.865074 0.307220
0.598940 0.845449 0.283398
0.679443 0.827872 0.265211
0.775966 0.813382 0.261741
0.867655 0.799994 0.274654
0.944441 0.786240 0.296503
0.568320 0.942799 0.352823
0.571939 0.936091 0.340788
0.595840 0.928549 0.324577
0.641858 0.921090 0.307942
0.709731 0.914343 0.294774
0.795683 0.908419 0.293201
0.879924 0.901795 0.307443
0.949918 0.893246 0.333115
0.166357 0.201218 0.346119
0.354101 0.213908 0.322940
0.546198 0.232153 0.311352
0.715333 0.252201 0.311831
0.842020 0.271370 0.323448
0.914162 0.289130 0.341536
0.954191 0.307090 0.357478
0.976893 0.322524 0.369140
0.187858 0.328759 0.368877
0.336275 0.311058 0.336081
0.487931 0.299430 0.313787
0.626840 0.293186 0.303255
0.741818 0.291932 0.304595
0.827261 0.297339 0.316149
0.895416 0.309951 0.331887
0.950735 0.327261 0.349724
0.230962 0.476166 0.395800
0.333951 0.438380 0.359312
0.448512 0.405019 0.328849
0.563744 0.378420 0.307960
0.671584 0.360386 0.298906
0.767808 0.353872 0.303180
0.855636 0.357472 0.316279
0.933752 0.368022 0.335238
0.291437 0.623759 0.422310
0.351723 0.577254 0.386706
0.433759 0.532016 0.351498
0.529124 0.492755 0.322587
0.630776 0.463024 0.304425
0.733564 0.446534 0.301397
0.832983 0.440440 0.310249
0.924844 0.440973 0.326748
0.364697 0.754994 0.444616
0.391759 0.711142 0.413227
0.446916 0.664774 0.377319
0.524289 0.621778 0.344067
0.618026 0.586665 0.319294
0.721969 0.563536 0.309626
0.825412 0.549552 0.313382
0.922821 0.541103 0.325245
0.444365 0.850054 0.458362
0.453240 0.818645 0.433555
0.489785 0.782659 0.401951
0.551357 0.747010 0.369895
0.634233 0.715575 0.342909
0.732635 0.691855 0.328411
0.832236 0.674519 0.327064
0.926868 0.661404 0.333776
0.516792 0.908991 0.463755
0.519008 0.891544 0.445878
0.544821 0.870447 0.421600
0.594264 0.848395 0.395221
0.665730 0.827558 0.370825
0.755008 0.809842 0.355077
0.846686 0.795007 0.350949
0.933698 0.782382 0.355227
0.573130 0.943123 0.463212
0.575994 0.936980 0.451588
0.597020 0.929275 0.435316
0.638241 0.921014 0.416971
0.699923 0.913006 0.399243
0.780192 0.905903 0.387402
0.863768 0.899303 0.385452
0.941364 0.892435 0.392416
0.196785 0.282297 0.489412
0.373802 0.285778 0.463811
0.556199 0.295357 0.447641
0.718523 0.307864 0.441687
0.842310 0.321024 0.445566
0.914789 0.334659 0.456233
0.955292 0.349773 0.466837
0.978160 0.363382 0.475147
0.218817 0.406778 0.509258
0.353553 0.382173 0.476632
0.496273 0.362867 0.452001
0.630686 0.349111 0.436943
0.744865 0.341282 0.432034
0.831048 0.341915 0.436600
0.898781 0.351360 0.445794
0.953281 0.366575 0.457586
0.260854 0.542838 0.532531
0.351906 0.501296 0.497751
0.458781 0.462400 0.466788
0.569932 0.429397 0.443115
0.676393 0.404913 0.429067
0.771982 0.392976 0.426371
0.858401 0.392707 0.431498
0.935959 0.400724 0.442017
0.318734 0.674237 0.554880
0.370900 0.627043 0.521840
0.446617 0.578808 0.487544
0.537299 0.534832 0.457247
0.635586 0.499302 0.434972
0.735500 0.476949 0.424590
0.832737 0.466315 0.423970
0.925319 0.464061 0.430225
0.388023 0.787666 0.572743
0.410783 0.745359 0.544368
0.460828 0.698260 0.510338
0.532632 0.652355 0.476642
0.620693 0.612438 0.448202
0.719439 0.583406 0.430477
0.820366 0.564604 0.423344
0.920505 0.553576 0.423898
0.462644 0.867711 0.582089
0.469690 0.838455 0.560358
0.501993 0.802862 0.531012
0.557423 0.765559 0.498913
0.632969 0.730405 0.468399
0.724592 0.701465 0.445222
0.821928 0.679943 0.431946
0.921467 0.665193 0.426860
0.529699 0.916762 0.583556
0.531357 0.900967 0.568330
0.553786 0.880362 0.546212
0.597430 0.857321 0.520031
0.661413 0.833927 0.492603
0.743666 0.812523 0.468450
0.833484 0.795058 0.451945
0.926530 0.782172 0.443524
0.580961 0.944898 0.580109
0.583502 0.939530 0.570037
0.602176 0.932081 0.555460
0.639146 0.923420 0.537732
0.695093 0.914348 0.518305
0.769669 0.905876 0.499719
0.851615 0.898873 0.485653
0.934602 0.893262 0.478160
0.227334 0.378677 0.629845
0.391556 0.374417 0.604350
0.564720 0.376945 0.586401
0.722268 0.383571 0.576732
0.845717 0.392140 0.575157
0.919591 0.401564 0.579550
0.959273 0.411672 0.584757
0.980305 0.420731 0.589090
0.250703 0.494558 0.647715
0.370181 0.467293 0.618505
0.506243 0.444430 0.594246
0.640216 0.426716 0.576908
0.757508 0.414830 0.567572
0.845440 0.411052 0.566416
0.910067 0.415177 0.569778
0.959137 0.424497 0.575774
0.292164 0.614896 0.667418
0.370835 0.575061 0.637662
0.473163 0.535985 0.608945
0.584849 0.501049 0.584747
0.694088 0.473039 0.567584
0.789959 0.456019 0.559579
0.871717 0.449671 0.558360
0.942732 0.451161 0.561865
0.347821 0.727134 0.685242
0.392588 0.684613 0.657729
0.465356 0.638889 0.627147
0.555717 0.594813 0.598023
0.654444 0.556373 0.573947
0.752304 0.528318 0.558531
0.844083 0.510927 0.551052
0.930884 0.502178 0.549675
0.413506 0.821258 0.698212
0.433419 0.784736 0.675233
0.481556 0.741681 0.645854
0.551583 0.697024 0.614650
0.637225 0.654925 0.585516
0.731556 0.620063 0.562944
0.826996 0.594385 0.548539
0.923408 0.577555 0.541391
0.483270 0.885965 0.703014
0.489906 0.861458 0.686044
0.520614 0.829597 0.661434
0.573006 0.793790 0.632385
0.643992 0.757102 0.601925
0.729783 0.723238 0.574259
0.822528 0.696067 0.553671
0.921103 0.677209 0.541204
0.545009 0.925196 0.700989
0.547056 0.912240 0.689446
0.567833 0.893902 0.671375
0.607828 0.871725 0.648153
0.666459 0.847254 0.621337
0.742792 0.822636 0.593518
0.829317 0.801832 0.570063
0.923673 0.787151 0.554256
0.591723 0.947620 0.695572
0.594269 0.943258 0.687687
0.611230 0.936585 0.676046
0.644860 0.928143 0.660944
0.696143 0.918539 0.642762
0.765817 0.908825 0.621792
0.845469 0.900961 0.601286
0.930734 0.895737 0.585605
0.257115 0.487375 0.749808
0.406733 0.479223 0.727948
0.570083 0.477459 0.711940
0.723205 0.480125 0.702290
0.847258 0.485348 0.698768
0.923458 0.490834 0.699450
0.962637 0.495249 0.700535
0.981706 0.498792 0.701419
0.282414 0.587359 0.765869
0.388519 0.562969 0.742966
0.519395 0.542132 0.722820
0.654133 0.525450 0.707252
0.775484 0.513318 0.697350
0.865250 0.506655 0.693368
0.925347 0.504631 0.692678
0.966400 0.505925 0.694088
0.323811 0.687437 0.782076
0.393090 0.654994 0.759861
0.493394 0.622434 0.737105
0.607705 0.592086 0.716656
0.721277 0.565854 0.700644
0.817580 0.546284 0.690889
0.892467 0.533429 0.686054
0.952549 0.526170 0.684875
0.377787 0.778312 0.795617
0.417826 0.745242 0.775762
0.490503 0.708459 0.752399
0.583330 0.671018 0.728797
0.684837 0.635504 0.707629
0.781339 0.604956 0.691675
0.865289 0.580952 0.681289
0.940723 0.563852 0.675809
0.440501 0.852782 0.804324
0.459418 0.825309 0.788285
0.508374 0.791447 0.766578
0.579759 0.753919 0.742093
0.665957 0.715165 0.717398
0.757246 0.677971 0.695595
0.845034 0.646036 0.679216
0.931492 0.621918 0.668938
0.506070 0.902990 0.805909
0.513341 0.884937 0.794461
0.544699 0.860139 0.776816
0.597078 0.830093 0.754600
0.666753 0.796336 0.729500
0.748687 0.760837 0.704000
0.835127 0.728886 0.682723
0.926444 0.704724 0.668395
0.563153 0.933374 0.802306
0.565962 0.923880 0.794582
0.586622 0.909525 0.781919
0.625432 0.890733 0.764630
0.681703 0.868132 0.743267
0.754364 0.842752 0.718795
0.836500 0.819333 0.696155
0.926404 0.801892 0.679888
0.606068 0.950905 0.796851
0.608577 0.947607 0.791107
0.624502 0.942245 0.783024
0.656168 0.934933 0.772366
0.704716 0.925922 0.758930
0.771320 0.915801 0.741828
0.848304 0.906917 0.723430
0.931359 0.900965 0.708631
0.286496 0.594753 0.840428
0.420690 0.586421 0.823621
0.573045 0.582962 0.811497
0.720410 0.583403 0.804308
0.843916 0.586485 0.801686
0.922578 0.589509 0.801567
0.962805 0.590311 0.800863
0.981518 0.590076 0.799914
0.313782 0.674888 0.854000
0.408382 0.656015 0.837585
0.533145 0.640196 0.823187
0.666387 0.627666 0.812067
0.789537 0.618369 0.804898
0.880665 0.611784 0.801406
0.937557 0.606456 0.799427
0.972095 0.602327 0.798533
0.355277 0.753311 0.866733
0.417411 0.729628 0.851624
0.515130 0.706377 0.836118
0.630241 0.684518 0.822081
0.746405 0.664728 0.810866
0.843089 0.647528 0.803395
0.912262 0.632685 0.798627
0.961860 0.620634 0.796015
0.407942 0.823302 0.876677
0.444661 0.799878 0.863758
0.517019 0.774225 0.848497
0.611549 0.747465 0.832875
0.715456 0.720522 0.818499
0.811550 0.694135 0.806933
0.888710 0.669744 0.798512
0.951700 0.649394 0.793218
0.468331 0.879805 0.882409
0.486506 0.860750 0.872415
0.536253 0.837452 0.858808
0.609335 0.810646 0.843164
0.697236 0.781039 0.826899
0.787596 0.749086 0.811680
0.868663 0.718110 0.799422
0.942513 0.692201 0.791224
0.530663 0.917621 0.882598
0.538046 0.905160 0.875699
0.570142 0.888109 0.865050
0.623579 0.866515 0.851367
0.694132 0.840590 0.835437
0.775063 0.810337 0.818378
0.855894 0.780176 0.803372
0.936109 0.755333 0.793017
0.583995 0.940786 0.879219
0.586820 0.934086 0.874512
0.607550 0.924037 0.867105
0.646484 0.910338 0.856970
0.702793 0.892897 0.844214
0.774577 0.871513 0.828945
0.852707 0.849940 0.814242
0.933904 0.832599 0.803781
0.623337 0.954367 0.874864
0.625363 0.951842 0.870948
0.640479 0.947910 0.866269
0.671178 0.942435 0.860660
0.718718 0.935387 0.853901
0.784257 0.926804 0.845115
0.858802 0.918512 0.835371
0.936037 0.912478 0.828091
0.315580 0.689596 0.905232
0.434137 0.682212 0.892910
0.574970 0.678375 0.884727
0.715753 0.678041 0.880711
0.837765 0.680649 0.880364
0.918747 0.683846 0.881569
0.961043 0.684474 0.881346
0.980457 0.682929 0.880201
0.344913 0.751307 0.916877
0.428319 0.737386 0.905535
0.545190 0.726279 0.896211
0.674172 0.718175 0.889697
0.796490 0.712906 0.886304
0.888520 0.709388 0.885349
0.944349 0.705341 0.884576
0.975187 0.700514 0.883657
0.386481 0.809955 0.926627
0.441540 0.793295 0.916859
0.534402 0.778004 0.907427
0.647125 0.764411 0.899513
0.763154 0.752614 0.893906
0.860248 0.742277 0.890915
0.926539 0.732366 0.889193
0.968602 0.722999 0.888110
0.438061 0.861348 0.933655
0.470861 0.845213 0.925867
0.540578 0.828831 0.917240
0.634118 0.812506 0.908995
0.738624 0.796431 0.902085
0.835385 0.780568 0.897387
0.908942 0.765252 0.894555
0.961436 0.751568 0.893125
0.496817 0.902451 0.937425
0.512876 0.889391 0.931810
0.561260 0.874775 0.924739
0.634266 0.858695 0.917167
0.723478 0.841258 0.909930
0.815262 0.822376 0.904075
0.892873 0.803622 0.900231
0.954396 0.787198 0.898469
0.557065 0.930256 0.937428
0.562805 0.921487 0.933743
0.593886 0.910777 0.928700
0.647551 0.897954 0.922786
0.719775 0.882948 0.916492
0.802823 0.865516 0.910610
0.880904 0.847773 0.906396
0.948604 0.832417 0.904615
0.607545 0.947804 0.935022
0.608917 0.942778 0.932593
0.628606 0.936264 0.929468
0.667489 0.928060 0.925795
0.724994 0.918064 0.921746
0.798656 0.906090 0.917633
0.874723 0.893883 0.914546
0.944999 0.883602 0.913687
0.643089 0.958176 0.931628
0.644067 0.956063 0.929636
0.658001 0.953297 0.927965
0.687847 0.949887 0.926798
0.735158 0.945882 0.926218
0.801076 0.941381 0.926096
0.873936 0.937182 0.926430
0.943635 0.934107 0.928212
