Assets/1__3DArt/KimSe/artstation_asset/LUTs_pasterls/CUBE/Pastelopolis 02.cube
# Enhanced with VOXCOLOR algorithms
LUT_3D_SIZE 5
DOMAIN_MIN 0.000000 0.000000 0.000000
DOMAIN_MAX 0.903226 0.903226 0.903226
0.113725 0.094118 0.105882
0.474333 0.148899 0.085552
0.796317 0.216272 0.119429
0.950977 0.264024 0.175243
0.981212 0.282479 0.205798
0.166882 0.326711 0.156590
0.420576 0.312548 0.118734
0.720593 0.320875 0.121590
0.912525 0.332877 0.165980
0.971894 0.333606 0.207725
0.288101 0.622969 0.211570
0.430387 0.572298 0.167265
0.673337 0.536810 0.147307
0.879876 0.511574 0.177611
0.967591 0.485309 0.229325
0.443365 0.848749 0.247682
0.500579 0.808632 0.211532
0.666630 0.772487 0.184757
0.857495 0.739841 0.204218
0.966152 0.703212 0.265983
0.569839 0.945030 0.258809
0.593558 0.933411 0.238960
0.691594 0.923328 0.220501
0.842449 0.913573 0.235977
0.961064 0.896536 0.308526
0.158791 0.183366 0.310308
0.501463 0.218327 0.280393
0.803521 0.268267 0.291398
0.951970 0.305518 0.325222
0.983006 0.321041 0.346101
0.210642 0.420788 0.354420
0.468372 0.388113 0.303460
0.740458 0.380304 0.290296
0.914642 0.380935 0.314093
0.973753 0.376486 0.341428
0.322014 0.682011 0.401705
0.461228 0.628724 0.353550
0.684225 0.587885 0.320584
0.877931 0.557289 0.328554
0.967791 0.527683 0.360441
0.461697 0.866945 0.430972
0.512906 0.832716 0.395496
0.664174 0.798533 0.359048
0.847704 0.766899 0.356667
0.963283 0.732217 0.395330
0.573500 0.943023 0.434772
0.594948 0.935102 0.413724
0.685195 0.927150 0.388987
0.830377 0.918974 0.386879
0.956118 0.904327 0.430926
0.212114 0.329607 0.561091
0.521475 0.337019 0.522336
0.803572 0.364055 0.513494
0.951044 0.387098 0.524932
0.984557 0.396163 0.533871
0.264180 0.545943 0.595805
0.480119 0.502433 0.548426
0.735048 0.481148 0.523555
0.911385 0.471147 0.525631
0.975630 0.461888 0.536904
0.367213 0.755166 0.629969
0.482282 0.706167 0.590816
0.685512 0.664575 0.556538
0.873513 0.631959 0.548388
0.968290 0.604014 0.562038
0.492252 0.892627 0.645528
0.534673 0.865580 0.620311
0.668150 0.835444 0.589773
0.840359 0.806519 0.578764
0.960435 0.778468 0.599714
0.588005 0.946531 0.639448
0.606357 0.940750 0.624407
0.685993 0.933917 0.606839
0.821494 0.926755 0.603038
0.951060 0.916560 0.629950
0.264520 0.514417 0.776865
0.531257 0.504497 0.744295
0.793826 0.511848 0.730333
0.945097 0.520720 0.729180
0.983481 0.521369 0.728605
0.319897 0.681352 0.803975
0.488022 0.642594 0.772439
0.723180 0.617932 0.749722
0.904153 0.602291 0.741397
0.975820 0.589942 0.741975
0.417005 0.827356 0.824911
0.503979 0.790761 0.801574
0.684134 0.756818 0.778058
0.866421 0.728594 0.767134
0.967352 0.707392 0.771833
0.529913 0.917546 0.829507
0.562765 0.898741 0.816508
0.677249 0.876173 0.800237
0.835436 0.853993 0.793479
0.957383 0.836478 0.806951
0.612164 0.952179 0.820433
0.626922 0.947924 0.812269
0.695467 0.942492 0.805775
0.818862 0.937121 0.808533
0.947312 0.932446 0.829955
0.315580 0.689596 0.905232
0.537611 0.679086 0.886373
0.780116 0.679693 0.880522
0.935580 0.684852 0.881848
0.980581 0.683068 0.880239
0.374892 0.795646 0.924404
0.508851 0.770354 0.907881
0.719803 0.753943 0.897041
0.897234 0.744259 0.894162
0.974324 0.735962 0.894800
0.467707 0.883003 0.935910
0.534761 0.859739 0.924971
0.691850 0.839398 0.915454
0.863503 0.823962 0.913292
0.966227 0.814846 0.919392
0.572317 0.936470 0.937455
0.595807 0.923867 0.932281
0.693956 0.910547 0.928085
0.838828 0.899467 0.930539
0.957282 0.894348 0.943503
0.644066 0.958360 0.931837
0.654623 0.954870 0.929078
0.714095 0.951274 0.930265
0.826839 0.949295 0.938816
0.948550 0.950118 0.956840
