Assets/1__3DArt/KimSe/artstation_asset/LUTs_pasterls/CUBE/Pastelopolis 03.cube
# Enhanced with VOXCOLOR algorithms
LUT_3D_SIZE 5
DOMAIN_MIN 0.000000 0.000000 0.000000
DOMAIN_MAX 0.903226 0.903226 0.903226
0.086275 0.113725 0.215686
0.371868 0.142288 0.220548
0.649560 0.182076 0.218182
0.827970 0.222709 0.214635
0.890620 0.245920 0.214413
0.068353 0.312715 0.257101
0.330554 0.296012 0.241881
0.611990 0.298644 0.220555
0.819499 0.312346 0.204165
0.906616 0.319851 0.199484
0.146755 0.559253 0.328265
0.329137 0.510099 0.294901
0.579328 0.478372 0.256352
0.804237 0.464136 0.221134
0.924310 0.453698 0.198561
0.340037 0.778772 0.437956
0.408560 0.726156 0.390710
0.575731 0.677708 0.342144
0.777483 0.642947 0.295972
0.924565 0.619712 0.253339
0.537682 0.900058 0.559115
0.546738 0.875499 0.523854
0.619913 0.840004 0.477765
0.752346 0.801654 0.434731
0.896263 0.773746 0.406541
0.075087 0.169490 0.333042
0.380537 0.174564 0.331040
0.653237 0.205488 0.322056
0.827874 0.244131 0.312763
0.891249 0.267232 0.308364
0.062538 0.381452 0.376309
0.356805 0.353216 0.356230
0.624961 0.343240 0.331316
0.816668 0.346217 0.309873
0.902447 0.347082 0.298860
0.170202 0.617246 0.450006
0.356295 0.567743 0.414929
0.590644 0.527746 0.373076
0.798512 0.502156 0.333705
0.917113 0.483500 0.305934
0.374441 0.809821 0.547115
0.434958 0.764531 0.504788
0.583385 0.716615 0.455803
0.768688 0.676700 0.406588
0.915748 0.648314 0.362054
0.552391 0.909894 0.636897
0.561191 0.890680 0.609642
0.626182 0.860949 0.571222
0.746899 0.825646 0.529569
0.886787 0.795532 0.494921
0.050550 0.233405 0.494234
0.392695 0.223410 0.497555
0.679068 0.239715 0.487203
0.854025 0.269227 0.470981
0.913657 0.287316 0.461756
0.060654 0.450578 0.536024
0.345077 0.416210 0.523066
0.622062 0.397932 0.502300
0.821522 0.391774 0.477867
0.911508 0.386078 0.461713
0.196125 0.674491 0.606283
0.360986 0.627081 0.578549
0.586282 0.584753 0.543755
0.790895 0.552552 0.507281
0.912837 0.528837 0.480220
0.405696 0.842669 0.681974
0.454875 0.804623 0.650866
0.586891 0.760464 0.611969
0.759026 0.719595 0.570845
0.904993 0.689577 0.535944
0.563843 0.922934 0.737705
0.572511 0.908470 0.719160
0.630887 0.884976 0.693073
0.742527 0.855406 0.663389
0.878352 0.827813 0.636949
0.034463 0.303039 0.678331
0.401005 0.300366 0.698106
0.704263 0.311599 0.697689
0.890344 0.329812 0.683223
0.951435 0.337415 0.671347
0.067099 0.513822 0.711293
0.328951 0.484595 0.712483
0.615970 0.468415 0.706184
0.833206 0.459213 0.689283
0.933952 0.448684 0.673960
0.224131 0.720723 0.764700
0.358394 0.679310 0.750553
0.573333 0.643041 0.733170
0.782215 0.613383 0.711452
0.915104 0.591602 0.694614
0.433545 0.868724 0.812020
0.467872 0.836936 0.794879
0.583530 0.800104 0.773785
0.745852 0.764908 0.751776
0.894944 0.740863 0.737019
0.573397 0.935185 0.837852
0.580282 0.924277 0.827672
0.632963 0.906659 0.815683
0.737975 0.884198 0.803872
0.871910 0.863923 0.796663
0.067142 0.372291 0.849365
0.423042 0.400971 0.874488
0.712633 0.430693 0.884725
0.901449 0.454971 0.883667
0.969677 0.455856 0.877756
0.100838 0.567761 0.866027
0.345194 0.552722 0.873881
0.618367 0.552552 0.879985
0.837473 0.556815 0.879510
0.947033 0.550730 0.874361
0.266270 0.751655 0.890107
0.376561 0.717407 0.886668
0.571277 0.694094 0.885174
0.777467 0.680536 0.883801
0.920332 0.673863 0.884205
0.466827 0.882318 0.909680
0.485332 0.854156 0.902726
0.583734 0.826250 0.897419
0.739035 0.804754 0.895996
0.894374 0.798586 0.901861
0.586896 0.941449 0.917802
0.590646 0.932702 0.912578
0.637987 0.920313 0.910321
0.739063 0.906460 0.912823
0.874712 0.897941 0.921180
