Assets/1__3DArt/KimSe/artstation_asset/LUTs_pasterls/CUBE/Pastelopolis 02 S.cube
# Enhanced with VOXCOLOR algorithms
LUT_3D_SIZE 5
DOMAIN_MIN 0.000000 0.000000 0.000000
DOMAIN_MAX 0.903226 0.903226 0.903226
0.113725 0.094118 0.105882
0.474333 0.148899 0.085552
0.796317 0.216272 0.119429
0.950977 0.264024 0.175243
0.981212 0.282479 0.205798
0.166851 0.326705 0.156575
0.396686 0.307575 0.109567
0.656968 0.307454 0.093124
0.844881 0.317222 0.125301
0.950612 0.327933 0.189256
0.287442 0.622859 0.211241
0.404581 0.565294 0.155195
0.604629 0.521130 0.113106
0.805835 0.496339 0.130275
0.943991 0.480558 0.207094
0.440018 0.848191 0.246008
0.486139 0.803269 0.203190
0.631727 0.761595 0.164657
0.819869 0.730190 0.177916
0.954098 0.700499 0.252157
0.566645 0.944497 0.257213
0.589534 0.931994 0.236331
0.685189 0.920830 0.216058
0.835955 0.911336 0.230511
0.958919 0.895859 0.304244
0.158791 0.183366 0.310308
0.494394 0.213431 0.279314
0.782602 0.251931 0.287027
0.929575 0.285640 0.319224
0.976752 0.314726 0.344097
0.210613 0.420780 0.354410
0.422245 0.368511 0.296549
0.633025 0.335839 0.269689
0.803365 0.328543 0.279080
0.937151 0.348041 0.313661
0.321587 0.681950 0.401552
0.415680 0.602662 0.340919
0.573383 0.534353 0.289486
0.754507 0.496944 0.276530
0.924427 0.486989 0.302900
0.459677 0.866728 0.430248
0.488383 0.814363 0.384494
0.599810 0.758511 0.331552
0.765326 0.717669 0.305351
0.930403 0.691990 0.317797
0.571605 0.942834 0.434093
0.588966 0.930913 0.410301
0.669036 0.916870 0.378562
0.804430 0.904667 0.359875
0.943456 0.892453 0.374458
0.212114 0.329607 0.561091
0.515502 0.332664 0.521424
0.785974 0.349563 0.509877
0.932231 0.369507 0.520019
0.979286 0.390577 0.532233
0.264095 0.545897 0.595777
0.441925 0.480155 0.541160
0.644587 0.428550 0.504317
0.814604 0.404712 0.494215
0.942735 0.413820 0.505392
0.366600 0.754958 0.629774
0.443343 0.677120 0.577547
0.587608 0.598294 0.523241
0.756741 0.543433 0.490260
0.924298 0.521108 0.485075
0.490058 0.892180 0.644844
0.512529 0.845944 0.608515
0.605544 0.786018 0.555629
0.750439 0.731410 0.507887
0.921153 0.697379 0.484764
0.586086 0.946219 0.638854
0.600392 0.936255 0.620443
0.667019 0.920906 0.590736
0.785956 0.904948 0.556078
0.932347 0.894303 0.530769
0.264520 0.514417 0.776865
0.529456 0.503095 0.743994
0.788489 0.507180 0.729194
0.939390 0.515109 0.727682
0.981898 0.519630 0.728118
0.319748 0.681263 0.803928
0.472123 0.630180 0.767617
0.682203 0.585360 0.736779
0.856121 0.554614 0.720202
0.958154 0.540970 0.716606
0.416131 0.826988 0.824650
0.486371 0.774333 0.793299
0.634447 0.711294 0.753999
0.797887 0.650807 0.720738
0.938273 0.606888 0.702969
0.527243 0.916860 0.828775
0.551002 0.887530 0.809010
0.640371 0.840333 0.773774
0.773336 0.782551 0.731581
0.927307 0.734985 0.701000
0.609946 0.951744 0.819845
0.622806 0.945118 0.809400
0.682098 0.932432 0.792140
0.790979 0.915546 0.766087
0.931921 0.902901 0.739031
0.315580 0.689596 0.905232
0.537468 0.678969 0.886347
0.779690 0.679303 0.880427
0.935124 0.684389 0.881727
0.980457 0.682929 0.880201
0.374830 0.795609 0.924384
0.506575 0.768134 0.906955
0.713090 0.746952 0.894215
0.887981 0.731173 0.888821
0.970383 0.716873 0.886894
0.467332 0.882849 0.935809
0.531794 0.856526 0.923336
0.681918 0.827629 0.909552
0.846540 0.796988 0.899600
0.957827 0.768698 0.895740
0.571150 0.936182 0.937188
0.592986 0.921353 0.930639
0.684740 0.899964 0.920950
0.820456 0.871840 0.911021
0.947375 0.844318 0.906445
0.643089 0.958176 0.931628
0.653184 0.954055 0.928350
0.710173 0.947920 0.926476
0.818250 0.940286 0.926111
0.943635 0.934107 0.928212
