Assets/1__3DArt/KimSe/artstation_asset/LUTs_pasterls/CUBE/Pastelopolis 03 S.cube
# Enhanced with VOXCOLOR algorithms
LUT_3D_SIZE 8
DOMAIN_MIN 0.000000 0.000000 0.000000
DOMAIN_MAX 0.903226 0.903226 0.903226
0.086275 0.113725 0.215686
0.245457 0.128554 0.219658
0.415495 0.147421 0.220402
0.577414 0.169705 0.219207
0.715335 0.194258 0.217152
0.808660 0.217488 0.215062
0.861773 0.234847 0.213927
0.890620 0.245920 0.214413
0.067595 0.218981 0.236509
0.217508 0.217131 0.228445
0.376379 0.219888 0.212979
0.529765 0.227020 0.195111
0.665722 0.237998 0.179470
0.769571 0.251616 0.173083
0.841829 0.264779 0.178672
0.888996 0.275839 0.192510
0.071691 0.347096 0.264973
0.203551 0.330833 0.246565
0.347998 0.319669 0.218279
0.493014 0.313849 0.187546
0.628519 0.313304 0.161218
0.742681 0.317888 0.149856
0.831293 0.324579 0.156927
0.893706 0.330953 0.176477
0.109798 0.487290 0.303500
0.214175 0.460264 0.277063
0.338499 0.438058 0.240267
0.472007 0.421556 0.201387
0.605267 0.411202 0.167974
0.727259 0.407418 0.151445
0.828282 0.406809 0.154947
0.902239 0.406351 0.171883
0.188125 0.628578 0.353712
0.256706 0.595668 0.322076
0.354031 0.566079 0.281621
0.470409 0.541468 0.239805
0.596722 0.522944 0.203333
0.721863 0.511615 0.182025
0.830293 0.504094 0.177679
0.911746 0.496839 0.184088
0.306570 0.751399 0.417930
0.338150 0.720121 0.385035
0.403084 0.689385 0.346331
0.494337 0.661306 0.307173
0.604475 0.637554 0.272257
0.723492 0.620253 0.248034
0.831663 0.607489 0.234206
0.916166 0.595830 0.225473
0.430094 0.840894 0.488389
0.437414 0.817558 0.459241
0.473780 0.792021 0.425875
0.536747 0.766020 0.391893
0.622629 0.741194 0.360455
0.725408 0.720259 0.335844
0.825655 0.704035 0.317185
0.909964 0.690612 0.300021
0.534488 0.900058 0.555922
0.532965 0.887489 0.536703
0.550041 0.870932 0.511937
0.587888 0.851151 0.484170
0.647126 0.829168 0.456012
0.727590 0.807268 0.432122
0.814413 0.788811 0.414865
0.895224 0.774626 0.401808
0.082180 0.144497 0.276850
0.247533 0.149159 0.277561
0.414908 0.159954 0.274771
0.570386 0.175885 0.270037
0.702439 0.195803 0.264807
0.795270 0.218032 0.261018
0.852583 0.238920 0.259873
0.886102 0.255129 0.260338
0.060462 0.256117 0.298055
0.225946 0.245426 0.286844
0.382690 0.238985 0.270401
0.525699 0.237497 0.252822
0.650978 0.241379 0.237788
0.751492 0.251492 0.230607
0.828004 0.265875 0.233024
0.882616 0.281792 0.242276
0.070305 0.386167 0.328033
0.214527 0.362404 0.306661
0.355265 0.342154 0.278546
0.488899 0.327300 0.249893
0.612544 0.319192 0.226123
0.721824 0.319601 0.214602
0.814291 0.326345 0.216812
0.886545 0.336594 0.228822
0.118007 0.523537 0.367839
0.226767 0.490896 0.338724
0.344945 0.461009 0.301966
0.467161 0.436623 0.264941
0.588805 0.419713 0.233966
0.704883 0.412343 0.217123
0.809022 0.411611 0.215212
0.894704 0.414260 0.223751
0.205437 0.657559 0.417865
0.271751 0.621661 0.384031
0.360831 0.586970 0.342542
0.465927 0.556843 0.300648
0.580800 0.533769 0.264488
0.699024 0.520214 0.241536
0.809592 0.513196 0.231855
0.903907 0.509077 0.231091
0.327309 0.770775 0.478493
0.355141 0.739093 0.444552
0.411876 0.706355 0.404019
0.492446 0.675824 0.362450
0.591495 0.650132 0.324541
0.702956 0.632403 0.295789
0.812124 0.621272 0.275927
0.908906 0.613441 0.261751
0.447595 0.852137 0.541361
0.452521 0.829710 0.512733
0.483161 0.804445 0.478544
0.538164 0.778620 0.442120
0.615161 0.754329 0.406363
0.711110 0.734812 0.374745
0.811234 0.721295 0.347819
0.904961 0.711996 0.324256
0.544182 0.905084 0.597683
0.542317 0.893733 0.580040
0.557320 0.878587 0.556563
0.591388 0.860565 0.528848
0.645482 0.840793 0.498599
0.720976 0.821643 0.468606
0.806639 0.806478 0.441970
0.892395 0.795948 0.419573
0.071870 0.178228 0.353962
0.248881 0.174301 0.353494
0.420577 0.177599 0.349149
0.575764 0.187533 0.342368
0.705431 0.203318 0.334638
0.796784 0.224171 0.328467
0.854559 0.246017 0.325742
0.889019 0.263990 0.325142
0.052445 0.294484 0.374801
0.225559 0.276838 0.364006
0.384201 0.263064 0.349182
0.525827 0.254738 0.333335
0.648646 0.253046 0.319184
0.748200 0.260040 0.310663
0.826219 0.273938 0.309336
0.883921 0.291228 0.313466
0.070260 0.425808 0.406167
0.216814 0.396552 0.385865
0.356401 0.369475 0.360855
0.487012 0.347618 0.335824
0.607273 0.333338 0.314759
0.714939 0.329727 0.302671
0.809072 0.335066 0.300288
0.886489 0.346123 0.305206
0.127719 0.560440 0.446929
0.234284 0.524058 0.419180
0.348401 0.488552 0.385773
0.465604 0.457895 0.352607
0.582252 0.435134 0.324583
0.695273 0.423650 0.307346
0.800646 0.421197 0.300947
0.893249 0.424342 0.302510
0.223266 0.687691 0.495682
0.285130 0.650285 0.463594
0.368091 0.612027 0.424918
0.466192 0.577341 0.385815
0.574106 0.549675 0.351397
0.687481 0.532698 0.327388
0.798541 0.524301 0.313817
0.900989 0.520905 0.307968
0.347172 0.791647 0.550757
0.371543 0.760505 0.519235
0.422183 0.726669 0.480836
0.495068 0.694091 0.440396
0.586017 0.666050 0.402031
0.691403 0.646571 0.370444
0.800380 0.635214 0.346724
0.905422 0.628903 0.329734
0.463287 0.864844 0.604336
0.466907 0.843820 0.578548
0.493407 0.819227 0.546387
0.542287 0.793682 0.510422
0.612209 0.769605 0.472983
0.702425 0.750754 0.436791
0.802054 0.738877 0.404479
0.902885 0.732203 0.377617
0.552580 0.911621 0.649420
0.550944 0.901520 0.633971
0.564431 0.887820 0.612719
0.595423 0.871607 0.586298
0.645293 0.854158 0.555482
0.716803 0.838153 0.521156
0.801936 0.826899 0.487040
0.892687 0.820434 0.457165
0.058084 0.214429 0.444347
0.248972 0.205190 0.445582
0.429559 0.203123 0.442216
0.589531 0.208325 0.435323
0.720780 0.220473 0.426207
0.811446 0.238940 0.417550
0.867768 0.258886 0.412384
0.900725 0.275263 0.410033
0.044555 0.333681 0.464323
0.219909 0.312194 0.456933
0.383538 0.294134 0.445978
0.530632 0.281561 0.433247
0.657628 0.276042 0.420481
0.758668 0.279960 0.410496
0.836364 0.291300 0.405426
0.893621 0.306311 0.404742
0.071590 0.465105 0.496152
0.213919 0.433358 0.479953
0.354562 0.402809 0.460293
0.488547 0.376912 0.440151
0.612094 0.358410 0.422091
0.721015 0.350930 0.409359
0.815132 0.353096 0.402981
0.893513 0.361603 0.401975
0.138505 0.596490 0.536501
0.238408 0.559060 0.513155
0.350286 0.521059 0.485615
0.467473 0.486802 0.457937
0.584543 0.459720 0.433492
0.697104 0.443874 0.416100
0.802214 0.437913 0.406239
0.897240 0.438642 0.402527
0.241027 0.717177 0.582217
0.296760 0.680311 0.554849
0.375387 0.640932 0.521956
0.470117 0.603666 0.488037
0.575006 0.572267 0.456875
0.685604 0.551086 0.432773
0.795881 0.539355 0.416747
0.902000 0.534073 0.407671
0.365648 0.812468 0.629831
0.386568 0.783062 0.603298
0.432852 0.749621 0.570147
0.500731 0.716115 0.533930
0.586403 0.685967 0.497802
0.687334 0.663678 0.465640
0.795206 0.650128 0.440332
0.904628 0.642941 0.422611
0.476879 0.877941 0.672875
0.479756 0.858863 0.651620
0.503430 0.835598 0.623856
0.547956 0.810732 0.591173
0.612686 0.786730 0.555165
0.698424 0.767587 0.517820
0.797150 0.755772 0.483651
0.902407 0.749845 0.456492
0.559387 0.918932 0.706910
0.558249 0.910161 0.694207
0.570738 0.898002 0.676166
0.599458 0.883592 0.652611
0.646159 0.868267 0.623524
0.714658 0.854916 0.588188
0.799392 0.846813 0.550618
0.893994 0.843516 0.517197
0.043820 0.252670 0.545014
0.247839 0.242623 0.551014
0.439261 0.238563 0.551309
0.607454 0.241130 0.546479
0.744025 0.250334 0.537539
0.836054 0.265209 0.527009
0.890674 0.280564 0.519346
0.921005 0.292395 0.515004
0.038022 0.373175 0.563653
0.212474 0.351790 0.561875
0.382957 0.333366 0.556559
0.539923 0.319815 0.548227
0.675812 0.312545 0.537654
0.780622 0.313419 0.526670
0.857063 0.320189 0.518509
0.911275 0.329579 0.514064
0.074551 0.503070 0.594307
0.209290 0.472436 0.584183
0.352622 0.442528 0.571396
0.494211 0.416297 0.557158
0.625695 0.396120 0.542648
0.738200 0.385214 0.529708
0.831137 0.382556 0.520375
0.906912 0.385368 0.515219
0.150179 0.630239 0.632054
0.241031 0.594886 0.615099
0.352108 0.558219 0.595126
0.472820 0.523873 0.574208
0.594335 0.494840 0.554165
0.708638 0.474954 0.537329
0.812368 0.463944 0.525289
0.905755 0.459517 0.518260
0.258421 0.744367 0.672522
0.306966 0.710332 0.651827
0.382650 0.672869 0.626773
0.476822 0.635822 0.599950
0.581902 0.602462 0.573666
0.691663 0.577005 0.550903
0.800227 0.560335 0.534006
0.905907 0.550769 0.523451
0.382577 0.831826 0.711006
0.399879 0.805404 0.691076
0.443142 0.774214 0.665380
0.508251 0.741482 0.635960
0.591151 0.710158 0.604818
0.689259 0.684545 0.574855
0.795339 0.667113 0.550390
0.905475 0.656882 0.533665
0.488468 0.890458 0.742856
0.490704 0.873812 0.727141
0.512546 0.852671 0.705551
0.554296 0.829133 0.678722
0.615643 0.805326 0.647493
0.698188 0.785003 0.613106
0.795542 0.771523 0.581077
0.902296 0.764379 0.556521
0.564698 0.926375 0.766369
0.564028 0.919000 0.756795
0.575929 0.908493 0.742849
0.603177 0.895832 0.723846
0.647775 0.882221 0.699233
0.714143 0.870419 0.667290
0.798153 0.863712 0.631805
0.894471 0.861725 0.600208
0.035187 0.292933 0.651923
0.247518 0.287856 0.664301
0.446761 0.286832 0.670160
0.622329 0.290491 0.669716
0.765554 0.298783 0.663663
0.861570 0.309995 0.653831
0.916449 0.319539 0.645362
0.945169 0.325497 0.639870
0.036181 0.411579 0.667771
0.208514 0.394986 0.672156
0.384899 0.381314 0.673284
0.551697 0.371478 0.670616
0.697628 0.365992 0.664060
0.807795 0.365184 0.654339
0.883301 0.366742 0.645352
0.933347 0.368861 0.639328
0.080859 0.537384 0.694343
0.208248 0.511755 0.690651
0.354403 0.487504 0.685242
0.504236 0.466066 0.677818
0.645060 0.448546 0.668340
0.762506 0.436451 0.657328
0.853782 0.428888 0.647550
0.924211 0.424521 0.641015
0.163629 0.658890 0.726268
0.245911 0.628665 0.716165
0.356816 0.597835 0.704382
0.482214 0.568327 0.691275
0.609946 0.541760 0.677289
0.727486 0.520384 0.663345
0.829109 0.504612 0.651766
0.917111 0.493862 0.644202
0.276016 0.766458 0.758907
0.317627 0.737224 0.745325
0.391189 0.705141 0.728954
0.486281 0.672367 0.710716
0.593564 0.640854 0.691573
0.704134 0.613437 0.673106
0.810301 0.592158 0.658209
0.911442 0.577352 0.648621
0.398726 0.847471 0.787356
0.412320 0.824860 0.774155
0.453339 0.797936 0.756830
0.517168 0.768547 0.736173
0.599232 0.738553 0.713134
0.696051 0.711075 0.689423
0.799707 0.689705 0.669368
0.906666 0.675455 0.655930
0.499334 0.900976 0.808791
0.500505 0.886860 0.798402
0.520981 0.868600 0.783724
0.561095 0.847426 0.764795
0.620574 0.824749 0.741899
0.701057 0.803387 0.715571
0.796261 0.787306 0.690667
0.900906 0.777540 0.672136
0.569906 0.933257 0.823493
0.569150 0.927103 0.816779
0.580516 0.918223 0.807250
0.606842 0.907197 0.794196
0.650188 0.894843 0.776976
0.715012 0.883242 0.753788
0.797282 0.875590 0.727395
0.891788 0.872333 0.704190
0.040896 0.333602 0.755638
0.254997 0.337681 0.771735
0.454504 0.343901 0.781728
0.630784 0.352654 0.785778
0.776385 0.363639 0.784361
0.875975 0.374070 0.778278
0.933013 0.379894 0.771685
0.962175 0.381345 0.766795
0.044432 0.447994 0.767247
0.214507 0.438665 0.775374
0.392039 0.432778 0.781167
0.562533 0.430128 0.783644
0.713584 0.430170 0.782213
0.827589 0.431211 0.776520
0.902964 0.430405 0.769666
0.949822 0.427552 0.764342
0.094214 0.567696 0.787089
0.216531 0.548317 0.787885
0.362685 0.531987 0.788165
0.516018 0.518610 0.786904
0.662078 0.507883 0.783375
0.783048 0.499077 0.776992
0.872891 0.490534 0.769930
0.937639 0.482231 0.764644
0.181823 0.682300 0.810561
0.257777 0.657559 0.805771
0.366905 0.634230 0.800736
0.493948 0.612626 0.794941
0.625345 0.592925 0.788034
0.745486 0.575327 0.779814
0.845018 0.559657 0.772044
0.926068 0.546522 0.766769
0.296531 0.783105 0.833767
0.332256 0.758381 0.825891
0.402763 0.732735 0.816967
0.497303 0.706862 0.807064
0.605883 0.681426 0.796342
0.717591 0.657546 0.785261
0.821362 0.636921 0.775900
0.915468 0.621037 0.770157
0.416846 0.858696 0.852764
0.426555 0.839255 0.844780
0.464686 0.817047 0.834694
0.526768 0.792818 0.822736
0.608137 0.767440 0.809264
0.704480 0.742676 0.795055
0.805547 0.721864 0.783025
0.906343 0.707103 0.775636
0.512214 0.908581 0.865995
0.511558 0.896354 0.859529
0.530179 0.881005 0.850792
0.568594 0.863077 0.839753
0.626609 0.843332 0.826515
0.705637 0.823567 0.811274
0.798092 0.807465 0.797053
0.897457 0.797025 0.787295
0.577099 0.938486 0.874243
0.575656 0.933186 0.869550
0.586186 0.925780 0.863743
0.611564 0.916455 0.856468
0.653845 0.905621 0.847354
0.717266 0.894524 0.835275
0.796883 0.885916 0.821583
0.886553 0.881002 0.810134
0.067142 0.372291 0.849365
0.276992 0.388701 0.865634
0.469183 0.404932 0.876731
0.638557 0.421660 0.883220
0.780223 0.438675 0.885681
0.880260 0.452105 0.884222
0.939229 0.457283 0.880952
0.969600 0.455752 0.877759
0.067597 0.483106 0.857345
0.235136 0.481800 0.866156
0.408173 0.484341 0.873519
0.574522 0.490074 0.878744
0.723352 0.497874 0.881304
0.837290 0.504359 0.880306
0.912201 0.505168 0.877058
0.956958 0.500662 0.873592
0.118830 0.596250 0.869462
0.237845 0.582446 0.872377
0.379775 0.573498 0.875561
0.529743 0.568596 0.878150
0.674379 0.566654 0.879413
0.795395 0.565379 0.878316
0.883591 0.561375 0.875564
0.943341 0.554471 0.872884
0.208671 0.703125 0.883196
0.279810 0.682484 0.881922
0.383930 0.665599 0.881292
0.507383 0.652111 0.880798
0.637515 0.641497 0.879988
0.758025 0.632876 0.878237
0.855545 0.624448 0.876039
0.929448 0.616057 0.874686
0.323474 0.796571 0.896437
0.353512 0.774768 0.892730
0.418421 0.754425 0.889294
0.508985 0.735760 0.886068
0.616098 0.718948 0.883007
0.728344 0.704564 0.880136
0.830155 0.692869 0.878205
0.915933 0.684134 0.878195
0.439556 0.866838 0.907089
0.444501 0.849181 0.902806
0.477839 0.830810 0.898248
0.536315 0.812191 0.893577
0.616010 0.793902 0.888982
0.712466 0.777474 0.884922
0.811448 0.764997 0.882599
0.903814 0.757317 0.882994
0.528362 0.913502 0.914114
0.524921 0.902282 0.910295
0.540593 0.889367 0.906083
0.576548 0.875128 0.901653
0.633013 0.860137 0.897192
0.711400 0.846006 0.893048
0.801360 0.835484 0.890337
0.892979 0.829764 0.890203
0.586053 0.941279 0.917570
0.583746 0.936595 0.914285
0.593218 0.930571 0.911277
0.617517 0.923237 0.908631
0.658809 0.914817 0.906359
0.721272 0.906209 0.904286
0.798452 0.899507 0.902561
0.882086 0.895733 0.902197
