Assets/1__3DArt/KimSe/artstation_asset/LUTs_pasterls/CUBE/Pastelopolis 01.cube
# Enhanced with VOXCOLOR algorithms
LUT_3D_SIZE 5
DOMAIN_MIN 0.000000 0.000000 0.000000
DOMAIN_MAX 0.903226 0.903226 0.903226
0.019608 0.050980 0.101961
0.436791 0.170193 0.095606
0.746704 0.269973 0.085788
0.866967 0.332391 0.088696
0.884617 0.355875 0.093112
0.036077 0.260816 0.162049
0.375203 0.313384 0.131298
0.695634 0.370036 0.099323
0.854613 0.414103 0.089486
0.890255 0.431220 0.092328
0.133940 0.554334 0.233651
0.366561 0.555648 0.184349
0.662567 0.572405 0.130087
0.852307 0.589606 0.105465
0.908944 0.591360 0.108570
0.324303 0.776915 0.272438
0.437311 0.765862 0.226694
0.660521 0.771666 0.169478
0.852083 0.780257 0.139707
0.930415 0.776322 0.147041
0.524935 0.873019 0.290209
0.565117 0.870825 0.262802
0.692557 0.879701 0.222650
0.845819 0.892609 0.201336
0.940283 0.897209 0.220380
0.082432 0.124032 0.294144
0.481718 0.222953 0.261358
0.760347 0.318761 0.237900
0.869920 0.385380 0.235136
0.888841 0.414631 0.239601
0.101042 0.371753 0.351201
0.461983 0.408124 0.299128
0.732464 0.448051 0.258407
0.863678 0.481158 0.241761
0.898292 0.494204 0.238857
0.226477 0.639364 0.406669
0.448227 0.633284 0.352846
0.696993 0.638841 0.296189
0.859795 0.646011 0.264915
0.916450 0.641710 0.258492
0.425831 0.817429 0.443841
0.513230 0.804987 0.399379
0.691688 0.804144 0.344068
0.855629 0.806199 0.307833
0.933866 0.799484 0.301908
0.596623 0.886710 0.466030
0.623615 0.883585 0.438075
0.722460 0.888158 0.400789
0.850645 0.896064 0.373258
0.939076 0.898927 0.371739
0.159491 0.263639 0.510912
0.525317 0.338426 0.477270
0.775513 0.420535 0.456327
0.878964 0.481175 0.451346
0.899614 0.508304 0.453438
0.213484 0.518089 0.575035
0.510922 0.531200 0.531600
0.749063 0.556340 0.495340
0.873319 0.579681 0.474815
0.909846 0.588126 0.466706
0.368092 0.733840 0.621283
0.536671 0.719963 0.582159
0.733549 0.715908 0.537956
0.870373 0.715090 0.507418
0.925345 0.708392 0.495315
0.552103 0.856191 0.646989
0.611812 0.844319 0.617873
0.739650 0.837562 0.579224
0.865892 0.833025 0.548609
0.936986 0.825427 0.537640
0.676005 0.897522 0.657316
0.694889 0.894771 0.639166
0.765167 0.895363 0.616008
0.862170 0.897794 0.596463
0.938276 0.898226 0.588582
0.260186 0.456235 0.686668
0.575004 0.508201 0.670357
0.793004 0.566516 0.663254
0.891154 0.609283 0.661333
0.913055 0.625790 0.660448
0.360637 0.663407 0.746318
0.572663 0.664351 0.724519
0.769130 0.677948 0.705608
0.884103 0.690889 0.691781
0.921574 0.693169 0.683906
0.524854 0.809187 0.781220
0.630100 0.795202 0.763099
0.771502 0.787694 0.741515
0.880796 0.782823 0.723565
0.932242 0.776448 0.715038
0.672326 0.881682 0.795372
0.706715 0.872521 0.783623
0.788650 0.864103 0.766968
0.877904 0.856729 0.751944
0.938536 0.850621 0.746632
0.750581 0.903747 0.796981
0.762991 0.901533 0.789714
0.809153 0.899987 0.781510
0.877221 0.899080 0.774808
0.938144 0.898082 0.772987
0.397683 0.640762 0.787537
0.644616 0.680366 0.790984
0.817582 0.714633 0.795101
0.903984 0.737680 0.797719
0.924608 0.740962 0.794700
0.520632 0.768293 0.828526
0.661629 0.770132 0.822271
0.803367 0.778400 0.818410
0.896335 0.785317 0.815003
0.930521 0.784187 0.811076
0.660067 0.851190 0.851177
0.719337 0.842546 0.844666
0.811557 0.837892 0.838562
0.892575 0.835144 0.833761
0.936578 0.832684 0.832590
0.762141 0.892132 0.859743
0.778995 0.885905 0.855950
0.829291 0.879951 0.851731
0.891570 0.875446 0.848956
0.940275 0.874039 0.850909
0.808163 0.905096 0.859870
0.815057 0.903611 0.857779
0.845828 0.902053 0.857246
0.894219 0.900955 0.858391
0.940684 0.901025 0.862000
