Assets/1__3DArt/KimSe/artstation_asset/LUTs_subway_asset/3DL/LoFi Chill 03_S.3dl
# LUT by SparkleStock. Enhanced with VOXCOLOR algorithms.
0 128 256 384 512 640 768 896 1023
624 512 656
632 526 741
646 543 878
668 561 1058
697 581 1275
732 600 1500
764 613 1692
793 621 1842
817 624 1937
637 528 678
643 536 765
655 554 901
675 575 1078
702 598 1288
734 617 1502
764 632 1688
790 641 1835
811 643 1933
642 540 704
654 551 803
670 569 939
690 592 1109
712 621 1313
742 643 1518
769 659 1694
793 669 1836
810 672 1934
646 552 743
665 569 857
686 589 994
708 615 1157
731 647 1349
756 674 1544
781 692 1711
802 702 1844
816 705 1938
652 569 801
674 589 926
699 617 1071
726 646 1229
757 672 1392
777 707 1580
799 728 1737
817 739 1860
831 742 1946
668 599 911
690 620 1036
715 650 1179
744 684 1331
776 718 1487
808 748 1639
831 771 1778
849 784 1892
863 785 1968
688 637 1077
710 658 1193
736 687 1321
765 722 1455
800 759 1593
837 794 1723
870 825 1845
896 843 1946
914 841 2013
711 675 1313
735 697 1410
761 723 1509
792 754 1611
829 790 1717
871 832 1825
915 874 1929
956 906 2019
988 919 2086
737 705 1633
765 731 1698
793 753 1753
825 777 1806
864 806 1863
912 849 1938
965 902 2023
1024 962 2110
1089 1025 2194
781 518 665
779 536 779
776 558 926
777 585 1107
792 612 1326
817 639 1549
843 660 1741
867 673 1891
887 681 1989
812 592 678
834 645 842
841 672 1012
845 685 1198
858 699 1407
882 714 1613
906 725 1791
928 734 1930
947 738 2023
826 627 723
857 706 898
875 741 1072
888 754 1255
901 762 1459
923 771 1654
946 779 1822
968 786 1956
986 790 2049
832 644 796
864 733 959
891 779 1127
915 799 1306
936 813 1499
958 822 1687
980 830 1847
1002 836 1976
1020 842 2069
838 659 890
867 746 1038
901 798 1202
939 832 1373
980 861 1545
1002 876 1727
1024 886 1881
1045 893 2002
1063 899 2089
852 694 1032
877 761 1160
915 812 1311
961 856 1473
1011 898 1636
1056 929 1788
1087 948 1926
1109 958 2040
1128 962 2118
871 742 1225
892 787 1325
934 834 1454
989 883 1598
1048 934 1742
1107 977 1873
1154 1011 1993
1189 1032 2092
1211 1034 2161
895 796 1482
914 819 1542
960 860 1639
1023 911 1753
1092 966 1866
1161 1018 1975
1227 1067 2074
1282 1103 2158
1317 1117 2221
925 847 1815
941 854 1822
992 888 1872
1064 938 1943
1144 990 2011
1225 1047 2086
1304 1105 2163
1379 1161 2237
1449 1216 2303
1088 535 681
1090 546 804
1074 584 974
1053 635 1179
1034 686 1405
1040 729 1634
1053 764 1832
1070 790 1989
1088 808 2097
1128 641 671
1152 707 872
1157 751 1091
1149 783 1315
1133 812 1530
1137 837 1735
1148 858 1910
1164 875 2048
1181 888 2143
1161 746 733
1191 855 941
1214 914 1175
1226 939 1410
1221 946 1624
1230 952 1815
1244 959 1976
1261 966 2102
1279 974 2191
1187 822 849
1213 958 1028
1249 1034 1250
1282 1065 1483
1299 1065 1692
1315 1058 1876
1333 1055 2029
1353 1055 2148
1372 1059 2234
1202 844 1000
1226 983 1149
1265 1071 1343
1313 1121 1551
1367 1145 1740
1387 1139 1921
1409 1135 2068
1430 1134 2183
1450 1139 2266
1220 883 1192
1242 993 1312
1280 1073 1474
1335 1132 1653
1407 1177 1827
1467 1206 1982
1505 1217 2117
1529 1220 2226
1551 1224 2300
1244 942 1422
1262 1016 1510
1301 1081 1634
1363 1142 1780
1452 1203 1931
1537 1255 2064
1601 1291 2182
1646 1310 2278
1671 1314 2344
1273 1015 1702
1289 1052 1749
1328 1098 1829
1398 1155 1934
1505 1227 2054
1607 1293 2163
1699 1352 2259
1771 1393 2339
1812 1408 2397
1306 1093 2042
1322 1101 2037
1363 1127 2064
1441 1176 2118
1567 1253 2198
1690 1328 2273
1800 1396 2345
1896 1457 2408
1974 1508 2460
1519 565 707
1528 567 829
1515 620 1020
1485 703 1252
1445 797 1498
1420 871 1742
1413 932 1955
1420 981 2127
1435 1018 2250
1561 687 676
1579 747 885
1586 807 1142
1576 870 1409
1547 942 1652
1523 996 1866
1515 1041 2047
1521 1078 2192
1536 1107 2295
1610 858 746
1626 973 960
1651 1051 1240
1668 1102 1533
1659 1139 1785
1647 1161 1981
1648 1182 2142
1658 1200 2266
1675 1217 2354
1658 1017 901
1668 1173 1075
1704 1272 1339
1743 1323 1631
1766 1336 1886
1771 1329 2075
1783 1325 2224
1800 1326 2336
1820 1333 2414
1697 1100 1120
1705 1271 1251
1736 1391 1464
1786 1461 1711
1851 1482 1946
1871 1459 2134
1893 1443 2278
1915 1434 2384
1938 1435 2458
1729 1148 1374
1738 1292 1474
1766 1400 1636
1817 1476 1832
1897 1521 2032
1972 1544 2194
2017 1544 2328
2045 1538 2430
2069 1538 2497
1763 1220 1650
1774 1322 1721
1799 1405 1833
1851 1475 1974
1946 1537 2136
2055 1592 2273
2135 1626 2389
2189 1642 2480
2218 1644 2541
1801 1314 1955
1814 1370 1995
1836 1419 2054
1891 1474 2140
2001 1546 2258
2134 1623 2368
2250 1689 2461
2337 1735 2536
2383 1749 2588
1841 1424 2296
1860 1440 2299
1881 1454 2303
1939 1487 2330
2067 1559 2400
2226 1652 2476
2365 1733 2542
2480 1801 2597
2564 1853 2640
2048 608 748
2061 607 866
2068 665 1058
2065 778 1307
2046 942 1595
1976 1068 1863
1940 1171 2100
1932 1255 2295
1944 1322 2440
2085 736 708
2096 792 914
2109 854 1171
2120 948 1462
2126 1097 1770
2064 1201 2004
2032 1286 2203
2025 1355 2363
2036 1409 2481
2131 927 776
2135 1036 982
2151 1114 1261
2176 1194 1583
2204 1307 1919
2164 1375 2133
2145 1431 2306
2145 1478 2439
2161 1517 2534
2192 1157 952
2185 1310 1110
2201 1412 1368
2234 1487 1690
2282 1556 2040
2273 1579 2247
2275 1598 2402
2288 1616 2515
2309 1637 2592
2275 1405 1237
2255 1582 1337
2260 1715 1530
2295 1798 1800
2366 1830 2130
2392 1802 2340
2418 1779 2488
2445 1763 2587
2474 1760 2649
2331 1470 1562
2321 1632 1629
2327 1761 1768
2356 1850 1969
2417 1896 2223
2503 1907 2398
2555 1894 2534
2588 1877 2631
2616 1873 2689
2385 1559 1889
2384 1681 1932
2391 1784 2023
2415 1860 2157
2464 1907 2332
2589 1954 2474
2680 1981 2590
2741 1990 2677
2774 1986 2731
2438 1674 2220
2445 1745 2244
2454 1807 2289
2475 1857 2360
2514 1890 2456
2667 1970 2565
2798 2039 2656
2894 2085 2726
2943 2097 2772
2491 1816 2561
2507 1837 2561
2520 1855 2563
2539 1868 2573
2573 1875 2594
2755 1981 2668
2912 2072 2730
3036 2147 2779
3120 2201 2813
2558 672 817
2577 682 934
2596 752 1123
2614 879 1369
2631 1065 1660
2630 1284 1960
2598 1462 2232
2569 1607 2463
2576 1726 2642
2595 797 802
2606 855 985
2624 926 1227
2647 1034 1512
2673 1202 1820
2683 1408 2103
2660 1570 2340
2637 1696 2531
2644 1796 2676
2640 994 892
2642 1098 1062
2657 1179 1317
2681 1269 1625
2714 1397 1959
2737 1571 2235
2730 1703 2446
2719 1803 2602
2732 1881 2717
2696 1240 1082
2688 1382 1198
2696 1482 1424
2719 1563 1726
2757 1643 2072
2794 1768 2351
2807 1857 2545
2815 1923 2674
2835 1977 2761
2769 1514 1368
2748 1681 1423
2744 1810 1581
2761 1896 1830
2803 1933 2156
2854 1993 2446
2890 2029 2632
2920 2053 2741
2951 2079 2805
2852 1737 1731
2825 1897 1749
2812 2031 1848
2819 2128 2022
2851 2180 2267
2920 2192 2516
2976 2186 2685
3023 2174 2787
3063 2172 2839
2930 1892 2094
2911 2020 2094
2900 2133 2148
2903 2221 2256
2927 2273 2419
2998 2280 2606
3078 2284 2740
3148 2282 2827
3192 2270 2872
3003 2027 2446
2998 2106 2440
2995 2181 2459
2999 2242 2509
3016 2279 2595
3084 2295 2709
3184 2332 2800
3279 2365 2865
3330 2368 2904
3069 2189 2777
3077 2213 2767
3084 2239 2759
3091 2258 2759
3105 2263 2776
3173 2277 2819
3284 2337 2866
3397 2409 2907
3469 2461 2935
2962 741 905
2988 775 1028
3017 865 1216
3051 1011 1459
3089 1214 1745
3128 1477 2055
3140 1726 2345
3139 1947 2606
3143 2129 2823
3003 866 939
3023 931 1093
3049 1018 1317
3080 1146 1590
3118 1332 1890
3160 1584 2187
3176 1819 2448
3179 2023 2670
3184 2179 2848
3051 1067 1069
3064 1165 1194
3085 1254 1412
3113 1358 1696
3148 1504 2017
3191 1725 2311
3212 1932 2550
3223 2108 2737
3235 2237 2876
3108 1323 1286
3113 1453 1350
3126 1550 1528
3148 1637 1794
3179 1731 2122
3222 1901 2421
3250 2064 2645
3271 2203 2804
3294 2302 2906
3176 1616 1583
3170 1767 1581
3172 1889 1689
3185 1973 1897
3209 2015 2197
3252 2114 2510
3288 2217 2729
3323 2309 2866
3359 2372 2936
3257 1907 1941
3238 2056 1900
3228 2185 1947
3230 2283 2082
3245 2337 2304
3286 2354 2575
3329 2385 2780
3376 2417 2910
3427 2438 2958
3334 2134 2291
3314 2259 2241
3299 2376 2249
3293 2470 2322
3300 2527 2466
3333 2519 2667
3384 2517 2830
3443 2513 2939
3501 2502 2978
3409 2320 2626
3396 2403 2585
3384 2488 2572
3377 2560 2596
3379 2605 2667
3402 2595 2784
3458 2588 2889
3526 2580 2964
3585 2568 2996
3479 2490 2938
3483 2517 2915
3485 2552 2893
3487 2581 2881
3489 2593 2890
3504 2570 2925
3558 2573 2962
3624 2598 2996
3680 2641 3017
3250 812 1013
3282 879 1150
3320 997 1343
3363 1164 1583
3414 1384 1863
3472 1663 2167
3526 1961 2460
3565 2247 2731
3577 2494 2971
3294 942 1115
3328 1018 1238
3364 1127 1443
3403 1280 1702
3447 1485 1989
3497 1752 2280
3547 2037 2549
3584 2307 2788
3596 2527 2988
3348 1148 1301
3381 1243 1376
3415 1341 1552
3450 1463 1803
3487 1630 2103
3526 1865 2388
3568 2124 2639
3601 2368 2848
3616 2559 3005
3410 1414 1557
3438 1529 1566
3469 1623 1685
3500 1716 1901
3528 1827 2198
3557 2011 2486
3590 2227 2724
3619 2434 2906
3638 2593 3022
3477 1722 1871
3498 1852 1808
3521 1961 1855
3545 2043 2009
3566 2088 2267
3587 2200 2565
3610 2353 2800
3636 2509 2962
3663 2628 3039
3545 2032 2202
3555 2162 2098
3567 2279 2087
3580 2370 2173
3594 2422 2359
3610 2445 2618
3627 2513 2842
3652 2597 2998
3688 2663 3050
3610 2310 2508
3607 2425 2401
3607 2536 2358
3609 2628 2389
3615 2685 2504
3625 2676 2699
3641 2675 2883
3668 2680 3015
3709 2688 3055
3672 2541 2789
3663 2623 2708
3657 2711 2657
3654 2789 2650
3653 2838 2701
3658 2823 2818
3672 2780 2937
3697 2735 3027
3737 2713 3058
3730 2708 3047
3731 2739 3012
3733 2784 2974
3734 2825 2948
3733 2847 2949
3733 2819 2984
3739 2772 3019
3754 2738 3048
3783 2748 3063
3410 881 1137
3447 988 1300
3491 1139 1506
3541 1333 1749
3598 1571 2024
3660 1859 2315
3718 2165 2594
3770 2478 2850
3811 2786 3074
3456 1024 1325
3505 1116 1423
3551 1252 1610
3597 1433 1854
3645 1659 2127
3695 1934 2405
3742 2227 2664
3783 2522 2895
3818 2809 3088
3515 1242 1581
3572 1333 1610
3625 1443 1740
3672 1586 1953
3711 1775 2226
3745 2020 2495
3775 2285 2736
3800 2557 2939
3821 2822 3097
3583 1520 1885
3642 1617 1842
3701 1707 1899
3751 1808 2056
3784 1937 2312
3802 2132 2577
3813 2354 2804
3819 2591 2983
3822 2829 3104
3655 1840 2219
3713 1944 2099
3771 2039 2084
3820 2114 2175
3855 2163 2374
3859 2287 2643
3853 2447 2864
3840 2633 3025
3824 2833 3113
3718 2163 2524
3769 2269 2359
3819 2367 2287
3862 2445 2317
3893 2492 2454
3896 2518 2684
3882 2591 2894
3856 2701 3049
3826 2836 3117
3768 2448 2773
3806 2544 2604
3845 2639 2504
3879 2717 2488
3903 2766 2566
3905 2754 2742
3891 2754 2918
3863 2777 3054
3825 2832 3112
3804 2677 2967
3825 2750 2837
3850 2831 2743
3873 2903 2701
3889 2949 2729
3888 2931 2839
3877 2884 2958
3855 2836 3055
3819 2817 3098
3827 2834 3106
3828 2869 3062
3835 2923 3010
3844 2975 2970
3849 3008 2961
3844 2983 2996
3835 2925 3036
3823 2853 3067
3811 2786 3074
