Assets/1__3DArt/KimSe/artstation_asset/LUTs_subway_asset/3DL/LoFi Chill 01_S.3dl
# LUT by SparkleStock. Enhanced with VOXCOLOR algorithms.
0 256 512 768 1023
352 288 352
338 380 561
332 486 883
353 576 1207
384 640 1409
366 336 401
359 424 607
347 534 921
360 621 1234
381 670 1441
367 406 497
372 504 726
388 611 992
393 712 1294
412 760 1493
355 536 733
376 617 935
415 731 1178
470 838 1420
505 897 1599
320 672 1169
381 736 1291
458 826 1418
569 959 1616
689 1105 1825
847 347 358
786 445 644
654 612 1020
605 754 1391
606 844 1631
939 610 443
990 829 927
879 900 1307
795 953 1577
788 1003 1765
920 727 677
977 1005 1058
1005 1112 1430
949 1133 1690
950 1165 1870
874 866 1057
912 1036 1285
1018 1185 1570
1124 1295 1809
1163 1340 1967
830 1090 1625
881 1124 1656
1074 1260 1804
1284 1412 1971
1428 1525 2097
1843 501 392
1835 576 724
1682 877 1206
1428 1168 1699
1358 1363 2044
1966 866 491
2028 1092 1079
1967 1281 1685
1688 1429 1970
1601 1535 2164
2073 1363 948
2120 1722 1352
2171 1842 1951
2012 1788 2196
1964 1783 2311
2034 1517 1537
2060 1766 1728
2107 1904 2051
2254 1981 2288
2287 1994 2403
1994 1819 2217
2019 1856 2221
2078 1884 2255
2446 2074 2402
2673 2201 2496
2798 751 521
2835 870 837
2835 1221 1363
2786 1750 1996
2696 2160 2501
2902 1084 733
2979 1288 1193
2991 1540 1800
2927 1955 2273
2827 2250 2562
3004 1646 1278
3074 1939 1526
3123 2070 2090
3075 2248 2518
3009 2379 2637
3117 2146 1997
3133 2406 2048
3154 2560 2312
3185 2543 2620
3204 2513 2689
3182 2497 2642
3195 2560 2619
3206 2602 2627
3290 2585 2682
3459 2656 2736
3266 977 721
3328 1205 1057
3404 1630 1607
3519 2226 2271
3667 2802 2802
3346 1308 1151
3478 1512 1394
3557 1842 1930
3614 2340 2471
3696 2815 2815
3464 1904 1859
3636 2108 1846
3752 2231 2223
3738 2498 2681
3706 2822 2834
3597 2489 2485
3722 2682 2321
3815 2810 2452
3795 2788 2768
3701 2822 2839
3699 2818 2818
3721 2919 2763
3740 3007 2745
3714 2924 2796
3667 2786 2802
