Assets/1__3DArt/KimSe/artstation_asset/LUTs_subway_asset/3DL/LoFi Chill 02.3dl
# LUT by SparkleStock. Enhanced with VOXCOLOR algorithms.
0 256 512 768 1023
208 192 368
223 250 642
249 294 1065
287 315 1491
336 320 1761
226 240 450
241 287 705
259 333 1088
291 357 1486
329 359 1745
235 279 576
264 340 850
298 399 1169
324 436 1529
358 441 1771
255 343 868
285 399 1106
341 476 1397
411 556 1692
452 590 1910
256 432 1361
304 485 1509
392 559 1695
517 689 1971
640 865 2274
716 248 420
640 360 733
568 462 1221
560 529 1699
581 575 1990
764 400 619
773 605 1011
750 731 1464
752 772 1867
777 786 2111
782 559 893
822 758 1245
907 938 1629
923 994 1989
952 1011 2214
798 750 1320
841 881 1551
987 1063 1870
1130 1208 2154
1185 1259 2343
810 984 1951
864 1020 1984
1086 1202 2177
1323 1400 2387
1479 1555 2551
1787 400 516
1742 577 829
1574 888 1405
1433 1131 2053
1408 1302 2435
1876 655 803
1890 930 1202
1810 1282 1776
1692 1457 2266
1670 1550 2536
2018 1155 1367
2030 1383 1698
2111 1703 2110
2089 1823 2477
2099 1851 2659
2072 1550 1943
2093 1688 2131
2165 1882 2362
2378 2092 2618
2438 2159 2765
2118 1975 2610
2146 1996 2620
2207 2030 2639
2620 2292 2790
2859 2451 2880
2819 635 710
2850 884 1044
2891 1347 1643
2895 1911 2336
2869 2346 2850
2925 992 1100
2975 1287 1450
3025 1709 1972
3035 2173 2531
3008 2474 2894
3098 1626 1766
3128 1836 2009
3189 2101 2302
3218 2445 2712
3206 2625 2943
3290 2282 2430
3290 2375 2545
3318 2504 2687
3391 2663 2854
3431 2764 2991
3407 2760 2965
3419 2771 2964
3428 2778 2966
3518 2827 2996
3689 2925 3037
3298 881 961
3390 1216 1364
3545 1793 2006
3737 2490 2645
3891 3042 3074
3426 1353 1497
3493 1638 1784
3620 2110 2278
3779 2652 2768
3904 3067 3080
3634 2111 2285
3656 2258 2402
3704 2450 2559
3813 2804 2874
3910 3079 3081
3821 2748 2841
3812 2788 2863
3817 2842 2898
3846 2933 2972
3910 3079 3084
3907 3058 3074
3908 3062 3069
3905 3060 3063
3902 3053 3067
3891 3042 3074
