Assets/1__3DArt/KimSe/artstation_asset/LUTs_subway_asset/3DL/LoFi Chill 01.3dl
# LUT by SparkleStock. Enhanced with VOXCOLOR algorithms.
0 128 256 384 512 640 768 896 1023
352 288 352
346 331 439
338 380 561
332 432 711
332 486 883
341 535 1055
353 576 1207
368 611 1328
384 640 1409
361 311 375
356 348 455
349 395 575
343 448 725
338 502 894
344 550 1063
353 590 1212
366 621 1330
381 641 1410
366 333 402
364 375 489
360 422 606
355 474 748
351 527 914
354 576 1079
362 615 1223
373 645 1338
386 661 1416
368 358 441
369 407 540
369 456 655
369 508 789
368 562 945
371 610 1104
377 650 1243
387 680 1354
399 697 1428
370 391 500
371 441 604
375 495 723
380 550 853
389 605 988
393 653 1139
400 693 1273
408 723 1380
419 743 1450
368 441 600
371 487 701
378 538 815
388 594 941
404 652 1073
421 706 1202
434 749 1324
445 780 1426
456 802 1497
362 503 739
369 544 831
380 591 934
397 644 1046
420 703 1168
450 762 1288
476 813 1402
496 852 1498
510 878 1570
347 580 926
363 614 1006
382 655 1089
406 704 1179
438 760 1281
479 822 1393
521 883 1501
559 937 1597
585 976 1677
320 672 1169
350 702 1234
381 736 1291
416 776 1349
458 826 1418
511 890 1512
569 959 1616
629 1031 1723
689 1105 1825
523 309 358
492 361 452
462 415 586
437 472 751
421 532 936
420 588 1118
423 636 1278
432 676 1405
443 705 1492
539 359 404
535 425 520
515 487 664
492 547 828
475 606 1007
472 657 1183
476 700 1335
484 734 1456
495 758 1537
543 396 452
550 469 579
542 537 722
527 600 881
511 659 1055
508 709 1224
511 751 1372
520 783 1489
531 804 1569
540 429 511
548 506 641
552 577 780
550 644 931
543 707 1096
541 757 1259
544 799 1401
553 831 1516
565 853 1595
537 471 590
542 546 717
552 620 855
566 692 1000
583 761 1149
583 813 1303
588 856 1439
598 889 1550
609 911 1626
530 535 715
534 601 827
550 671 955
576 743 1094
606 814 1235
632 876 1371
648 923 1496
660 957 1600
672 981 1673
522 617 880
526 668 969
550 730 1080
587 800 1206
630 872 1336
675 939 1459
710 994 1571
735 1035 1666
749 1060 1737
508 715 1095
516 747 1150
551 800 1238
602 865 1344
659 935 1453
718 1004 1563
773 1067 1664
817 1118 1751
842 1152 1822
486 832 1368
502 839 1381
552 880 1436
620 941 1514
692 1006 1593
765 1074 1681
835 1141 1771
899 1204 1856
954 1261 1930
843 352 366
809 404 461
755 468 606
695 541 791
642 620 1005
616 692 1210
603 755 1389
601 806 1532
606 844 1631
866 415 426
864 494 557
826 574 721
772 653 909
721 728 1113
697 792 1305
685 845 1471
684 887 1602
690 918 1690
884 488 512
893 577 658
879 669 827
849 756 1012
805 832 1209
785 890 1389
776 937 1543
776 974 1665
784 1000 1746
892 559 615
899 649 761
908 747 925
907 842 1103
884 922 1289
868 979 1458
863 1023 1604
865 1057 1718
874 1081 1795
885 620 725
891 707 863
907 804 1018
927 901 1183
947 990 1348
935 1050 1511
932 1096 1649
938 1130 1759
948 1153 1835
876 707 881
881 782 999
898 869 1137
929 961 1286
973 1051 1439
1010 1124 1582
1027 1177 1709
1036 1213 1812
1047 1237 1885
865 814 1079
870 872 1167
891 944 1278
933 1026 1406
1001 1114 1543
1069 1194 1670
1117 1256 1782
1148 1300 1876
1162 1326 1944
850 942 1325
857 976 1374
885 1029 1449
942 1098 1547
1034 1184 1664
1124 1264 1773
1203 1334 1870
1262 1389 1951
1290 1422 2015
830 1090 1625
842 1095 1625
881 1123 1656
955 1178 1716
1074 1260 1804
1186 1340 1890
1284 1412 1971
1366 1474 2041
1428 1525 2097
1288 420 380
1264 470 473
1202 544 626
1119 637 829
1032 746 1076
966 846 1319
925 933 1530
904 1006 1699
901 1062 1818
1317 490 451
1319 574 585
1273 668 760
1200 770 971
1118 875 1207
1056 963 1430
1018 1036 1620
1001 1095 1770
1000 1140 1873
1351 598 575
1358 694 726
1344 805 910
1306 919 1120
1237 1024 1349
1184 1101 1551
1153 1163 1722
1140 1210 1854
1141 1245 1941
1377 720 731
1381 816 882
1395 934 1062
1395 1056 1262
1359 1163 1475
1317 1235 1661
1294 1288 1815
1285 1328 1932
1288 1355 2008
1384 833 897
1388 922 1036
1404 1033 1201
1427 1152 1379
1451 1264 1559
1421 1336 1735
1404 1388 1879
1401 1424 1988
1408 1449 2060
1378 948 1089
1382 1025 1206
1396 1121 1345
1425 1227 1499
1475 1333 1659
1516 1422 1810
1529 1482 1940
1532 1520 2042
1540 1544 2110
1369 1086 1320
1374 1146 1408
1387 1220 1512
1423 1307 1632
1496 1405 1769
1584 1499 1899
1645 1570 2012
1680 1619 2103
1693 1645 2167
1355 1245 1594
1363 1283 1644
1378 1329 1704
1423 1392 1784
1520 1480 1892
1643 1573 2001
1750 1654 2095
1826 1714 2172
1858 1748 2230
1336 1426 1917
1350 1436 1920
1370 1448 1927
1427 1483 1957
1552 1560 2031
1710 1653 2115
1845 1734 2189
1953 1802 2251
2030 1852 2297
1835 516 408
1822 566 500
1786 648 652
1723 762 864
1631 908 1136
1504 1050 1432
1419 1173 1688
1373 1278 1895
1358 1363 2044
1867 592 490
1873 680 624
1847 782 798
1792 904 1018
1709 1052 1287
1588 1178 1555
1510 1284 1784
1469 1371 1964
1457 1438 2090
1903 714 634
1914 817 783
1911 934 965
1882 1066 1184
1813 1215 1447
1708 1327 1689
1640 1416 1889
1605 1485 2044
1597 1536 2149
1947 884 836
1953 983 985
1968 1104 1160
1969 1239 1366
1935 1384 1606
1852 1485 1824
1799 1560 1999
1773 1614 2129
1768 1651 2215
2004 1103 1097
2000 1188 1233
2010 1293 1391
2031 1415 1565
2065 1550 1753
2011 1645 1952
1977 1708 2104
1960 1750 2213
1961 1778 2281
2009 1252 1329
2010 1325 1441
2020 1414 1569
2042 1518 1713
2077 1636 1870
2114 1741 2031
2116 1811 2166
2107 1854 2267
2110 1879 2330
2010 1421 1590
2015 1478 1672
2025 1545 1766
2044 1625 1872
2077 1718 1990
2176 1824 2122
2241 1905 2236
2277 1959 2325
2286 1986 2384
2006 1610 1885
2014 1646 1931
2024 1687 1984
2042 1737 2045
2075 1798 2117
2222 1902 2224
2352 1992 2315
2444 2059 2388
2477 2094 2440
1994 1819 2217
2007 1831 2221
2021 1841 2225
2042 1855 2235
2079 1880 2254
2276 1983 2333
2446 2073 2402
2581 2147 2457
2673 2201 2496
2368 638 462
2369 694 556
2355 786 711
2327 916 928
2286 1088 1206
2226 1296 1532
2133 1475 1835
2051 1629 2093
2022 1758 2283
2403 724 560
2413 815 692
2405 925 866
2382 1062 1086
2345 1232 1358
2289 1423 1659
2203 1582 1931
2128 1713 2157
2102 1819 2318
2441 862 727
2453 966 871
2459 1088 1048
2451 1229 1262
2422 1393 1521
2374 1568 1795
2299 1706 2035
2233 1814 2228
2212 1897 2362
2486 1053 957
2496 1153 1097
2512 1273 1263
2521 1411 1458
2511 1563 1687
2475 1721 1934
2414 1839 2142
2360 1926 2304
2345 1988 2411
2542 1294 1245
2545 1380 1371
2557 1484 1515
2577 1602 1675
2607 1733 1847
2586 1874 2068
2543 1974 2246
2505 2042 2378
2496 2087 2463
2598 1549 1552
2596 1613 1653
2602 1693 1767
2618 1786 1894
2646 1891 2031
2675 2001 2183
2663 2085 2324
2640 2144 2437
2637 2179 2504
2633 1770 1849
2632 1816 1920
2636 1873 2001
2649 1940 2090
2673 2016 2188
2725 2103 2294
2767 2183 2401
2794 2244 2491
2797 2275 2548
2651 1979 2148
2656 2006 2186
2662 2039 2229
2673 2078 2278
2693 2124 2333
2754 2190 2404
2853 2268 2479
2941 2337 2546
2970 2374 2593
2660 2195 2461
2670 2204 2463
2678 2210 2466
2689 2218 2470
2708 2230 2479
2783 2273 2513
2917 2343 2560
3056 2417 2607
3151 2472 2640
2794 761 532
2807 825 636
2812 929 798
2812 1077 1021
2809 1272 1305
2804 1521 1644
2773 1763 1974
2732 1981 2268
2696 2160 2501
2829 857 652
2843 951 781
2851 1071 957
2854 1223 1182
2854 1414 1456
2849 1644 1770
2821 1861 2066
2784 2051 2324
2752 2201 2523
2870 1016 849
2884 1119 984
2897 1242 1154
2906 1391 1364
2908 1571 1620
2906 1781 1904
2883 1972 2164
2851 2133 2386
2824 2254 2551
2917 1231 1110
2930 1327 1238
2946 1443 1389
2961 1580 1571
2970 1738 1790
2972 1924 2040
2955 2088 2264
2930 2222 2450
2910 2315 2582
2974 1496 1427
2981 1577 1537
2994 1675 1664
3012 1786 1805
3038 1908 1957
3044 2068 2173
3035 2205 2362
3019 2312 2513
3006 2381 2616
3045 1792 1765
3044 1850 1850
3050 1921 1946
3063 2004 2053
3084 2097 2168
3109 2203 2302
3114 2307 2443
3109 2394 2566
3103 2446 2645
3103 2052 2073
3101 2089 2130
3103 2136 2195
3111 2191 2268
3126 2255 2346
3155 2324 2429
3184 2401 2523
3204 2468 2610
3204 2510 2672
3149 2284 2362
3149 2304 2391
3150 2327 2424
3155 2356 2461
3165 2390 2502
3189 2431 2549
3242 2485 2602
3296 2538 2655
3320 2578 2701
3182 2497 2642
3187 2501 2643
3191 2503 2643
3194 2506 2644
3201 2510 2646
3222 2523 2658
3289 2559 2682
3377 2607 2710
3459 2656 2736
3098 876 619
3121 952 737
3142 1071 913
3163 1238 1146
3187 1455 1438
3220 1730 1779
3261 2019 2116
3288 2293 2424
3279 2523 2680
3132 985 766
3150 1081 891
3171 1211 1072
3194 1380 1304
3220 1591 1585
3252 1845 1899
3292 2106 2201
3318 2349 2472
3311 2546 2691
3175 1166 997
3190 1265 1119
3209 1390 1281
3232 1547 1488
3257 1742 1745
3288 1970 2025
3325 2201 2289
3351 2409 2522
3347 2572 2704
3226 1408 1296
3238 1498 1405
3255 1606 1538
3275 1739 1703
3298 1903 1912
3327 2100 2153
3362 2298 2378
3387 2473 2572
3386 2603 2719
3285 1700 1644
3293 1772 1733
3305 1859 1837
3322 1959 1954
3344 2068 2081
3370 2232 2279
3401 2394 2464
3425 2536 2621
3429 2636 2735
3353 2005 1988
3356 2055 2051
3362 2116 2125
3372 2187 2207
3388 2266 2296
3412 2362 2407
3440 2479 2538
3463 2590 2662
3470 2667 2750
3423 2283 2286
3421 2312 2326
3421 2347 2372
3426 2390 2423
3435 2440 2479
3454 2495 2540
3476 2564 2616
3496 2634 2694
3505 2691 2760
3487 2522 2543
3483 2533 2561
3480 2547 2582
3480 2565 2605
3483 2588 2632
3495 2615 2662
3511 2643 2693
3530 2677 2728
3550 2719 2771
3536 2709 2761
3537 2709 2760
3536 2708 2759
3534 2707 2757
3534 2706 2755
3538 2708 2758
3548 2714 2764
3573 2729 2774
3623 2759 2788
3266 977 721
3296 1066 861
3328 1205 1057
3364 1393 1306
3404 1630 1607
3456 1922 1946
3519 2226 2271
3590 2524 2563
3667 2802 2802
3298 1098 898
3318 1195 1020
3348 1339 1209
3385 1527 1455
3428 1757 1743
3480 2028 2055
3541 2303 2348
3610 2569 2604
3684 2811 2808
3341 1304 1170
3356 1397 1275
3380 1523 1428
3412 1687 1633
3453 1898 1894
3503 2140 2169
3561 2381 2423
3624 2611 2641
3694 2817 2811
3395 1577 1511
3407 1656 1598
3423 1754 1705
3447 1881 1851
3480 2049 2052
3526 2256 2285
3578 2459 2496
3635 2651 2676
3699 2821 2813
3458 1896 1894
3465 1955 1956
3475 2028 2031
3491 2113 2118
3512 2207 2216
3550 2373 2400
3594 2536 2566
3645 2689 2708
3701 2825 2815
3527 2210 2241
3529 2247 2277
3533 2293 2322
3541 2348 2375
3555 2411 2434
3577 2495 2520
3610 2604 2628
3652 2720 2735
3701 2826 2817
3592 2478 2514
3591 2495 2531
3589 2518 2551
3591 2547 2576
3597 2581 2605
3609 2620 2640
3629 2676 2694
3657 2745 2756
3697 2821 2815
3651 2685 2708
3647 2688 2711
3643 2694 2715
3640 2702 2721
3639 2714 2729
3644 2730 2741
3651 2744 2755
3664 2768 2777
3687 2809 2810
3699 2818 2818
3696 2815 2815
3692 2812 2812
3687 2808 2808
3682 2805 2805
3681 2804 2804
3679 2801 2805
3675 2796 2804
3667 2786 2802
