Assets/1__3DArt/KimSe/artstation_asset/LUTs_subway_asset/3DL/LoFi Chill 01.3dl
# LUT by SparkleStock. Enhanced with VOXCOLOR algorithms.
0 256 512 768 1023
352 288 352
338 380 561
332 486 883
353 576 1207
384 640 1409
366 333 402
360 422 606
351 527 914
362 615 1223
386 661 1416
370 391 500
375 495 723
389 605 988
400 693 1273
419 743 1450
362 503 739
380 591 934
420 703 1168
476 813 1402
510 878 1570
320 672 1169
381 736 1291
458 826 1418
569 959 1616
689 1105 1825
843 352 366
755 468 606
642 620 1005
603 755 1389
606 844 1631
884 488 512
879 669 827
805 832 1209
776 937 1543
784 1000 1746
885 620 725
907 804 1018
947 990 1348
932 1096 1649
948 1153 1835
865 814 1079
891 944 1278
1001 1114 1543
1117 1256 1782
1162 1326 1944
830 1090 1625
881 1123 1656
1074 1260 1804
1284 1412 1971
1428 1525 2097
1835 516 408
1786 648 652
1631 908 1136
1419 1173 1688
1358 1363 2044
1903 714 634
1911 934 965
1813 1215 1447
1640 1416 1889
1597 1536 2149
2004 1103 1097
2010 1293 1391
2065 1550 1753
1977 1708 2104
1961 1778 2281
2010 1421 1590
2025 1545 1766
2077 1718 1990
2241 1905 2236
2286 1986 2384
1994 1819 2217
2021 1841 2225
2079 1880 2254
2446 2073 2402
2673 2201 2496
2794 761 532
2812 929 798
2809 1272 1305
2773 1763 1974
2696 2160 2501
2870 1016 849
2897 1242 1154
2908 1571 1620
2883 1972 2164
2824 2254 2551
2974 1496 1427
2994 1675 1664
3038 1908 1957
3035 2205 2362
3006 2381 2616
3103 2052 2073
3103 2136 2195
3126 2255 2346
3184 2401 2523
3204 2510 2672
3182 2497 2642
3191 2503 2643
3201 2510 2646
3289 2559 2682
3459 2656 2736
3266 977 721
3328 1205 1057
3404 1630 1607
3519 2226 2271
3667 2802 2802
3341 1304 1170
3380 1523 1428
3453 1898 1894
3561 2381 2423
3694 2817 2811
3458 1896 1894
3475 2028 2031
3512 2207 2216
3594 2536 2566
3701 2825 2815
3592 2478 2514
3589 2518 2551
3597 2581 2605
3629 2676 2694
3697 2821 2815
3699 2818 2818
3692 2812 2812
3682 2805 2805
3679 2801 2805
3667 2786 2802
