Assets/1__3DArt/KimSe/artstation_asset/LUTs_subway_asset/3DL/LoFi Chill 02.3dl
# LUT by SparkleStock. Enhanced with VOXCOLOR algorithms.
0 128 256 384 512 640 768 896 1023
208 192 368
213 221 483
223 250 642
235 274 838
249 294 1065
267 307 1292
287 315 1491
310 319 1651
336 320 1761
221 220 408
223 241 513
230 265 665
239 289 854
251 309 1070
268 322 1290
286 330 1483
306 334 1640
328 334 1748
226 240 450
234 263 561
241 287 705
250 311 882
259 333 1088
274 347 1298
291 357 1486
310 361 1639
329 359 1745
230 259 504
243 286 626
254 313 766
264 339 930
275 364 1121
288 381 1321
303 392 1500
321 397 1648
339 395 1752
235 279 576
249 308 704
264 340 850
280 371 1008
298 399 1169
309 421 1358
324 436 1529
341 443 1670
358 441 1771
245 307 699
258 335 822
275 367 963
295 402 1116
319 438 1277
344 470 1437
363 492 1591
379 503 1723
396 505 1821
255 343 868
266 368 979
285 399 1106
310 435 1246
341 476 1397
378 518 1548
411 556 1692
436 582 1817
452 590 1910
259 384 1087
272 408 1181
295 438 1286
326 473 1403
366 515 1535
414 567 1680
463 624 1822
505 674 1950
533 707 2056
256 432 1361
276 457 1434
304 485 1509
343 518 1594
392 559 1695
454 617 1826
517 689 1971
580 771 2122
640 865 2274
380 210 393
357 255 522
344 290 690
340 317 893
342 342 1127
352 360 1362
365 375 1566
381 385 1729
402 393 1839
397 261 461
398 330 615
395 376 791
393 407 989
397 431 1211
408 445 1433
422 454 1627
439 460 1782
457 462 1885
404 300 529
416 378 692
424 432 864
430 470 1054
434 496 1267
445 511 1478
459 521 1665
476 526 1815
494 527 1918
407 335 607
422 412 768
440 471 935
456 517 1116
468 552 1316
478 571 1518
492 585 1697
509 592 1844
526 594 1947
409 373 705
424 445 859
449 507 1027
480 562 1202
512 613 1378
523 639 1571
538 657 1741
554 667 1881
571 670 1982
416 423 856
429 484 990
459 544 1147
499 604 1317
542 663 1491
580 710 1657
604 739 1811
621 755 1941
638 761 2036
424 483 1057
435 528 1160
471 585 1298
521 649 1455
576 714 1617
631 776 1769
674 824 1910
704 856 2028
722 867 2116
429 553 1313
440 578 1374
483 631 1483
546 699 1619
614 769 1761
682 840 1902
745 909 2032
795 963 2143
824 994 2231
428 631 1628
442 634 1636
495 683 1709
572 756 1815
655 831 1927
739 910 2048
816 990 2170
885 1070 2287
944 1149 2393
716 248 420
687 302 549
640 360 733
594 416 961
568 462 1221
560 499 1478
560 529 1699
567 554 1873
581 575 1990
741 315 503
742 407 673
714 489 878
678 554 1108
655 599 1352
648 627 1586
650 649 1789
658 665 1947
672 676 2052
764 400 619
775 506 803
773 605 1011
764 685 1234
750 731 1464
747 756 1680
752 772 1867
763 781 2014
777 786 2111
780 487 753
790 590 933
812 698 1133
832 791 1343
838 848 1557
841 874 1759
850 889 1933
862 897 2071
877 900 2166
782 559 893
794 655 1059
822 758 1245
861 856 1440
907 938 1629
913 972 1823
923 994 1989
937 1006 2121
952 1011 2214
789 648 1083
800 728 1222
830 818 1384
879 911 1561
946 999 1743
1000 1066 1910
1028 1104 2061
1043 1122 2184
1059 1131 2271
798 750 1320
809 808 1422
841 881 1551
900 967 1703
987 1063 1870
1071 1146 2020
1130 1208 2154
1168 1246 2264
1185 1259 2343
805 862 1609
816 894 1662
853 948 1750
923 1027 1868
1034 1130 2013
1138 1223 2147
1229 1306 2264
1296 1369 2361
1327 1400 2434
810 984 1951
822 985 1946
864 1020 1984
949 1090 2062
1086 1202 2177
1214 1305 2286
1323 1400 2387
1412 1484 2477
1479 1555 2551
1193 310 458
1171 371 581
1107 457 777
1029 554 1029
966 646 1322
927 719 1617
905 781 1868
899 832 2065
906 874 2195
1227 390 550
1229 494 719
1186 609 944
1123 721 1205
1068 814 1482
1030 875 1745
1010 923 1966
1005 960 2138
1012 989 2250
1268 525 712
1276 642 898
1269 780 1129
1246 909 1384
1208 1004 1645
1179 1055 1878
1165 1090 2073
1164 1114 2222
1172 1131 2319
1305 681 912
1311 795 1095
1333 940 1313
1352 1081 1549
1348 1184 1787
1333 1230 1998
1328 1258 2172
1330 1272 2303
1340 1280 2388
1327 825 1119
1333 928 1285
1357 1060 1478
1398 1198 1683
1452 1318 1885
1449 1369 2083
1451 1399 2243
1458 1413 2365
1471 1419 2447
1341 963 1353
1348 1049 1490
1371 1158 1647
1417 1277 1820
1492 1395 2002
1559 1483 2169
1588 1531 2314
1599 1553 2428
1612 1563 2504
1355 1114 1626
1364 1178 1725
1385 1259 1838
1436 1356 1971
1532 1470 2128
1643 1575 2273
1719 1649 2399
1763 1694 2499
1779 1709 2567
1369 1276 1938
1379 1315 1993
1400 1362 2055
1456 1433 2141
1575 1544 2266
1718 1658 2390
1841 1756 2495
1927 1827 2579
1961 1858 2638
1379 1446 2292
1393 1455 2296
1413 1467 2300
1478 1512 2333
1623 1620 2422
1803 1746 2518
1953 1855 2601
2070 1945 2670
2150 2013 2723
1787 400 516
1777 469 635
1742 577 829
1676 719 1088
1574 888 1405
1487 1019 1757
1433 1131 2053
1409 1224 2283
1408 1302 2435
1827 494 621
1834 608 786
1812 741 1003
1761 895 1271
1678 1076 1591
1593 1191 1901
1540 1283 2158
1516 1356 2353
1516 1414 2481
1876 655 803
1888 783 984
1890 930 1202
1869 1096 1464
1810 1282 1776
1737 1383 2047
1692 1457 2266
1671 1511 2430
1670 1550 2536
1938 877 1054
1946 998 1228
1966 1145 1431
1977 1312 1670
1958 1495 1951
1909 1583 2187
1878 1640 2374
1865 1677 2511
1866 1700 2596
2018 1155 1367
2015 1256 1520
2030 1383 1698
2062 1533 1896
2111 1703 2110
2097 1780 2318
2089 1823 2477
2090 1843 2590
2099 1851 2659
2045 1347 1643
2047 1430 1767
2062 1534 1909
2093 1657 2066
2143 1798 2235
2212 1908 2403
2237 1969 2543
2242 1996 2648
2251 2007 2712
2072 1550 1943
2078 1612 2031
2093 1688 2131
2120 1779 2242
2165 1882 2362
2292 2006 2501
2378 2092 2618
2426 2142 2708
2438 2159 2765
2098 1761 2266
2108 1799 2314
2121 1844 2368
2144 1896 2428
2184 1958 2495
2357 2090 2609
2507 2199 2701
2611 2275 2772
2646 2307 2820
2118 1975 2610
2133 1986 2615
2146 1996 2620
2167 2010 2627
2207 2030 2639
2431 2173 2722
2620 2292 2790
2766 2386 2842
2859 2451 2880
2367 515 605
2368 597 727
2361 726 923
2342 901 1185
2310 1120 1509
2260 1348 1862
2195 1542 2198
2143 1705 2478
2136 1839 2662
2409 629 731
2424 753 892
2425 902 1103
2413 1082 1367
2389 1299 1682
2347 1515 2009
2284 1687 2304
2232 1822 2542
2225 1928 2696
2463 818 938
2482 952 1109
2497 1107 1314
2501 1287 1562
2487 1497 1859
2455 1697 2156
2400 1845 2411
2353 1953 2609
2345 2033 2734
2533 1074 1216
2548 1197 1375
2572 1344 1559
2592 1512 1776
2597 1702 2032
2580 1884 2298
2538 2009 2515
2500 2092 2677
2493 2148 2776
2621 1387 1551
2627 1489 1687
2644 1611 1843
2672 1751 2014
2712 1906 2197
2714 2068 2430
2692 2171 2613
2669 2231 2743
2665 2267 2820
2707 1696 1888
2705 1771 1993
2715 1863 2112
2737 1970 2244
2773 2094 2387
2819 2223 2543
2829 2306 2685
2825 2353 2797
2830 2376 2861
2770 1961 2210
2769 2013 2281
2776 2077 2362
2793 2152 2452
2823 2239 2550
2888 2339 2655
2948 2422 2759
2989 2479 2846
3000 2499 2899
2815 2200 2520
2821 2231 2557
2828 2267 2598
2841 2308 2645
2865 2357 2696
2936 2431 2765
3047 2519 2835
3145 2593 2895
3178 2625 2937
2851 2430 2824
2864 2438 2827
2871 2446 2829
2881 2453 2832
2900 2463 2838
2981 2512 2870
3125 2597 2911
3274 2684 2951
3368 2742 2978
2819 635 710
2833 733 841
2850 884 1044
2869 1088 1313
2891 1347 1643
2903 1642 1998
2895 1911 2336
2879 2148 2629
2869 2346 2850
2864 771 861
2887 903 1017
2908 1068 1228
2930 1272 1492
2953 1521 1805
2967 1796 2133
2958 2038 2434
2941 2243 2687
2930 2406 2871
2925 992 1100
2949 1127 1257
2975 1287 1450
3001 1480 1686
3025 1709 1972
3042 1960 2269
3035 2173 2531
3019 2346 2744
3008 2474 2894
3003 1281 1409
3023 1402 1549
3050 1544 1710
3078 1710 1903
3104 1906 2139
3124 2128 2400
3123 2310 2624
3111 2452 2801
3100 2549 2918
3098 1626 1766
3110 1723 1880
3128 1836 2009
3154 1963 2150
3189 2101 2302
3211 2292 2524
3218 2445 2712
3214 2556 2855
3206 2625 2943
3204 1980 2118
3205 2048 2201
3213 2128 2296
3230 2220 2400
3256 2323 2512
3291 2447 2644
3311 2559 2782
3319 2645 2898
3321 2692 2968
3290 2282 2430
3287 2324 2484
3290 2375 2545
3299 2435 2612
3318 2504 2687
3351 2582 2765
3391 2663 2854
3422 2730 2935
3431 2764 2991
3357 2538 2710
3357 2560 2736
3358 2586 2765
3363 2617 2798
3374 2652 2835
3401 2696 2879
3460 2754 2926
3520 2808 2972
3549 2840 3013
3407 2760 2965
3415 2766 2965
3419 2771 2964
3422 2774 2964
3428 2778 2966
3447 2788 2975
3518 2827 2996
3608 2878 3019
3689 2925 3037
3134 757 830
3160 874 975
3197 1048 1192
3246 1280 1472
3307 1571 1808
3377 1908 2161
3440 2230 2480
3483 2522 2759
3493 2766 2991
3181 918 1010
3210 1053 1161
3248 1235 1376
3297 1462 1645
3356 1737 1958
3421 2044 2278
3479 2335 2563
3517 2592 2807
3524 2798 3001
3249 1171 1287
3277 1303 1427
3312 1466 1607
3355 1668 1834
3408 1915 2112
3467 2187 2394
3521 2442 2644
3556 2664 2852
3560 2833 3010
3337 1496 1631
3358 1607 1747
3386 1740 1882
3421 1901 2050
3464 2100 2269
3516 2331 2508
3565 2549 2720
3597 2735 2895
3601 2868 3020
3439 1869 2011
3452 1954 2097
3470 2052 2195
3493 2163 2304
3524 2284 2423
3567 2473 2618
3610 2653 2793
3641 2803 2935
3646 2903 3030
3544 2229 2351
3548 2285 2410
3556 2351 2475
3569 2425 2548
3588 2508 2628
3617 2612 2730
3653 2741 2853
3683 2859 2966
3692 2935 3041
3638 2536 2631
3635 2567 2666
3634 2605 2704
3639 2649 2747
3649 2698 2796
3669 2754 2849
3695 2829 2919
3719 2902 2991
3733 2956 3050
3714 2784 2860
3709 2798 2874
3706 2813 2889
3706 2832 2908
3709 2854 2930
3721 2882 2958
3737 2911 2985
3757 2943 3018
3783 2979 3059
3766 2969 3044
3770 2972 3042
3771 2975 3039
3770 2976 3037
3770 2976 3036
3773 2977 3040
3781 2980 3047
3805 2992 3057
3853 3018 3066
3298 881 961
3336 1016 1127
3390 1216 1364
3459 1476 1662
3545 1793 2006
3643 2150 2348
3737 2490 2645
3821 2793 2890
3891 3042 3074
3349 1066 1175
3382 1202 1322
3433 1398 1544
3500 1649 1823
3581 1947 2140
3672 2269 2446
3759 2572 2709
3837 2839 2922
3899 3057 3079
3426 1353 1497
3452 1475 1616
3493 1638 1784
3549 1847 2003
3620 2110 2278
3701 2391 2542
3779 2652 2768
3848 2882 2949
3904 3067 3080
3524 1712 1881
3542 1809 1969
3568 1926 2073
3607 2078 2215
3661 2279 2418
3729 2512 2636
3796 2730 2823
3857 2920 2972
3908 3074 3080
3634 2111 2285
3642 2179 2339
3656 2258 2402
3676 2348 2475
3704 2450 2559
3758 2632 2728
3813 2804 2874
3865 2955 2994
3910 3079 3081
3738 2468 2606
3737 2508 2634
3741 2554 2667
3750 2607 2706
3763 2667 2753
3789 2754 2827
3827 2866 2920
3871 2984 3012
3912 3082 3084
3821 2748 2841
3815 2766 2851
3812 2788 2863
3813 2813 2879
3817 2842 2898
3827 2878 2927
3846 2933 2972
3874 3002 3028
3910 3079 3084
3878 2946 2995
3872 2952 2995
3868 2958 2995
3865 2965 2997
3864 2974 3001
3867 2985 3011
3871 2997 3024
3881 3021 3045
3903 3067 3081
3907 3058 3074
3908 3060 3072
3908 3062 3069
3907 3062 3066
3905 3060 3063
3903 3056 3064
3902 3053 3067
3898 3049 3071
3891 3042 3074
