Assets/1__3DArt/KimSe/artstation_asset/LUTs_subway_asset/3DL/LoFi Chill 04.3dl
# LUT by SparkleStock. Enhanced with VOXCOLOR algorithms.
0 256 512 768 1023
272 288 400
346 398 669
521 573 1105
795 799 1587
1025 993 1905
298 338 480
407 464 757
582 643 1173
828 850 1616
1032 1009 1903
346 410 623
506 577 940
712 772 1305
937 966 1700
1109 1096 1955
492 584 962
667 745 1243
898 951 1574
1135 1148 1881
1296 1270 2096
753 865 1537
935 1011 1725
1144 1178 1926
1394 1376 2161
1617 1553 2370
705 357 409
773 592 820
919 833 1340
1152 1067 1826
1344 1246 2142
811 545 650
997 861 1121
1160 1091 1576
1357 1274 1977
1521 1406 2233
945 786 998
1138 1049 1372
1369 1288 1750
1544 1457 2098
1685 1566 2317
1163 1079 1465
1296 1235 1683
1539 1462 1988
1764 1654 2252
1896 1759 2427
1473 1444 2091
1523 1483 2113
1757 1670 2289
1994 1855 2457
2169 1980 2577
1569 498 427
1641 758 826
1793 1342 1645
1924 1612 2183
2050 1811 2520
1717 765 752
1869 1128 1239
2045 1654 1947
2133 1838 2347
2230 1963 2584
1975 1302 1391
2116 1614 1793
2322 1952 2214
2404 2098 2518
2478 2170 2681
2251 1800 2043
2326 1943 2225
2443 2105 2420
2648 2286 2635
2737 2365 2761
2501 2210 2635
2519 2223 2636
2577 2257 2651
2840 2449 2779
3017 2561 2850
2441 721 545
2557 999 936
2754 1553 1656
2956 2188 2429
3021 2514 2851
2622 1077 983
2741 1388 1375
2910 1866 1977
3072 2364 2578
3117 2585 2876
2893 1693 1706
2968 1916 1976
3077 2189 2291
3200 2540 2714
3244 2682 2911
3171 2334 2415
3195 2433 2538
3244 2554 2678
3330 2690 2828
3377 2775 2947
3365 2767 2932
3370 2770 2925
3377 2775 2924
3444 2820 2951
3561 2887 2981
2914 929 753
3099 1309 1239
3348 1904 1949
3576 2525 2610
3715 2978 3010
3146 1431 1366
3244 1697 1680
3433 2161 2215
3613 2646 2720
3728 2988 3018
3448 2169 2219
3470 2285 2339
3511 2439 2487
3636 2759 2815
3733 2994 3018
3649 2728 2794
3634 2749 2809
3632 2788 2838
3664 2870 2909
3732 2994 3018
3731 2994 3026
3723 2989 3015
3714 2979 3007
3714 2981 3008
3715 2978 3010
