Assets/1__3DArt/KimSe/artstation_asset/LUTs_subway_asset/3DL/LoFi Chill 02_S.3dl
# LUT by SparkleStock. Enhanced with VOXCOLOR algorithms.
0 256 512 768 1023
208 192 368
223 250 642
249 294 1065
287 315 1491
336 320 1761
226 242 450
241 289 706
259 340 1095
290 363 1496
328 367 1766
235 292 572
263 350 852
297 404 1172
322 454 1546
354 460 1807
255 378 858
284 427 1106
338 503 1405
407 580 1706
448 609 1934
256 432 1361
304 485 1509
392 559 1695
517 689 1971
640 865 2274
719 247 415
675 341 764
582 455 1235
562 528 1700
581 575 1990
824 527 532
899 762 1038
828 800 1514
771 789 1886
781 791 2125
822 667 832
903 948 1231
969 1050 1664
941 1029 2012
955 1025 2240
811 801 1293
863 967 1538
1004 1129 1878
1137 1243 2169
1186 1275 2361
810 984 1951
864 1020 1984
1086 1203 2177
1323 1400 2387
1479 1555 2551
1792 393 500
1791 516 879
1633 856 1464
1443 1125 2063
1408 1302 2435
1930 817 617
1991 1066 1184
1966 1327 1890
1736 1464 2306
1673 1548 2544
2091 1415 1174
2124 1758 1515
2206 1930 2138
2113 1882 2510
2103 1857 2674
2096 1644 1875
2116 1878 2033
2182 2031 2355
2382 2151 2634
2439 2168 2778
2118 1976 2610
2141 2008 2611
2206 2033 2640
2619 2293 2790
2859 2451 2880
2821 629 700
2869 831 1067
2915 1300 1684
2908 1898 2353
2869 2346 2850
2943 1065 945
3010 1291 1358
3065 1630 2023
3064 2136 2583
3008 2468 2901
3113 1767 1568
3136 2010 1706
3181 2143 2227
3214 2427 2765
3207 2618 2958
3299 2372 2330
3270 2575 2297
3272 2709 2513
3346 2740 2862
3430 2765 3000
3407 2763 2969
3412 2814 2928
3414 2849 2928
3512 2846 2990
3689 2925 3037
3298 881 961
3390 1216 1364
3545 1793 2006
3737 2490 2645
3891 3042 3074
3431 1353 1478
3556 1577 1684
3684 1998 2245
3808 2580 2781
3904 3066 3084
3643 2113 2248
3753 2247 2122
3844 2343 2408
3890 2680 2896
3911 3075 3098
3824 2754 2815
3884 2869 2552
3935 2942 2609
3935 2947 2941
3916 3074 3100
3907 3074 3090
3917 3145 3001
3924 3217 2963
3916 3153 3033
3891 3042 3074
