Assets/1__3DArt/KimSe/artstation_asset/LUTs_subway_asset/3DL/LoFi Chill 05_S.3dl
# LUT by SparkleStock. Enhanced with VOXCOLOR algorithms.
0 256 512 768 1023
304 224 384
316 280 661
363 318 1086
446 332 1487
528 336 1713
313 272 441
336 314 714
375 360 1105
443 371 1476
512 367 1692
320 317 567
365 368 847
433 422 1147
484 454 1486
541 445 1681
342 396 866
401 438 1090
499 494 1331
619 543 1546
688 542 1701
368 448 1393
452 490 1474
586 529 1555
789 587 1675
1009 672 1809
855 296 438
862 353 744
824 421 1168
841 466 1575
887 499 1818
945 555 526
1039 750 993
1040 742 1412
1057 700 1717
1103 686 1905
986 663 793
1088 905 1143
1214 960 1515
1252 906 1797
1302 878 1969
1042 742 1185
1122 882 1390
1307 1003 1664
1487 1077 1890
1570 1082 2032
1116 865 1750
1179 897 1773
1434 1034 1893
1727 1182 2030
1953 1293 2129
1836 467 617
1894 550 937
1923 808 1389
1832 952 1822
1841 1091 2125
1973 854 684
2060 1067 1188
2120 1255 1796
2060 1284 2073
2071 1329 2252
2138 1396 1162
2187 1723 1470
2306 1853 2052
2344 1719 2303
2384 1653 2415
2272 1538 1749
2308 1760 1881
2401 1886 2175
2620 1963 2414
2704 1951 2527
2430 1762 2344
2444 1802 2346
2497 1825 2378
2851 2077 2546
3070 2236 2648
2659 725 935
2756 886 1243
2883 1274 1739
3000 1775 2249
3060 2145 2646
2824 1113 1106
2940 1305 1447
3033 1588 2026
3116 2008 2476
3159 2274 2722
3025 1740 1619
3090 1981 1718
3161 2101 2211
3230 2318 2678
3296 2447 2813
3236 2288 2291
3238 2499 2246
3259 2633 2453
3341 2638 2786
3442 2619 2889
3427 2617 2852
3429 2677 2813
3433 2715 2814
3503 2714 2892
3633 2808 2968
3074 961 1281
3192 1261 1618
3381 1753 2111
3606 2391 2638
3779 2962 3058
3241 1390 1694
3405 1582 1847
3560 1952 2305
3692 2487 2765
3784 2977 3069
3491 2057 2303
3646 2201 2163
3769 2301 2439
3805 2609 2882
3793 2986 3082
3697 2661 2793
3792 2798 2533
3866 2889 2594
3861 2888 2926
3798 2993 3087
3795 2994 3074
3810 3071 2982
3823 3146 2939
3806 3077 3014
3779 2962 3058
