Assets/1__3DArt/KimSe/artstation_asset/LUTs_subway_asset/3DL/LoFi Chill 02_S.3dl
# LUT by SparkleStock. Enhanced with VOXCOLOR algorithms.
0 128 256 384 512 640 768 896 1023
208 192 368
213 221 483
223 250 642
235 274 838
249 294 1065
267 307 1292
287 315 1491
310 319 1651
336 320 1761
221 220 408
223 241 513
230 266 666
239 292 857
251 311 1073
267 324 1293
286 332 1487
306 336 1646
328 336 1757
226 242 450
234 265 561
241 289 706
250 314 885
259 340 1095
273 354 1306
290 363 1496
309 367 1652
328 367 1766
230 264 502
243 291 626
254 317 767
264 343 932
275 373 1128
287 392 1333
302 404 1516
319 409 1669
336 409 1784
235 292 572
249 319 703
263 350 852
279 380 1011
297 404 1172
308 436 1371
322 454 1546
338 461 1694
354 460 1807
245 333 691
258 357 819
274 388 964
293 422 1121
317 456 1284
341 486 1446
360 511 1606
376 525 1746
391 525 1852
255 378 858
266 398 974
284 427 1106
308 463 1250
338 503 1405
374 542 1557
407 580 1706
432 606 1836
448 609 1934
259 414 1078
272 434 1177
294 461 1285
324 496 1406
363 540 1540
411 590 1689
460 644 1832
502 691 1962
531 720 2069
256 432 1361
276 457 1434
304 485 1509
343 518 1594
392 559 1695
454 617 1826
517 689 1971
580 771 2122
640 865 2274
381 210 391
371 250 534
358 284 703
348 314 900
346 340 1130
353 359 1363
365 374 1566
381 385 1729
402 393 1839
424 310 433
455 395 624
453 435 815
437 448 1014
424 455 1231
421 458 1445
427 460 1634
440 463 1787
459 465 1893
435 363 495
480 474 697
491 523 889
482 536 1084
467 538 1295
462 535 1497
466 533 1678
478 533 1827
496 534 1936
431 391 579
472 510 768
494 570 953
501 594 1142
498 604 1344
495 604 1540
500 603 1715
511 604 1862
528 606 1974
425 418 684
458 527 855
486 594 1035
512 635 1218
537 667 1400
538 677 1593
545 682 1762
556 685 1903
572 687 2012
426 464 839
449 546 984
481 610 1150
518 663 1327
557 711 1506
589 746 1673
608 767 1829
622 777 1962
638 781 2064
429 522 1042
445 575 1153
481 633 1297
530 694 1460
582 756 1626
635 810 1781
675 852 1924
704 879 2046
722 886 2138
431 581 1303
443 606 1368
486 658 1481
548 726 1621
615 796 1766
682 865 1909
745 930 2041
795 981 2155
824 1007 2244
428 631 1628
442 634 1636
495 683 1709
572 756 1815
655 831 1927
739 910 2048
816 990 2170
885 1070 2287
944 1149 2393
719 247 415
714 285 569
675 341 764
624 402 988
582 455 1235
566 495 1483
562 528 1700
567 554 1873
581 575 1990
784 392 441
827 495 679
818 562 925
775 602 1168
717 627 1395
682 642 1612
664 655 1801
662 667 1953
675 677 2058
824 527 532
881 677 777
899 762 1038
880 798 1291
828 800 1514
791 793 1713
771 789 1886
769 788 2025
781 791 2125
837 628 668
889 800 882
924 903 1130
935 949 1380
912 949 1601
883 931 1792
868 917 1955
868 910 2088
881 910 2187
822 667 832
865 835 1012
903 948 1231
938 1016 1458
969 1050 1664
950 1039 1854
941 1029 2012
942 1024 2141
955 1025 2240
814 723 1042
843 854 1186
878 955 1369
924 1032 1568
982 1093 1761
1024 1129 1932
1041 1142 2081
1047 1144 2204
1061 1147 2294
811 801 1293
829 887 1397
863 967 1538
920 1046 1703
1004 1129 1878
1083 1197 2033
1137 1243 2169
1170 1269 2281
1186 1275 2361
810 891 1594
822 932 1648
859 988 1741
928 1064 1866
1038 1164 2016
1141 1253 2152
1231 1330 2272
1296 1386 2371
1327 1411 2444
810 984 1951
821 986 1945
864 1020 1984
949 1090 2062
1086 1203 2177
1213 1306 2286
1323 1400 2387
1412 1484 2477
1479 1555 2551
1197 307 448
1206 339 605
1158 418 823
1080 523 1080
999 630 1354
942 711 1631
910 778 1872
899 832 2065
906 874 2195
1272 475 457
1317 574 712
1308 665 1002
1255 749 1295
1168 830 1555
1086 883 1787
1034 925 1987
1011 960 2145
1014 989 2254
1339 693 569
1392 847 827
1415 959 1140
1399 1033 1456
1331 1078 1723
1250 1094 1929
1197 1107 2101
1173 1118 2236
1176 1132 2329
1383 894 759
1430 1084 970
1471 1216 1264
1489 1294 1578
1464 1318 1849
1400 1303 2044
1358 1291 2201
1339 1283 2321
1345 1285 2405
1390 1009 1000
1427 1207 1163
1466 1355 1403
1504 1451 1672
1543 1493 1923
1502 1468 2119
1475 1446 2271
1465 1431 2385
1474 1429 2467
1379 1083 1277
1405 1246 1401
1435 1376 1585
1478 1474 1799
1544 1544 2017
1595 1578 2193
1606 1583 2337
1604 1575 2447
1614 1575 2523
1374 1185 1581
1391 1298 1669
1414 1394 1794
1462 1482 1951
1554 1571 2131
1659 1648 2285
1727 1694 2414
1765 1717 2515
1780 1721 2581
1375 1308 1918
1386 1367 1965
1406 1421 2032
1460 1490 2128
1578 1592 2265
1720 1697 2394
1842 1785 2503
1927 1844 2589
1961 1867 2647
1379 1447 2292
1391 1458 2293
1412 1471 2297
1477 1515 2332
1623 1621 2423
1802 1747 2518
1952 1856 2601
2070 1945 2670
2150 2013 2723
1792 393 500
1807 424 656
1791 516 879
1735 663 1153
1633 856 1464
1515 1004 1785
1443 1125 2063
1409 1223 2284
1408 1302 2435
1862 569 505
1898 662 758
1904 760 1052
1877 887 1370
1812 1068 1699
1669 1186 1963
1575 1280 2187
1525 1354 2363
1518 1413 2484
1930 817 617
1968 958 869
1991 1066 1184
1993 1178 1533
1966 1327 1890
1830 1404 2120
1736 1464 2306
1683 1510 2447
1673 1548 2544
2004 1108 839
2032 1282 1035
2062 1408 1323
2087 1512 1668
2097 1618 2036
1994 1648 2253
1918 1667 2415
1876 1682 2532
1870 1700 2609
2091 1415 1174
2104 1608 1300
2124 1758 1515
2157 1865 1800
2206 1930 2138
2154 1908 2357
2113 1882 2510
2094 1861 2611
2103 1857 2674
2092 1516 1521
2104 1688 1608
2119 1829 1764
2147 1936 1978
2195 2008 2239
2247 2039 2426
2253 2035 2568
2244 2019 2668
2253 2015 2727
2096 1644 1875
2105 1770 1932
2116 1878 2033
2139 1966 2176
2182 2031 2355
2304 2107 2510
2382 2151 2634
2425 2168 2724
2439 2168 2778
2104 1797 2238
2113 1866 2267
2121 1930 2318
2141 1985 2391
2182 2029 2489
2354 2143 2609
2504 2234 2708
2608 2294 2782
2646 2313 2828
2118 1976 2610
2131 1992 2609
2141 2008 2611
2162 2022 2620
2206 2033 2640
2430 2174 2722
2619 2293 2790
2766 2386 2842
2859 2451 2880
2369 508 590
2388 551 740
2393 661 961
2382 835 1241
2352 1070 1567
2292 1322 1900
2211 1532 2216
2146 1703 2481
2136 1839 2662
2430 681 616
2462 772 843
2479 881 1123
2481 1032 1440
2468 1248 1778
2415 1486 2082
2323 1672 2345
2243 1816 2555
2226 1925 2699
2495 939 752
2526 1066 966
2550 1174 1255
2565 1298 1592
2568 1472 1951
2531 1680 2241
2446 1833 2466
2366 1945 2631
2347 2029 2742
2569 1254 992
2589 1405 1143
2612 1519 1396
2635 1621 1720
2654 1740 2085
2639 1901 2373
2574 2011 2573
2510 2086 2706
2495 2144 2788
2657 1600 1330
2661 1764 1409
2671 1893 1585
2692 1987 1846
2727 2046 2177
2738 2143 2475
2706 2201 2665
2670 2236 2774
2668 2265 2833
2740 1872 1728
2730 2026 1761
2726 2155 1871
2736 2255 2052
2763 2321 2301
2811 2365 2549
2819 2377 2719
2816 2376 2823
2831 2380 2872
2789 2069 2115
2779 2189 2124
2773 2296 2184
2777 2383 2296
2798 2443 2461
2864 2475 2644
2927 2498 2778
2976 2510 2866
3000 2505 2909
2821 2239 2484
2820 2311 2482
2817 2380 2504
2820 2438 2555
2837 2479 2640
2913 2514 2752
3029 2570 2842
3134 2618 2907
3178 2629 2943
2851 2431 2826
2860 2450 2816
2864 2471 2808
2871 2488 2809
2889 2496 2824
2977 2523 2867
3123 2598 2912
3273 2684 2951
3368 2742 2978
2821 629 700
2845 697 847
2869 831 1067
2892 1032 1350
2915 1300 1684
2925 1614 2029
2908 1898 2353
2883 2145 2634
2869 2346 2850
2877 801 768
2912 894 960
2942 1021 1220
2969 1199 1529
2994 1445 1869
3008 1745 2191
2986 2011 2472
2952 2233 2703
2931 2403 2874
2943 1065 945
2978 1179 1107
3010 1291 1358
3038 1431 1671
3065 1630 2023
3085 1899 2334
3064 2136 2583
3030 2329 2771
3008 2468 2901
3021 1397 1217
3047 1525 1309
3073 1626 1510
3100 1728 1796
3128 1861 2143
3153 2078 2453
3141 2274 2681
3115 2433 2837
3101 2541 2930
3113 1767 1568
3123 1902 1585
3136 2010 1706
3155 2090 1923
3181 2143 2227
3212 2288 2546
3214 2427 2765
3207 2543 2897
3207 2618 2958
3218 2112 1962
3210 2240 1932
3207 2349 1987
3212 2434 2125
3228 2490 2347
3262 2536 2612
3281 2596 2813
3298 2653 2938
3322 2691 2980
3299 2372 2330
3283 2478 2285
3270 2575 2297
3265 2655 2371
3272 2709 2513
3303 2719 2705
3346 2740 2862
3392 2760 2966
3430 2765 3000
3361 2579 2667
3348 2649 2629
3335 2720 2617
3328 2781 2642
3329 2821 2711
3355 2823 2821
3419 2833 2919
3493 2842 2990
3548 2843 3018
3407 2763 2969
3412 2786 2948
3412 2814 2928
3411 2839 2918
3414 2849 2928
3438 2833 2957
3512 2846 2990
3606 2880 3019
3689 2925 3037
3134 754 825
3165 854 976
3205 1018 1200
3255 1248 1488
3316 1542 1827
3384 1888 2177
3446 2219 2491
3486 2518 2764
3493 2766 2991
3188 929 954
3232 1029 1108
3276 1179 1347
3323 1387 1647
3377 1660 1983
3437 1985 2308
3491 2300 2588
3525 2579 2821
3524 2796 3003
3260 1202 1189
3306 1305 1295
3351 1423 1499
3396 1582 1781
3441 1804 2117
3490 2092 2425
3536 2381 2680
3565 2638 2879
3560 2827 3017
3347 1546 1506
3387 1651 1535
3427 1741 1672
3466 1845 1906
3503 1991 2224
3541 2222 2525
3579 2472 2763
3603 2698 2934
3601 2860 3031
3446 1933 1877
3473 2036 1827
3503 2122 1883
3531 2190 2042
3558 2237 2300
3587 2389 2603
3617 2580 2834
3639 2764 2985
3646 2896 3046
3546 2292 2238
3558 2389 2142
3571 2473 2136
3587 2540 2222
3603 2583 2404
3621 2624 2657
3646 2724 2872
3672 2840 3016
3694 2929 3055
3639 2589 2552
3634 2673 2449
3632 2754 2408
3634 2820 2438
3640 2863 2550
3651 2863 2735
3671 2886 2908
3699 2920 3030
3734 2954 3061
3716 2818 2822
3704 2880 2743
3695 2947 2694
3689 3006 2688
3687 3044 2738
3694 3036 2847
3710 3008 2957
3738 2982 3039
3783 2980 3064
3766 2976 3053
3769 3002 3020
3768 3038 2987
3767 3072 2965
3764 3091 2967
3768 3070 2998
3778 3033 3030
3804 3006 3055
3853 3018 3066
3298 881 961
3336 1016 1127
3390 1216 1364
3459 1476 1662
3545 1793 2006
3643 2150 2348
3737 2490 2645
3821 2793 2890
3891 3042 3074
3351 1066 1168
3406 1178 1288
3465 1356 1510
3531 1596 1802
3607 1892 2132
3690 2225 2447
3769 2542 2714
3840 2825 2927
3899 3056 3080
3431 1353 1478
3493 1449 1528
3556 1577 1684
3620 1754 1929
3684 1998 2245
3748 2293 2539
3808 2580 2781
3861 2844 2965
3904 3066 3084
3531 1713 1851
3591 1796 1820
3655 1875 1888
3715 1980 2060
3766 2140 2338
3811 2375 2619
3849 2620 2843
3882 2859 3002
3908 3071 3090
3643 2113 2248
3697 2183 2135
3753 2247 2122
3804 2301 2212
3844 2343 2408
3872 2495 2682
3890 2680 2896
3903 2879 3038
3911 3075 3098
3744 2471 2573
3786 2535 2412
3831 2593 2342
3871 2640 2369
3903 2669 2500
3914 2705 2723
3919 2797 2921
3919 2927 3058
3916 3077 3103
3824 2754 2815
3853 2812 2649
3884 2869 2552
3912 2915 2535
3935 2942 2609
3939 2933 2776
3935 2947 2941
3926 2992 3063
3916 3074 3100
3879 2957 2983
3895 3004 2857
3912 3058 2767
3929 3105 2729
3942 3133 2757
3943 3117 2860
3935 3081 2973
3921 3054 3062
3908 3064 3090
3907 3074 3090
3911 3102 3047
3917 3145 3001
3922 3189 2967
3924 3217 2963
3922 3199 2996
3916 3153 3033
3905 3096 3063
3891 3042 3074
