Assets/1__3DArt/KimSe/artstation_asset/LUTs_subway_asset/3DL/LoFi Chill 03.3dl
# LUT by SparkleStock. Enhanced with VOXCOLOR algorithms.
0 256 512 768 1023
624 512 656
646 543 878
697 581 1275
764 613 1692
817 624 1937
644 538 706
671 567 938
716 616 1309
772 654 1687
815 664 1916
656 557 805
702 608 1070
760 666 1388
806 711 1720
839 726 1917
694 610 1086
741 664 1322
806 734 1587
881 800 1830
920 824 1991
737 705 1633
793 753 1753
864 806 1863
965 902 2023
1089 1025 2194
1088 541 687
1060 615 958
1026 696 1397
1052 765 1831
1088 808 2097
1151 647 847
1209 797 1186
1210 896 1591
1241 946 1960
1280 969 2176
1195 752 1074
1268 905 1381
1373 1045 1722
1412 1103 2049
1454 1127 2240
1244 895 1452
1306 1002 1653
1459 1142 1929
1608 1257 2169
1676 1300 2327
1306 1093 2042
1363 1125 2064
1567 1253 2198
1800 1396 2345
1974 1508 2460
2048 626 763
2062 748 1039
2019 990 1560
1935 1179 2093
1944 1322 2440
2148 810 1007
2209 1016 1348
2212 1290 1848
2144 1428 2273
2163 1517 2523
2282 1182 1474
2338 1355 1764
2458 1610 2125
2443 1715 2459
2477 1753 2632
2389 1474 1965
2430 1590 2135
2515 1751 2346
2707 1916 2577
2779 1977 2717
2491 1815 2561
2522 1840 2572
2574 1871 2593
2912 2072 2730
3120 2201 2813
2962 752 916
3023 928 1213
3091 1270 1724
3136 1742 2336
3143 2129 2823
3068 1014 1255
3125 1236 1554
3187 1561 2002
3227 1962 2509
3237 2241 2867
3202 1491 1811
3241 1663 2029
3303 1895 2302
3343 2198 2682
3363 2374 2919
3346 2046 2404
3360 2128 2517
3394 2246 2658
3460 2394 2825
3506 2497 2967
3476 2484 2935
3485 2494 2933
3492 2502 2936
3560 2548 2969
3680 2641 3017
3410 881 1137
3491 1139 1506
3598 1571 2024
3718 2165 2594
3811 2786 3074
3512 1240 1602
3558 1460 1841
3641 1838 2260
3740 2334 2724
3820 2823 3093
3648 1835 2258
3664 1970 2376
3689 2158 2538
3758 2505 2850
3823 2835 3096
3761 2433 2805
3757 2483 2837
3758 2555 2885
3776 2659 2968
3826 2827 3093
3811 2802 3090
3810 2810 3085
3807 2811 3075
3810 2804 3079
3811 2786 3074
