Assets/1__3DArt/KimSe/artstation_asset/LUTs_subway_asset/3DL/LoFi Chill 04_S.3dl
# LUT by SparkleStock. Enhanced with VOXCOLOR algorithms.
0 256 512 768 1023
272 288 400
346 398 669
521 573 1105
795 799 1587
1025 993 1905
298 341 479
406 465 759
579 648 1177
824 855 1623
1023 1012 1920
344 422 620
503 585 940
710 775 1308
926 980 1716
1095 1107 1983
486 612 952
660 767 1241
890 972 1578
1125 1165 1894
1285 1284 2116
753 865 1537
935 1011 1725
1144 1178 1926
1394 1376 2161
1617 1553 2370
709 351 405
797 557 839
927 820 1347
1153 1065 1827
1344 1246 2142
859 639 562
1021 907 1084
1160 1092 1587
1354 1273 1987
1518 1406 2245
969 864 929
1137 1155 1311
1356 1337 1746
1535 1472 2110
1678 1572 2340
1167 1119 1433
1289 1293 1655
1528 1504 1983
1754 1676 2260
1890 1768 2442
1473 1444 2091
1522 1484 2112
1757 1670 2289
1994 1855 2457
2169 1980 2577
1580 483 416
1692 675 869
1823 1279 1673
1930 1602 2188
2050 1811 2520
1795 877 586
1930 1127 1160
2055 1531 1955
2132 1800 2365
2229 1957 2594
2031 1497 1187
2103 1816 1515
2246 2002 2140
2372 2108 2528
2474 2171 2700
2261 1865 1966
2303 2065 2087
2395 2191 2380
2620 2316 2635
2731 2370 2774
2501 2210 2635
2517 2237 2627
2576 2260 2651
2840 2450 2779
3017 2561 2850
2449 711 538
2591 937 962
2781 1492 1691
2964 2167 2438
3021 2514 2851
2680 1120 849
2825 1313 1266
2955 1696 1982
3074 2274 2601
3117 2577 2884
2935 1794 1521
3011 1995 1635
3090 2111 2153
3175 2455 2735
3243 2673 2928
3180 2399 2310
3178 2579 2247
3197 2696 2451
3275 2730 2814
3374 2776 2959
3365 2767 2932
3371 2817 2879
3377 2853 2874
3443 2842 2943
3561 2887 2981
2914 929 753
3099 1309 1239
3348 1904 1949
3576 2525 2610
3715 2978 3010
3151 1431 1348
3338 1616 1569
3531 2027 2169
3662 2560 2730
3731 2986 3022
3457 2170 2183
3617 2247 2026
3734 2288 2309
3769 2610 2826
3740 2989 3035
3656 2733 2761
3758 2823 2458
3834 2875 2505
3818 2867 2861
3740 2992 3035
3731 2994 3026
3752 3070 2920
3771 3142 2876
3749 3083 2961
3715 2978 3010
