Assets/1__3DArt/KimSe/artstation_asset/LUTs_subway_asset/3DL/LoFi Chill 05_S.3dl
# LUT by SparkleStock. Enhanced with VOXCOLOR algorithms.
0 64 128 192 256 320 384 448 512 576 640 704 768 832 896 960 1023
304 224 384
305 239 441
306 255 499
309 269 568
316 280 661
323 291 754
335 301 860
349 309 973
363 318 1086
383 322 1195
403 327 1304
423 330 1404
446 332 1487
469 333 1569
489 334 1626
509 335 1669
528 336 1713
307 238 395
309 250 452
310 262 510
314 274 579
320 287 671
326 299 762
337 309 867
351 317 978
364 325 1089
383 330 1195
402 334 1302
421 337 1401
443 337 1482
464 338 1564
484 339 1620
503 339 1663
522 340 1707
310 252 406
312 261 463
315 270 521
318 280 590
324 293 680
330 306 771
340 316 873
353 325 982
365 333 1091
383 337 1196
400 340 1301
419 343 1398
440 343 1478
460 343 1558
479 344 1614
498 344 1657
516 344 1700
312 264 420
315 271 479
319 279 537
323 288 606
329 302 694
335 315 781
345 326 882
357 335 989
368 344 1096
385 347 1199
402 351 1302
419 353 1396
439 353 1475
458 353 1554
477 352 1609
494 352 1652
512 351 1695
313 272 441
318 282 502
323 291 563
329 301 632
336 314 714
344 326 797
354 338 895
364 349 1000
375 360 1105
391 365 1206
407 369 1306
424 371 1399
443 371 1476
462 370 1553
479 369 1607
496 368 1650
512 367 1692
313 281 461
320 292 525
327 303 589
334 314 658
344 326 736
353 338 813
362 350 908
372 364 1012
382 377 1115
397 382 1213
413 387 1311
429 390 1402
447 389 1477
465 388 1552
481 386 1606
497 384 1648
512 382 1690
315 292 493
323 304 558
331 316 624
340 327 693
351 339 769
362 351 845
373 365 934
385 379 1030
396 393 1125
411 399 1222
425 406 1318
440 410 1406
457 409 1480
475 409 1553
490 407 1605
505 404 1646
519 401 1687
317 305 530
326 316 596
335 328 662
345 340 732
358 353 808
370 367 884
385 380 966
400 394 1051
415 407 1136
427 417 1231
440 426 1325
454 432 1412
471 432 1483
488 431 1554
502 429 1604
516 426 1644
530 423 1684
320 317 567
330 329 634
340 340 701
351 353 771
365 368 847
379 382 923
396 396 998
415 409 1072
433 422 1147
444 434 1240
455 446 1332
468 454 1417
484 454 1486
501 454 1555
515 452 1604
528 448 1642
541 445 1681
325 336 629
335 347 695
346 358 760
358 370 828
373 385 901
389 399 974
408 413 1046
428 427 1119
449 441 1191
466 453 1271
483 465 1351
499 474 1427
514 476 1494
529 478 1561
543 476 1608
556 472 1645
569 469 1682
330 354 692
341 365 755
352 375 818
364 387 884
382 402 955
399 417 1025
419 431 1095
442 445 1165
464 460 1235
487 472 1302
510 484 1369
530 494 1436
544 497 1502
558 501 1567
571 500 1613
584 496 1648
596 492 1683
335 374 766
347 384 827
358 393 887
372 404 949
390 419 1016
409 434 1082
432 448 1148
456 463 1214
481 478 1281
509 490 1338
537 503 1396
561 513 1455
577 520 1517
593 526 1578
607 525 1621
620 521 1655
633 516 1688
342 396 866
354 405 921
366 414 975
381 424 1031
401 438 1090
420 451 1150
445 465 1210
472 480 1270
499 494 1331
531 508 1385
564 521 1439
593 533 1493
619 543 1546
644 552 1598
661 552 1637
674 547 1669
688 542 1701
349 418 966
362 426 1015
375 434 1063
390 444 1113
411 456 1166
432 468 1218
459 482 1271
488 496 1326
517 511 1380
553 525 1431
590 539 1482
626 553 1531
660 566 1575
694 579 1619
714 579 1653
728 573 1684
742 568 1714
355 431 1097
370 440 1138
384 448 1179
401 458 1220
424 469 1262
447 480 1303
475 493 1347
507 506 1392
539 519 1436
579 534 1481
620 548 1525
661 562 1568
703 577 1607
744 591 1646
774 597 1680
798 599 1710
822 600 1741
362 439 1245
378 450 1276
394 460 1308
414 470 1338
438 480 1368
463 489 1398
494 500 1430
528 512 1463
562 524 1496
607 538 1532
651 552 1568
697 566 1605
746 582 1641
795 597 1677
837 611 1711
876 623 1743
916 636 1775
368 448 1393
386 460 1415
405 471 1437
426 482 1457
452 490 1474
479 498 1492
512 508 1512
549 518 1534
586 529 1555
634 543 1583
683 556 1611
734 571 1641
789 587 1675
845 604 1709
900 625 1742
955 648 1776
1009 672 1809
404 237 391
406 251 451
407 265 512
409 279 584
410 290 676
411 302 769
417 312 875
427 321 988
436 330 1100
453 335 1209
469 341 1317
487 345 1418
506 347 1501
526 350 1584
544 352 1641
562 353 1685
580 355 1729
414 268 403
420 285 471
426 303 539
430 319 615
432 329 707
433 339 799
439 347 903
448 353 1012
457 359 1122
472 362 1227
488 365 1332
504 368 1428
523 369 1509
542 369 1589
560 370 1644
578 371 1688
595 372 1731
424 298 415
435 320 490
445 341 566
452 359 646
454 367 738
455 376 830
461 382 931
469 386 1037
477 389 1143
492 390 1245
506 390 1346
522 390 1439
540 390 1517
559 389 1594
576 389 1648
593 388 1691
610 388 1733
432 322 432
445 347 512
459 372 592
468 391 675
471 399 765
474 407 855
480 412 954
488 414 1058
495 417 1161
509 416 1259
523 415 1357
538 413 1448
556 411 1523
573 409 1598
590 408 1651
607 407 1693
623 406 1735
433 331 460
447 360 539
461 388 618
473 409 699
480 417 785
487 425 872
494 431 968
501 435 1070
509 439 1172
522 438 1268
535 437 1364
550 436 1452
567 433 1526
584 430 1600
600 429 1652
616 427 1694
632 426 1736
433 341 487
449 372 566
464 404 644
478 427 723
489 436 806
500 444 888
508 450 982
515 456 1082
522 461 1183
535 460 1277
548 460 1370
562 458 1457
578 455 1529
595 452 1602
611 450 1654
626 448 1696
641 446 1738
436 351 525
451 383 602
467 414 678
482 439 756
495 449 837
509 459 917
521 467 1007
531 474 1101
542 482 1195
554 483 1287
567 484 1379
580 484 1464
597 481 1534
613 478 1605
628 475 1656
643 472 1697
657 470 1738
438 362 568
454 392 643
469 422 717
485 447 794
501 460 873
517 472 953
533 483 1037
550 492 1122
566 502 1207
578 505 1298
589 509 1388
602 510 1472
618 508 1540
634 505 1609
649 503 1658
663 500 1698
677 497 1738
441 372 612
457 401 684
472 431 756
488 455 831
507 470 910
525 486 989
546 498 1066
568 510 1143
590 521 1220
601 528 1309
612 534 1398
624 537 1480
640 535 1546
656 533 1612
670 530 1661
683 527 1699
697 523 1738
447 390 679
462 416 747
477 441 815
493 464 886
514 481 962
534 497 1038
558 512 1113
583 525 1187
608 539 1261
626 547 1340
645 556 1418
662 562 1492
677 562 1556
692 562 1621
706 560 1668
720 556 1705
733 553 1742
453 407 746
467 430 810
482 452 874
499 473 941
521 491 1014
544 508 1087
570 525 1159
598 540 1231
626 556 1303
652 567 1370
678 579 1438
700 587 1504
714 589 1567
728 591 1630
742 590 1675
756 586 1710
769 582 1746
460 427 825
474 446 883
487 465 942
505 483 1004
530 502 1073
555 520 1142
583 538 1211
614 555 1279
645 572 1347
677 586 1406
710 600 1465
737 611 1524
754 616 1584
772 621 1643
786 620 1686
800 616 1719
814 613 1753
469 450 927
482 465 978
495 481 1030
513 497 1085
540 515 1147
567 534 1209
599 552 1272
632 570 1334
666 588 1396
703 603 1452
740 619 1507
774 633 1561
801 642 1613
828 652 1665
847 652 1703
861 648 1735
875 644 1766
478 473 1029
491 485 1074
503 497 1118
521 510 1166
551 529 1221
580 547 1277
614 565 1333
651 584 1389
688 603 1446
729 621 1498
770 638 1550
810 655 1599
848 669 1642
885 683 1686
907 684 1720
921 680 1750
935 675 1780
487 490 1163
500 499 1198
513 509 1233
532 521 1271
564 539 1316
596 557 1362
633 575 1408
673 594 1455
713 613 1503
759 631 1548
805 649 1593
850 667 1637
895 684 1675
940 700 1714
972 707 1747
996 710 1776
1020 712 1805
495 503 1313
509 512 1337
522 520 1361
543 531 1388
578 548 1422
613 566 1456
653 583 1491
697 601 1527
740 620 1563
791 638 1600
841 656 1638
892 675 1675
944 693 1710
996 711 1746
1039 725 1777
1078 738 1806
1117 751 1835
504 517 1463
518 524 1476
532 531 1489
554 541 1505
592 557 1527
630 574 1550
674 591 1574
721 609 1599
768 626 1623
823 645 1653
878 664 1682
934 683 1713
992 702 1745
1051 722 1778
1106 744 1808
1159 767 1837
1213 790 1866
504 249 398
506 263 462
508 276 526
508 288 599
503 300 692
498 312 784
500 322 890
505 332 1002
510 341 1115
523 348 1223
536 354 1331
550 360 1431
567 363 1515
584 367 1598
600 370 1655
616 372 1700
632 374 1744
522 297 411
532 321 489
542 344 568
547 363 651
543 371 744
539 379 836
541 385 939
545 389 1047
550 393 1155
562 395 1258
574 397 1361
587 399 1456
604 400 1535
621 401 1614
636 402 1669
652 403 1712
668 404 1755
539 345 424
557 379 517
576 413 610
587 437 703
583 442 796
580 446 889
581 447 989
585 446 1092
589 446 1196
601 443 1293
612 440 1390
625 438 1480
641 436 1555
657 434 1630
673 434 1683
689 433 1724
704 433 1766
551 380 445
575 423 546
598 465 647
614 494 745
613 497 837
613 499 929
615 497 1027
619 494 1127
622 490 1227
633 484 1320
644 478 1413
656 473 1499
672 469 1571
688 465 1642
704 463 1693
719 462 1734
734 461 1774
553 390 479
576 437 576
600 485 673
618 517 767
624 521 856
630 525 946
634 524 1041
638 520 1140
642 517 1239
652 511 1330
663 506 1421
675 500 1505
691 495 1576
707 491 1647
722 488 1698
737 487 1739
752 485 1780
554 401 514
578 452 606
602 504 698
622 540 789
634 545 876
646 550 963
653 550 1056
657 547 1153
662 545 1251
672 539 1340
682 533 1429
694 527 1512
710 522 1581
725 516 1651
740 513 1702
755 511 1744
770 509 1785
556 410 558
580 461 645
603 513 733
624 550 820
640 558 905
657 566 990
669 569 1080
678 570 1172
688 571 1264
698 566 1352
709 562 1440
721 557 1521
736 552 1589
751 547 1657
766 543 1707
781 541 1748
795 539 1789
559 419 607
581 468 690
603 517 772
625 554 855
644 566 939
664 578 1022
682 585 1107
700 591 1193
718 596 1279
728 594 1365
738 592 1452
750 589 1532
766 584 1597
781 579 1663
795 576 1712
810 573 1752
824 570 1793
562 427 656
583 474 734
604 521 811
626 557 890
648 573 973
671 589 1055
695 601 1135
721 611 1214
747 621 1293
758 621 1379
768 622 1464
780 621 1542
795 616 1606
811 612 1670
825 608 1717
839 605 1757
853 602 1796
570 444 728
589 484 799
608 525 870
629 558 944
655 577 1023
680 595 1102
708 610 1179
737 623 1256
767 636 1332
787 642 1408
807 647 1485
825 650 1557
840 649 1619
855 647 1682
869 644 1727
883 641 1765
898 637 1802
577 460 800
594 495 864
612 529 929
633 559 997
661 580 1073
689 600 1149
721 619 1223
754 635 1297
787 652 1371
816 663 1438
845 673 1506
870 680 1571
884 681 1632
899 681 1693
914 679 1737
928 676 1773
942 673 1808
586 479 883
601 508 940
617 536 997
637 562 1059
669 585 1131
700 607 1202
735 628 1273
772 648 1343
808 667 1413
845 682 1473
882 697 1533
913 708 1593
931 712 1651
950 716 1709
965 715 1750
980 712 1784
994 709 1817
596 504 988
610 526 1036
624 547 1085
645 570 1139
680 593 1204
714 616 1269
752 638 1334
793 660 1398
833 682 1462
875 699 1519
916 717 1575
954 732 1630
983 742 1680
1013 751 1731
1032 752 1769
1047 749 1800
1062 746 1832
607 529 1093
619 544 1133
632 559 1173
653 577 1219
690 601 1277
728 625 1335
770 649 1394
814 673 1453
858 696 1511
904 717 1564
951 737 1617
995 756 1666
1035 771 1710
1076 787 1754
1099 790 1788
1114 787 1817
1129 783 1846
618 549 1229
629 559 1258
641 570 1287
662 585 1322
703 609 1371
744 634 1420
790 658 1469
839 682 1519
887 707 1569
938 729 1615
990 751 1661
1040 772 1705
1088 790 1744
1137 809 1782
1169 817 1814
1193 821 1841
1218 824 1869
629 567 1381
640 573 1397
651 580 1414
673 592 1438
718 617 1476
763 642 1514
813 666 1552
865 691 1591
918 715 1630
975 738 1669
1031 761 1707
1087 783 1745
1142 804 1780
1196 824 1815
1240 840 1844
1279 853 1870
1317 866 1896
640 585 1533
650 588 1537
660 590 1541
683 600 1553
732 625 1580
781 650 1607
835 675 1635
892 699 1663
949 723 1691
1011 747 1722
1073 771 1753
1134 795 1784
1195 817 1816
1256 840 1847
1312 863 1874
1364 885 1898
1417 908 1923
642 268 411
645 279 478
648 291 544
648 304 620
640 319 712
632 333 805
628 345 911
627 356 1023
625 367 1135
633 375 1244
642 384 1352
652 391 1453
666 397 1537
679 403 1620
693 407 1679
707 411 1725
721 415 1771
665 329 423
679 356 510
692 383 596
699 404 685
692 414 781
686 423 877
682 429 979
681 433 1086
679 437 1193
686 440 1294
694 442 1396
703 444 1489
717 446 1568
731 448 1646
744 450 1701
758 452 1744
