Assets/1__3DArt/KimSe/artstation_asset/LUTs_subway_asset/3DL/LoFi Chill 04.3dl
# LUT by SparkleStock. Enhanced with VOXCOLOR algorithms.
0 64 128 192 256 320 384 448 512 576 640 704 768 832 896 960 1023
272 288 400
285 312 456
297 335 512
316 363 579
346 398 669
375 433 759
419 477 868
470 525 987
521 573 1105
588 630 1232
656 687 1359
724 744 1479
795 799 1587
865 854 1695
922 903 1775
974 948 1840
1025 993 1905
279 301 418
293 324 473
308 347 528
327 374 595
358 410 685
388 447 776
432 491 884
482 538 1001
532 586 1118
598 642 1242
663 698 1366
730 753 1484
798 807 1590
866 861 1696
922 907 1774
972 950 1838
1022 992 1901
286 314 435
302 336 490
318 358 544
339 385 611
370 423 702
402 460 792
445 504 900
494 552 1016
543 599 1131
607 654 1253
670 709 1374
735 763 1490
801 815 1593
867 868 1697
922 911 1773
971 951 1835
1020 991 1898
292 326 455
311 349 511
329 373 566
353 401 634
385 439 724
418 478 814
461 522 920
510 569 1034
558 617 1148
620 670 1267
683 724 1386
746 777 1499
810 828 1600
874 879 1702
927 921 1776
974 958 1837
1022 995 1897
298 338 480
321 366 540
344 394 601
371 425 670
407 464 757
442 503 844
486 547 948
534 595 1061
582 643 1173
644 696 1289
705 749 1406
766 801 1517
828 850 1616
890 900 1715
941 940 1786
987 974 1845
1032 1009 1903
305 351 504
332 383 569
359 415 635
390 449 707
428 488 791
465 528 875
510 573 977
559 621 1087
607 669 1198
667 721 1312
727 773 1426
787 824 1534
847 873 1631
907 921 1727
956 958 1797
999 990 1853
1042 1022 1909
317 369 540
347 404 609
378 438 677
411 475 752
452 517 836
493 558 921
540 604 1020
590 653 1125
639 702 1231
698 753 1342
757 804 1453
816 854 1558
874 902 1652
932 949 1746
979 984 1813
1020 1014 1868
1062 1044 1922
331 389 581
365 426 653
398 463 724
435 503 801
479 547 888
523 592 975
572 639 1070
624 688 1169
676 737 1268
733 788 1376
791 839 1483
849 888 1585
905 934 1676
962 980 1767
1007 1014 1833
1046 1042 1886
1085 1070 1939
346 410 623
382 449 697
418 488 771
458 530 850
506 577 940
553 625 1029
605 674 1121
658 723 1213
712 772 1305
769 823 1409
825 873 1514
881 922 1612
937 966 1700
992 1011 1789
1035 1043 1852
1072 1070 1904
1109 1096 1955
376 447 694
413 485 767
450 524 840
491 566 918
541 614 1006
590 663 1095
644 713 1185
700 764 1277
756 815 1369
814 865 1465
871 916 1561
927 964 1653
981 1008 1738
1035 1052 1823
1077 1083 1884
1113 1109 1934
1149 1134 1984
406 483 766
444 522 837
482 560 909
524 602 986
576 651 1073
627 700 1160
683 752 1250
742 805 1342
800 858 1433
859 908 1521
917 958 1609
973 1006 1694
1026 1049 1776
1078 1093 1858
1119 1123 1917
1154 1148 1965
1188 1172 2013
443 527 850
481 565 920
520 603 990
563 644 1065
616 693 1149
668 742 1234
726 795 1321
787 849 1411
847 903 1500
907 953 1582
966 1004 1663
1023 1052 1744
1075 1095 1821
1127 1138 1899
1167 1168 1955
1201 1192 2002
1235 1216 2048
492 584 962
532 621 1028
571 657 1094
614 698 1164
667 745 1243
719 792 1321
777 844 1404
838 897 1489
898 951 1574
960 1003 1654
1022 1055 1733
1081 1104 1810
1135 1148 1881
1188 1191 1953
1229 1222 2007
1263 1246 2052
1296 1270 2096
542 641 1074
582 677 1135
622 712 1197
665 751 1263
717 797 1336
769 842 1409
827 893 1487
889 946 1567
950 999 1648
1014 1052 1725
1077 1105 1803
1138 1156 1876
1194 1200 1942
1249 1245 2008
1290 1276 2058
1324 1299 2102
1358 1323 2145
608 711 1217
649 747 1275
690 782 1332
734 820 1391
784 863 1456
835 906 1521
892 955 1591
951 1005 1663
1011 1056 1735
1075 1108 1808
1139 1161 1880
1201 1211 1949
1259 1258 2012
1316 1304 2074
1361 1338 2125
1399 1366 2169
1438 1394 2213
680 788 1377
723 824 1429
766 860 1482
811 897 1535
860 937 1590
909 977 1646
963 1022 1706
1020 1070 1768
1078 1117 1831
1141 1168 1896
1204 1219 1961
1266 1269 2025
1326 1317 2086
1386 1365 2147
1436 1404 2199
1482 1439 2245
1527 1473 2292
753 865 1537
798 901 1584
843 937 1632
889 973 1678
935 1011 1725
982 1049 1771
1034 1090 1821
1089 1134 1873
1144 1178 1926
1206 1227 1984
1269 1277 2042
1331 1326 2101
1394 1376 2161
1456 1426 2220
1512 1470 2273
1564 1511 2321
1617 1553 2370
349 303 404
362 337 474
376 372 543
394 407 620
422 442 712
450 477 805
492 522 915
542 571 1035
592 620 1154
658 677 1281
724 735 1408
790 791 1528
858 847 1635
926 902 1743
981 949 1822
1030 992 1887
1079 1035 1952
361 324 433
381 362 505
400 399 577
422 437 656
452 473 748
481 510 841
523 555 950
572 603 1067
621 651 1184
685 707 1308
749 763 1431
814 818 1548
879 871 1652
945 924 1756
999 968 1833
1047 1009 1896
1095 1049 1959
374 346 462
399 386 537
424 426 612
451 466 692
481 504 784
512 543 877
554 588 984
602 635 1099
650 683 1214
712 737 1334
774 791 1453
837 844 1567
901 895 1669
964 946 1770
1017 988 1845
1064 1026 1906
1110 1063 1966
386 367 492
415 410 570
445 452 647
476 494 729
509 534 820
542 574 912
584 619 1017
631 666 1130
679 714 1243
739 766 1360
799 819 1476
860 870 1586
922 919 1685
984 968 1784
1035 1008 1857
1080 1044 1915
1126 1079 1974
396 387 527
428 431 605
461 476 683
495 519 765
532 561 855
569 602 945
613 648 1048
660 695 1159
707 743 1270
766 795 1384
825 846 1498
884 897 1606
944 944 1702
1004 992 1799
1053 1030 1869
1097 1064 1926
1141 1097 1983
406 407 561
441 453 640
477 499 720
514 545 802
555 587 890
596 630 977
641 676 1079
688 724 1188
735 772 1297
793 823 1408
850 874 1520
908 923 1625
966 970 1719
1024 1017 1813
1072 1053 1881
1113 1084 1937
1155 1115 1993
421 431 606
459 478 685
496 525 765
536 571 848
580 617 936
625 662 1024
672 710 1123
722 758 1227
771 807 1332
827 857 1440
884 908 1548
940 956 1651
996 1002 1742
1053 1047 1833
1098 1082 1900
1138 1111 1953
1178 1140 2007
440 459 657
479 505 736
517 552 815
559 599 897
607 648 987
655 696 1077
706 745 1173
758 795 1271
810 845 1370
865 895 1475
921 945 1580
976 993 1679
1031 1037 1768
1086 1082 1856
1129 1115 1920
1167 1142 1973
1206 1170 2025
459 486 707
499 533 786
539 579 864
582 627 947
634 678 1038
685 730 1130
739 781 1222
794 832 1315
849 883 1408
904 933 1510
958 982 1611
1012 1029 1708
1065 1073 1793
1118 1116 1879
1160 1148 1941
1196 1173 1992
1233 1199 2042
494 529 786
533 573 861
572 617 935
616 664 1015
668 716 1105
721 768 1196
778 820 1287
835 873 1379
893 926 1471
949 976 1564
1005 1026 1658
1060 1074 1748
1112 1116 1831
1163 1159 1913
1204 1190 1973
1239 1215 2022
1274 1239 2070
528 572 865
566 614 936
605 655 1007
649 701 1083
703 753 1172
758 806 1261
817 860 1351
877 915 1442
937 970 1533
995 1020 1619
1053 1070 1705
1108 1118 1789
1158 1160 1868
1209 1202 1947
1248 1232 2004
1282 1256 2051
1316 1280 2098
570 622 957
607 661 1023
644 699 1089
687 743 1161
743 795 1247
799 848 1333
859 903 1421
921 959 1510
983 1015 1599
1043 1066 1679
1102 1117 1759
1159 1164 1837
1209 1206 1912
1259 1248 1986
1297 1277 2041
1330 1301 2086
1363 1324 2131
625 685 1075
660 720 1134
695 755 1193
737 795 1259
793 847 1339
849 898 1420
909 952 1503
972 1007 1587
1034 1063 1671
1096 1115 1748
1157 1167 1826
1215 1215 1900
1267 1258 1968
1319 1301 2037
1358 1330 2088
1390 1353 2132
1422 1376 2175
680 748 1193
713 779 1245
746 811 1297
786 848 1356
842 898 1431
898 948 1507
959 1001 1585
1022 1056 1664
1085 1111 1743
1149 1164 1818
1212 1217 1893
1272 1267 1963
1325 1310 2025
1379 1353 2087
1418 1383 2136
1450 1406 2177
1482 1429 2218
751 825 1342
782 853 1385
812 880 1429
851 915 1480
907 963 1548
962 1011 1616
1022 1062 1686
1084 1114 1757
1146 1167 1828
1209 1219 1897
1272 1271 1966
1333 1321 2032
1388 1365 2090
1443 1410 2148
1486 1442 2195
1521 1468 2236
1557 1494 2277
830 908 1506
858 933 1541
887 957 1575
924 989 1618
979 1034 1677
1033 1080 1736
1091 1128 1797
1151 1178 1859
1211 1227 1920
1273 1278 1982
1335 1328 2044
1396 1377 2103
1453 1422 2159
1510 1467 2215
1557 1503 2261
1599 1535 2303
1640 1567 2344
908 991 1671
935 1013 1696
961 1034 1722
997 1062 1756
1051 1106 1806
1104 1149 1856
1161 1195 1908
1219 1241 1960
1276 1288 2012
1338 1337 2067
1399 1385 2121
1459 1433 2175
1518 1479 2228
1577 1525 2281
1628 1565 2327
1676 1602 2369
1724 1639 2412
426 317 409
440 363 492
454 409 574
472 451 661
498 486 756
525 521 850
566 566 962
614 616 1083
663 667 1204
727 725 1331
792 782 1458
856 839 1577
922 894 1684
987 949 1790
1040 995 1869
1086 1035 1933
1133 1076 1998
444 348 449
468 400 538
492 452 627
518 499 717
546 536 811
574 573 906
615 618 1015
662 668 1133
710 717 1251
772 772 1373
835 828 1495
897 882 1611
961 934 1714
1024 986 1817
1076 1029 1893
1121 1068 1954
1167 1106 2016
462 379 489
496 437 584
530 495 679
563 547 774
593 586 867
623 626 961
664 671 1068
710 719 1183
757 767 1297
817 820 1415
878 873 1533
938 925 1645
1000 974 1744
1061 1024 1844
1111 1064 1916
1156 1100 1976
1201 1136 2035
479 408 530
520 470 628
561 532 727
600 588 824
632 629 917
665 671 1010
707 716 1115
753 763 1226
799 811 1338
858 862 1452
916 913 1566
975 963 1674
1034 1010 1770
1094 1058 1867
1143 1096 1937
1186 1129 1994
1230 1163 2051
493 435 574
535 497 670
578 558 766
619 614 861
658 658 953
696 702 1045
739 748 1148
785 795 1258
831 843 1367
888 893 1478
945 944 1590
1002 993 1695
1060 1039 1789
1118 1085 1883
1165 1121 1952
1207 1153 2008
1249 1185 2064
506 462 617
550 523 711
595 584 805
639 640 898
683 686 989
727 733 1080
772 780 1182
817 828 1289
863 875 1397
918 925 1505
974 974 1614
1029 1022 1716
1086 1067 1808
1142 1112 1899
1187 1147 1966
1228 1177 2021
1268 1207 2076
526 494 672
571 553 762
615 612 853
661 668 944
709 717 1035
757 766 1126
805 815 1226
854 864 1329
902 913 1432
956 962 1538
1010 1011 1643
1065 1058 1743
1119 1102 1832
1174 1146 1921
1218 1180 1986
1256 1208 2039
1295 1236 2093
549 528 732
593 585 819
637 641 905
684 696 994
735 748 1086
787 800 1179
839 851 1275
892 902 1373
944 953 1471
997 1002 1574
1051 1051 1676
1104 1098 1773
1156 1141 1859
1209 1184 1945
1252 1216 2008
1289 1243 2060
1326 1269 2111
572 562 792
616 616 875
659 670 958
707 724 1044
762 779 1138
816 834 1231
872 888 1324
929 941 1417
987 994 1511
1039 1042 1610
1091 1091 1709
1143 1137 1803
1194 1179 1886
1245 1221 1970
1286 1252 2030
1321 1277 2080
1356 1302 2130
611 611 878
652 661 954
694 710 1031
740 762 1112
796 817 1204
853 873 1296
911 928 1388
971 983 1480
1030 1038 1572
1085 1087 1664
1139 1137 1756
1193 1183 1843
1242 1225 1923
1292 1266 2003
1331 1296 2061
1366 1320 2109
1400 1345 2157
650 661 965
689 705 1034
728 750 1104
773 799 1181
831 855 1271
890 911 1361
950 968 1452
1012 1025 1543
1073 1081 1634
1131 1132 1718
1188 1182 1802
1242 1230 1884
1291 1270 1960
1339 1311 2036
1377 1340 2092
1410 1364 2138
1443 1387 2184
697 716 1064
732 756 1126
767 796 1188
811 841 1258
871 897 1346
930 954 1433
992 1011 1522
1056 1069 1610
1119 1127 1698
1179 1178 1776
1238 1230 1854
1294 1277 1930
1342 1318 2002
1390 1358 2074
1428 1386 2127
1459 1409 2171
1491 1432 2214
757 786 1188
788 819 1240
818 853 1292
859 893 1354
919 948 1436
979 1003 1519
1042 1060 1602
1106 1117 1685
1170 1175 1769
1231 1227 1843
1292 1279 1918
1350 1327 1990
1400 1369 2055
1450 1410 2121
1487 1438 2170
1518 1461 2211
1548 1483 2253
818 855 1312
844 882 1354
870 909 1396
907 945 1450
967 999 1527
1028 1053 1604
1091 1109 1682
1156 1166 1761
1221 1223 1839
1283 1275 1911
1346 1328 1982
1405 1377 2050
1457 1420 2109
1509 1462 2167
1546 1490 2213
1576 1512 2252
1606 1534 2291
894 938 1466
915 958 1496
935 979 1526
969 1010 1569
1029 1062 1640
1089 1115 1710
1152 1169 1780
1216 1224 1851
1280 1278 1921
1343 1330 1987
1405 1382 2053
1464 1430 2115
1518 1473 2169
1571 1515 2223
1610 1546 2266
1644 1570 2304
1677 1594 2341
979 1028 1635
993 1041 1652
1007 1055 1669
1037 1080 1701
1097 1131 1763
1158 1182 1826
1220 1234 1887
1282 1286 1949
1345 1338 2010
1406 1388 2068
1467 1438 2126
1526 1485 2182
1580 1527 2232
1634 1570 2282
1677 1603 2324
1715 1631 2361
1753 1660 2397
1063 1118 1805
1072 1124 1808
1080 1131 1812
1105 1151 1833
1166 1200 1887
1226 1249 1942
1287 1299 1995
1348 1348 2047
1409 1398 2098
1469 1446 2149
1529 1493 2200
1587 1539 2249
1642 1582 2296
1697 1624 2342
1744 1660 2382
1787 1692 2417
1830 1725 2453
534 334 411
548 387 502
562 440 592
580 490 687
605 535 793
631 579 900
670 628 1017
716 680 1140
762 732 1263
824 790 1390
886 849 1517
949 906 1638
1011 961 1744
1074 1016 1850
1124 1061 1928
1168 1100 1993
1213 1139 2057
557 372 459
583 434 559
610 496 658
637 552 760
665 599 865
692 646 970
732 695 1084
777 745 1203
822 795 1322
882 851 1444
942 906 1566
1002 961 1681
1062 1012 1783
1123 1064 1885
1172 1106 1960
1215 1142 2021
