Assets/1__3DArt/KimSe/artstation_asset/LUTs_subway_asset/3DL/LoFi Chill 01_S.3dl
# LUT by SparkleStock. Enhanced with VOXCOLOR algorithms.
0 64 128 192 256 320 384 448 512 576 640 704 768 832 896 960 1023
352 288 352
349 309 396
346 331 439
343 354 491
338 380 561
334 405 631
332 432 711
332 459 797
332 486 883
336 510 969
341 535 1055
346 557 1136
353 576 1207
360 596 1278
368 611 1328
376 626 1368
384 640 1409
356 300 363
354 320 405
351 340 447
348 362 498
343 388 568
338 415 639
336 441 719
335 468 805
334 495 890
338 519 976
342 543 1061
347 565 1142
353 584 1211
359 603 1281
367 617 1332
374 630 1374
381 643 1415
361 312 374
359 330 414
356 349 455
353 370 505
348 397 576
343 424 647
340 451 727
338 477 812
336 504 897
340 528 982
343 552 1067
347 574 1147
353 592 1216
359 610 1285
366 623 1337
372 634 1379
379 645 1422
364 324 386
362 342 427
361 360 467
358 381 518
353 408 588
349 435 657
346 462 737
343 489 822
340 516 907
343 540 991
345 563 1075
349 585 1154
355 603 1223
361 621 1292
366 633 1343
372 643 1387
378 653 1430
366 336 401
365 356 445
364 376 490
362 398 541
359 424 607
356 449 673
353 477 752
350 505 837
347 534 921
349 558 1005
351 582 1088
354 604 1166
360 621 1234
365 639 1302
370 651 1354
376 661 1398
381 670 1441
367 347 416
367 370 464
367 393 512
366 416 565
365 440 627
364 463 689
361 492 766
357 522 851
354 552 936
355 576 1019
357 601 1101
360 623 1178
365 640 1246
370 657 1313
375 669 1365
379 678 1409
384 687 1453
367 365 440
367 388 491
368 412 541
368 435 595
368 460 657
368 484 718
367 512 792
366 542 873
364 571 954
365 597 1036
366 622 1118
368 645 1194
373 662 1261
378 680 1327
383 692 1378
387 701 1422
392 710 1466
367 385 468
368 409 521
368 432 573
369 456 628
370 482 692
371 508 755
373 535 825
374 563 899
376 591 973
376 619 1055
377 646 1136
379 670 1212
383 687 1278
388 704 1343
393 716 1393
397 726 1436
402 735 1479
367 406 497
368 429 551
368 452 604
370 476 662
372 504 726
374 532 791
378 559 858
383 585 925
388 611 992
388 640 1073
387 670 1155
389 695 1230
393 712 1294
398 729 1359
403 741 1408
408 751 1451
412 760 1493
365 436 546
366 458 599
368 479 652
370 503 708
373 531 772
376 558 836
382 586 902
388 613 969
394 641 1037
398 669 1111
402 697 1185
407 722 1255
411 741 1319
416 760 1383
421 772 1431
426 782 1473
431 791 1514
363 467 595
365 487 647
367 507 699
370 529 755
374 557 818
378 585 881
385 613 947
393 642 1014
401 671 1081
409 698 1148
417 724 1215
425 749 1280
429 770 1344
434 790 1407
439 803 1455
444 813 1494
449 822 1534
360 499 654
363 518 705
366 537 755
369 558 809
375 585 870
380 613 931
388 642 996
398 671 1062
407 701 1128
420 727 1190
432 754 1251
442 779 1313
448 801 1375
455 824 1437
461 838 1483
467 847 1522
473 856 1561
355 536 733
359 554 780
364 571 828
369 591 878
376 617 935
382 642 992
392 671 1052
404 701 1115
415 731 1178
430 759 1240
445 787 1301
459 814 1362
470 838 1420
482 863 1478
490 878 1522
497 887 1560
505 897 1599
350 574 812
356 589 856
361 605 901
368 623 948
376 648 1000
384 672 1052
396 700 1109
409 730 1169
423 760 1229
440 790 1290
458 820 1352
476 849 1410
492 876 1465
509 903 1519
520 918 1562
528 928 1599
536 938 1636
341 608 921
350 623 962
358 638 1002
367 655 1044
378 677 1089
388 700 1133
402 726 1183
418 755 1236
433 784 1289
454 815 1347
475 845 1404
495 876 1460
517 906 1514
538 935 1567
555 956 1612
569 973 1652
582 990 1693
331 640 1045
342 655 1082
354 670 1118
366 686 1155
379 706 1190
392 726 1225
409 751 1266
427 778 1310
446 805 1353
469 836 1406
493 868 1458
517 899 1511
543 932 1565
569 965 1619
592 994 1667
614 1020 1713
636 1047 1759
320 672 1169
335 687 1202
350 702 1234
365 718 1265
381 736 1291
397 753 1317
416 776 1349
437 801 1384
458 826 1418
484 858 1465
511 890 1512
538 923 1561
569 959 1616
599 994 1671
629 1031 1723
659 1068 1774
689 1105 1825
439 298 353
432 320 403
425 342 453
417 366 509
406 394 581
395 421 653
388 450 735
383 479 823
378 508 911
379 535 999
381 561 1088
383 586 1170
388 606 1242
393 627 1314
400 644 1366
407 658 1408
414 673 1450
451 329 365
449 354 422
447 380 478
442 406 541
431 432 614
420 458 686
411 484 768
405 510 854
398 537 940
398 561 1026
397 585 1111
398 608 1192
403 627 1262
407 647 1332
413 662 1383
419 675 1425
426 687 1467
463 359 377
466 389 441
469 418 504
468 446 572
456 470 646
444 494 720
435 518 801
426 542 885
417 566 969
416 588 1052
414 610 1135
414 630 1213
417 648 1281
421 666 1349
426 680 1400
432 691 1442
438 702 1484
470 384 391
477 417 460
484 450 529
485 480 600
474 503 674
463 525 749
453 548 829
444 570 911
434 593 994
431 613 1075
428 634 1156
427 653 1232
430 670 1299
433 686 1365
437 699 1416
443 709 1458
448 719 1500
468 396 412
476 433 482
483 470 551
486 502 622
479 525 694
471 547 766
463 570 845
453 593 928
444 616 1011
441 636 1091
438 656 1171
436 675 1246
439 692 1312
442 708 1378
446 720 1429
451 730 1473
457 740 1516
467 409 433
475 450 504
482 490 574
487 525 644
483 547 713
479 570 783
472 593 861
463 616 945
453 639 1028
450 659 1107
447 679 1186
446 698 1260
448 713 1326
451 729 1392
455 741 1443
460 751 1487
465 761 1531
464 425 464
471 466 533
479 508 603
484 544 672
483 567 741
482 591 810
478 615 887
472 640 967
467 664 1047
464 684 1126
460 705 1204
459 724 1278
462 740 1343
465 755 1408
469 767 1459
473 777 1503
478 787 1547
461 443 499
467 484 567
474 524 635
479 560 703
480 587 773
481 613 843
482 639 916
482 663 992
482 688 1068
479 711 1146
476 733 1225
475 753 1299
478 768 1362
480 784 1426
485 795 1476
489 805 1519
494 815 1563
458 461 535
463 501 601
469 541 667
474 577 735
477 606 805
481 635 875
486 662 946
491 687 1017
497 713 1088
494 737 1167
491 761 1246
490 781 1319
493 797 1381
496 812 1444
501 824 1493
505 833 1536
510 843 1579
454 492 591
459 527 654
464 563 716
469 597 781
474 627 850
479 656 918
487 685 988
495 712 1059
503 740 1130
507 765 1203
510 790 1275
513 812 1345
517 829 1407
520 845 1469
525 857 1517
530 867 1558
535 877 1600
450 522 648
454 554 707
458 586 765
464 617 827
471 647 894
478 678 962
488 708 1031
499 737 1101
510 767 1171
519 793 1238
529 819 1305
536 842 1371
540 860 1432
544 879 1494
549 891 1541
555 901 1581
560 910 1621
445 555 715
449 583 769
453 611 823
459 640 881
468 670 946
478 701 1011
490 732 1078
503 763 1147
517 795 1215
532 822 1278
546 849 1341
558 874 1403
565 894 1463
571 914 1523
577 927 1569
583 936 1608
589 946 1646
439 596 801
443 619 849
448 643 898
455 668 950
467 697 1011
478 727 1072
493 758 1135
509 790 1200
525 822 1265
543 851 1327
562 880 1389
578 907 1449
591 931 1506
603 954 1562
612 968 1606
619 977 1643
627 986 1681
433 636 888
438 655 930
443 674 973
451 696 1020
465 725 1076
479 753 1132
496 784 1192
515 817 1254
534 849 1316
555 880 1376
577 912 1437
598 941 1496
617 968 1548
636 994 1601
647 1009 1643
655 1018 1679
664 1027 1715
424 675 1004
430 691 1040
437 706 1075
448 725 1115
465 752 1164
482 779 1213
503 809 1266
524 841 1321
546 873 1376
571 905 1432
596 937 1489
621 968 1544
644 997 1595
668 1027 1646
685 1046 1689
699 1061 1727
712 1076 1765
413 714 1136
423 726 1164
432 738 1191
445 755 1223
466 780 1264
486 805 1305
510 834 1349
535 864 1395
561 894 1440
589 927 1492
617 960 1543
645 992 1594
673 1024 1644
701 1055 1695
725 1082 1739
746 1106 1780
767 1130 1821
403 752 1268
415 761 1288
426 771 1308
442 785 1332
466 808 1364
491 831 1396
518 858 1431
546 887 1468
575 916 1505
606 949 1551
638 982 1597
670 1015 1644
702 1050 1694
734 1084 1744
764 1117 1790
793 1150 1834
821 1183 1878
525 308 355
514 331 411
503 354 466
491 379 528
473 408 601
456 437 675
444 468 759
434 499 849
424 530 939
422 559 1029
420 587 1120
420 614 1204
423 636 1278
427 658 1351
432 676 1405
438 690 1448
443 705 1492
545 357 367
544 389 439
543 421 510
536 450 583
519 476 659
501 501 734
486 526 817
474 553 904
461 579 990
457 603 1076
453 628 1161
450 651 1242
452 670 1312
455 690 1382
459 706 1434
464 719 1476
470 732 1519
564 407 380
573 448 467
582 488 554
582 522 638
564 543 716
545 564 794
529 585 875
514 606 958
498 628 1041
492 648 1122
485 668 1203
481 687 1279
481 705 1346
482 722 1413
486 736 1463
491 748 1505
497 759 1546
576 444 397
591 493 494
607 541 591
612 579 682
595 598 761
578 616 840
561 634 920
544 652 1001
527 670 1082
519 687 1159
511 704 1236
505 720 1309
505 736 1374
505 752 1439
508 764 1488
514 775 1529
519 786 1570
571 457 424
587 511 518
603 564 613
609 607 702
598 626 780
586 646 858
572 664 938
556 681 1019
540 698 1100
532 715 1177
524 731 1253
519 747 1326
519 762 1390
519 777 1455
522 789 1505
527 799 1547
532 810 1590
567 470 451
582 529 543
598 588 635
607 634 722
601 655 800
595 676 877
583 694 957
568 710 1038
553 727 1119
545 742 1195
537 758 1271
532 773 1342
532 787 1406
532 801 1470
535 813 1521
540 824 1565
546 835 1609
561 485 488
575 545 576
590 604 664
599 652 748
597 675 825
595 699 902
588 719 981
579 738 1061
569 756 1140
562 772 1216
555 788 1291
550 803 1363
551 817 1426
551 831 1489
554 843 1539
560 853 1584
565 864 1628
555 501 530
567 559 614
579 617 697
588 665 778
590 691 854
591 718 930
591 742 1008
589 764 1085
588 786 1163
581 803 1238
575 820 1314
571 836 1385
572 849 1447
573 863 1509
576 874 1558
581 885 1602
587 895 1646
548 517 573
559 573 651
569 630 730
578 677 808
582 708 883
587 738 959
593 765 1034
600 790 1109
606 815 1185
601 833 1261
595 852 1336
592 868 1407
593 882 1468
595 895 1529
598 906 1578
603 916 1621
608 927 1665
542 547 637
551 597 709
559 647 781
567 691 853
575 723 927
583 754 1001
592 783 1075
602 811 1149
612 839 1223
615 861 1294
617 882 1366
620 902 1434
622 916 1494
625 931 1554
629 942 1602
634 952 1644
640 962 1686
536 577 701
543 621 766
549 665 832
557 705 899
568 738 971
578 770 1043
591 802 1115
605 833 1188
618 864 1261
629 889 1328
640 913 1396
648 935 1461
651 951 1521
655 967 1580
660 979 1627
665 988 1667
671 998 1707
530 611 775
535 649 833
540 686 891
548 722 953
562 755 1022
575 788 1091
591 822 1161
609 855 1232
626 888 1302
643 916 1367
661 944 1431
675 968 1493
681 986 1552
687 1005 1610
693 1017 1655
700 1026 1693
706 1035 1732
523 655 869
527 685 918
532 715 968
541 746 1022
558 778 1087
575 811 1152
594 845 1218
615 879 1285
636 913 1352
657 944 1415
678 974 1477
697 1001 1537
711 1023 1592
725 1045 1646
734 1058 1689
741 1067 1726
749 1076 1763
515 699 963
520 721 1004
524 743 1044
534 769 1092
554 801 1152
574 834 1213
597 868 1275
621 903 1338
645 939 1402
671 971 1463
696 1003 1523
720 1034 1581
741 1060 1632
762 1086 1683
775 1100 1724
783 1108 1759
791 1117 1795
506 743 1088
511 759 1118
517 775 1148
528 796 1186
552 827 1239
576 858 1293
603 892 1349
631 927 1405
659 962 1462
689 995 1518
718 1029 1574
746 1060 1628
772 1089 1677
798 1118 1726
816 1137 1765
829 1150 1801
842 1163 1836
496 788 1228
503 797 1246
509 807 1265
523 823 1292
552 854 1338
580 884 1384
611 916 1431
644 950 1479
676 984 1527
709 1018 1578
741 1051 1628
773 1084 1677
804 1115 1724
834 1146 1771
857 1170 1811
878 1191 1847
898 1212 1883
486 832 1368
494 836 1374
502 839 1381
519 851 1398
552 880 1436
585 909 1475
620 941 1514
656 973 1553
692 1006 1593
729 1040 1637
765 1074 1681
801 1108 1726
835 1141 1771
869 1174 1816
899 1204 1856
926 1233 1893
954 1261 1930
649 322 357
637 344 417
625 366 478
609 392 545
585 424 622
561 457 699
541 491 787
523 527 880
505 562 973
498 594 1067
490 626 1160
486 656 1248
486 680 1324
487 705 1400
490 724 1456
494 740 1501
499 756 1547
675 386 368
676 421 452
677 456 535
670 488 618
646 515 700
622 541 781
600 569 867
578 597 956
557 626 1044
546 652 1130
536 679 1217
529 703 1298
527 725 1370
526 746 1441
528 763 1494
533 778 1537
