Assets/1__3DArt/KimSe/artstation_asset/LUTs_subway_asset/3DL/LoFi Chill 04_S.3dl
# LUT by SparkleStock. Enhanced with VOXCOLOR algorithms.
0 64 128 192 256 320 384 448 512 576 640 704 768 832 896 960 1023
272 288 400
285 312 456
297 335 512
316 363 579
346 398 669
375 433 759
419 477 868
470 525 987
521 573 1105
588 630 1232
656 687 1359
724 744 1479
795 799 1587
865 854 1695
922 903 1775
974 948 1840
1025 993 1905
279 301 418
293 324 473
308 347 528
327 374 595
358 411 686
388 447 777
431 491 885
481 539 1002
531 587 1119
597 643 1243
663 699 1367
729 754 1486
797 808 1592
865 862 1698
921 908 1776
970 950 1841
1020 993 1905
286 314 435
302 336 490
318 358 544
339 385 611
370 423 703
401 461 794
444 506 902
493 554 1017
542 602 1133
606 656 1254
669 710 1376
733 764 1492
799 817 1596
865 869 1701
919 913 1778
967 953 1841
1015 992 1905
292 327 455
311 350 511
329 373 566
353 401 634
385 440 725
417 478 816
460 524 923
508 572 1037
557 620 1151
618 674 1270
680 727 1389
743 780 1503
807 831 1605
870 881 1708
923 923 1784
969 960 1846
1015 997 1909
298 341 479
321 368 540
344 395 600
371 426 670
406 465 759
441 504 847
485 549 951
532 599 1064
579 648 1177
640 701 1294
701 754 1411
762 806 1523
824 855 1623
885 904 1723
935 943 1797
979 978 1859
1023 1012 1920
305 354 503
332 386 569
358 417 635
389 451 707
427 490 792
465 529 877
509 575 980
556 625 1092
602 676 1204
662 728 1319
721 781 1434
780 832 1543
840 879 1640
900 927 1738
948 964 1811
990 995 1871
1031 1027 1932
316 375 538
346 409 608
376 442 677
410 479 752
451 520 837
492 561 923
538 608 1023
587 658 1130
635 707 1237
692 761 1349
750 814 1462
808 864 1569
866 911 1664
924 957 1758
970 992 1829
1010 1021 1889
1049 1051 1948
330 398 579
363 434 651
396 470 723
433 508 800
477 553 888
521 597 976
570 644 1072
621 693 1172
672 741 1272
728 795 1383
783 849 1493
839 900 1598
896 946 1690
952 991 1782
996 1024 1851
1034 1052 1908
1072 1079 1965
344 422 620
380 459 695
416 497 769
456 538 849
503 585 940
550 633 1030
602 680 1122
656 728 1215
710 775 1308
763 830 1416
817 885 1525
870 936 1627
926 980 1716
981 1025 1805
1023 1057 1872
1059 1082 1927
1095 1107 1983
373 464 689
410 501 763
447 537 838
488 578 917
537 627 1006
586 675 1095
640 724 1187
696 774 1280
752 824 1373
808 876 1472
864 928 1571
918 977 1666
971 1022 1753
1023 1067 1840
1065 1098 1904
1100 1123 1957
1136 1147 2010
401 505 758
439 542 832
477 578 906
520 619 985
571 668 1073
621 717 1161
677 768 1252
736 820 1345
795 872 1438
853 922 1528
911 971 1618
966 1019 1706
1016 1064 1790
1066 1110 1874
1106 1140 1936
1141 1163 1987
1176 1186 2038
436 553 841
476 588 913
515 624 986
558 664 1063
610 713 1148
661 763 1234
719 815 1323
779 868 1414
840 922 1505
900 970 1589
960 1018 1672
1017 1065 1755
1066 1110 1835
1116 1156 1915
1155 1186 1974
1189 1208 2023
1224 1231 2071
486 612 952
526 646 1020
565 681 1089
609 720 1161
660 767 1241
711 814 1321
769 866 1406
829 919 1492
890 972 1578
952 1023 1660
1014 1073 1742
1073 1121 1821
1125 1165 1894
1177 1210 1968
1218 1240 2024
1252 1262 2070
1285 1284 2116
535 671 1062
575 705 1127
615 738 1191
659 775 1259
710 821 1334
761 866 1409
819 917 1488
880 970 1570
940 1023 1652
1004 1075 1731
1067 1127 1811
1128 1177 1887
1184 1221 1954
1239 1264 2022
1280 1294 2073
1314 1315 2118
1347 1337 2162
602 735 1209
644 768 1268
685 802 1327
729 839 1389
779 882 1455
829 924 1521
885 973 1592
945 1024 1665
1004 1074 1738
1067 1127 1812
1131 1179 1886
1193 1228 1957
1251 1273 2021
1309 1318 2084
1354 1351 2136
1392 1378 2180
1430 1405 2225
678 800 1373
721 835 1426
764 869 1479
809 906 1534
857 946 1590
906 986 1646
960 1031 1706
1017 1079 1769
1074 1126 1832
1137 1177 1898
1200 1228 1964
1262 1277 2029
1322 1325 2091
1383 1372 2152
1433 1410 2204
1478 1445 2251
1524 1479 2298
753 865 1537
798 901 1584
843 937 1632
889 973 1678
935 1011 1725
982 1049 1771
1034 1090 1821
1089 1134 1873
1144 1178 1926
1206 1227 1984
1269 1277 2042
1331 1326 2101
1394 1376 2161
1456 1426 2220
1512 1470 2273
1564 1511 2321
1617 1553 2370
350 302 404
365 334 475
380 366 546
399 399 624
426 436 715
453 473 807
495 518 917
544 568 1036
593 618 1155
659 676 1282
724 734 1408
790 791 1528
858 846 1635
926 902 1743
981 949 1822
1030 992 1887
1079 1035 1952
367 333 425
386 367 500
406 402 575
428 437 657
456 474 750
484 511 843
525 555 952
573 604 1070
621 652 1187
685 708 1310
749 763 1433
813 818 1549
879 871 1654
944 924 1758
998 969 1835
1045 1009 1899
1093 1049 1962
384 365 447
408 401 526
432 438 605
457 474 689
486 511 784
515 548 880
556 592 988
603 639 1103
650 686 1218
712 739 1338
773 792 1457
835 845 1571
899 896 1672
963 947 1774
1015 989 1849
1061 1026 1911
1107 1064 1973
398 392 473
426 432 554
454 471 636
483 510 723
513 547 819
544 584 914
585 627 1022
632 673 1135
678 719 1249
738 771 1365
798 822 1481
858 873 1592
920 921 1691
982 970 1790
1032 1010 1863
1076 1045 1924
1121 1080 1985
406 412 508
437 456 590
468 499 672
500 541 759
536 579 852
571 617 946
613 660 1053
659 706 1165
704 752 1277
763 802 1391
821 853 1505
880 902 1613
940 949 1710
1000 996 1807
1048 1033 1879
1091 1067 1939
1133 1100 1999
415 431 543
449 479 626
482 528 708
518 573 794
558 611 886
597 650 978
641 693 1083
686 739 1194
731 785 1306
788 834 1417
845 883 1529
903 931 1635
961 976 1729
1019 1021 1824
1065 1057 1895
1106 1088 1954
1146 1119 2014
429 455 589
464 505 671
500 555 754
538 602 839
582 644 931
625 685 1023
671 729 1125
719 776 1232
766 822 1339
822 871 1449
878 920 1558
933 967 1662
990 1011 1754
1046 1055 1846
1091 1089 1915
1129 1117 1973
1168 1146 2031
445 482 641
483 532 722
520 582 804
560 631 889
607 676 982
654 721 1075
703 767 1174
755 814 1275
806 860 1376
860 909 1483
914 959 1591
968 1006 1692
1023 1049 1781
1077 1092 1870
1120 1124 1937
1158 1151 1994
1195 1177 2050
462 509 694
501 560 773
539 610 853
582 659 938
632 708 1033
682 758 1127
736 805 1222
791 852 1318
846 898 1413
898 948 1518
950 998 1623
1002 1045 1722
1056 1087 1808
1109 1129 1895
1150 1160 1960
1186 1184 2015
1221 1209 2069
495 554 772
533 601 849
571 648 925
614 696 1007
666 746 1100
717 796 1193
773 846 1287
831 896 1381
889 945 1475
944 994 1572
998 1043 1669
1052 1089 1761
1103 1131 1845
1154 1174 1929
1194 1203 1991
1228 1227 2043
1263 1251 2095
527 599 851
565 643 924
602 686 997
645 732 1076
699 784 1167
753 835 1258
811 887 1351
871 940 1444
931 992 1538
989 1040 1626
1046 1087 1714
1101 1133 1800
1150 1176 1881
1198 1218 1963
1237 1247 2023
1271 1270 2072
1305 1292 2122
567 651 943
604 690 1012
640 730 1080
683 773 1155
738 825 1243
793 877 1331
852 931 1421
914 985 1512
976 1040 1603
1036 1087 1685
1096 1135 1767
1152 1181 1847
1200 1223 1924
1248 1265 2002
1286 1294 2059
1320 1316 2106
1353 1337 2153
622 715 1061
656 750 1123
691 785 1184
732 825 1253
787 875 1335
842 926 1418
902 979 1503
964 1034 1589
1026 1088 1675
1088 1138 1754
1149 1187 1833
1207 1234 1910
1258 1277 1980
1309 1319 2051
1348 1347 2104
1380 1368 2149
1413 1389 2193
676 778 1179
708 809 1234
741 839 1288
781 876 1350
836 925 1427
892 974 1504
952 1027 1584
1014 1082 1665
1077 1137 1747
1140 1188 1823
1203 1240 1900
1262 1288 1972
1316 1330 2036
1370 1372 2100
1409 1400 2150
1441 1421 2192
1473 1442 2234
748 848 1331
778 875 1377
809 902 1423
847 935 1476
902 983 1545
957 1030 1614
1016 1081 1686
1078 1134 1758
1139 1187 1831
1202 1238 1901
1265 1289 1972
1325 1338 2039
1381 1381 2098
1437 1424 2158
1479 1455 2205
1515 1479 2247
1551 1504 2289
828 920 1501
856 944 1537
885 968 1572
922 999 1616
976 1044 1675
1031 1089 1735
1089 1138 1797
1148 1187 1859
1208 1237 1922
1270 1287 1984
1332 1337 2046
1392 1385 2107
1449 1430 2163
1507 1474 2219
1554 1510 2266
1595 1541 2308
1637 1571 2350
908 991 1671
935 1013 1696
961 1034 1722
997 1062 1756
1051 1106 1806
1104 1149 1856
1161 1195 1908
1219 1241 1960
1276 1288 2012
1338 1337 2067
1399 1385 2121
1459 1433 2175
1518 1479 2228
1577 1525 2281
1628 1565 2327
1676 1602 2369
1724 1639 2412
427 315 408
445 355 494
463 396 581
483 436 669
507 474 762
531 512 855
571 560 966
618 612 1086
665 664 1205
729 722 1332
792 781 1458
856 839 1577
922 894 1684
987 949 1790
1040 995 1869
1086 1035 1933
1133 1076 1998
455 365 433
479 411 528
504 457 623
529 500 718
555 537 814
580 574 910
619 619 1020
665 668 1137
711 717 1255
773 772 1376
835 828 1498
897 882 1613
960 934 1716
1024 987 1819
1075 1030 1894
1120 1068 1957
1166 1106 2019
482 416 458
514 467 562
546 518 665
576 564 767
602 600 866
629 636 965
668 678 1074
713 724 1189
758 770 1304
818 822 1421
877 874 1538
938 925 1649
999 975 1748
1061 1024 1847
1110 1065 1920
1155 1100 1980
1199 1136 2040
504 457 490
541 513 598
578 570 706
613 619 812
642 655 912
671 690 1013
710 731 1121
755 775 1234
799 819 1347
857 868 1460
915 917 1574
973 965 1681
1033 1012 1777
1093 1059 1872
1141 1097 1943
1184 1130 2002
1226 1164 2060
514 482 536
553 543 640
592 604 744
630 657 847
665 694 946
700 731 1046
741 771 1154
785 814 1265
829 857 1377
886 904 1488
942 951 1599
999 998 1704
1057 1043 1797
1115 1087 1891
1162 1124 1961
1203 1155 2020
1244 1187 2078
525 507 583
565 573 682
606 638 782
647 695 882
688 733 981
730 771 1079
772 812 1186
816 853 1297
859 894 1407
915 940 1515
970 986 1624
1025 1031 1726
1081 1073 1818
1137 1116 1910
1183 1150 1979
1222 1180 2037
1261 1210 2096
541 536 640
583 602 735
624 668 831
667 726 927
712 767 1026
758 809 1124
804 851 1228
851 893 1335
898 936 1442
951 981 1548
1005 1026 1654
1059 1070 1755
1113 1111 1844
1168 1153 1933
1211 1185 2001
1249 1213 2058
1287 1241 2115
561 566 704
602 631 794
643 695 884
687 753 977
737 799 1076
786 845 1175
837 890 1276
889 934 1378
940 979 1480
992 1024 1584
1044 1069 1688
1097 1112 1786
1150 1153 1872
1202 1193 1959
1244 1224 2024
1281 1250 2080
1317 1276 2135
580 597 767
622 660 852
663 722 938
708 781 1027
761 832 1126
814 882 1225
869 929 1323
926 976 1420
983 1022 1517
1033 1067 1619
1084 1112 1722
1135 1155 1818
1186 1194 1901
1237 1233 1984
1277 1262 2048
1312 1287 2102
1347 1311 2156
617 645 856
656 702 934
695 758 1013
739 813 1098
794 865 1194
849 918 1290
907 968 1386
966 1017 1482
1025 1067 1577
1079 1112 1672
1133 1158 1766
1185 1201 1856
1234 1240 1937
1284 1280 2017
1323 1308 2078
1356 1331 2130
1390 1354 2181
654 694 944
690 744 1016
727 794 1089
771 846 1168
828 899 1262
885 953 1356
945 1006 1449
1006 1059 1543
1068 1112 1637
1125 1158 1724
1182 1204 1811
1236 1248 1895
1283 1287 1973
1330 1326 2051
1368 1354 2109
1401 1376 2157
1434 1398 2206
698 749 1045
732 792 1110
766 836 1174
808 883 1247
866 937 1337
924 992 1428
986 1047 1519
1049 1102 1610
1113 1157 1701
1173 1205 1781
1232 1252 1862
1288 1296 1940
1334 1336 2014
1381 1375 2088
1418 1402 2143
1450 1423 2189
1482 1444 2234
757 817 1171
787 853 1225
816 888 1280
855 930 1344
914 983 1429
973 1037 1514
1035 1092 1600
1099 1148 1685
1163 1204 1771
1224 1253 1848
1285 1302 1925
1342 1348 1999
1391 1388 2066
1441 1428 2133
1478 1454 2184
1509 1475 2227
1540 1495 2270
816 886 1296
841 913 1340
866 941 1385
903 977 1441
963 1029 1521
1022 1082 1600
1085 1137 1680
1149 1194 1761
1213 1250 1842
1276 1301 1915
1338 1352 1989
1397 1400 2058
1448 1440 2118
1500 1480 2179
1538 1507 2226
1568 1526 2266
1599 1546 2306
893 961 1454
913 981 1486
932 1001 1518
966 1032 1564
1025 1084 1635
1085 1135 1707
1148 1189 1779
1211 1244 1851
1275 1299 1923
1337 1350 1990
1399 1400 2057
1458 1448 2120
1511 1489 2176
1564 1530 2231
1604 1558 2275
1638 1581 2313
1671 1603 2352
978 1039 1630
992 1053 1647
1006 1066 1665
1035 1092 1698
1096 1142 1761
1156 1192 1824
1217 1244 1887
1279 1296 1949
1342 1348 2011
1403 1398 2070
1464 1447 2128
1522 1494 2185
1577 1535 2236
1631 1577 2287
1674 1609 2328
1712 1637 2365
1751 1664 2403
1063 1118 1805
1072 1124 1808
1080 1131 1812
1105 1151 1833
1166 1200 1887
1226 1249 1942
1287 1299 1995
1348 1348 2047
1409 1398 2098
1469 1446 2149
1529 1493 2200
1587 1539 2249
1642 1582 2296
1697 1624 2342
1744 1660 2382
1787 1692 2417
1830 1725 2453
537 331 409
557 375 505
577 420 602
598 465 701
620 514 804
643 562 908
679 615 1023
723 670 1145
767 725 1266
827 786 1392
888 846 1519
949 905 1638
1011 960 1744
1074 1016 1850
1124 1061 1928
1168 1100 1993
1213 1139 2057
573 395 435
601 447 544
630 500 653
657 550 762
681 595 869
705 640 977
741 689 1092
784 740 1210
826 791 1329
884 848 1449
943 904 1570
1002 959 1684
1062 1011 1786
1123 1063 1887
1172 1105 1961
1215 1142 2023
