Assets/1__3DArt/KimSe/artstation_asset/LUTs_subway_asset/3DL/LoFi Chill 05.3dl
# LUT by SparkleStock. Enhanced with VOXCOLOR algorithms.
0 128 256 384 512 640 768 896 1023
304 224 384
306 255 499
316 280 661
335 301 860
363 318 1086
403 327 1304
446 332 1487
489 334 1626
528 336 1713
310 252 406
315 270 521
324 292 679
341 315 872
365 331 1089
401 338 1299
441 341 1475
481 341 1610
518 340 1693
313 271 441
323 289 563
337 312 714
355 335 893
377 353 1099
410 362 1299
446 364 1468
483 363 1597
517 359 1675
316 287 494
332 311 624
352 335 768
375 359 931
400 383 1117
429 394 1306
463 398 1466
496 395 1587
526 389 1661
323 304 569
342 330 702
368 358 846
399 387 995
434 416 1143
461 430 1319
491 436 1468
522 435 1582
549 428 1653
336 328 698
356 354 821
386 382 953
424 411 1090
468 441 1226
514 466 1357
549 478 1484
578 479 1591
604 473 1658
349 360 875
372 384 979
406 411 1089
450 438 1204
505 467 1321
568 496 1426
624 518 1529
667 528 1617
693 523 1681
360 401 1105
388 423 1182
428 446 1261
479 470 1343
543 497 1429
624 525 1515
706 555 1594
778 578 1666
825 587 1729
368 448 1393
405 471 1437
452 490 1474
512 508 1512
586 529 1555
683 556 1611
789 587 1675
900 625 1742
1009 672 1809
504 251 400
501 281 515
496 305 680
496 325 883
508 343 1112
535 355 1330
566 364 1514
600 370 1655
632 374 1744
523 298 456
551 344 590
560 377 757
564 400 952
578 417 1168
606 425 1374
638 430 1546
672 431 1677
703 430 1757
534 330 515
573 383 655
598 422 815
614 450 996
629 470 1202
656 478 1397
689 481 1560
722 481 1684
753 478 1761
543 355 585
582 410 722
620 453 873
653 487 1041
678 515 1228
704 526 1413
735 531 1569
768 530 1688
798 526 1762
554 382 676
591 435 806
635 481 954
685 522 1110
738 563 1265
766 581 1437
797 589 1583
828 590 1695
857 585 1766
574 418 816
606 464 929
656 509 1063
717 555 1208
784 600 1351
845 634 1485
886 652 1611
917 657 1715
946 653 1781
596 465 1001
623 499 1089
679 543 1201
752 590 1325
834 638 1449
918 680 1560
986 711 1662
1036 728 1748
1064 728 1809
619 521 1238
642 542 1291
705 581 1372
792 630 1466
889 679 1562
992 724 1652
1091 767 1732
1172 798 1800
1220 811 1855
640 585 1533
660 590 1541
732 625 1580
835 675 1635
949 723 1691
1073 771 1753
1195 817 1816
1312 863 1874
1417 908 1923
852 301 444
851 336 556
844 373 716
832 404 918
817 427 1155
824 448 1382
840 467 1573
862 484 1721
887 499 1818
879 363 519
916 428 660
927 482 831
922 520 1029
913 543 1250
923 558 1459
943 570 1633
968 579 1766
993 586 1851
910 436 620
959 513 768
995 581 938
1015 632 1129
1014 659 1336
1028 671 1529
1051 678 1689
1077 681 1810
1102 681 1886
939 506 734
988 581 876
1044 658 1038
1091 722 1217
1113 760 1407
1131 774 1587
1155 780 1735
1181 780 1848
1207 776 1917
963 557 853
1008 626 982
1066 701 1133
1133 772 1294
1202 832 1456
1225 854 1625
1250 864 1765
1277 867 1872
1303 863 1939
998 619 1012
1035 677 1120
1092 744 1250
1165 813 1395
1252 880 1546
1326 929 1684
1370 955 1808
1399 963 1907
1426 962 1970
1036 691 1210
1065 735 1290
1120 790 1394
1200 856 1514
1308 929 1647
1412 993 1764
1491 1037 1868
1544 1062 1952
1572 1065 2010
1077 773 1455
1097 799 1499
1149 841 1566
1238 901 1654
1368 981 1762
1496 1051 1859
1611 1113 1943
1700 1157 2012
1747 1175 2062
1116 865 1750
1129 871 1750
1179 896 1773
1278 949 1820
1434 1034 1893
1587 1113 1964
1727 1182 2030
1851 1242 2086
1953 1293 2129
1307 377 519
1313 421 629
1315 478 785
1307 537 985
1283 586 1227
1265 622 1466
1262 659 1670
1272 695 1831
1291 731 1942
1340 451 608
1379 532 750
1396 610 922
1395 677 1122
1378 729 1348
1365 758 1565
1368 784 1748
1382 809 1891
1402 832 1986
1390 569 749
1440 662 899
1485 760 1075
1512 845 1272
1508 902 1485
1504 925 1681
1511 943 1844
1527 956 1967
1548 966 2046
1446 701 916
1495 790 1059
1561 897 1228
1619 998 1414
1645 1066 1610
1650 1088 1787
1662 1101 1932
1680 1106 2040
1701 1107 2106
1497 816 1087
1541 894 1212
1604 992 1362
1679 1094 1525
1759 1182 1693
1773 1212 1858
1790 1227 1992
1810 1231 2091
1831 1229 2153
1552 915 1272
1589 980 1375
1643 1062 1497
1716 1152 1635
1810 1242 1787
1890 1309 1929
1933 1343 2049
1956 1354 2141
1979 1355 2200
1612 1023 1487
1640 1073 1562
1683 1134 1652
1753 1210 1759
1862 1300 1889
1981 1387 2012
2066 1447 2118
2119 1480 2200
2144 1487 2253
1673 1139 1737
1692 1172 1779
1723 1210 1830
1790 1268 1901
1916 1358 2003
2062 1456 2108
2190 1539 2197
2284 1597 2267
2328 1621 2314
1734 1266 2027
1743 1278 2031
1762 1290 2036
1827 1327 2063
1973 1416 2131
2151 1526 2213
2306 1621 2285
2435 1699 2343
2533 1759 2384
1828 481 631
1842 536 740
1862 617 900
1883 720 1101
1899 837 1333
1852 895 1590
1828 957 1813
1826 1023 1994
1841 1091 2125
1868 570 735
1908 664 876
1938 765 1047
1962 874 1247
1983 994 1474
1942 1046 1706
1925 1096 1905
1926 1146 2064
1941 1195 2175
1926 711 896
1975 818 1044
2022 933 1215
2062 1055 1410
2089 1179 1631
2060 1225 1838
2050 1265 2012
2055 1299 2147
2072 1330 2238
2004 905 1109
2049 1004 1245
2108 1122 1405
2167 1250 1587
2211 1378 1793
2198 1420 1976
2196 1449 2125
2205 1470 2238
2224 1485 2309
2101 1147 1366
2140 1228 1483
2192 1328 1622
2259 1445 1778
2342 1575 1949
2349 1618 2112
2356 1640 2240
2367 1647 2331
2384 1648 2386
2180 1295 1584
2212 1361 1677
2257 1442 1787
2316 1538 1911
2391 1649 2049
2471 1732 2191
2508 1775 2307
2524 1790 2393
2540 1793 2445
2263 1446 1816
2288 1496 1883
2322 1556 1961
2369 1627 2050
2431 1712 2151
2555 1818 2277
2639 1891 2382
2688 1931 2461
2707 1941 2509
2347 1601 2068
2364 1635 2106
2386 1671 2148
2419 1715 2199
2467 1768 2260
2621 1889 2369
2752 1991 2462
2845 2062 2533
2884 2090 2577
2430 1762 2344
2437 1778 2349
2447 1790 2354
2466 1803 2362
2499 1821 2378
2690 1959 2468
2852 2076 2546
2981 2170 2607
3070 2236 2648
2292 608 783
2316 676 895
2350 780 1060
2393 918 1270
2443 1089 1517
2474 1260 1778
2471 1386 2017
2464 1495 2223
2484 1611 2382
2340 713 905
2382 818 1043
2422 938 1214
2466 1078 1418
2515 1246 1653
2547 1406 1893
2546 1518 2109
2540 1607 2290
2557 1698 2426
2408 881 1088
2454 994 1228
2503 1121 1391
2552 1265 1582
2600 1425 1803
2635 1573 2022
2638 1670 2213
2635 1740 2367
2651 1807 2478
2496 1104 1323
2538 1208 1449
2590 1331 1595
2645 1469 1763
2696 1617 1958
2733 1753 2157
2742 1835 2322
2744 1886 2449
2761 1931 2536
2602 1377 1598
2636 1463 1705
2680 1565 1827
2734 1681 1963
2800 1810 2110
2840 1934 2290
2855 2002 2430
2863 2038 2533
2880 2063 2599
2713 1649 1874
2738 1710 1955
2771 1785 2049
2815 1874 2154
2871 1977 2272
2936 2083 2403
2965 2142 2516
2977 2170 2603
2992 2184 2655
2818 1869 2133
2836 1912 2188
2860 1964 2252
2892 2026 2324
2936 2099 2407
3007 2186 2503
3068 2257 2595
3111 2303 2671
3126 2317 2715
2917 2060 2382
2929 2087 2412
2943 2118 2445
2964 2153 2483
2994 2195 2529
3063 2263 2595
3158 2349 2670
3240 2422 2737
3271 2453 2777
3011 2243 2631
3017 2255 2635
3022 2264 2637
3030 2273 2641
3046 2282 2649
3114 2331 2685
3226 2421 2743
3341 2517 2802
3417 2582 2841
2653 736 944
2687 818 1065
2734 943 1236
2794 1112 1453
2867 1324 1709
2946 1571 1980
2995 1788 2234
3028 1977 2460
3060 2145 2646
2709 859 1086
2751 970 1219
2802 1108 1391
2861 1276 1599
2931 1480 1839
3005 1709 2089
3050 1904 2318
3079 2068 2517
3103 2205 2677
2788 1053 1293
2830 1169 1422
2879 1304 1576
2936 1465 1761
3001 1654 1981
3070 1862 2206
3112 2033 2409
3139 2171 2581
3159 2279 2712
2886 1307 1551
2922 1410 1663
2967 1532 1791
3019 1674 1944
3076 1838 2127
3139 2022 2328
3180 2170 2504
3206 2282 2647
3225 2362 2752
3001 1609 1842
3028 1692 1933
3063 1790 2036
3105 1901 2150
3156 2023 2273
3212 2183 2448
3252 2307 2597
3278 2396 2714
3298 2450 2794
3121 1929 2135
3139 1986 2200
3163 2055 2275
3194 2135 2360
3234 2227 2453
3284 2334 2565
3321 2428 2678
3348 2497 2774
3365 2533 2834
3232 2198 2394
3242 2234 2437
3257 2278 2486
3277 2330 2542
3305 2391 2604
3346 2461 2676
3391 2533 2756
3427 2591 2828
3443 2617 2875
3333 2425 2630
3338 2444 2652
3345 2466 2676
3355 2493 2703
3371 2524 2735
3401 2565 2777
3454 2622 2829
3505 2676 2880
3532 2707 2918
3427 2615 2850
3428 2623 2852
3429 2628 2852
3431 2632 2852
3435 2635 2854
3452 2646 2866
3506 2691 2897
3574 2751 2935
3633 2808 2968
2914 855 1111
2956 957 1243
3015 1105 1424
3089 1300 1647
3178 1545 1908
3282 1839 2186
3380 2132 2446
3460 2400 2681
3511 2619 2883
2976 1001 1273
3017 1116 1400
3075 1270 1573
3148 1463 1786
3233 1697 2029
3328 1966 2283
3417 2229 2518
3488 2466 2726
3529 2652 2900
3064 1225 1505
3101 1335 1618
3150 1475 1762
3213 1650 1942
3291 1862 2159
3375 2102 2385
3455 2334 2592
3518 2537 2772
3552 2689 2917
3172 1509 1787
3202 1604 1879
3239 1719 1987
3287 1861 2122
3350 2036 2295
3424 2242 2488
3494 2440 2666
3549 2610 2819
3579 2729 2935
3295 1837 2093
3315 1911 2162
3341 1999 2242
3373 2100 2332
3411 2212 2431
3472 2381 2590
3533 2546 2739
3582 2684 2864
3609 2773 2954
3414 2164 2377
3425 2214 2424
3439 2273 2477
3459 2342 2538
3485 2420 2606
3523 2517 2695
3570 2637 2803
3613 2747 2905
3638 2812 2975
3518 2454 2619
3522 2481 2647
3527 2515 2679
3537 2555 2715
3551 2603 2757
3576 2657 2806
3608 2728 2872
3641 2796 2939
3662 2842 2992
3608 2692 2823
3607 2703 2836
3607 2716 2850
3608 2733 2866
3613 2754 2885
3628 2781 2910
3648 2810 2940
3670 2842 2973
3694 2877 3011
3685 2865 2995
3682 2869 2996
3679 2871 2994
3677 2871 2992
3674 2870 2991
3679 2872 2994
3689 2877 3002
3710 2894 3016
3745 2930 3037
3074 961 1281
3124 1087 1426
3192 1261 1618
3278 1482 1848
3381 1753 2111
3496 2072 2384
3606 2391 2638
3703 2693 2865
3779 2962 3058
3142 1134 1461
3179 1247 1579
3243 1418 1755
3327 1637 1974
3425 1894 2218
3529 2185 2467
3628 2471 2695
3714 2739 2897
3781 2973 3064
3239 1390 1719
3267 1488 1811
3315 1629 1944
3383 1815 2118
3470 2047 2333
3562 2303 2551
3649 2552 2750
3724 2781 2924
3783 2980 3066
3356 1705 2023
3376 1785 2090
3405 1888 2175
3450 2025 2291
3517 2208 2454
3595 2423 2636
3669 2631 2803
3733 2822 2948
3784 2985 3066
3485 2057 2343
3495 2114 2385
3512 2187 2438
3535 2273 2502
3564 2373 2576
3627 2543 2721
3688 2709 2854
3742 2861 2972
3786 2990 3067
3600 2385 2613
3602 2420 2635
3607 2464 2664
3617 2517 2700
3633 2579 2743
3663 2665 2811
3704 2776 2900
3749 2892 2992
3789 2994 3069
3691 2654 2823
3688 2672 2832
3685 2693 2844
3685 2720 2859
3690 2752 2878
3703 2790 2907
3724 2846 2952
3754 2915 3009
3790 2993 3069
3757 2856 2972
3750 2861 2974
3744 2868 2976
3738 2876 2978
3735 2886 2982
3740 2899 2992
3747 2913 3005
3762 2937 3028
3787 2983 3066
3795 2978 3058
3788 2980 3060
3781 2980 3060
3775 2979 3058
3769 2977 3054
3768 2972 3053
3771 2969 3054
3776 2966 3056
3779 2962 3058
