Assets/1__3DArt/KimSe/artstation_asset/LUTs_subway_asset/3DL/LoFi Chill 03.3dl
# LUT by SparkleStock. Enhanced with VOXCOLOR algorithms.
0 64 128 192 256 320 384 448 512 576 640 704 768 832 896 960 1023
624 512 656
628 519 699
632 526 741
637 534 797
646 543 878
655 552 958
668 561 1058
682 571 1166
697 581 1275
714 590 1388
732 600 1500
748 608 1604
764 613 1692
780 618 1781
793 621 1842
805 623 1889
817 624 1937
631 519 667
634 525 710
637 531 753
642 538 808
651 548 889
660 557 969
673 568 1067
686 578 1174
700 588 1281
717 598 1390
733 608 1500
750 616 1602
765 622 1689
780 628 1775
792 630 1836
804 631 1883
815 632 1931
638 527 678
640 531 722
643 536 765
647 542 820
656 552 900
666 563 981
677 574 1077
691 585 1182
704 596 1286
720 606 1393
735 616 1500
751 625 1600
765 631 1685
779 637 1770
792 639 1830
802 640 1877
813 640 1924
642 533 691
646 537 736
649 541 780
654 547 836
663 558 915
672 569 995
683 581 1090
696 593 1192
709 605 1295
724 615 1399
739 626 1503
754 635 1600
767 641 1683
781 647 1766
792 650 1825
803 650 1872
813 650 1919
644 538 706
649 543 755
655 549 803
662 556 862
671 567 938
680 577 1015
692 590 1107
704 603 1208
716 616 1309
731 627 1410
745 638 1512
759 648 1606
772 654 1687
786 660 1768
796 663 1825
806 663 1870
815 664 1916
645 542 721
653 549 774
661 556 827
670 565 887
679 575 960
689 586 1034
700 599 1125
712 612 1224
724 626 1323
738 638 1422
752 650 1521
765 660 1613
778 667 1691
790 673 1769
800 676 1824
809 677 1868
817 677 1912
648 546 746
658 555 802
667 564 858
676 574 920
687 585 994
698 597 1067
710 610 1155
722 625 1249
735 639 1343
748 651 1439
761 664 1535
774 674 1624
786 681 1699
798 688 1774
807 691 1828
815 692 1870
823 693 1913
652 552 775
662 562 834
672 572 893
683 583 957
695 596 1032
706 610 1107
719 624 1191
734 638 1278
748 653 1366
760 665 1458
772 678 1551
784 689 1637
796 696 1710
807 704 1782
816 707 1833
824 708 1874
831 709 1915
656 557 805
667 568 866
678 579 927
689 592 994
702 608 1070
715 623 1147
729 638 1227
745 652 1307
760 666 1388
772 679 1478
783 692 1568
795 704 1651
806 711 1720
816 719 1790
825 723 1839
832 725 1878
839 726 1917
665 567 861
675 579 922
686 591 983
698 604 1049
711 620 1124
724 636 1200
739 652 1277
755 667 1356
770 683 1434
785 697 1516
800 711 1598
813 724 1675
823 732 1742
833 740 1808
841 743 1855
848 745 1892
855 747 1929
673 578 918
684 590 979
695 602 1040
707 616 1105
720 632 1178
733 649 1252
749 666 1327
765 683 1404
781 701 1480
799 716 1554
816 731 1629
831 743 1699
840 752 1763
850 760 1826
857 764 1871
864 765 1906
871 767 1942
683 591 988
693 604 1048
704 616 1108
716 630 1171
730 646 1241
743 663 1312
759 681 1384
776 699 1457
792 717 1530
812 734 1598
832 750 1665
848 764 1730
859 774 1790
870 783 1850
878 788 1893
884 790 1927
891 792 1960
694 610 1086
704 622 1142
715 635 1199
727 648 1258
741 664 1322
754 680 1386
771 697 1452
788 715 1519
806 734 1587
826 752 1650
846 770 1714
865 786 1775
881 800 1830
898 814 1886
907 820 1926
914 822 1959
920 824 1991
704 629 1184
715 641 1237
726 654 1290
738 667 1345
752 682 1403
766 697 1461
782 714 1521
800 732 1582
819 750 1643
839 770 1703
860 790 1762
881 809 1819
903 826 1871
925 844 1922
936 851 1960
943 854 1991
949 856 2022
715 652 1321
727 665 1368
738 677 1415
751 690 1462
765 704 1510
779 717 1559
796 733 1609
815 751 1661
833 768 1712
855 789 1765
877 810 1818
899 831 1870
924 852 1919
949 873 1967
966 887 2006
979 897 2039
992 906 2072
726 679 1477
739 691 1517
752 704 1556
765 716 1595
779 728 1632
793 740 1669
810 755 1708
830 771 1748
849 787 1788
871 808 1833
894 830 1878
918 852 1924
945 877 1971
971 902 2017
995 924 2058
1017 945 2096
1040 966 2133
737 705 1633
751 718 1665
765 731 1698
779 742 1728
793 753 1753
807 764 1779
825 777 1806
844 791 1835
864 806 1863
888 828 1901
912 849 1938
937 874 1978
965 902 2023
993 931 2067
1024 962 2110
1056 993 2152
1089 1025 2194
703 516 662
703 526 709
702 536 757
704 546 816
708 556 898
712 565 980
721 576 1080
732 587 1190
744 598 1299
759 609 1412
774 620 1524
789 629 1628
803 636 1717
818 643 1805
830 647 1866
841 650 1915
852 653 1963
712 528 680
715 540 731
718 552 782
721 563 843
726 574 925
730 584 1007
739 596 1105
750 607 1213
761 619 1320
776 629 1429
790 640 1538
805 649 1640
819 656 1726
833 663 1811
845 666 1872
855 668 1919
866 670 1967
720 540 698
727 554 752
733 568 806
739 581 870
743 592 952
748 604 1033
757 615 1130
768 627 1235
778 639 1340
793 650 1446
807 660 1552
821 669 1651
835 676 1735
849 682 1818
860 685 1877
870 687 1924
880 688 1970
727 551 717
736 566 774
745 581 832
753 596 897
759 608 977
765 620 1058
773 633 1154
784 645 1256
794 658 1359
808 668 1462
822 679 1565
836 688 1661
849 695 1743
862 701 1824
873 704 1882
883 705 1927
893 706 1973
730 557 738
740 574 797
750 590 857
760 606 923
768 619 1001
777 633 1080
786 646 1173
796 660 1274
806 673 1375
820 684 1476
833 695 1576
846 705 1670
859 712 1749
872 718 1828
883 721 1884
892 723 1929
901 724 1974
733 564 758
745 582 820
756 599 882
767 616 949
778 631 1025
788 645 1101
799 659 1192
809 674 1292
819 688 1391
832 700 1489
845 711 1587
857 721 1678
870 728 1755
882 735 1832
892 739 1887
901 740 1931
910 741 1974
737 571 789
749 590 852
761 609 915
773 626 983
786 642 1059
798 658 1135
811 674 1223
823 689 1318
835 705 1412
847 717 1507
860 729 1603
872 740 1691
884 747 1766
896 755 1841
906 758 1894
914 760 1936
923 762 1978
741 580 824
754 599 888
766 618 952
778 636 1021
793 654 1098
807 672 1176
822 689 1260
837 706 1348
852 723 1436
864 736 1528
876 749 1621
889 760 1707
900 768 1779
912 775 1851
922 779 1902
930 781 1943
938 783 1984
746 588 860
758 608 924
770 627 989
784 647 1058
800 666 1137
816 685 1216
833 704 1297
852 722 1378
870 741 1459
882 754 1549
893 768 1640
905 779 1723
917 788 1792
928 796 1861
938 800 1911
946 803 1950
954 805 1989
754 603 922
766 622 985
778 641 1047
791 660 1115
808 680 1192
826 699 1269
844 719 1348
864 739 1427
883 759 1507
900 775 1589
916 791 1671
930 804 1748
941 812 1815
953 821 1881
962 826 1928
970 828 1966
978 831 2003
763 617 984
774 636 1045
785 654 1105
799 673 1171
817 693 1247
835 714 1322
855 735 1399
876 756 1476
897 777 1554
918 795 1628
938 813 1702
955 828 1773
966 837 1837
977 846 1901
986 851 1946
994 854 1982
1002 857 2017
772 635 1060
783 652 1117
794 670 1175
808 688 1237
827 709 1310
846 730 1382
867 751 1456
890 774 1530
912 796 1604
936 816 1672
960 836 1740
980 853 1805
992 863 1865
1005 874 1925
1014 880 1968
1022 882 2003
1030 885 2037
783 659 1163
794 674 1215
804 690 1267
818 708 1323
838 728 1390
858 748 1457
881 770 1525
905 792 1593
929 815 1662
954 836 1725
979 858 1789
1002 877 1849
1021 892 1905
1040 907 1960
1052 914 2001
1060 918 2033
1068 921 2066
794 683 1267
804 697 1313
815 711 1359
829 727 1410
850 747 1470
871 767 1531
895 788 1593
920 811 1656
945 833 1719
972 857 1778
999 880 1838
1025 901 1894
1050 921 1945
1075 940 1995
1089 949 2033
1098 953 2064
1106 956 2096
806 712 1407
816 724 1444
827 736 1482
841 751 1524
863 770 1576
885 789 1628
911 810 1681
937 832 1734
964 854 1788
993 878 1841
1021 902 1894
1050 926 1945
1078 949 1992
1107 972 2039
1127 986 2076
1141 996 2109
1156 1006 2141
818 744 1565
829 754 1593
840 764 1621
855 777 1653
878 795 1694
901 814 1735
928 834 1778
956 855 1820
984 876 1863
1014 901 1908
1045 925 1953
1076 950 1998
1106 976 2042
1137 1002 2087
1164 1024 2125
1188 1044 2160
1213 1063 2195
831 776 1724
842 784 1742
853 792 1760
868 803 1782
893 821 1812
917 838 1843
945 857 1874
974 878 1906
1004 898 1937
1036 923 1975
1069 948 2012
1101 975 2051
1135 1004 2093
1168 1033 2134
1201 1062 2173
1235 1091 2211
1269 1120 2248
781 519 667
777 533 720
773 546 772
770 558 835
769 569 918
769 579 1001
774 590 1103
782 603 1213
790 616 1324
803 628 1436
816 640 1548
829 651 1652
842 660 1741
856 668 1829
867 673 1891
877 677 1940
887 681 1989
792 537 693
795 555 751
798 573 810
800 589 877
800 600 960
800 611 1044
805 624 1143
813 636 1251
822 649 1359
834 660 1468
847 672 1576
860 682 1677
874 690 1763
887 698 1848
898 703 1908
907 706 1955
917 709 2003
803 554 718
813 577 783
823 600 848
830 619 920
831 632 1003
831 644 1086
837 657 1184
845 670 1289
853 682 1394
866 693 1499
879 704 1605
892 714 1702
905 721 1785
918 728 1867
928 732 1925
938 734 1970
947 736 2016
812 568 743
827 595 813
841 621 883
852 644 957
855 658 1039
857 672 1122
864 685 1218
872 698 1321
880 711 1423
892 722 1526
905 732 1628
918 742 1723
931 748 1802
944 755 1882
954 758 1938
963 760 1982
972 762 2027
817 577 769
831 604 840
846 632 910
858 656 984
865 672 1064
873 688 1145
880 703 1239
888 716 1340
896 730 1441
909 741 1541
921 752 1641
934 762 1733
946 769 1811
959 776 1889
969 780 1944
978 782 1988
987 784 2032
821 586 795
836 614 867
851 643 938
865 668 1011
876 686 1089
888 705 1167
897 720 1260
905 735 1359
913 750 1459
925 761 1556
937 773 1653
949 783 1743
961 790 1820
974 797 1896
984 801 1950
993 803 1993
1003 805 2037
826 596 832
841 625 902
855 653 973
870 679 1046
884 699 1124
899 719 1202
911 737 1292
923 754 1386
934 771 1481
946 783 1576
958 795 1671
970 806 1759
982 814 1833
994 821 1907
1004 825 1960
1014 828 2002
1023 830 2044
831 608 873
845 636 942
859 664 1012
874 690 1085
891 712 1164
908 733 1244
924 754 1329
941 773 1417
957 793 1506
969 806 1598
981 819 1691
993 831 1777
1005 839 1848
1017 847 1920
1027 851 1971
1037 854 2012
1046 857 2053
835 619 915
849 647 983
863 675 1051
878 701 1123
897 724 1204
917 747 1285
937 770 1366
958 793 1448
980 815 1531
992 829 1621
1004 843 1711
1016 855 1794
1028 864 1864
1040 872 1933
1050 877 1982
1059 881 2022
1069 884 2061
844 638 983
856 664 1047
869 690 1111
885 716 1180
906 739 1259
927 763 1338
950 787 1418
973 811 1499
996 835 1579
1014 852 1661
1032 870 1743
1048 884 1821
1060 893 1887
1072 902 1954
1082 908 2001
1092 911 2039
1101 915 2077
852 657 1051
864 681 1111
876 706 1171
892 730 1237
915 755 1315
937 779 1392
962 804 1470
988 829 1549
1013 854 1627
1037 875 1702
1060 896 1776
1080 913 1847
1092 923 1911
1104 933 1975
1114 938 2021
1124 942 2057
1133 946 2093
861 679 1132
872 701 1187
884 723 1242
899 746 1303
924 771 1378
949 796 1453
976 822 1528
1003 848 1603
1031 874 1679
1059 898 1746
1087 922 1814
1111 942 1879
1125 953 1940
1140 965 2000
1151 971 2044
1161 975 2078
1170 979 2113
872 707 1240
883 727 1288
894 746 1335
909 767 1389
936 792 1458
962 817 1527
991 843 1597
1021 869 1667
1052 896 1737
1082 921 1800
1112 946 1864
1140 968 1924
1161 984 1979
1183 1001 2034
1196 1009 2075
1206 1014 2108
1216 1018 2141
884 736 1349
893 752 1388
903 768 1427
919 787 1475
948 812 1538
976 837 1602
1007 863 1666
1039 890 1730
1072 917 1795
1105 943 1854
1137 970 1913
1168 994 1969
1197 1015 2019
1226 1037 2068
1242 1047 2106
1252 1052 2138
1262 1057 2170
897 771 1493
906 783 1521
915 795 1549
932 811 1586
962 836 1642
992 861 1697
1025 887 1752
1060 914 1808
1095 941 1864
1130 968 1916
1165 995 1969
1200 1021 2019
1233 1046 2065
1266 1070 2110
1288 1085 2147
1304 1096 2178
1321 1106 2210
911 809 1654
919 817 1670
928 824 1685
945 837 1711
977 862 1757
1009 887 1802
1045 913 1848
1082 939 1893
1119 966 1938
1157 993 1982
1195 1021 2027
1233 1048 2071
1268 1075 2114
1304 1102 2156
1333 1123 2192
1359 1142 2224
1385 1161 2256
925 847 1815
933 850 1819
941 853 1822
958 863 1836
992 888 1872
1026 913 1908
1064 938 1943
1104 964 1977
1144 990 2011
1185 1019 2049
1225 1047 2086
1266 1075 2124
1304 1105 2163
1342 1134 2202
1379 1161 2237
1414 1189 2270
1449 1216 2303
898 527 675
892 543 730
886 558 785
879 573 851
873 587 938
867 600 1025
866 614 1129
869 629 1242
872 644 1354
882 659 1467
892 673 1581
903 687 1686
914 698 1775
926 708 1864
936 716 1928
945 721 1979
955 727 2029
911 548 706
914 571 770
917 594 834
918 614 905
913 629 993
908 644 1080
908 659 1182
911 674 1291
914 688 1401
924 702 1510
935 715 1620
945 727 1721
957 737 1807
969 747 1892
979 753 1953
988 758 2001
