Assets/1__3DArt/KimSe/artstation_asset/LUTs_subway_asset/3DL/LoFi Chill 05.3dl
# LUT by SparkleStock. Enhanced with VOXCOLOR algorithms.
0 256 512 768 1023
304 224 384
316 280 661
363 318 1086
446 332 1487
528 336 1713
313 271 441
337 312 714
377 353 1099
446 364 1468
517 359 1675
323 304 569
368 358 846
434 416 1143
491 436 1468
549 428 1653
349 360 875
406 411 1089
505 467 1321
624 518 1529
693 523 1681
368 448 1393
452 490 1474
586 529 1555
789 587 1675
1009 672 1809
852 301 444
844 373 716
817 427 1155
840 467 1573
887 499 1818
910 436 620
995 581 938
1014 659 1336
1051 678 1689
1102 681 1886
963 557 853
1066 701 1133
1202 832 1456
1250 864 1765
1303 863 1939
1036 691 1210
1120 790 1394
1308 929 1647
1491 1037 1868
1572 1065 2010
1116 865 1750
1179 896 1773
1434 1034 1893
1727 1182 2030
1953 1293 2129
1828 481 631
1862 617 900
1899 837 1333
1828 957 1813
1841 1091 2125
1926 711 896
2022 933 1215
2089 1179 1631
2050 1265 2012
2072 1330 2238
2101 1147 1366
2192 1328 1622
2342 1575 1949
2356 1640 2240
2384 1648 2386
2263 1446 1816
2322 1556 1961
2431 1712 2151
2639 1891 2382
2707 1941 2509
2430 1762 2344
2447 1790 2354
2499 1821 2378
2852 2076 2546
3070 2236 2648
2653 736 944
2734 943 1236
2867 1324 1709
2995 1788 2234
3060 2145 2646
2788 1053 1293
2879 1304 1576
3001 1654 1981
3112 2033 2409
3159 2279 2712
3001 1609 1842
3063 1790 2036
3156 2023 2273
3252 2307 2597
3298 2450 2794
3232 2198 2394
3257 2278 2486
3305 2391 2604
3391 2533 2756
3443 2617 2875
3427 2615 2850
3429 2628 2852
3435 2635 2854
3506 2691 2897
3633 2808 2968
3074 961 1281
3192 1261 1618
3381 1753 2111
3606 2391 2638
3779 2962 3058
3239 1390 1719
3315 1629 1944
3470 2047 2333
3649 2552 2750
3783 2980 3066
3485 2057 2343
3512 2187 2438
3564 2373 2576
3688 2709 2854
3786 2990 3067
3691 2654 2823
3685 2693 2844
3690 2752 2878
3724 2846 2952
3790 2993 3069
3795 2978 3058
3781 2980 3060
3769 2977 3054
3771 2969 3054
3779 2962 3058
