Assets/1__3DArt/KimSe/artstation_asset/LUTs_subway_asset/3DL/LoFi Chill 05_S.3dl
# LUT by SparkleStock. Enhanced with VOXCOLOR algorithms.
0 128 256 384 512 640 768 896 1023
304 224 384
306 255 499
316 280 661
335 301 860
363 318 1086
403 327 1304
446 332 1487
489 334 1626
528 336 1713
310 252 406
315 270 521
324 293 680
340 316 873
365 333 1091
400 340 1301
440 343 1478
479 344 1614
516 344 1700
313 272 441
323 291 563
336 314 714
354 338 895
375 360 1105
407 369 1306
443 371 1476
479 369 1607
512 367 1692
315 292 493
331 316 624
351 339 769
373 365 934
396 393 1125
425 406 1318
457 409 1480
490 407 1605
519 401 1687
320 317 567
340 340 701
365 368 847
396 396 998
433 422 1147
455 446 1332
484 454 1486
515 452 1604
541 445 1681
330 354 692
352 375 818
382 402 955
419 431 1095
464 460 1235
510 484 1369
544 497 1502
571 500 1613
596 492 1683
342 396 866
366 414 975
401 438 1090
445 465 1210
499 494 1331
564 521 1439
619 543 1546
661 552 1637
688 542 1701
355 431 1097
384 448 1179
424 469 1262
475 493 1347
539 519 1436
620 548 1525
703 577 1607
774 597 1680
822 600 1741
368 448 1393
405 471 1437
452 490 1474
512 508 1512
586 529 1555
683 556 1611
789 587 1675
900 625 1742
1009 672 1809
504 249 398
508 276 526
503 300 692
500 322 890
510 341 1115
536 354 1331
567 363 1515
600 370 1655
632 374 1744
539 345 424
576 413 610
583 442 796
581 447 989
589 446 1196
612 440 1390
641 436 1555
673 434 1683
704 433 1766
553 390 479
600 485 673
624 521 856
634 524 1041
642 517 1239
663 506 1421
691 495 1576
722 488 1698
752 485 1780
556 410 558
603 513 733
640 558 905
669 569 1080
688 571 1264
709 562 1440
736 552 1589
766 543 1707
795 539 1789
562 427 656
604 521 811
648 573 973
695 601 1135
747 621 1293
768 622 1464
795 616 1606
825 608 1717
853 602 1796
577 460 800
612 529 929
661 580 1073
721 619 1223
787 652 1371
845 673 1506
884 681 1632
914 679 1737
942 673 1808
596 504 988
624 547 1085
680 593 1204
752 638 1334
833 682 1462
916 717 1575
983 742 1680
1032 752 1769
1062 746 1832
618 549 1229
641 570 1287
703 609 1371
790 658 1469
887 707 1569
990 751 1661
1088 790 1744
1169 817 1814
1218 824 1869
640 585 1533
660 590 1541
732 625 1580
835 675 1635
949 723 1691
1073 771 1753
1195 817 1816
1312 863 1874
1417 908 1923
855 296 438
867 316 573
862 353 744
846 392 945
824 421 1168
827 445 1388
841 466 1575
862 484 1721
887 499 1818
907 431 450
955 515 672
969 561 895
960 580 1111
938 580 1310
938 578 1494
950 578 1651
970 581 1774
994 587 1859
945 555 526
1003 686 754
1039 750 993
1051 763 1220
1040 742 1412
1043 718 1578
1057 700 1717
1078 689 1827
1103 686 1905
971 641 646
1024 796 841
1076 877 1067
1116 900 1291
1132 878 1479
1141 843 1637
1159 814 1767
1182 794 1870
1208 786 1945
986 663 793
1033 813 950
1088 905 1143
1148 950 1341
1214 960 1515
1230 932 1671
1252 906 1797
1276 887 1896
1302 878 1969
1010 693 972
1048 808 1094
1101 890 1251
1171 947 1421
1257 985 1580
1327 1002 1718
1369 998 1836
1396 987 1931
1423 979 1997
1042 742 1185
1070 817 1272
1122 882 1390
1200 942 1525
1307 1003 1664
1410 1049 1785
1487 1077 1890
1541 1087 1973
1570 1082 2032
1078 802 1441
1098 838 1489
1148 883 1562
1236 942 1657
1367 1018 1768
1492 1084 1868
1607 1139 1955
1696 1177 2025
1745 1187 2076
1116 865 1750
1129 871 1750
1179 897 1773
1278 949 1820
1434 1034 1893
1587 1113 1964
1727 1182 2030
1851 1242 2086
1953 1293 2129
1313 367 509
1336 383 646
1343 437 824
1331 507 1031
1297 572 1257
1271 615 1480
1264 656 1674
1273 695 1831
1291 731 1942
1375 522 501
1424 603 733
1448 667 986
1445 719 1233
1415 759 1445
1387 775 1624
1377 792 1777
1383 811 1902
1401 832 1993
1437 724 590
1490 861 826
1533 949 1109
1555 992 1386
1542 1000 1605
1524 981 1759
1520 968 1887
1529 963 1987
1548 968 2063
1491 905 753
1537 1080 944
1593 1191 1213
1641 1240 1495
1662 1230 1722
1660 1183 1867
1666 1145 1980
1681 1120 2067
1702 1113 2132
1531 995 965
1570 1179 1107
1621 1307 1321
1685 1377 1561
1759 1389 1779
1773 1333 1926
1789 1286 2038
1808 1253 2120
1831 1240 2182
1571 1033 1196
1603 1184 1300
1648 1295 1460
1713 1371 1647
1804 1414 1834
1884 1424 1977
1927 1406 2087
1952 1381 2168
1977 1369 2225
1620 1093 1444
1644 1197 1515
1680 1280 1623
1745 1350 1758
1853 1417 1911
1972 1472 2040
2058 1500 2144
2113 1508 2222
2141 1500 2273
1675 1172 1718
1691 1227 1757
1719 1275 1814
1783 1331 1896
1909 1413 2009
2055 1499 2117
2183 1571 2210
2278 1619 2281
2326 1631 2326
1734 1266 2027
1743 1281 2029
1762 1294 2034
1826 1330 2061
1973 1417 2131
2151 1527 2213
2306 1621 2285
2435 1699 2343
2533 1759 2384
1836 467 617
1867 483 750
1894 550 937
1913 661 1157
1923 808 1389
1863 881 1617
1832 952 1822
1827 1022 1995
1841 1091 2125
1904 627 598
1953 702 822
1986 775 1079
2008 869 1348
2024 1005 1609
1968 1053 1789
1936 1100 1946
1928 1147 2078
1941 1194 2180
1973 854 684
2020 978 905
2060 1067 1188
2094 1149 1497
2120 1255 1796
2081 1269 1949
2060 1284 2073
2056 1304 2172
2071 1329 2252
2049 1119 872
2084 1283 1041
2125 1393 1304
2170 1473 1620
2214 1543 1945
2202 1516 2089
2197 1494 2194
2204 1483 2272
2223 1486 2332
2138 1396 1162
2158 1584 1273
2187 1723 1470
2234 1813 1736
2306 1853 2052
2327 1782 2203
2344 1719 2303
2361 1673 2368
2384 1653 2415
2201 1459 1459
2219 1625 1530
2246 1755 1668
2289 1846 1864
2356 1897 2105
2444 1895 2254
2491 1860 2357
2515 1820 2425
2539 1801 2469
2272 1538 1749
2287 1660 1793
2308 1760 1881
2344 1836 2009
2401 1886 2175
2530 1940 2311
2620 1963 2414
2677 1963 2485
2704 1951 2527
2349 1638 2042
2359 1707 2064
2374 1767 2107
2401 1815 2173
2447 1851 2266
2604 1951 2380
2739 2033 2476
2836 2086 2547
2882 2097 2586
2430 1762 2344
2436 1785 2344
2444 1802 2346
2462 1816 2356
2497 1825 2378
2688 1961 2468
2851 2077 2546
2981 2170 2607
3070 2236 2648
2300 595 769
2338 623 896
2379 708 1081
2420 847 1310
2464 1037 1566
2487 1234 1812
2477 1377 2034
2465 1493 2226
2484 1611 2382
2373 749 767
2428 821 960
2470 907 1201
2507 1028 1472
2545 1202 1751
2567 1386 1980
2556 1510 2162
2543 1604 2308
2556 1696 2430
2451 982 868
2503 1093 1045
2547 1183 1301
2585 1282 1600
2621 1420 1910
2646 1577 2136
2642 1673 2289
2636 1738 2398
2650 1804 2489
2536 1266 1066
2574 1409 1186
2613 1510 1413
2653 1594 1709
2692 1685 2038
2723 1800 2272
2733 1858 2410
2740 1891 2491
2760 1929 2554
2630 1578 1355
2650 1739 1414
2675 1863 1571
2709 1948 1814
2758 1990 2129
2799 2048 2382
2827 2060 2517
2850 2055 2580
2878 2064 2621
2729 1819 1705
2734 1972 1726
2745 2099 1823
2767 2192 1992
2806 2247 2227
2871 2265 2454
2920 2241 2582
2959 2205 2644
2990 2188 2676
2824 1976 2037
2825 2096 2038
2830 2201 2089
2845 2284 2192
2876 2337 2349
2948 2353 2524
3025 2355 2637
3089 2344 2703
3124 2323 2731
2917 2100 2347
2920 2174 2340
2924 2242 2358
2935 2299 2405
2957 2336 2487
3028 2362 2597
3130 2412 2689
3223 2454 2755
3269 2457 2785
3011 2243 2632
3015 2269 2623
3018 2293 2616
3024 2312 2618
3039 2318 2635
3109 2343 2683
3224 2424 2744
3341 2518 2802
3417 2582 2841
2659 725 935
2704 777 1060
2756 886 1243
2815 1051 1474
2883 1274 1739
2957 1543 2006
3000 1775 2249
3029 1975 2464
3060 2145 2646
2737 877 972
2799 950 1128
2853 1054 1349
2904 1202 1611
2960 1408 1892
3022 1665 2150
3058 1882 2363
3080 2061 2537
3103 2203 2681
2824 1113 1106
2886 1211 1231
2940 1305 1447
2988 1422 1722
3033 1588 2026
3085 1817 2284
3116 2008 2476
3137 2161 2617
3159 2274 2722
2921 1408 1326
2971 1528 1387
3018 1620 1562
3062 1709 1820
3101 1818 2134
3144 2000 2402
3174 2154 2583
3198 2274 2697
3224 2357 2767
3025 1740 1619
3057 1874 1615
3090 1981 1718
3124 2057 1920
3161 2101 2211
3199 2216 2498
3230 2318 2678
3261 2397 2774
3296 2447 2813
3134 2054 1966
3146 2186 1924
3161 2298 1968
3180 2384 2098
3205 2435 2312
3245 2465 2565
3282 2497 2736
3321 2522 2831
3364 2533 2853
3236 2288 2291
3236 2398 2240
3238 2499 2246
3245 2581 2315
3259 2633 2453
3294 2634 2642
3341 2638 2786
3393 2637 2873
3442 2619 2889
3332 2467 2588
3329 2541 2548
3326 2615 2534
3326 2677 2556
3332 2717 2624
3357 2714 2735
3413 2719 2836
3478 2721 2906
3531 2710 2926
3427 2617 2852
3429 2645 2833
3429 2677 2813
3430 2704 2804
3433 2715 2814
3448 2697 2847
3503 2714 2892
3573 2754 2936
3633 2808 2968
2916 850 1108
2965 935 1238
3027 1073 1422
3100 1266 1652
3187 1514 1918
3288 1818 2197
3382 2122 2454
3461 2398 2685
3511 2619 2883
2994 1006 1203
3063 1087 1324
3127 1214 1521
3193 1390 1769
3266 1623 2042
3346 1911 2309
3425 2198 2544
3490 2455 2743
3529 2650 2902
3089 1248 1385
3163 1335 1457
3229 1437 1628
3291 1573 1869
3349 1765 2154
3410 2019 2416
3470 2282 2634
3521 2516 2805
3552 2684 2924
3198 1552 1637
3264 1650 1640
3328 1733 1754
3384 1825 1962
3430 1952 2245
3472 2156 2510
3514 2380 2720
3552 2583 2868
3580 2723 2947
3314 1895 1940
3366 2000 1872
3418 2089 1915
3465 2157 2062
3503 2200 2310
3530 2331 2586
3556 2499 2796
3582 2659 2928
3611 2766 2972
3424 2224 2252
3457 2328 2146
3491 2420 2132
3523 2492 2214
3549 2536 2392
3569 2569 2636
3586 2652 2839
3608 2746 2968
3640 2809 2992
3522 2506 2535
3536 2598 2427
3551 2686 2384
3566 2760 2413
3580 2806 2523
3592 2802 2708
3607 2815 2877
3629 2832 2990
3664 2843 3006
3609 2726 2785
3610 2794 2706
3612 2867 2656
3615 2931 2649
3619 2971 2699
3625 2961 2810
3637 2929 2922
3659 2895 3002
3695 2879 3019
3685 2872 3001
3687 2901 2970
3690 2940 2935
3691 2977 2913
3691 2997 2915
3690 2974 2949
3695 2935 2984
3711 2910 3015
3745 2930 3037
3074 961 1281
3124 1087 1426
3192 1261 1618
3278 1482 1848
3381 1753 2111
3496 2072 2384
3606 2391 2638
3703 2693 2865
3779 2962 3058
3142 1134 1450
3213 1229 1543
3288 1383 1721
3370 1590 1953
3460 1846 2212
3554 2145 2468
3643 2444 2700
3721 2725 2901
3781 2972 3064
3241 1390 1694
3322 1470 1721
3405 1582 1847
3485 1739 2048
3560 1952 2305
3629 2217 2551
3692 2487 2765
3745 2747 2939
3784 2977 3069
3360 1705 1987
3444 1781 1940
3528 1856 1994
3605 1954 2143
3668 2096 2383
3713 2308 2626
3748 2537 2827
3774 2768 2979
3788 2981 3074
3491 2057 2303
3568 2132 2181
3646 2201 2163
3716 2259 2249
3769 2301 2439
3794 2438 2685
3805 2609 2882
3804 2797 3018
3793 2986 3082
3606 2387 2576
3670 2461 2413
3734 2530 2342
3792 2587 2369
3835 2621 2501
3848 2652 2718
3844 2735 2908
3826 2853 3042
3798 2992 3089
3697 2661 2793
3744 2729 2629
3792 2798 2533
3835 2855 2518
3866 2889 2594
3871 2880 2763
3861 2888 2926
3836 2923 3047
3798 2993 3087
3761 2866 2958
3788 2921 2833
3817 2984 2744
3843 3039 2706
3862 3074 2735
3862 3058 2841
3850 3019 2955
3827 2985 3045
3791 2984 3077
3795 2994 3074
3801 3025 3031
3810 3071 2982
3819 3116 2945
3823 3146 2939
3817 3126 2974
3806 3077 3014
3792 3018 3046
3779 2962 3058
