Assets/1__3DArt/KimSe/artstation_asset/LUTs_subway_asset/3DL/LoFi Chill 03_S.3dl
# LUT by SparkleStock. Enhanced with VOXCOLOR algorithms.
0 64 128 192 256 320 384 448 512 576 640 704 768 832 896 960 1023
624 512 656
628 519 699
632 526 741
637 534 797
646 543 878
655 552 958
668 561 1058
682 571 1166
697 581 1275
714 590 1388
732 600 1500
748 608 1604
764 613 1692
780 618 1781
793 621 1842
805 623 1889
817 624 1937
630 520 667
634 526 710
637 531 753
642 538 809
651 548 889
659 558 970
671 568 1068
685 579 1175
699 589 1281
716 599 1391
733 609 1501
749 617 1603
764 623 1690
779 628 1777
792 631 1838
803 632 1887
814 634 1935
637 528 678
640 532 721
643 536 765
647 543 821
655 554 901
664 564 981
675 575 1078
688 586 1183
702 598 1288
718 607 1395
734 617 1502
749 626 1602
764 632 1688
779 638 1773
790 641 1835
801 642 1884
811 643 1933
641 535 690
645 539 735
648 543 780
653 549 837
661 560 916
670 571 996
681 583 1091
693 595 1194
705 608 1297
721 618 1402
736 628 1506
751 637 1604
765 644 1688
779 650 1772
790 653 1833
800 654 1883
809 655 1932
642 540 704
648 545 754
654 551 803
661 558 862
670 569 939
679 579 1015
690 592 1109
701 607 1211
712 621 1313
727 632 1415
742 643 1518
756 653 1613
769 659 1694
783 665 1776
793 669 1836
802 670 1885
810 672 1934
644 545 718
651 552 772
659 559 826
668 567 887
678 578 961
688 588 1035
699 602 1127
709 618 1228
720 635 1330
733 646 1429
747 658 1529
761 668 1621
774 674 1700
787 681 1780
796 684 1838
803 686 1887
811 688 1935
646 552 743
655 561 800
665 569 857
674 578 920
686 589 994
697 601 1069
708 615 1157
719 631 1253
731 647 1349
743 661 1447
756 674 1544
769 685 1634
781 692 1711
793 698 1788
802 702 1844
809 703 1891
816 705 1938
649 561 772
659 570 832
670 579 892
680 590 957
692 603 1033
704 616 1109
717 631 1193
730 645 1282
744 660 1371
755 675 1466
767 691 1562
778 703 1650
790 710 1724
801 717 1797
810 720 1852
817 722 1897
824 724 1942
652 569 801
663 579 864
674 589 926
686 601 994
699 617 1071
712 632 1149
726 646 1229
742 659 1311
757 672 1392
767 690 1486
777 707 1580
788 721 1666
799 728 1737
809 736 1807
817 739 1860
824 740 1903
831 742 1946
660 584 856
671 594 919
682 605 981
694 617 1049
707 633 1125
720 650 1202
735 665 1280
751 680 1360
766 695 1439
779 711 1524
793 728 1609
805 741 1689
815 750 1757
825 758 1826
833 762 1876
840 763 1916
847 764 1957
668 599 911
679 610 973
690 620 1036
702 633 1103
715 650 1179
729 667 1254
744 684 1331
760 701 1409
776 718 1487
792 733 1563
808 748 1639
822 761 1711
831 771 1778
841 781 1845
849 784 1892
856 785 1930
863 785 1968
677 616 979
688 627 1041
698 638 1103
710 651 1169
724 668 1241
738 685 1314
754 703 1388
770 721 1462
786 739 1537
805 755 1606
823 770 1674
838 783 1742
849 795 1805
860 806 1869
868 810 1914
876 810 1949
884 810 1984
688 637 1077
699 648 1135
710 658 1193
722 671 1255
736 687 1321
749 704 1387
765 722 1455
782 740 1524
800 759 1593
818 776 1658
837 794 1723
855 810 1786
870 825 1845
885 839 1904
896 843 1946
905 842 1979
914 841 2013
698 658 1174
710 669 1229
721 679 1284
733 691 1341
747 707 1401
761 723 1461
777 741 1523
795 760 1586
813 779 1649
832 798 1711
852 818 1772
871 837 1831
891 855 1885
911 872 1940
924 876 1978
934 875 2010
944 873 2041
711 675 1313
723 686 1361
735 697 1410
747 709 1459
761 723 1509
775 738 1559
792 754 1611
810 772 1664
829 790 1717
850 811 1771
871 832 1825
892 853 1879
915 874 1929
937 895 1980
956 906 2019
972 912 2053
988 919 2086
724 690 1473
737 702 1513
750 714 1554
763 726 1593
777 738 1631
791 751 1669
808 766 1708
827 782 1749
846 798 1790
869 819 1836
891 841 1882
915 863 1928
940 888 1976
965 913 2024
990 934 2065
1014 953 2102
1038 972 2140
737 705 1633
751 718 1665
765 731 1698
779 742 1728
793 753 1753
807 764 1779
825 777 1806
844 791 1835
864 806 1863
888 828 1901
912 849 1938
937 874 1978
965 902 2023
993 931 2067
1024 962 2110
1056 993 2152
1089 1025 2194
703 515 661
704 523 710
705 531 760
707 540 820
711 551 901
714 562 983
723 573 1082
733 585 1191
744 597 1300
759 608 1413
774 619 1525
789 629 1629
803 636 1717
818 643 1805
830 647 1866
841 650 1915
852 653 1963
713 537 669
718 549 725
722 561 782
726 572 847
730 582 929
733 591 1011
741 602 1110
752 612 1217
762 623 1324
777 633 1433
791 642 1541
805 651 1642
819 657 1728
833 664 1814
845 667 1874
855 670 1923
865 672 1971
724 560 678
731 575 741
738 591 803
744 604 873
748 613 957
752 621 1040
760 630 1138
770 639 1243
780 648 1347
794 657 1452
808 665 1558
821 673 1656
835 679 1739
848 684 1823
859 687 1882
869 689 1930
879 691 1978
732 577 691
741 596 759
751 615 826
759 631 899
764 639 983
769 647 1066
777 655 1163
786 664 1266
796 672 1369
809 680 1471
822 687 1573
836 694 1668
849 699 1749
861 705 1831
872 707 1890
881 709 1938
890 710 1985
734 584 714
745 606 782
755 628 851
765 646 923
773 655 1005
780 664 1087
789 673 1182
798 682 1284
807 692 1386
820 699 1486
833 707 1586
845 714 1679
858 719 1758
870 724 1837
880 727 1896
889 729 1944
898 731 1991
736 590 736
748 616 806
760 641 875
772 662 948
782 671 1028
792 681 1108
801 691 1202
809 701 1303
818 711 1404
830 719 1501
843 727 1599
855 734 1689
867 739 1767
879 744 1844
889 747 1902
897 749 1949
906 751 1997
739 598 769
752 625 839
764 651 908
776 673 981
788 684 1061
800 696 1140
812 707 1231
823 719 1328
833 730 1424
845 739 1520
857 748 1616
869 756 1704
881 761 1779
892 766 1854
902 769 1910
910 771 1957
918 773 2004
742 606 807
755 633 876
767 659 945
781 682 1018
794 696 1099
808 710 1179
822 723 1266
837 736 1356
851 748 1446
862 759 1540
873 770 1635
885 779 1721
896 784 1794
908 789 1866
917 792 1921
924 795 1966
932 797 2011
745 614 845
758 641 914
771 667 982
785 691 1055
800 707 1137
815 724 1218
833 739 1301
851 753 1385
869 767 1469
879 779 1561
890 792 1653
900 802 1738
911 807 1809
923 813 1879
931 816 1931
939 818 1974
947 820 2018
752 630 908
765 655 974
777 679 1040
791 701 1111
808 719 1191
824 738 1271
843 754 1352
862 771 1433
881 787 1515
896 801 1599
911 815 1683
924 827 1762
935 833 1830
946 840 1898
955 844 1948
963 845 1989
971 847 2030
760 646 971
771 668 1035
783 690 1098
797 712 1167
815 731 1245
833 751 1323
853 770 1402
873 789 1482
893 808 1561
913 823 1637
932 838 1713
949 851 1786
959 859 1852
970 867 1918
979 871 1966
987 873 2004
995 874 2043
768 665 1047
779 685 1107
791 704 1167
805 724 1232
824 745 1308
843 765 1383
864 786 1459
885 807 1535
907 828 1611
930 845 1680
953 862 1750
972 877 1817
984 887 1880
996 897 1943
1006 901 1988
1015 902 2024
1024 903 2060
779 690 1151
790 706 1205
801 723 1259
815 740 1318
835 761 1388
855 781 1457
877 802 1527
900 824 1597
924 846 1668
948 866 1733
972 886 1798
994 904 1861
1012 918 1919
1030 933 1977
1043 937 2019
1053 938 2053
1063 938 2087
790 714 1254
801 727 1303
811 741 1351
825 757 1404
846 777 1468
867 797 1531
891 819 1595
915 842 1660
940 865 1724
966 887 1785
992 909 1847
1017 930 1905
1040 949 1958
1064 968 2012
1079 973 2050
1090 973 2082
1101 972 2113
803 735 1397
814 747 1437
824 758 1476
839 772 1520
861 792 1574
882 811 1627
907 833 1682
934 855 1737
960 878 1792
988 902 1846
1016 925 1900
1043 948 1953
1071 970 2002
1098 993 2051
1119 1005 2089
1136 1011 2121
1153 1018 2154
817 756 1561
828 765 1589
839 775 1618
853 788 1651
877 806 1693
900 825 1735
926 845 1778
954 867 1821
982 888 1864
1012 912 1910
1042 937 1956
1072 961 2002
1103 987 2047
1133 1013 2093
1160 1033 2131
1185 1051 2166
1211 1069 2201
831 776 1724
842 784 1742
853 792 1760
868 803 1782
893 821 1812
917 838 1843
945 857 1874
974 878 1906
1004 898 1937
1036 923 1975
1069 948 2012
1101 975 2051
1135 1004 2093
1168 1033 2134
1201 1062 2173
1235 1091 2211
1269 1120 2248
781 518 665
780 527 722
779 536 779
778 546 844
776 558 926
773 571 1007
777 585 1107
784 599 1217
792 612 1326
804 626 1438
817 639 1549
830 651 1653
843 660 1741
856 668 1829
867 673 1891
877 677 1940
887 681 1989
797 555 671
802 573 741
807 591 810
810 606 885
808 615 969
807 625 1053
811 635 1153
818 645 1259
825 656 1366
837 666 1474
849 676 1581
862 685 1681
874 692 1766
887 699 1850
897 704 1911
907 707 1959
917 710 2006
812 592 678
823 619 760
834 645 842
841 666 926
841 672 1012
841 679 1099
845 685 1198
852 692 1302
858 699 1407
870 706 1510
882 714 1613
894 720 1709
906 725 1791
918 731 1872
928 734 1930
937 736 1977
947 738 2023
823 619 692
838 654 782
853 688 872
864 713 961
866 718 1049
868 723 1137
873 728 1235
879 732 1337
886 737 1440
897 742 1540
908 747 1639
920 751 1732
932 755 1811
944 759 1890
953 762 1946
962 764 1992
971 765 2038
826 627 723
841 667 811
857 706 898
869 734 985
875 741 1072
881 748 1159
888 754 1255
894 758 1357
901 762 1459
912 767 1556
923 771 1654
935 775 1745
946 779 1822
958 783 1899
968 786 1956
977 788 2002
986 790 2049
829 636 755
845 680 839
861 724 924
875 756 1009
885 765 1094
895 774 1180
903 779 1276
909 784 1377
916 788 1478
927 792 1573
938 796 1669
950 800 1757
961 803 1833
972 807 1908
982 809 1965
991 812 2012
1000 815 2059
832 644 796
848 689 877
864 733 959
878 767 1041
891 779 1127
904 791 1212
915 799 1306
926 806 1403
936 813 1499
947 817 1593
958 822 1687
969 826 1774
980 830 1847
992 833 1921
1002 836 1976
1011 839 2023
1020 842 2069
835 651 843
850 695 921
865 740 998
881 774 1079
896 789 1164
912 803 1250
927 815 1339
943 826 1431
958 837 1522
969 843 1615
980 849 1707
991 854 1793
1002 858 1864
1014 861 1935
1023 865 1989
1032 867 2034
1041 870 2079
838 659 890
853 702 964
867 746 1038
883 780 1116
901 798 1202
919 816 1287
939 832 1373
960 846 1459
980 861 1545
991 868 1636
1002 876 1727
1013 882 1811
1024 886 1881
1036 890 1950
1045 893 2002
1054 896 2046
1063 899 2089
845 676 961
858 715 1030
872 753 1099
888 785 1173
908 805 1256
928 825 1340
950 844 1423
973 862 1507
996 879 1591
1012 891 1674
1029 902 1758
1044 912 1836
1056 917 1903
1067 922 1971
1077 925 2021
1086 928 2062
1095 931 2103
852 694 1032
864 727 1096
877 761 1160
893 790 1230
915 812 1311
937 835 1392
961 856 1473
986 877 1555
1011 898 1636
1034 913 1712
1056 929 1788
1075 941 1861
1087 948 1926
1098 954 1992
1109 958 2040
1118 960 2079
1128 962 2118
860 714 1115
871 743 1174
883 771 1232
899 798 1296
923 821 1374
948 845 1452
974 869 1530
1001 892 1608
1028 916 1685
1055 935 1755
1083 954 1825
1106 970 1892
1120 979 1954
1133 988 2017
1145 993 2062
1155 994 2099
1165 996 2136
871 742 1225
882 764 1275
892 787 1325
908 810 1382
934 834 1454
961 858 1526
989 883 1598
1018 908 1670
1048 934 1742
1077 956 1808
1107 977 1873
1134 997 1936
1154 1011 1993
1175 1026 2050
1189 1032 2092
1200 1033 2126
1211 1034 2161
882 770 1335
892 786 1376
902 803 1418
918 822 1468
946 847 1534
973 871 1601
1004 898 1667
1036 925 1733
1068 952 1799
1099 976 1860
1131 1001 1921
1162 1024 1979
1189 1044 2032
1217 1063 2084
1234 1070 2122
1246 1071 2154
1258 1071 2186
895 796 1482
905 808 1512
914 819 1542
930 835 1582
960 860 1639
990 885 1696
1023 911 1753
1057 939 1810
1092 966 1866
1126 992 1920
1161 1018 1975
1195 1043 2026
1227 1067 2074
1259 1090 2121
1282 1103 2158
1299 1110 2190
1317 1117 2221
910 821 1649
919 829 1665
927 837 1682
944 850 1709
976 874 1755
1008 899 1802
1044 925 1848
1081 951 1893
1118 978 1939
1155 1005 1985
1193 1032 2030
1230 1059 2075
1265 1086 2118
1301 1112 2162
1330 1132 2198
1357 1149 2230
1383 1166 2262
925 847 1815
933 850 1819
941 854 1822
958 864 1836
992 888 1872
1026 913 1908
1064 938 1943
1104 964 1977
1144 990 2011
1185 1019 2049
1225 1047 2086
1266 1075 2124
1304 1105 2163
1342 1134 2202
1379 1161 2237
1414 1189 2270
1449 1216 2303
898 524 671
896 532 733
894 541 794
890 552 864
883 569 950
875 585 1036
874 603 1138
875 621 1248
876 639 1358
885 655 1471
894 671 1583
904 686 1687
915 697 1776
926 708 1864
936 716 1928
945 721 1979
955 727 2029
916 572 674
922 593 753
928 614 831
930 633 914
925 645 1005
920 658 1095
919 670 1197
920 683 1305
921 696 1413
930 708 1520
938 720 1627
948 731 1727
958 740 1811
969 748 1895
979 754 1956
988 759 2004
