Assets/1__3DArt/KimSe/artstation_asset/LUTs_subway_asset/3DL/LoFi Chill 01_S.3dl
# LUT by SparkleStock. Enhanced with VOXCOLOR algorithms.
0 128 256 384 512 640 768 896 1023
352 288 352
346 331 439
338 380 561
332 432 711
332 486 883
341 535 1055
353 576 1207
368 611 1328
384 640 1409
361 312 374
356 349 455
348 397 576
340 451 727
336 504 897
343 552 1067
353 592 1216
366 623 1337
379 645 1422
366 336 401
364 376 490
359 424 607
353 477 752
347 534 921
351 582 1088
360 621 1234
370 651 1354
381 670 1441
367 365 440
368 412 541
368 460 657
367 512 792
364 571 954
366 622 1118
373 662 1261
383 692 1378
392 710 1466
367 406 497
368 452 604
372 504 726
378 559 858
388 611 992
387 670 1155
393 712 1294
403 741 1408
412 760 1493
363 467 595
367 507 699
374 557 818
385 613 947
401 671 1081
417 724 1215
429 770 1344
439 803 1455
449 822 1534
355 536 733
364 571 828
376 617 935
392 671 1052
415 731 1178
445 787 1301
470 838 1420
490 878 1522
505 897 1599
341 608 921
358 638 1002
378 677 1089
402 726 1183
433 784 1289
475 845 1404
517 906 1514
555 956 1612
582 990 1693
320 672 1169
350 702 1234
381 736 1291
416 776 1349
458 826 1418
511 890 1512
569 959 1616
629 1031 1723
689 1105 1825
525 308 355
503 354 466
473 408 601
444 468 759
424 530 939
420 587 1120
423 636 1278
432 676 1405
443 705 1492
564 407 380
582 488 554
564 543 716
529 585 875
498 628 1041
485 668 1203
481 705 1346
486 736 1463
497 759 1546
571 457 424
603 564 613
598 626 780
572 664 938
540 698 1100
524 731 1253
519 762 1390
522 789 1505
532 810 1590
561 485 488
590 604 664
597 675 825
588 719 981
569 756 1140
555 788 1291
551 817 1426
554 843 1539
565 864 1628
548 517 573
569 630 730
582 708 883
593 765 1034
606 815 1185
595 852 1336
593 882 1468
598 906 1578
608 927 1665
536 577 701
549 665 832
568 738 971
591 802 1115
618 864 1261
640 913 1396
651 951 1521
660 979 1627
671 998 1707
523 655 869
532 715 968
558 778 1087
594 845 1218
636 913 1352
678 974 1477
711 1023 1592
734 1058 1689
749 1076 1763
506 743 1088
517 775 1148
552 827 1239
603 892 1349
659 962 1462
718 1029 1574
772 1089 1677
816 1137 1765
842 1163 1836
486 832 1368
502 839 1381
552 880 1436
620 941 1514
692 1006 1593
765 1074 1681
835 1141 1771
899 1204 1856
954 1261 1930
847 347 358
833 382 487
786 445 644
721 525 824
654 612 1020
621 689 1217
605 754 1391
601 806 1532
606 844 1631
907 486 376
940 578 605
919 644 821
859 697 1017
779 753 1189
729 804 1349
700 850 1493
689 889 1611
693 919 1697
939 610 443
986 749 689
990 829 927
953 872 1139
879 900 1307
827 926 1450
795 953 1577
783 979 1683
788 1003 1765
943 698 547
986 864 764
1007 962 995
999 1010 1212
954 1027 1385
909 1038 1523
882 1052 1643
872 1069 1744
878 1088 1825
920 727 677
953 894 856
977 1005 1058
994 1072 1258
1005 1112 1430
970 1122 1571
949 1133 1690
943 1148 1789
950 1165 1870
897 782 848
918 915 989
941 1015 1156
970 1090 1329
1008 1151 1489
1034 1193 1627
1040 1218 1744
1040 1234 1840
1049 1251 1915
874 866 1057
888 956 1157
912 1036 1285
953 1111 1427
1018 1185 1570
1082 1248 1698
1124 1295 1809
1150 1325 1900
1163 1340 1967
852 972 1313
862 1016 1367
891 1071 1449
947 1138 1554
1039 1220 1675
1127 1295 1786
1205 1360 1885
1263 1408 1966
1291 1431 2028
830 1090 1625
842 1096 1625
881 1124 1656
955 1178 1717
1074 1260 1804
1186 1340 1890
1284 1412 1971
1366 1475 2041
1428 1525 2097
1295 410 369
1297 429 508
1248 498 686
1165 603 893
1060 729 1113
978 839 1336
928 931 1536
905 1005 1700
901 1062 1818
1364 563 378
1404 648 633
1388 722 892
1322 799 1133
1213 891 1334
1110 970 1504
1043 1038 1656
1008 1095 1783
1002 1139 1880
1420 758 463
1470 903 735
1484 996 1031
1450 1056 1306
1356 1105 1513
1255 1144 1654
1186 1181 1776
1150 1215 1878
1145 1246 1958
1450 930 611
1494 1118 842
1526 1235 1132
1526 1296 1418
1472 1316 1638
1386 1319 1770
1327 1327 1877
1296 1340 1964
1293 1359 2035
1441 1017 803
1477 1217 984
1507 1356 1223
1528 1437 1476
1540 1466 1696
1477 1451 1834
1432 1443 1939
1409 1445 2022
1410 1458 2091
1413 1069 1028
1438 1236 1165
1460 1362 1349
1488 1450 1551
1528 1505 1740
1555 1534 1883
1550 1543 1992
1538 1545 2074
1542 1555 2138
1386 1158 1284
1402 1275 1378
1419 1371 1506
1453 1452 1654
1522 1523 1811
1605 1584 1942
1656 1624 2049
1684 1646 2130
1695 1656 2188
1361 1278 1578
1372 1340 1628
1387 1397 1697
1430 1459 1789
1527 1537 1907
1648 1618 2018
1753 1687 2114
1828 1736 2189
1859 1756 2241
1336 1426 1917
1350 1439 1919
1369 1453 1926
1426 1488 1957
1552 1561 2032
1710 1654 2115
1845 1735 2189
1953 1802 2251
2030 1852 2297
1843 501 392
1855 510 534
1835 576 724
1779 699 952
1682 877 1206
1528 1035 1465
1428 1168 1699
1375 1278 1896
1358 1363 2044
1911 654 400
1947 730 662
1947 803 934
1909 900 1206
1835 1050 1469
1663 1176 1663
1545 1282 1836
1479 1369 1982
1459 1436 2097
1966 866 491
2009 1001 768
2028 1092 1079
2017 1174 1395
1967 1281 1685
1804 1361 1841
1688 1429 1970
1621 1487 2076
1601 1535 2164
2018 1112 672
2055 1291 902
2084 1410 1204
2096 1489 1533
2079 1552 1848
1946 1577 1989
1847 1601 2092
1788 1625 2171
1773 1653 2237
2073 1363 948
2097 1571 1114
2120 1722 1352
2144 1813 1639
2171 1842 1951
2082 1811 2099
2012 1788 2196
1970 1776 2260
1964 1783 2311
2053 1423 1235
2073 1608 1351
2091 1752 1525
2113 1851 1743
2142 1899 1989
2161 1909 2140
2141 1898 2241
2113 1884 2308
2112 1887 2356
2034 1517 1537
2047 1653 1613
2060 1766 1728
2078 1851 1876
2107 1904 2051
2199 1953 2186
2254 1981 2288
2280 1993 2359
2287 1994 2403
2014 1647 1863
2023 1723 1902
2033 1791 1961
2049 1848 2040
2081 1889 2139
2227 1969 2247
2355 2038 2339
2445 2086 2409
2478 2101 2450
1994 1819 2217
2007 1838 2218
2019 1856 2221
2040 1871 2232
2078 1884 2255
2276 1984 2334
2446 2074 2402
2581 2148 2457
2673 2201 2496
2375 623 447
2393 638 582
2391 711 771
2370 843 1007
2327 1035 1282
2255 1269 1578
2148 1465 1856
2053 1627 2097
2022 1758 2283
2436 763 474
2471 834 714
2480 912 976
2467 1022 1251
2433 1191 1533
2361 1401 1786
2244 1572 2001
2139 1709 2179
2104 1817 2324
2488 974 587
2528 1095 834
2550 1187 1128
2551 1280 1442
2529 1406 1748
2463 1575 1975
2352 1708 2143
2250 1812 2270
2215 1894 2375
2537 1232 788
2572 1393 984
2602 1506 1265
2617 1591 1589
2612 1669 1916
2561 1785 2136
2466 1869 2273
2379 1932 2361
2349 1985 2431
2589 1514 1078
2614 1701 1209
2637 1842 1424
2659 1934 1703
2680 1970 2027
2649 2019 2259
2582 2046 2384
2518 2065 2444
2500 2088 2487
2634 1729 1431
2644 1909 1510
2656 2055 1656
2671 2158 1860
2690 2211 2109
2708 2218 2322
2681 2204 2441
2645 2186 2498
2638 2183 2528
2653 1880 1777
2658 2021 1820
2664 2144 1908
2674 2237 2039
2690 2291 2209
2734 2298 2375
2770 2299 2482
2792 2293 2542
2797 2281 2566
2658 2019 2120
2664 2103 2136
2669 2182 2175
2677 2247 2239
2693 2287 2330
2752 2305 2433
2849 2343 2518
2937 2375 2578
2970 2379 2603
2660 2195 2461
2671 2218 2456
2678 2244 2453
2688 2264 2458
2706 2273 2474
2782 2288 2513
2916 2347 2561
3056 2418 2608
3151 2472 2640
2798 751 521
2822 782 651
2835 870 837
2839 1015 1076
2835 1221 1363
2825 1493 1686
2786 1750 1996
2736 1978 2275
2696 2160 2501
2852 878 583
2891 949 788
2912 1038 1031
2917 1166 1302
2913 1354 1593
2901 1605 1880
2854 1841 2134
2797 2044 2352
2753 2199 2528
2902 1084 733
2948 1194 931
2979 1288 1193
2994 1394 1492
2991 1540 1800
2977 1755 2065
2927 1955 2273
2868 2126 2436
2827 2250 2562
2952 1347 966
2996 1489 1110
3034 1596 1349
3058 1686 1649
3063 1780 1971
3049 1940 2228
3002 2092 2404
2948 2220 2521
2913 2310 2600
3004 1646 1278
3041 1809 1354
3074 1939 1526
3102 2029 1777
3123 2070 2090
3113 2158 2357
3075 2248 2518
3032 2327 2601
3009 2379 2637
3068 1931 1646
3088 2092 1672
3108 2230 1777
3128 2331 1951
3145 2385 2189
3154 2398 2429
3136 2417 2580
3112 2435 2655
3104 2447 2666
3117 2146 1997
3124 2282 1996
3133 2406 2048
3143 2503 2154
3154 2560 2312
3170 2551 2493
3185 2543 2620
3197 2532 2688
3204 2513 2689
3154 2324 2329
3156 2414 2317
3158 2503 2332
3162 2578 2377
3169 2623 2458
3185 2614 2562
3233 2607 2650
3286 2597 2705
3319 2581 2711
3182 2497 2642
3189 2525 2630
3195 2560 2619
3200 2590 2616
3206 2602 2627
3224 2582 2651
3290 2585 2682
3377 2610 2712
3459 2656 2736
3099 873 614
3127 929 744
3152 1038 931
3175 1202 1172
3197 1423 1466
3228 1709 1803
3267 2008 2131
3292 2290 2430
3279 2523 2680
3145 992 723
3191 1069 886
3223 1176 1106
3245 1326 1370
3262 1533 1665
3284 1801 1969
3313 2081 2251
3330 2339 2497
3312 2544 2694
3194 1195 923
3250 1296 1061
3295 1396 1279
3324 1518 1553
3339 1686 1857
3348 1919 2137
3364 2167 2377
3370 2395 2571
3349 2569 2713
3246 1462 1199
3306 1584 1279
3360 1684 1462
3400 1779 1720
3416 1890 2025
3416 2069 2293
3417 2271 2501
3411 2460 2648
3389 2598 2734
3301 1772 1540
3360 1909 1551
3414 2024 1665
3457 2108 1870
3485 2154 2153
3479 2259 2423
3468 2398 2612
3453 2534 2723
3432 2632 2756
3364 2078 1898
3409 2214 1862
3452 2335 1912
3488 2428 2045
3513 2481 2256
3515 2499 2497
3504 2555 2674
3487 2619 2772
3473 2666 2771
3430 2340 2223
3455 2462 2169
3481 2577 2176
3504 2671 2247
3521 2727 2384
3525 2716 2566
3520 2708 2712
3512 2701 2793
3506 2692 2778
3490 2553 2512
3499 2642 2465
3510 2734 2449
3521 2813 2470
3529 2862 2538
3532 2846 2643
3533 2802 2737
3538 2753 2793
3550 2721 2782
3536 2709 2761
3542 2744 2742
3549 2790 2722
3555 2831 2710
3557 2853 2717
3556 2826 2741
3558 2780 2761
3577 2747 2777
3623 2759 2788
3266 977 721
3296 1066 861
3328 1205 1057
3364 1393 1306
3404 1630 1607
3456 1922 1946
3519 2226 2271
3590 2524 2563
3667 2802 2802
3301 1100 891
3353 1189 1009
3396 1320 1208
3433 1496 1466
3468 1723 1763
3509 2000 2076
3559 2284 2365
3618 2559 2614
3684 2810 2809
3346 1308 1151
3417 1403 1225
3478 1512 1394
3526 1653 1636
3557 1842 1930
3584 2086 2219
3614 2340 2471
3650 2589 2673
3696 2815 2815
3401 1582 1481
3484 1684 1493
3562 1776 1608
3623 1877 1812
3657 2005 2090
3668 2197 2360
3675 2407 2579
3685 2620 2737
3702 2819 2823
3464 1904 1859
3553 2011 1800
3636 2108 1846
3706 2184 1990
3752 2231 2223
3751 2350 2485
3738 2498 2681
3721 2660 2801
3706 2822 2834
3532 2221 2207
3612 2327 2102
3689 2427 2089
3755 2506 2167
3800 2553 2336
3802 2574 2560
3781 2635 2738
3746 2723 2841
3707 2825 2841
3597 2489 2485
3660 2586 2369
3722 2682 2321
3777 2762 2347
3815 2810 2452
3817 2796 2620
3795 2788 2768
3755 2794 2855
3701 2822 2839
3655 2692 2689
3693 2769 2599
3733 2853 2545
3769 2926 2536
3795 2971 2584
3794 2952 2685
3775 2902 2784
3740 2846 2843
3688 2810 2826
3699 2818 2818
3708 2861 2793
3721 2919 2763
3733 2973 2743
3740 3007 2745
3732 2981 2773
3714 2924 2796
3692 2853 2807
3667 2786 2802
