Assets/1__3DArt/KimSe/artstation_asset/LUTs_subway_asset/3DL/LoFi Chill 03_S.3dl
# LUT by SparkleStock. Enhanced with VOXCOLOR algorithms.
0 256 512 768 1023
624 512 656
646 543 878
697 581 1275
764 613 1692
817 624 1937
642 540 704
670 569 939
712 621 1313
769 659 1694
810 672 1934
652 569 801
699 617 1071
757 672 1392
799 728 1737
831 742 1946
688 637 1077
736 687 1321
800 759 1593
870 825 1845
914 841 2013
737 705 1633
793 753 1753
864 806 1863
965 902 2023
1089 1025 2194
1088 535 681
1074 584 974
1034 686 1405
1053 764 1832
1088 808 2097
1161 746 733
1214 914 1175
1221 946 1624
1244 959 1976
1279 974 2191
1202 844 1000
1265 1071 1343
1367 1145 1740
1409 1135 2068
1450 1139 2266
1244 942 1422
1301 1081 1634
1452 1203 1931
1601 1291 2182
1671 1314 2344
1306 1093 2042
1363 1127 2064
1567 1253 2198
1800 1396 2345
1974 1508 2460
2048 608 748
2068 665 1058
2046 942 1595
1940 1171 2100
1944 1322 2440
2131 927 776
2151 1114 1261
2204 1307 1919
2145 1431 2306
2161 1517 2534
2275 1405 1237
2260 1715 1530
2366 1830 2130
2418 1779 2488
2474 1760 2649
2385 1559 1889
2391 1784 2023
2464 1907 2332
2680 1981 2590
2774 1986 2731
2491 1816 2561
2520 1855 2563
2573 1875 2594
2912 2072 2730
3120 2201 2813
2962 741 905
3017 865 1216
3089 1214 1745
3140 1726 2345
3143 2129 2823
3051 1067 1069
3085 1254 1412
3148 1504 2017
3212 1932 2550
3235 2237 2876
3176 1616 1583
3172 1889 1689
3209 2015 2197
3288 2217 2729
3359 2372 2936
3334 2134 2291
3299 2376 2249
3300 2527 2466
3384 2517 2830
3501 2502 2978
3479 2490 2938
3485 2552 2893
3489 2593 2890
3558 2573 2962
3680 2641 3017
3410 881 1137
3491 1139 1506
3598 1571 2024
3718 2165 2594
3811 2786 3074
3515 1242 1581
3625 1443 1740
3711 1775 2226
3775 2285 2736
3821 2822 3097
3655 1840 2219
3771 2039 2084
3855 2163 2374
3853 2447 2864
3824 2833 3113
3768 2448 2773
3845 2639 2504
3903 2766 2566
3891 2754 2918
3825 2832 3112
3827 2834 3106
3835 2923 3010
3849 3008 2961
3835 2925 3036
3811 2786 3074
