Assets/1__3DArt/KimSe/artstation_asset/LUTs_subway_asset/3DL/LoFi Chill 04.3dl
# LUT by SparkleStock. Enhanced with VOXCOLOR algorithms.
0 128 256 384 512 640 768 896 1023
272 288 400
297 335 512
346 398 669
419 477 868
521 573 1105
656 687 1359
795 799 1587
922 903 1775
1025 993 1905
286 314 435
318 358 544
370 423 702
445 504 900
543 599 1131
670 709 1374
801 815 1593
922 911 1773
1020 991 1898
298 338 480
344 394 601
407 464 757
486 547 948
582 643 1173
705 749 1406
828 850 1616
941 940 1786
1032 1009 1903
317 369 540
378 438 677
452 517 836
540 604 1020
639 702 1231
757 804 1453
874 902 1652
979 984 1813
1062 1044 1922
346 410 623
418 488 771
506 577 940
605 674 1121
712 772 1305
825 873 1514
937 966 1700
1035 1043 1852
1109 1096 1955
406 483 766
482 560 909
576 651 1073
683 752 1250
800 858 1433
917 958 1609
1026 1049 1776
1119 1123 1917
1188 1172 2013
492 584 962
571 657 1094
667 745 1243
777 844 1404
898 951 1574
1022 1055 1733
1135 1148 1881
1229 1222 2007
1296 1270 2096
608 711 1217
690 782 1332
784 863 1456
892 955 1591
1011 1056 1735
1139 1161 1880
1259 1258 2012
1361 1338 2125
1438 1394 2213
753 865 1537
843 937 1632
935 1011 1725
1034 1090 1821
1144 1178 1926
1269 1277 2042
1394 1376 2161
1512 1470 2273
1617 1553 2370
426 317 409
454 409 574
498 486 756
566 566 962
663 667 1204
792 782 1458
922 894 1684
1040 995 1869
1133 1076 1998
462 379 489
530 495 679
593 586 867
664 671 1068
757 767 1297
878 873 1533
1000 974 1744
1111 1064 1916
1201 1136 2035
493 435 574
578 558 766
658 658 953
739 748 1148
831 843 1367
945 944 1590
1060 1039 1789
1165 1121 1952
1249 1185 2064
526 494 672
615 612 853
709 717 1035
805 815 1226
902 913 1432
1010 1011 1643
1119 1102 1832
1218 1180 1986
1295 1236 2093
572 562 792
659 670 958
762 779 1138
872 888 1324
987 994 1511
1091 1091 1709
1194 1179 1886
1286 1252 2030
1356 1302 2130
650 661 965
728 750 1104
831 855 1271
950 968 1452
1073 1081 1634
1188 1182 1802
1291 1270 1960
1377 1340 2092
1443 1387 2184
757 786 1188
818 853 1292
919 948 1436
1042 1060 1602
1170 1175 1769
1292 1279 1918
1400 1369 2055
1487 1438 2170
1548 1483 2253
894 938 1466
935 979 1526
1029 1062 1640
1152 1169 1780
1280 1278 1921
1405 1382 2053
1518 1473 2169
1610 1546 2266
1677 1594 2341
1063 1118 1805
1080 1131 1812
1166 1200 1887
1287 1299 1995
1409 1398 2098
1529 1493 2200
1642 1582 2296
1744 1660 2382
1830 1725 2453
705 357 409
730 459 582
773 592 820
835 726 1085
919 833 1340
1035 953 1598
1152 1067 1826
1259 1167 2012
1344 1246 2142
753 436 508
828 582 727
896 734 977
964 870 1232
1041 967 1466
1147 1072 1699
1255 1171 1906
1354 1258 2073
1433 1324 2187
811 545 650
905 705 880
997 861 1121
1083 995 1358
1160 1091 1576
1257 1186 1789
1357 1274 1977
1448 1350 2129
1521 1406 2233
876 667 818
971 820 1034
1078 968 1252
1182 1099 1467
1271 1199 1671
1362 1289 1868
1454 1371 2042
1538 1439 2181
1605 1488 2277
945 786 998
1034 916 1180
1138 1049 1372
1252 1176 1565
1369 1288 1750
1457 1378 1936
1544 1457 2098
1623 1521 2228
1685 1566 2317
1043 923 1213
1115 1024 1355
1210 1136 1515
1322 1254 1687
1450 1373 1864
1560 1474 2022
1652 1555 2167
1726 1617 2286
1783 1659 2368
1163 1079 1465
1214 1147 1560
1296 1235 1683
1405 1341 1828
1539 1462 1988
1662 1568 2128
1764 1654 2252
1843 1719 2354
1896 1759 2427
1306 1253 1756
1333 1286 1800
1399 1350 1881
1503 1441 1992
1640 1559 2128
1767 1665 2248
1878 1754 2350
1966 1823 2433
2025 1866 2496
1473 1444 2091
1472 1444 2079
1523 1483 2113
1620 1559 2186
1757 1670 2289
1882 1769 2378
1994 1855 2457
2091 1926 2525
2169 1980 2577
1092 415 411
1114 511 570
1157 690 848
1218 894 1179
1294 1062 1494
1388 1189 1764
1487 1308 1999
1578 1412 2188
1651 1493 2321
1146 504 519
1214 653 735
1282 854 1030
1350 1055 1348
1419 1208 1634
1500 1316 1872
1588 1416 2078
1670 1502 2243
1736 1567 2356
1228 658 709
1313 831 948
1407 1032 1228
1496 1223 1516
1566 1367 1777
1638 1460 1987
1715 1545 2168
1788 1615 2311
1848 1667 2407
1325 848 949
1411 1018 1180
1519 1202 1426
1625 1376 1672
1709 1513 1904
1777 1598 2091
1846 1672 2251
1912 1731 2377
1966 1773 2461
1427 1045 1209
1505 1189 1402
1601 1342 1604
1709 1490 1805
1825 1620 1994
1892 1704 2168
1958 1773 2315
2018 1827 2429
2068 1863 2506
1544 1235 1478
1607 1343 1622
1683 1458 1773
1779 1578 1932
1897 1701 2100
2001 1800 2247
2078 1874 2378
2135 1927 2482
2180 1961 2551
1673 1429 1760
1717 1500 1855
1773 1577 1955
1854 1668 2071
1974 1783 2213
2096 1889 2341
2192 1971 2452
2261 2030 2541
2304 2064 2602
1812 1623 2059
1837 1659 2104
1872 1700 2153
1939 1764 2225
2059 1869 2338
2189 1977 2446
2301 2065 2535
2387 2131 2606
2438 2169 2658
1960 1818 2376
1966 1823 2373
1982 1833 2372
2036 1872 2399
2156 1966 2479
2291 2070 2559
2408 2156 2626
2505 2225 2679
2581 2274 2717
1569 498 427
1595 589 571
1641 758 826
1706 1008 1185
1793 1342 1645
1855 1484 1936
1924 1612 2183
1993 1723 2380
2050 1811 2520
1631 597 546
1691 741 746
1752 934 1022
1824 1183 1372
1914 1496 1799
1960 1612 2050
2018 1717 2263
2078 1807 2430
2128 1876 2546
1717 765 752
1789 930 973
1869 1128 1239
1955 1367 1561
2045 1654 1947
2083 1751 2165
2133 1838 2347
2185 1910 2489
2230 1963 2584
1830 1000 1035
1901 1164 1252
1990 1352 1492
2087 1565 1766
2182 1807 2086
2219 1894 2277
2263 1967 2434
2309 2024 2552
2349 2063 2630
1975 1302 1391
2037 1452 1587
2116 1614 1793
2212 1783 2005
2322 1952 2214
2363 2035 2383
2404 2098 2518
2443 2142 2618
2478 2170 2681
2114 1561 1725
2163 1670 1866
2224 1786 2014
2297 1908 2165
2384 2032 2316
2476 2127 2454
2535 2195 2572
2573 2239 2663
2604 2266 2719
2251 1800 2043
2285 1869 2132
2326 1943 2225
2378 2021 2321
2443 2105 2420
2562 2208 2537
2648 2286 2635
2705 2338 2711
2737 2365 2761
2381 2017 2346
2401 2052 2387
2425 2088 2431
2457 2129 2478
2506 2178 2531
2637 2284 2627
2749 2370 2705
2831 2432 2764
2874 2465 2805
2501 2210 2635
2509 2217 2635
2519 2223 2636
2539 2235 2641
2577 2257 2651
2718 2361 2721
2840 2449 2779
2941 2516 2822
3017 2561 2850
2048 608 475
2083 701 616
2138 868 857
2213 1111 1194
2310 1428 1617
2410 1743 2034
2469 1944 2337
2506 2073 2552
2541 2176 2702
2116 723 616
2172 861 800
2236 1046 1057
2313 1286 1384
2407 1587 1780
2497 1869 2151
2546 2040 2415
2574 2144 2596
2603 2225 2721
2210 913 847
2272 1065 1044
2343 1250 1285
2422 1475 1581
2511 1750 1939
2592 1998 2266
2633 2143 2493
2657 2226 2645
2684 2289 2746
2329 1169 1154
2386 1315 1340
2457 1484 1551
2536 1681 1798
2619 1913 2094
2693 2128 2377
2730 2250 2570
2751 2316 2696
2777 2363 2776
2471 1483 1522
2518 1612 1685
2578 1755 1863
2649 1909 2049
2731 2071 2242
2799 2254 2480
2833 2356 2643
2852 2408 2746
2876 2443 2810
2623 1810 1896
2656 1906 2020
2699 2012 2152
2753 2126 2290
2820 2246 2431
2895 2366 2577
2933 2444 2698
2952 2490 2788
2972 2517 2842
2767 2098 2244
2789 2159 2322
2816 2226 2404
2851 2297 2491
2898 2374 2579
2969 2455 2670
3028 2523 2756
3071 2572 2826
3090 2597 2872
2893 2342 2554
2906 2370 2587
2920 2400 2623
2939 2433 2661
2967 2471 2703
3030 2530 2760
3113 2595 2817
3186 2651 2867
3219 2680 2902
2990 2532 2814
2997 2536 2813
3002 2540 2811
3011 2546 2812
3029 2556 2817
3089 2599 2845
3181 2660 2880
3275 2720 2913
3345 2760 2933
2441 721 545
2489 825 695
2557 999 936
2645 1243 1259
2754 1553 1656
2872 1912 2087
2956 2188 2429
3005 2386 2683
3021 2514 2851
2518 858 716
2573 991 890
2643 1177 1136
2729 1415 1447
2830 1706 1816
2939 2032 2204
3012 2275 2504
3053 2443 2722
3064 2545 2862
2622 1077 983
2676 1215 1156
2741 1388 1375
2819 1603 1646
2910 1866 1977
3008 2154 2318
3072 2364 2578
3107 2505 2763
3117 2585 2876
2750 1361 1322
2795 1487 1477
2850 1634 1654
2915 1811 1869
2992 2028 2136
3078 2276 2428
3135 2453 2649
3167 2569 2802
3179 2631 2893
2893 1693 1706
2926 1798 1835
2968 1916 1976
3018 2047 2129
3077 2189 2291
3150 2394 2531
3200 2540 2714
3230 2635 2840
3244 2682 2911
3038 2034 2082
3058 2111 2178
3085 2197 2281
3121 2292 2391
3166 2394 2507
3223 2512 2640
3265 2616 2769
3292 2692 2872
3305 2728 2930
3171 2334 2415
3181 2381 2474
3195 2433 2538
3215 2491 2606
3244 2554 2678
3286 2621 2750
3330 2690 2828
3364 2746 2899
3377 2775 2947
3283 2581 2700
3287 2602 2725
3292 2624 2752
3300 2649 2781
3314 2679 2814
3343 2715 2850
3391 2759 2890
3438 2801 2929
3462 2828 2964
3365 2767 2932
3369 2769 2929
3370 2770 2925
3372 2771 2923
3377 2775 2924
3397 2789 2933
3444 2820 2951
3504 2857 2971
3561 2887 2981
2736 830 638
2799 955 810
2882 1147 1062
2985 1402 1384
3105 1713 1765
3230 2053 2158
3340 2372 2504
3414 2631 2779
3432 2791 2957
2822 996 846
2876 1129 1015
2956 1321 1259
3054 1565 1564
3165 1854 1915
3277 2163 2268
3376 2448 2574
3442 2675 2814
3455 2808 2963
2939 1252 1157
2985 1376 1309
3047 1539 1506
3126 1746 1757
3224 2003 2067
3323 2275 2375
3411 2524 2641
3470 2718 2845
3482 2826 2969
3077 1570 1534
3111 1675 1658
3152 1798 1800
3207 1953 1980
3283 2156 2219
3367 2387 2479
3444 2598 2703
3498 2760 2875
3512 2847 2974
3224 1924 1941
3245 2003 2033
3271 2094 2135
3303 2197 2248
3343 2311 2369
3411 2497 2578
3477 2669 2762
3525 2801 2902
3542 2870 2981
3354 2254 2297
3363 2306 2358
3376 2366 2426
3394 2435 2500
3419 2511 2581
3460 2612 2688
3509 2732 2813
3552 2836 2923
3570 2890 2988
3464 2534 2588
3465 2564 2623
3467 2597 2662
3474 2636 2704
3487 2681 2752
3512 2733 2805
3545 2801 2873
3576 2865 2941
3593 2906 2994
3552 2759 2820
3549 2770 2833
3546 2782 2848
3545 2797 2865
3549 2816 2886
3564 2842 2910
3583 2869 2935
3604 2896 2964
3625 2925 3000
3616 2920 3000
3616 2920 2994
3614 2918 2989
3611 2916 2986
3610 2915 2984
3614 2919 2986
3624 2928 2993
3645 2940 3001
3680 2956 3005
2914 929 753
2997 1088 961
3099 1309 1239
3217 1584 1573
3348 1904 1949
3472 2231 2309
3576 2525 2610
3657 2776 2846
3715 2978 3010
3014 1132 1005
3069 1268 1173
3159 1474 1426
3271 1733 1737
3392 2029 2080
3504 2324 2401
3597 2586 2668
3671 2809 2874
3723 2985 3016
3146 1431 1366
3184 1542 1498
3244 1697 1680
3327 1902 1918
3433 2161 2215
3531 2419 2491
3613 2646 2720
3679 2838 2897
3728 2988 3018
3297 1789 1787
3320 1873 1883
3349 1971 1989
3395 2105 2135
3472 2299 2351
3555 2514 2579
3626 2703 2768
3685 2864 2916
3731 2990 3017
3448 2169 2219
3457 2221 2276
3470 2285 2339
3488 2358 2410
3511 2439 2487
3577 2608 2665
3636 2759 2815
3689 2889 2933
3733 2994 3018
3565 2486 2554
3563 2513 2580
3563 2546 2611
3568 2587 2647
3579 2635 2689
3608 2713 2764
3648 2811 2857
3692 2912 2949
3734 2996 3019
3649 2728 2794
3641 2737 2800
3634 2749 2809
3631 2765 2820
3632 2788 2838
3642 2820 2864
3664 2870 2909
3695 2931 2964
3732 2994 3018
3703 2896 2949
3695 2896 2945
3687 2895 2940
3680 2896 2938
3675 2901 2941
3679 2913 2950
3687 2930 2963
3702 2953 2983
3727 2988 3015
3731 2994 3026
3728 2994 3021
3723 2989 3015
3718 2983 3010
3714 2979 3007
3713 2979 3006
3714 2981 3008
3715 2982 3009
3715 2978 3010
