Assets/1__3DArt/KimSe/artstation_asset/LUTs_subway_asset/3DL/LoFi Chill 01.3dl
# LUT by SparkleStock. Enhanced with VOXCOLOR algorithms.
0 64 128 192 256 320 384 448 512 576 640 704 768 832 896 960 1023
352 288 352
349 309 396
346 331 439
343 354 491
338 380 561
334 405 631
332 432 711
332 459 797
332 486 883
336 510 969
341 535 1055
346 557 1136
353 576 1207
360 596 1278
368 611 1328
376 626 1368
384 640 1409
356 300 363
354 319 405
351 339 447
348 361 498
344 387 568
339 414 638
337 440 718
336 467 803
335 494 889
339 518 974
342 542 1059
347 565 1140
353 583 1209
360 602 1279
367 616 1329
375 628 1369
383 641 1410
361 311 375
359 330 415
356 348 455
353 369 505
349 395 575
345 422 645
343 448 725
340 475 809
338 502 894
341 526 979
344 550 1063
347 572 1143
353 590 1212
359 608 1280
366 621 1330
374 631 1370
381 641 1410
365 322 387
363 341 427
361 359 467
358 380 517
355 406 586
351 432 655
348 459 734
345 485 818
343 512 902
345 536 986
347 560 1069
350 582 1148
356 600 1216
361 617 1283
368 629 1333
375 638 1372
382 647 1412
366 333 402
365 354 446
364 375 489
363 397 540
360 422 606
358 447 671
355 474 748
353 500 831
351 527 914
352 552 997
354 576 1079
357 597 1156
362 615 1223
367 633 1290
373 645 1338
379 653 1377
386 661 1416
368 344 417
368 367 464
368 390 511
367 414 564
366 438 625
364 462 687
362 488 763
360 516 844
358 543 926
360 567 1007
361 591 1089
363 613 1165
368 631 1231
373 649 1297
378 660 1344
384 668 1382
391 676 1420
368 358 441
369 382 491
369 407 540
370 432 593
369 456 655
369 481 716
369 508 789
368 535 867
368 562 945
369 586 1024
371 610 1104
373 632 1178
377 650 1243
382 668 1308
387 680 1354
393 688 1391
399 697 1428
369 374 471
370 399 521
370 424 572
371 449 627
372 475 689
373 502 752
374 529 821
376 556 894
379 584 966
380 608 1044
382 632 1121
384 654 1194
388 672 1258
393 690 1322
398 702 1367
403 711 1403
409 720 1439
370 391 500
371 416 552
371 441 604
373 466 660
375 495 723
376 523 787
380 550 853
384 578 921
389 605 988
391 629 1063
393 653 1139
395 675 1210
400 693 1273
404 711 1335
408 723 1380
414 733 1415
419 743 1450
369 416 550
370 440 601
371 464 652
373 489 707
376 516 769
379 544 832
384 572 897
390 600 964
397 629 1030
402 654 1100
407 680 1170
412 703 1237
417 721 1298
421 739 1359
427 752 1403
432 762 1438
437 773 1474
368 441 600
370 464 650
371 487 701
373 511 755
378 538 815
382 566 876
388 594 941
396 623 1007
404 652 1073
413 679 1137
421 706 1202
429 731 1265
434 749 1324
439 767 1383
445 780 1426
450 791 1462
456 802 1497
367 469 660
369 490 708
371 512 757
374 536 809
379 562 868
384 589 926
392 618 989
402 647 1053
412 677 1118
424 705 1179
435 734 1240
446 759 1299
453 779 1356
460 798 1413
467 813 1456
472 824 1492
478 836 1527
362 503 739
366 523 785
369 544 831
374 565 880
380 591 934
387 616 988
397 644 1046
408 674 1107
420 703 1168
435 732 1228
450 762 1288
463 789 1347
476 813 1402
488 836 1456
496 852 1498
503 865 1535
510 878 1570
357 538 818
363 556 862
368 575 905
374 595 950
382 619 1000
389 643 1049
401 671 1103
415 700 1161
428 729 1218
446 760 1278
464 790 1337
481 819 1394
498 847 1447
515 874 1499
525 892 1541
533 906 1577
541 919 1614
347 580 926
355 597 966
363 614 1006
372 633 1047
382 655 1089
392 677 1131
406 704 1179
422 732 1230
438 760 1281
458 791 1337
479 822 1393
500 853 1448
521 883 1501
543 913 1553
559 937 1597
572 956 1637
585 976 1677
334 626 1047
345 642 1084
356 658 1120
368 675 1156
381 695 1190
394 715 1224
411 740 1264
429 766 1307
448 793 1349
471 824 1401
495 856 1452
519 888 1505
545 921 1558
571 954 1612
594 984 1660
616 1012 1706
637 1040 1751
320 672 1169
335 687 1202
350 702 1234
365 718 1265
381 736 1291
397 753 1317
416 776 1349
437 801 1384
458 826 1418
484 858 1465
511 890 1512
538 923 1561
569 959 1616
599 994 1671
629 1031 1723
659 1068 1774
689 1105 1825
437 299 355
428 322 400
419 346 446
409 370 500
400 397 574
390 424 647
384 452 731
381 481 820
377 509 909
378 535 998
380 561 1087
383 586 1170
388 606 1242
393 627 1314
400 644 1366
407 658 1408
414 673 1450
444 317 372
438 341 419
432 366 467
425 392 523
416 419 597
407 447 670
401 475 754
396 503 842
392 531 930
393 557 1017
394 582 1105
397 606 1187
401 626 1258
406 645 1329
412 661 1380
419 673 1421
426 686 1462
450 335 389
448 361 438
446 386 487
441 413 545
432 441 619
423 470 694
417 498 777
412 526 864
407 554 951
407 579 1037
408 603 1123
410 626 1204
415 645 1273
419 664 1343
425 677 1393
431 689 1434
438 700 1474
454 352 407
455 378 458
455 405 510
453 433 568
445 462 642
437 491 716
431 519 798
426 547 884
420 575 970
420 599 1054
421 624 1139
422 646 1218
427 664 1287
431 682 1356
437 695 1405
443 705 1445
449 715 1484
455 364 427
456 393 480
457 422 534
456 451 594
451 480 664
446 508 735
441 537 815
436 565 900
431 593 985
431 618 1068
431 642 1151
432 665 1230
437 683 1297
441 701 1365
446 714 1414
452 723 1453
459 733 1492
455 377 447
457 408 503
459 439 559
460 469 619
458 497 686
455 526 754
451 555 832
447 583 916
442 612 999
442 637 1082
441 661 1164
443 683 1241
447 702 1308
451 720 1374
456 732 1423
462 742 1461
468 751 1500
454 394 476
457 425 533
459 456 590
460 487 651
461 517 717
461 546 784
459 576 860
457 605 940
456 635 1020
456 659 1101
456 684 1181
457 706 1257
461 725 1322
465 743 1388
470 755 1435
476 765 1473
482 775 1512
454 412 511
456 444 568
458 475 626
460 506 686
462 537 753
464 568 820
466 598 893
469 629 969
471 659 1044
471 684 1123
472 708 1201
473 731 1275
477 749 1339
482 768 1403
487 781 1450
492 791 1487
498 801 1525
453 431 545
455 462 603
457 493 661
459 525 722
463 557 789
467 589 857
473 621 926
480 652 997
486 683 1068
487 708 1145
488 733 1221
490 756 1293
494 774 1356
498 793 1419
503 806 1465
509 817 1501
514 827 1538
451 460 601
453 489 657
455 519 712
458 549 771
464 581 837
470 613 903
478 645 972
487 676 1041
495 708 1111
501 735 1182
507 762 1254
513 786 1322
518 805 1383
522 824 1444
528 837 1489
533 848 1525
539 859 1562
449 488 657
451 516 710
453 544 764
456 573 821
464 605 885
472 636 950
482 668 1017
493 701 1086
505 733 1154
516 762 1220
527 791 1287
536 817 1350
541 836 1410
547 855 1469
552 869 1513
558 880 1549
564 892 1585
447 520 723
449 546 773
450 572 824
455 599 878
464 630 940
474 661 1002
487 694 1067
501 727 1133
515 759 1200
530 790 1262
545 821 1325
558 848 1385
566 868 1442
574 889 1499
580 903 1542
587 915 1578
593 927 1614
442 560 810
445 583 855
448 606 900
454 631 949
465 660 1007
477 690 1065
492 722 1126
509 755 1189
525 787 1252
544 819 1313
562 850 1373
579 879 1432
593 903 1486
606 927 1540
616 944 1582
622 956 1618
629 969 1654
437 600 896
441 619 936
445 639 976
452 662 1021
466 691 1074
480 719 1128
498 750 1185
517 783 1244
536 815 1304
558 848 1363
580 880 1422
601 911 1479
620 938 1530
639 966 1582
651 984 1622
658 997 1658
666 1011 1694
427 648 1011
434 664 1044
440 681 1078
449 700 1116
466 727 1163
484 754 1210
504 784 1261
526 816 1314
548 847 1367
573 880 1423
598 913 1478
623 945 1532
647 975 1582
671 1005 1632
688 1027 1674
701 1046 1712
714 1064 1749
415 700 1140
424 713 1166
433 726 1193
446 743 1224
466 768 1263
487 793 1303
511 821 1346
536 852 1391
562 882 1436
590 915 1487
618 947 1537
646 980 1588
674 1012 1638
703 1045 1688
726 1072 1732
747 1098 1773
768 1124 1813
403 752 1268
415 761 1288
426 771 1307
442 785 1331
466 808 1364
491 831 1396
518 858 1431
546 887 1468
575 916 1505
606 949 1551
638 982 1597
670 1015 1644
702 1050 1694
734 1084 1744
764 1117 1790
793 1150 1834
821 1183 1878
523 309 358
507 335 405
492 361 452
476 387 509
462 415 586
447 443 664
437 472 751
429 502 843
421 532 936
420 560 1027
420 588 1118
420 614 1204
423 636 1278
427 658 1351
432 676 1405
438 690 1448
443 705 1492
531 334 381
522 363 434
513 393 486
503 422 547
489 451 625
474 480 703
464 510 790
456 539 881
448 569 972
447 596 1061
446 622 1150
446 647 1234
450 668 1306
453 689 1379
458 705 1431
463 718 1473
469 732 1514
539 359 404
537 392 462
535 425 520
529 457 585
515 487 664
502 518 743
492 547 828
483 576 918
475 606 1007
474 631 1095
472 657 1183
472 680 1264
476 700 1335
479 720 1406
484 734 1456
489 746 1497
495 758 1537
544 381 427
547 416 489
550 452 552
548 486 620
536 518 698
524 549 776
514 579 861
506 608 949
498 637 1037
496 662 1123
494 687 1209
494 710 1289
498 729 1359
501 747 1428
506 761 1478
511 772 1517
517 783 1557
543 396 452
547 432 515
550 469 579
550 505 647
542 537 722
535 570 798
527 600 881
519 630 968
511 659 1055
510 684 1139
508 709 1224
508 732 1303
511 751 1372
515 769 1440
520 783 1489
525 794 1529
531 804 1569
542 410 476
546 449 541
550 487 606
552 523 674
549 557 747
546 590 820
540 621 901
533 651 987
525 682 1073
523 706 1156
522 731 1239
522 754 1317
525 773 1384
529 791 1452
534 805 1501
540 815 1541
545 826 1581
540 429 511
544 468 576
548 506 641
551 543 708
552 577 780
552 612 852
550 644 931
547 675 1013
543 707 1096
542 732 1177
541 757 1259
541 780 1335
544 799 1401
548 818 1468
553 831 1516
559 842 1556
565 853 1595
538 450 550
542 488 615
545 526 679
549 563 746
552 599 818
555 634 889
558 668 965
561 701 1044
563 734 1122
562 760 1202
562 785 1281
563 808 1355
566 827 1420
570 846 1485
576 860 1533
581 871 1572
587 882 1611
537 471 590
539 509 654
542 546 717
546 583 784
552 620 855
559 656 927
566 692 1000
575 726 1074
583 761 1149
583 787 1226
583 813 1303
584 837 1376
588 856 1439
593 875 1503
598 889 1550
604 900 1588
609 911 1626
534 503 652
536 538 712
538 573 772
542 609 835
551 645 905
560 681 975
571 717 1047
583 752 1119
594 788 1192
601 816 1265
608 845 1337
614 870 1406
618 889 1467
623 909 1529
629 923 1575
635 934 1612
641 946 1650
530 535 715
532 568 771
534 601 827
539 635 887
550 671 955
562 707 1024
576 743 1094
591 778 1165
606 814 1235
619 845 1303
632 876 1371
643 904 1436
648 923 1496
654 943 1555
660 957 1600
666 969 1637
672 981 1673
527 572 787
529 601 838
530 631 890
536 663 946
550 698 1012
564 734 1077
581 770 1145
599 806 1214
617 842 1282
636 875 1346
655 908 1410
670 937 1471
679 958 1528
687 979 1586
694 994 1629
701 1006 1665
707 1018 1701
522 617 880
524 642 925
526 668 969
534 696 1019
550 730 1080
567 765 1142
587 800 1206
609 836 1271
630 872 1336
653 905 1397
675 939 1459
695 969 1517
710 994 1571
725 1018 1625
735 1035 1666
742 1047 1702
749 1060 1737
517 662 974
520 683 1011
522 704 1047
531 729 1091
551 762 1149
571 795 1207
594 830 1267
619 866 1328
643 901 1389
669 936 1448
695 970 1507
720 1002 1563
742 1030 1614
764 1058 1664
776 1076 1704
784 1089 1739
791 1102 1773
508 715 1095
512 731 1123
516 747 1150
527 768 1186
551 800 1238
575 832 1290
602 865 1344
630 900 1398
659 935 1453
688 969 1508
718 1004 1563
746 1037 1616
773 1067 1664
799 1097 1712
817 1118 1751
830 1135 1786
842 1152 1822
497 774 1232
503 784 1249
509 793 1266
523 810 1292
551 840 1337
580 870 1382
611 903 1429
643 937 1476
675 970 1523
709 1005 1573
742 1039 1622
774 1072 1671
804 1104 1717
834 1135 1764
858 1161 1804
878 1184 1840
898 1207 1876
486 832 1368
494 836 1374
502 839 1381
519 851 1398
552 880 1436
585 909 1474
620 941 1514
656 973 1553
692 1006 1593
729 1040 1637
765 1074 1681
801 1108 1726
835 1141 1771
869 1174 1816
899 1204 1856
926 1233 1893
954 1261 1930
646 325 361
627 352 410
607 379 458
587 407 517
566 437 598
545 467 679
528 500 771
513 533 868
499 566 966
494 597 1061
488 627 1157
485 656 1246
486 681 1323
487 705 1400
490 724 1456
494 740 1501
499 756 1547
656 355 389
645 388 445
635 420 502
621 453 567
600 485 649
580 517 731
563 549 823
549 582 918
535 614 1014
530 643 1107
524 672 1200
521 699 1287
522 722 1362
523 745 1436
527 763 1490
531 777 1534
