Assets/1__3DArt/KimSe/artstation_asset/LUTs_subway_asset/3DL/LoFi Chill 04_S.3dl
# LUT by SparkleStock. Enhanced with VOXCOLOR algorithms.
0 128 256 384 512 640 768 896 1023
272 288 400
297 335 512
346 398 669
419 477 868
521 573 1105
656 687 1359
795 799 1587
922 903 1775
1025 993 1905
286 314 435
318 358 544
370 423 703
444 506 902
542 602 1133
669 710 1376
799 817 1596
919 913 1778
1015 992 1905
298 341 479
344 395 600
406 465 759
485 549 951
579 648 1177
701 754 1411
824 855 1623
935 943 1797
1023 1012 1920
316 375 538
376 442 677
451 520 837
538 608 1023
635 707 1237
750 814 1462
866 911 1664
970 992 1829
1049 1051 1948
344 422 620
416 497 769
503 585 940
602 680 1122
710 775 1308
817 885 1525
926 980 1716
1023 1057 1872
1095 1107 1983
401 505 758
477 578 906
571 668 1073
677 768 1252
795 872 1438
911 971 1618
1016 1064 1790
1106 1140 1936
1176 1186 2038
486 612 952
565 681 1089
660 767 1241
769 866 1406
890 972 1578
1014 1073 1742
1125 1165 1894
1218 1240 2024
1285 1284 2116
602 735 1209
685 802 1327
779 882 1455
885 973 1592
1004 1074 1738
1131 1179 1886
1251 1273 2021
1354 1351 2136
1430 1405 2225
753 865 1537
843 937 1632
935 1011 1725
1034 1090 1821
1144 1178 1926
1269 1277 2042
1394 1376 2161
1512 1470 2273
1617 1553 2370
427 315 408
463 396 581
507 474 762
571 560 966
665 664 1205
792 781 1458
922 894 1684
1040 995 1869
1133 1076 1998
482 416 458
546 518 665
602 600 866
668 678 1074
758 770 1304
877 874 1538
999 975 1748
1110 1065 1920
1199 1136 2040
514 482 536
592 604 744
665 694 946
741 771 1154
829 857 1377
942 951 1599
1057 1043 1797
1162 1124 1961
1244 1187 2078
541 536 640
624 668 831
712 767 1026
804 851 1228
898 936 1442
1005 1026 1654
1113 1111 1844
1211 1185 2001
1287 1241 2115
580 597 767
663 722 938
761 832 1126
869 929 1323
983 1022 1517
1084 1112 1722
1186 1194 1901
1277 1262 2048
1347 1311 2156
654 694 944
727 794 1089
828 899 1262
945 1006 1449
1068 1112 1637
1182 1204 1811
1283 1287 1973
1368 1354 2109
1434 1398 2206
757 817 1171
816 888 1280
914 983 1429
1035 1092 1600
1163 1204 1771
1285 1302 1925
1391 1388 2066
1478 1454 2184
1540 1495 2270
893 961 1454
932 1001 1518
1025 1084 1635
1148 1189 1779
1275 1299 1923
1399 1400 2057
1511 1489 2176
1604 1558 2275
1671 1603 2352
1063 1118 1805
1080 1131 1812
1166 1200 1887
1287 1299 1995
1409 1398 2098
1529 1493 2200
1642 1582 2296
1744 1660 2382
1830 1725 2453
709 351 405
753 430 597
797 557 839
852 698 1099
927 820 1347
1038 947 1601
1153 1065 1827
1259 1166 2012
1344 1246 2142
792 490 450
870 606 703
929 726 976
985 842 1244
1051 948 1480
1151 1061 1710
1256 1166 1912
1354 1256 2077
1432 1323 2192
859 639 562
945 788 811
1021 907 1084
1091 1005 1352
1160 1092 1587
1255 1185 1800
1354 1273 1987
1446 1349 2139
1518 1406 2245
916 771 726
998 940 937
1086 1062 1187
1175 1154 1444
1260 1229 1673
1353 1305 1877
1447 1378 2053
1533 1442 2195
1601 1490 2297
969 864 929
1046 1027 1098
1137 1155 1311
1240 1255 1538
1356 1337 1746
1445 1406 1944
1535 1472 2110
1616 1529 2244
1678 1572 2340
1055 979 1166
1119 1107 1296
1204 1219 1470
1310 1323 1665
1437 1423 1857
1549 1506 2026
1642 1575 2177
1718 1629 2301
1776 1667 2388
1167 1119 1433
1214 1202 1523
1289 1293 1655
1394 1392 1813
1528 1504 1983
1651 1598 2130
1754 1676 2260
1834 1733 2367
1890 1768 2442
1307 1276 1739
1331 1315 1782
1394 1379 1868
1496 1469 1986
1633 1584 2126
1760 1685 2249
1871 1771 2355
1960 1835 2441
2020 1872 2505
1473 1444 2091
1472 1445 2078
1522 1484 2112
1619 1560 2186
1757 1670 2289
1882 1769 2378
1994 1855 2457
2091 1926 2525
2169 1980 2577
1100 404 404
1149 465 591
1198 630 881
1251 837 1208
1311 1028 1510
1397 1174 1771
1490 1303 2001
1579 1411 2188
1651 1493 2321
1200 558 438
1279 663 702
1340 810 1032
1392 978 1368
1441 1146 1657
1511 1281 1888
1591 1399 2088
1670 1496 2249
1735 1565 2362
1298 780 572
1378 928 831
1451 1064 1159
1515 1195 1497
1569 1327 1786
1637 1435 2001
1713 1531 2181
1786 1610 2321
1846 1664 2418
1388 1007 791
1457 1185 999
1534 1319 1291
1613 1426 1608
1688 1520 1891
1760 1598 2097
1836 1670 2265
1906 1730 2392
1963 1772 2478
1467 1180 1078
1526 1361 1228
1595 1501 1454
1681 1605 1714
1789 1677 1964
1866 1734 2166
1942 1787 2326
2009 1832 2445
2062 1866 2526
1564 1322 1391
1613 1469 1498
1671 1587 1663
1752 1685 1862
1866 1773 2072
1975 1842 2242
2060 1896 2385
2125 1937 2496
2174 1966 2569
1680 1480 1709
1715 1579 1778
1760 1664 1885
1833 1747 2025
1950 1843 2193
2076 1929 2336
2176 1996 2457
2250 2044 2552
2298 2070 2616
1813 1647 2035
1833 1697 2069
1863 1743 2121
1926 1806 2204
2046 1903 2329
2178 2002 2443
2291 2084 2538
2379 2143 2612
2434 2174 2665
1960 1818 2376
1965 1826 2370
1981 1837 2369
2035 1875 2397
2156 1968 2479
2290 2070 2559
2408 2157 2626
2505 2225 2679
2581 2274 2717
1580 483 416
1636 529 594
1692 675 869
1753 924 1232
1823 1279 1673
1869 1455 1949
1930 1602 2188
1994 1722 2381
2050 1811 2520
1689 640 450
1765 728 707
1826 861 1029
1883 1067 1406
1947 1374 1827
1977 1543 2071
2025 1686 2276
2078 1797 2437
2127 1873 2551
1795 877 586
1867 1004 835
1930 1127 1160
1992 1289 1539
2055 1531 1955
2086 1677 2183
2132 1800 2365
2182 1896 2502
2229 1957 2594
1907 1170 831
1960 1329 1021
2019 1453 1306
2084 1579 1661
2153 1742 2059
2197 1851 2282
2248 1943 2450
2301 2013 2569
2346 2058 2645
2031 1497 1187
2061 1674 1306
2103 1816 1515
2163 1925 1797
2246 2002 2140
2310 2060 2366
2372 2108 2528
2428 2146 2635
2474 2171 2700
2142 1683 1591
2168 1835 1661
2201 1960 1801
2248 2057 2001
2318 2124 2255
2425 2179 2433
2502 2219 2575
2557 2249 2677
2598 2269 2736
2261 1865 1966
2280 1973 2004
2303 2065 2087
2338 2139 2213
2395 2191 2380
2523 2262 2520
2620 2316 2635
2689 2352 2722
2731 2370 2774
2382 2042 2314
2394 2099 2328
2408 2151 2365
2434 2195 2426
2480 2228 2513
2616 2319 2618
2732 2394 2705
2820 2445 2770
2871 2469 2813
2501 2210 2635
2508 2223 2629
2517 2237 2627
2536 2249 2632
2576 2260 2651
2718 2364 2721
2840 2450 2779
2941 2516 2822
3017 2561 2850
2058 594 464
2119 644 633
2184 788 896
2258 1025 1241
2344 1356 1658
2429 1699 2054
2477 1924 2345
2508 2070 2553
2541 2176 2702
2169 748 522
2245 825 754
2311 954 1056
2375 1155 1416
2446 1448 1821
2517 1770 2178
2553 1986 2430
2575 2127 2604
2603 2221 2725
2282 991 686
2352 1096 896
2414 1207 1192
2473 1360 1551
2535 1594 1955
2597 1877 2288
2631 2072 2514
2654 2201 2660
2683 2281 2755
2398 1296 950
2450 1427 1093
2502 1529 1341
2557 1640 1671
2613 1796 2060
2672 2022 2383
2711 2182 2591
2742 2289 2716
2775 2355 2790
2522 1640 1308
2550 1786 1376
2583 1903 1544
2626 1993 1800
2682 2055 2136
2742 2206 2459
2792 2316 2660
2835 2392 2771
2874 2438 2827
2652 1939 1731
2659 2077 1750
2672 2194 1847
2698 2286 2021
2740 2348 2267
2812 2408 2525
2874 2458 2701
2927 2496 2809
2968 2516 2858
2778 2176 2142
2779 2282 2135
2783 2376 2180
2797 2452 2280
2826 2503 2438
2896 2530 2622
2974 2563 2755
3044 2590 2841
3086 2600 2884
2894 2368 2512
2896 2430 2496
2898 2488 2505
2906 2536 2546
2926 2568 2624
2989 2592 2733
3080 2631 2816
3166 2668 2874
3216 2683 2908
2990 2532 2814
2995 2549 2798
2999 2569 2786
3007 2585 2783
3025 2592 2798
3086 2611 2840
3179 2663 2880
3275 2721 2913
3345 2760 2933
2449 711 538
2515 781 706
2591 937 962
2679 1175 1294
2781 1492 1691
2889 1871 2108
2964 2167 2438
3008 2381 2685
3021 2514 2851
2560 868 640
2641 944 839
2715 1080 1121
2790 1287 1464
2871 1574 1850
2960 1929 2230
3020 2214 2521
3054 2420 2731
3064 2541 2865
2680 1120 849
2757 1208 1010
2825 1313 1266
2889 1465 1597
2955 1696 1982
3025 2012 2338
3074 2274 2601
3104 2467 2779
3117 2577 2884
2806 1438 1149
2866 1540 1233
2922 1622 1427
2976 1720 1716
3028 1871 2083
3084 2127 2429
3126 2352 2673
3157 2524 2828
3179 2621 2906
2935 1794 1521
2972 1905 1525
3011 1995 1635
3050 2064 1846
3090 2111 2153
3135 2285 2499
3175 2455 2735
3210 2594 2874
3243 2673 2928
3063 2130 1927
3075 2241 1882
3091 2337 1924
3111 2412 2054
3138 2462 2276
3179 2514 2557
3219 2597 2770
3261 2678 2904
3304 2725 2946
3180 2399 2310
3178 2493 2249
3178 2579 2247
3184 2650 2312
3197 2696 2451
3229 2703 2650
3275 2730 2814
3327 2761 2924
3374 2776 2959
3283 2608 2652
3277 2672 2599
3272 2735 2576
3270 2790 2592
3274 2824 2657
3297 2822 2771
3347 2823 2871
3407 2826 2942
3459 2830 2971
3365 2767 2932
3369 2789 2905
3371 2817 2879
3373 2842 2865
3377 2853 2874
3395 2838 2909
3443 2842 2943
3503 2860 2971
3561 2887 2981
2739 826 635
2812 932 815
2900 1114 1075
3003 1364 1402
3119 1677 1785
3239 2028 2172
3345 2358 2512
3417 2625 2781
3432 2791 2957
2847 998 799
2934 1082 966
3020 1237 1229
3110 1460 1559
3205 1747 1929
3300 2078 2285
3387 2394 2588
3445 2650 2821
3456 2806 2965
2975 1267 1072
3060 1343 1178
3140 1448 1389
3217 1605 1686
3293 1840 2049
3364 2135 2385
3429 2428 2661
3473 2672 2862
3483 2820 2975
3113 1601 1421
3187 1677 1442
3256 1740 1572
3319 1828 1807
3377 1977 2142
3425 2218 2468
3469 2475 2726
3501 2698 2903
3514 2838 2987
3252 1968 1815
3309 2044 1750
3362 2106 1793
3410 2153 1946
3448 2184 2206
3479 2345 2532
3506 2546 2782
3527 2735 2942
3545 2861 2998
3371 2299 2187
3406 2376 2071
3441 2444 2050
3472 2496 2128
3498 2527 2310
3516 2565 2577
3531 2671 2809
3548 2795 2966
3572 2886 3004
3471 2571 2505
3484 2645 2383
3499 2715 2327
3514 2773 2349
3526 2808 2459
3536 2804 2654
3548 2828 2841
3565 2866 2974
3593 2905 3007
3554 2780 2775
3553 2839 2680
3555 2902 2619
3558 2956 2606
3561 2991 2654
3565 2981 2770
3575 2953 2890
3593 2928 2980
3624 2926 3007
3616 2920 3000
3620 2947 2960
3625 2984 2920
3628 3018 2893
3628 3038 2895
3627 3018 2932
3632 2984 2970
3647 2956 2998
3680 2956 3005
2914 929 753
2997 1088 961
3099 1309 1239
3217 1584 1573
3348 1904 1949
3472 2231 2309
3576 2525 2610
3657 2776 2846
3715 2978 3010
3016 1132 998
3105 1236 1137
3207 1421 1387
3317 1670 1710
3430 1965 2067
3531 2272 2399
3613 2551 2672
3678 2792 2879
3724 2985 3017
3151 1431 1348
3243 1503 1402
3338 1616 1569
3436 1785 1831
3531 2027 2169
3605 2301 2480
3662 2560 2730
3703 2793 2912
3731 2986 3022
3304 1790 1758
3393 1843 1719
3480 1891 1782
3562 1972 1956
3636 2124 2251
3685 2346 2548
3715 2573 2782
3731 2791 2944
3736 2986 3027
3457 2170 2183
3538 2212 2050
3617 2247 2026
3686 2272 2111
3734 2288 2309
3763 2434 2600
3769 2610 2826
3759 2800 2976
3740 2989 3035
3573 2489 2518
3641 2531 2332
3708 2569 2246
3765 2596 2265
3805 2607 2397
3814 2632 2634
3805 2717 2845
3780 2843 2992
3743 2992 3039
3656 2733 2761
3706 2778 2572
3758 2823 2458
3802 2859 2431
3834 2875 2505
3834 2857 2682
3818 2867 2861
3787 2909 2995
3740 2992 3035
3708 2901 2926
3738 2945 2781
3771 2994 2677
3801 3038 2630
3821 3063 2656
3818 3045 2769
3802 3007 2894
3773 2978 2993
3731 2988 3025
3731 2994 3026
3740 3026 2973
3752 3070 2920
3764 3113 2881
3771 3142 2876
3764 3125 2917
3749 3083 2961
3731 3029 2996
3715 2978 3010
