Assets/1__3DArt/KimSe/artstation_asset/LUTs_subway_asset/3DL/LoFi Chill 02_S.3dl
# LUT by SparkleStock. Enhanced with VOXCOLOR algorithms.
0 64 128 192 256 320 384 448 512 576 640 704 768 832 896 960 1023
208 192 368
211 207 426
213 221 483
217 236 552
223 250 642
228 263 733
235 274 838
242 284 952
249 294 1065
258 300 1179
267 307 1292
276 312 1399
287 315 1491
298 318 1583
310 319 1651
323 320 1706
336 320 1761
214 206 388
216 218 443
218 231 498
221 244 565
226 258 654
231 272 744
237 283 848
244 293 958
250 303 1069
259 309 1181
267 315 1292
276 321 1397
286 324 1489
296 327 1581
308 328 1648
320 328 1704
332 328 1759
221 220 408
222 230 460
223 241 513
225 252 577
230 266 666
234 281 755
239 292 857
245 302 965
251 311 1073
259 318 1183
267 324 1293
276 329 1396
286 332 1487
295 335 1578
306 336 1646
317 336 1702
328 336 1757
225 232 428
227 242 480
228 251 532
231 262 595
234 276 682
238 290 769
243 302 868
248 312 975
254 323 1081
261 329 1188
269 336 1296
277 341 1398
286 344 1488
296 347 1579
306 348 1646
316 348 1702
326 348 1758
226 242 450
230 253 506
234 265 561
237 276 625
241 289 706
245 302 787
250 314 885
255 327 990
259 340 1095
266 347 1201
273 354 1306
281 360 1407
290 363 1496
299 366 1585
309 367 1652
318 367 1709
328 367 1766
228 252 472
233 265 531
239 278 590
244 290 655
248 302 730
252 313 806
256 327 901
261 342 1005
265 356 1109
272 364 1213
278 372 1317
285 378 1415
294 381 1503
303 385 1591
312 386 1658
321 386 1716
330 386 1774
230 264 502
236 278 564
243 291 626
249 304 692
254 317 767
259 330 842
264 343 932
269 358 1030
275 373 1128
281 382 1231
287 392 1333
294 400 1430
302 404 1516
311 408 1602
319 409 1669
328 409 1726
336 409 1784
232 278 537
239 292 601
246 305 664
253 319 733
259 334 809
265 348 886
271 362 972
279 375 1061
286 388 1150
292 401 1251
298 414 1352
304 425 1447
312 429 1531
321 434 1615
329 435 1681
337 435 1738
345 435 1795
235 292 572
242 305 638
249 319 703
256 334 773
263 350 852
271 367 931
279 380 1011
288 392 1091
297 404 1172
303 420 1271
308 436 1371
315 449 1464
322 454 1546
330 459 1629
338 461 1694
346 460 1750
354 460 1807
240 313 632
247 325 696
254 338 761
261 352 830
269 369 908
276 386 986
286 401 1066
296 415 1147
307 430 1228
316 446 1318
324 461 1409
333 474 1496
341 482 1576
349 491 1657
357 493 1720
365 493 1775
372 493 1829
245 333 691
252 345 755
258 357 819
265 371 887
274 388 964
282 405 1041
293 422 1121
305 439 1202
317 456 1284
329 471 1365
341 486 1446
351 500 1527
360 511 1606
368 522 1685
376 525 1746
383 525 1799
391 525 1852
250 355 763
256 366 825
262 377 887
269 390 953
279 407 1028
288 424 1102
300 443 1181
313 462 1261
327 480 1342
342 497 1418
357 513 1493
371 528 1569
381 542 1646
391 557 1722
399 562 1782
407 562 1833
414 563 1884
255 378 858
260 388 916
266 398 974
273 410 1037
284 427 1106
294 443 1175
308 463 1250
323 483 1328
338 503 1405
356 523 1481
374 542 1557
391 561 1632
407 580 1706
421 598 1779
432 606 1836
440 608 1885
448 609 1934
259 400 952
264 410 1007
270 419 1062
278 430 1120
289 446 1184
300 462 1249
315 482 1320
332 504 1394
349 526 1468
370 548 1545
392 571 1621
412 594 1696
432 617 1766
452 640 1836
465 650 1891
474 653 1937
483 656 1984
259 414 1078
266 424 1128
272 434 1177
281 446 1229
294 461 1285
307 477 1342
324 496 1406
343 518 1473
363 540 1540
387 565 1615
411 590 1689
436 616 1762
460 644 1832
484 672 1903
502 691 1962
516 706 2016
531 720 2069
257 423 1220
266 434 1262
274 446 1305
284 458 1350
299 473 1397
314 488 1444
334 507 1500
356 528 1559
377 549 1618
405 577 1688
432 604 1757
460 633 1828
488 666 1902
517 700 1975
541 731 2042
563 762 2107
585 793 2172
256 432 1361
266 445 1397
276 457 1434
288 471 1471
304 485 1509
321 500 1547
343 518 1594
368 539 1644
392 559 1695
423 588 1761
454 617 1826
485 650 1895
517 689 1971
549 727 2047
580 771 2122
610 818 2198
640 865 2274
295 201 380
293 218 444
292 236 509
291 252 582
290 267 672
290 282 763
291 294 869
294 306 984
297 317 1098
304 325 1213
310 333 1327
317 340 1435
326 345 1529
335 349 1622
346 352 1690
357 355 1745
369 357 1800
308 233 400
312 255 469
316 277 539
317 296 615
316 309 707
314 322 798
315 332 902
316 341 1014
317 350 1125
322 356 1236
327 362 1348
333 367 1453
341 370 1545
349 374 1636
359 376 1703
370 377 1758
381 379 1812
322 265 420
331 291 494
339 318 568
344 339 649
341 350 741
339 362 833
338 370 935
338 377 1044
338 383 1152
341 387 1260
344 391 1369
349 394 1471
356 396 1561
364 398 1650
373 399 1716
384 400 1771
394 401 1825
331 290 443
343 321 521
355 351 599
362 375 681
360 385 772
358 396 863
357 403 964
355 408 1070
354 414 1176
356 416 1282
359 419 1387
363 421 1487
370 422 1575
377 423 1663
385 424 1729
395 424 1783
405 424 1838
331 302 473
344 336 551
357 369 629
365 395 710
366 406 798
367 417 885
366 425 985
365 432 1090
363 439 1195
366 442 1298
368 444 1402
372 447 1500
378 448 1587
385 449 1674
394 450 1740
403 450 1795
412 450 1851
331 314 502
344 351 580
358 387 659
369 415 740
372 427 824
375 439 907
375 448 1005
374 456 1109
373 464 1213
375 467 1315
377 470 1416
381 472 1513
387 474 1598
394 475 1684
402 476 1751
410 476 1807
419 477 1864
330 328 540
344 364 619
358 400 697
369 429 777
374 443 860
379 457 943
382 469 1037
384 478 1137
386 488 1236
388 493 1336
391 498 1436
395 502 1531
401 504 1615
408 506 1699
415 507 1765
424 507 1822
432 508 1879
330 341 584
343 377 661
356 412 738
367 441 818
374 458 902
382 475 986
389 488 1076
395 500 1169
402 512 1261
404 519 1360
407 527 1459
411 533 1553
417 536 1635
424 538 1717
431 540 1782
439 540 1838
447 541 1894
330 355 628
342 389 704
354 423 779
365 452 858
375 472 944
385 492 1029
395 508 1115
406 521 1200
417 535 1286
420 546 1384
423 557 1482
427 565 1574
434 568 1654
440 571 1734
447 573 1798
455 573 1854
463 574 1910
333 377 697
343 407 769
354 437 841
364 465 916
376 486 1000
388 507 1084
400 525 1169
414 542 1255
427 559 1340
435 573 1431
444 586 1521
452 597 1607
459 603 1686
466 609 1764
473 612 1826
481 613 1880
488 613 1934
336 399 765
345 425 833
354 452 902
364 477 975
377 499 1057
390 521 1140
405 543 1224
421 563 1309
437 584 1395
451 600 1477
465 616 1560
477 630 1640
484 639 1717
491 648 1794
499 651 1854
506 652 1906
514 653 1958
339 422 846
346 445 909
354 467 973
364 490 1042
379 514 1122
394 537 1202
411 560 1284
429 584 1368
448 607 1452
466 627 1529
485 646 1606
501 663 1683
511 676 1757
520 689 1832
529 694 1890
537 695 1940
545 696 1989
342 450 950
349 468 1007
355 486 1064
365 506 1127
382 530 1202
399 553 1276
419 578 1355
439 604 1435
460 629 1516
482 653 1592
505 676 1669
525 698 1744
541 716 1815
557 735 1886
568 743 1941
577 745 1989
585 748 2036
345 477 1054
351 491 1104
357 505 1155
367 522 1211
386 546 1281
404 570 1351
426 596 1426
450 624 1502
473 652 1579
498 679 1656
524 706 1732
548 732 1805
571 756 1873
594 781 1940
607 791 1993
616 795 2037
625 799 2082
345 498 1190
351 509 1231
358 520 1272
369 535 1321
390 560 1383
411 584 1446
436 611 1513
462 639 1583
489 668 1653
518 698 1726
547 728 1799
575 757 1870
602 787 1937
630 817 2003
648 836 2058
663 850 2108
677 864 2157
344 514 1342
351 524 1373
358 533 1404
371 547 1442
395 572 1496
419 597 1550
447 624 1609
477 653 1670
506 681 1732
539 714 1800
571 746 1868
604 779 1936
634 813 2003
665 848 2071
690 878 2131
713 907 2188
735 935 2245
342 531 1494
350 539 1515
359 546 1535
373 559 1563
400 584 1609
427 609 1654
458 637 1705
491 666 1758
524 695 1811
560 729 1874
596 764 1937
632 800 2002
666 839 2070
701 879 2139
733 921 2205
762 964 2269
792 1007 2333
381 210 391
376 230 463
371 250 534
366 269 612
358 284 703
351 300 793
348 314 900
347 327 1015
346 340 1130
349 350 1246
353 359 1363
358 368 1472
365 374 1566
372 381 1661
381 385 1729
392 389 1784
402 393 1839
403 260 412
408 291 496
413 322 579
414 347 666
406 359 759
397 372 852
392 381 957
389 390 1069
385 398 1180
386 403 1292
387 409 1404
390 414 1509
396 417 1600
402 421 1691
411 424 1758
421 427 1812
431 429 1866
424 310 433
439 353 529
455 395 624
462 426 720
453 435 815
444 443 910
437 448 1014
430 452 1122
424 455 1231
423 457 1338
421 458 1445
422 459 1546
427 460 1634
432 462 1722
440 463 1787
450 464 1840
459 465 1893
437 349 459
459 400 562
482 451 665
494 487 766
486 494 862
478 501 957
470 504 1060
462 504 1166
454 504 1272
452 503 1375
449 502 1479
448 501 1576
453 500 1662
457 499 1748
465 499 1811
474 500 1864
483 500 1917
435 363 495
457 418 596
480 474 697
493 514 795
491 523 889
488 533 983
482 536 1084
475 537 1189
467 538 1295
465 536 1396
462 535 1497
462 534 1593
466 533 1678
471 533 1763
478 533 1827
487 533 1881
496 534 1936
433 377 531
456 437 630
478 496 729
493 540 825
495 552 917
497 564 1009
494 569 1109
487 570 1213
480 571 1317
478 570 1417
476 568 1516
476 567 1610
480 566 1694
485 566 1777
492 566 1843
500 567 1898
509 568 1954
431 391 579
452 450 673
472 510 768
488 554 862
494 570 953
500 585 1045
501 594 1142
499 599 1243
498 604 1344
496 604 1442
495 604 1540
495 604 1633
500 603 1715
504 603 1797
511 604 1862
519 605 1918
528 606 1974
428 404 631
446 461 721
465 518 812
481 563 903
490 582 994
500 601 1086
506 614 1180
512 625 1276
517 635 1372
517 638 1469
516 640 1566
518 642 1658
522 643 1738
527 643 1818
534 644 1882
542 646 1938
550 647 1993
425 418 684
441 473 770
458 527 855
474 571 943
486 594 1035
499 617 1127
512 635 1218
524 651 1309
537 667 1400
538 672 1497
538 677 1593
540 681 1684
545 682 1762
550 683 1840
556 685 1903
564 686 1958
572 687 2012
426 441 761
440 489 841
454 537 920
468 577 1003
483 602 1093
499 627 1183
515 649 1273
531 669 1363
547 689 1453
555 700 1543
563 711 1633
571 720 1719
577 724 1795
582 728 1872
589 731 1933
597 732 1985
605 734 2038
426 464 839
438 505 912
449 546 984
463 583 1062
481 610 1150
499 638 1239
518 663 1327
537 687 1417
557 711 1506
573 729 1589
589 746 1673
602 760 1754
608 767 1829
615 773 1904
622 777 1962
630 779 2013
638 781 2064
427 490 929
437 524 994
446 558 1059
459 591 1130
479 620 1216
500 649 1301
522 678 1388
545 706 1475
568 734 1562
591 756 1641
613 779 1720
631 798 1797
641 809 1869
650 820 1942
659 826 1998
667 828 2047
675 830 2095
429 522 1042
437 549 1098
445 575 1153
457 603 1217
481 633 1297
504 663 1378
530 694 1460
556 725 1543
582 756 1626
609 783 1704
635 810 1781
658 834 1856
675 852 1924
693 871 1993
704 879 2046
713 883 2092
722 886 2138
431 554 1156
437 573 1202
443 591 1247
456 614 1303
482 646 1378
509 678 1454
537 711 1532
567 744 1611
597 778 1690
626 809 1766
656 840 1842
685 870 1915
710 896 1980
735 921 2044
749 933 2095
759 937 2137
768 941 2180
431 581 1303
437 594 1335
443 606 1368
456 625 1413
486 658 1481
516 691 1550
548 726 1621
581 761 1693
615 796 1766
649 831 1837
682 865 1909
715 899 1978
745 930 2041
775 961 2104
795 981 2155
809 994 2199
824 1007 2244
430 606 1465
436 613 1484
442 620 1502
457 636 1534
491 671 1595
524 705 1655
560 741 1718
597 777 1782
635 813 1846
673 850 1912
710 888 1978
747 924 2043
780 960 2105
814 996 2167
840 1025 2221
862 1052 2269
884 1078 2318
428 631 1628
435 632 1632
442 634 1636
459 647 1656
495 683 1709
532 719 1761
572 756 1815
614 793 1871
655 831 1927
697 870 1987
739 910 2048
779 950 2109
816 990 2170
853 1030 2231
885 1070 2287
915 1110 2340
944 1149 2393
509 224 403
503 245 479
497 266 555
487 287 638
471 307 733
456 328 828
445 346 938
437 364 1055
429 381 1173
428 394 1291
428 407 1410
429 418 1522
434 427 1618
438 437 1715
446 444 1784
455 451 1840
463 457 1896
537 289 422
544 325 516
551 362 611
551 392 707
536 408 806
521 424 906
508 436 1015
496 447 1128
485 457 1242
481 465 1355
477 472 1468
475 479 1573
478 484 1665
481 490 1757
488 495 1824
496 499 1878
