Assets/1__3DArt/KimSe/artstation_asset/LUTs_subway_asset/3DL/LoFi Chill 02.3dl
# LUT by SparkleStock. Enhanced with VOXCOLOR algorithms.
0 64 128 192 256 320 384 448 512 576 640 704 768 832 896 960 1023
208 192 368
211 207 426
213 221 483
217 236 552
223 250 642
228 263 733
235 274 838
242 284 952
249 294 1065
258 300 1179
267 307 1292
276 312 1399
287 315 1491
298 318 1583
310 319 1651
323 320 1706
336 320 1761
214 206 388
216 218 443
218 231 498
221 244 564
226 257 654
231 271 743
237 282 846
244 292 957
250 302 1068
259 308 1179
267 314 1291
276 320 1396
286 323 1487
297 326 1579
308 327 1646
320 327 1700
332 327 1755
221 220 408
222 230 460
223 241 513
225 252 577
230 265 665
234 279 753
239 289 854
245 299 962
251 309 1070
259 315 1180
268 322 1290
276 327 1393
286 330 1483
296 334 1574
306 334 1640
317 334 1694
328 334 1748
225 232 428
227 241 480
228 251 532
231 262 595
234 275 681
238 288 766
243 299 865
248 309 971
254 319 1076
262 325 1184
269 332 1291
278 337 1393
287 341 1482
296 344 1572
306 345 1637
317 344 1691
327 343 1744
226 240 450
230 252 506
234 263 561
237 275 625
241 287 705
245 300 786
250 311 882
255 322 985
259 333 1088
267 340 1193
274 347 1298
282 353 1398
291 357 1486
300 360 1574
310 361 1639
320 360 1692
329 359 1745
228 249 473
233 262 531
239 275 590
244 288 655
248 300 730
252 312 806
256 324 898
261 336 1000
265 347 1101
272 355 1203
279 363 1306
286 369 1403
295 373 1490
304 376 1576
313 377 1640
323 376 1693
332 375 1746
230 259 504
236 273 565
243 286 626
249 300 691
254 313 766
259 326 841
264 339 930
269 351 1025
275 364 1121
281 372 1221
288 381 1321
295 388 1416
303 392 1500
312 397 1585
321 397 1648
330 396 1700
339 395 1752
232 269 540
239 283 602
246 297 665
253 312 732
259 326 808
265 341 885
272 355 969
279 368 1057
286 381 1145
292 391 1242
298 401 1339
305 409 1432
314 414 1514
322 419 1597
331 420 1659
340 419 1710
349 418 1762
235 279 576
242 294 640
249 308 704
256 323 772
264 340 850
272 356 928
280 371 1008
289 385 1088
298 399 1169
304 410 1264
309 421 1358
316 430 1448
324 436 1529
332 441 1609
341 443 1670
349 442 1720
358 441 1771
240 293 638
247 307 700
254 322 763
261 337 830
269 353 906
278 370 983
287 386 1062
298 402 1143
308 418 1223
318 432 1310
327 445 1398
335 457 1482
343 464 1560
351 471 1637
360 473 1696
368 473 1746
377 473 1796
245 307 699
252 321 761
258 335 822
265 350 888
275 367 963
284 384 1038
295 402 1116
307 420 1197
319 438 1277
331 454 1357
344 470 1437
355 483 1516
363 492 1591
371 500 1666
379 503 1723
387 504 1772
396 505 1821
250 323 772
256 337 831
262 350 891
270 365 955
280 382 1027
290 400 1099
302 418 1176
316 438 1255
330 457 1334
345 476 1409
361 494 1485
375 510 1559
384 522 1632
394 533 1704
403 538 1760
411 540 1808
419 542 1855
255 343 868
260 355 924
266 368 979
274 382 1039
285 399 1106
296 416 1173
310 435 1246
326 455 1321
341 476 1397
360 497 1472
378 518 1548
395 538 1621
411 556 1692
426 574 1763
436 582 1817
444 586 1863
452 590 1910
259 362 964
264 374 1016
270 386 1068
278 400 1123
290 416 1185
302 433 1247
318 452 1316
335 473 1388
353 494 1460
374 518 1535
396 542 1611
416 566 1684
437 591 1752
457 615 1821
469 627 1874
478 632 1919
486 638 1965
259 384 1087
266 396 1134
272 408 1181
281 422 1231
295 438 1286
308 454 1341
326 473 1403
346 494 1469
366 515 1535
390 541 1607
414 567 1680
439 594 1752
463 624 1822
488 653 1892
505 674 1950
519 690 2003
533 707 2056
257 408 1224
266 420 1266
274 433 1308
284 446 1351
300 462 1397
315 477 1444
335 496 1498
357 516 1557
379 537 1615
406 565 1684
434 592 1753
462 622 1824
490 656 1897
519 690 1969
543 722 2036
565 754 2101
586 786 2165
256 432 1361
266 445 1397
276 457 1434
288 471 1471
304 485 1509
321 500 1547
343 518 1594
368 539 1644
392 559 1695
423 588 1761
454 617 1826
485 650 1895
517 689 1971
549 727 2047
580 771 2122
610 818 2198
640 865 2274
294 201 380
289 220 441
285 238 503
282 255 574
283 270 666
284 284 759
287 296 866
291 307 981
295 318 1096
302 326 1212
309 334 1327
317 340 1435
326 345 1529
335 349 1622
346 352 1690
357 355 1745
369 357 1800
301 221 407
300 241 470
298 262 533
297 280 606
298 295 697
299 310 788
302 322 894
306 333 1006
310 344 1118
317 351 1231
323 358 1344
331 365 1450
340 369 1542
349 373 1634
359 375 1700
370 376 1754
381 377 1808
309 240 434
310 263 499
311 285 564
311 305 637
312 321 728
313 336 818
316 348 922
320 359 1031
324 370 1141
331 377 1251
338 383 1361
345 389 1465
354 392 1555
363 396 1645
372 397 1711
383 398 1764
393 398 1817
314 258 462
317 282 528
321 306 595
323 327 669
325 343 757
326 359 846
329 372 947
333 383 1054
337 394 1161
344 401 1269
350 407 1377
357 413 1478
366 416 1567
375 419 1656
384 420 1720
394 420 1772
404 419 1825
315 270 490
320 295 558
325 320 626
329 343 700
333 360 785
336 377 870
340 390 968
343 402 1073
347 415 1178
353 422 1283
359 429 1389
366 435 1488
375 439 1575
384 442 1663
393 443 1727
402 443 1779
412 443 1832
317 283 518
323 309 588
330 335 658
336 358 732
341 376 813
346 394 893
350 409 989
353 422 1092
357 435 1195
363 443 1298
369 451 1400
376 458 1498
384 462 1584
392 466 1670
401 467 1734
410 467 1786
420 466 1839
318 297 555
325 323 626
332 349 697
340 373 771
347 392 851
354 411 931
360 428 1023
366 443 1121
371 458 1219
377 467 1319
383 476 1419
390 484 1514
398 489 1599
406 493 1683
415 495 1746
424 495 1798
433 494 1850
320 311 598
327 337 668
334 363 739
342 387 813
352 408 895
361 428 976
370 447 1064
379 465 1155
388 482 1246
394 493 1344
400 503 1442
406 512 1535
414 517 1617
423 523 1699
431 525 1761
440 525 1812
449 525 1863
322 326 640
329 351 711
337 377 781
345 401 856
356 423 938
368 445 1021
380 466 1105
392 486 1189
405 506 1274
410 518 1369
416 530 1464
423 540 1555
431 546 1635
439 552 1715
448 555 1775
456 555 1826
464 555 1876
326 346 709
333 369 776
340 393 844
349 417 916
362 440 997
374 462 1078
388 485 1161
403 507 1245
418 528 1329
428 544 1417
439 560 1506
449 573 1590
457 581 1668
465 589 1745
474 592 1804
482 593 1853
491 594 1902
331 365 778
337 387 842
343 409 906
352 432 975
367 456 1055
381 479 1135
397 503 1217
414 527 1300
431 551 1384
446 570 1465
462 590 1547
475 606 1626
483 616 1701
492 625 1775
500 629 1832
508 631 1880
517 633 1928
335 387 858
341 407 918
347 427 978
356 449 1044
372 473 1121
388 497 1198
406 522 1278
425 547 1360
444 573 1442
464 596 1519
484 619 1595
501 639 1670
511 652 1742
522 664 1814
531 670 1869
539 673 1916
547 676 1963
339 413 963
345 431 1016
351 448 1070
360 468 1130
378 492 1202
395 516 1274
416 542 1350
437 569 1429
459 595 1507
482 621 1583
504 647 1658
525 671 1732
542 690 1801
559 710 1870
570 719 1923
579 724 1968
587 729 2013
343 439 1067
349 454 1114
354 469 1162
364 487 1215
384 511 1283
403 536 1350
425 562 1423
449 590 1497
474 617 1572
499 646 1647
525 675 1721
550 702 1793
573 729 1859
596 755 1925
610 768 1976
619 775 2020
627 781 2063
344 468 1200
350 481 1239
356 493 1278
367 510 1324
389 534 1385
411 559 1445
436 586 1511
463 614 1579
490 642 1648
519 673 1719
548 704 1791
577 735 1861
604 766 1927
632 797 1993
650 819 2047
664 835 2095
679 851 2143
343 500 1347
350 510 1377
357 519 1406
370 534 1444
395 559 1497
419 584 1550
447 612 1608
477 640 1669
507 668 1729
539 701 1797
572 734 1864
604 767 1931
635 803 1999
666 838 2066
691 870 2126
713 899 2182
735 929 2238
342 531 1494
350 539 1515
359 546 1535
373 559 1563
400 584 1609
427 609 1654
458 637 1705
491 666 1758
524 695 1811
560 729 1874
596 764 1937
632 800 2002
666 839 2070
701 879 2139
733 921 2205
762 964 2269
792 1007 2333
380 210 393
368 232 457
357 255 522
348 275 596
344 290 690
341 304 784
340 317 893
341 330 1010
342 342 1127
347 351 1245
352 360 1362
357 369 1472
365 375 1566
372 381 1661
381 385 1729
392 389 1784
402 393 1839
388 235 427
383 264 498
377 292 568
373 317 647
370 333 740
367 349 834
367 362 941
368 374 1055
370 386 1169
375 394 1283
380 403 1397
385 410 1504
393 415 1596
401 419 1689
410 423 1755
420 425 1809
430 428 1862
397 261 461
397 295 538
398 330 615
397 359 697
395 376 791
393 393 884
393 407 989
395 419 1100
397 431 1211
402 438 1322
408 445 1433
414 451 1537
422 454 1627
430 458 1717
439 460 1782
448 461 1833
457 462 1885
403 283 495
408 322 576
413 361 657
416 393 742
415 412 834
414 431 926
416 445 1029
418 457 1138
420 469 1246
425 476 1354
431 482 1462
437 488 1563
445 491 1652
454 494 1740
462 495 1803
471 495 1854
480 495 1905
404 300 529
410 339 610
416 378 692
421 411 776
424 432 864
427 454 953
430 470 1054
432 483 1161
434 496 1267
439 504 1373
445 511 1478
451 517 1578
459 521 1665
467 525 1752
476 526 1815
485 526 1867
494 527 1918
405 316 563
413 356 644
420 395 726
427 429 809
434 453 895
440 477 980
444 494 1079
446 509 1184
448 523 1288
453 531 1392
459 539 1495
465 546 1592
473 551 1678
481 555 1764
489 557 1827
498 557 1879
507 558 1931
407 335 607
414 373 687
422 412 768
430 446 850
440 471 935
449 497 1021
456 517 1116
462 535 1216
468 552 1316
473 562 1417
478 571 1518
484 580 1613
492 585 1697
500 590 1781
509 592 1844
518 593 1895
526 594 1947
408 354 656
415 391 735
423 429 813
432 462 895
444 489 981
457 516 1067
468 540 1159
479 561 1253
490 583 1347
495 594 1446
501 605 1544
507 615 1637
515 621 1719
523 627 1801
532 629 1862
540 631 1913
549 632 1965
409 373 705
416 409 782
424 445 859
434 479 939
449 507 1027
464 535 1114
480 562 1202
496 588 1290
512 613 1378
517 626 1474
523 639 1571
530 650 1661
538 657 1741
546 664 1821
554 667 1881
563 668 1931
571 670 1982
413 398 781
419 431 853
426 465 924
437 497 1001
454 526 1087
471 555 1173
489 583 1260
508 611 1347
527 638 1435
539 657 1524
551 675 1614
562 690 1699
571 698 1776
579 706 1853
588 711 1911
596 713 1960
604 715 2009
416 423 856
422 454 923
429 484 990
440 514 1063
459 544 1147
478 574 1231
499 604 1317
521 634 1404
542 663 1491
561 687 1574
580 710 1657
595 729 1737
604 739 1811
613 749 1885
621 755 1941
629 758 1989
638 761 2036
420 451 944
426 478 1005
432 505 1065
443 533 1133
464 564 1215
486 594 1297
509 626 1381
534 657 1466
558 688 1550
583 716 1628
607 745 1706
627 768 1782
638 781 1853
649 795 1924
659 802 1978
667 806 2024
676 810 2070
424 483 1057
429 506 1109
435 528 1160
447 554 1220
471 585 1298
495 617 1375
521 649 1455
549 682 1536
576 714 1617
603 745 1693
631 776 1769
655 803 1842
674 824 1910
692 845 1977
704 856 2028
713 862 2072
722 867 2116
427 516 1171
433 534 1213
438 552 1255
451 574 1308
477 606 1381
504 639 1454
533 672 1529
563 706 1606
594 740 1683
624 774 1758
655 807 1832
684 839 1903
710 867 1967
735 896 2030
750 910 2079
759 917 2120
769 924 2162
429 553 1313
434 565 1344
440 578 1374
454 598 1417
483 631 1483
513 664 1550
546 699 1619
580 734 1690
614 769 1761
648 805 1831
682 840 1902
715 875 1970
745 909 2032
776 942 2094
795 963 2143
810 979 2187
824 994 2231
429 592 1471
435 599 1488
441 606 1505
456 622 1537
489 657 1596
523 692 1655
559 727 1717
597 764 1781
635 800 1844
672 838 1909
710 875 1975
747 912 2039
780 949 2101
814 986 2162
840 1017 2215
862 1044 2263
884 1072 2312
428 631 1628
435 632 1632
442 634 1636
459 647 1656
495 683 1709
532 719 1761
572 756 1815
614 793 1871
655 831 1927
697 870 1987
739 910 2048
779 950 2109
816 990 2170
853 1030 2231
885 1070 2287
915 1110 2340
944 1149 2393
507 224 406
491 250 472
475 275 538
461 299 615
449 317 713
437 336 811
430 353 924
426 368 1045
422 384 1166
423 396 1287
425 408 1408
428 419 1521
433 428 1618
438 437 1715
446 444 1784
455 451 1840
463 457 1896
517 254 445
509 289 521
501 323 597
493 353 680
482 375 778
472 396 877
466 413 988
463 428 1106
460 444 1224
462 454 1341
464 465 1458
467 474 1567
473 481 1661
479 488 1754
486 493 1821
495 498 1875
