Assets/1__3DArt/KimSe/artstation_asset/LUTs_subway_asset/3DL/LoFi Chill 05.3dl
# LUT by SparkleStock. Enhanced with VOXCOLOR algorithms.
0 64 128 192 256 320 384 448 512 576 640 704 768 832 896 960 1023
304 224 384
305 239 441
306 255 499
309 269 568
316 280 661
323 291 754
335 301 860
349 309 973
363 318 1086
383 322 1195
403 327 1304
423 330 1404
446 332 1487
469 333 1569
489 334 1626
509 335 1669
528 336 1713
307 238 395
309 250 452
310 262 510
314 274 579
320 286 670
327 298 762
338 308 866
351 316 977
364 324 1088
383 328 1194
402 333 1301
422 335 1399
443 336 1481
465 337 1562
485 337 1618
504 338 1660
523 338 1703
310 252 406
312 261 463
315 270 521
318 280 589
324 292 679
330 305 769
341 315 872
353 323 980
365 331 1089
383 334 1194
401 338 1299
420 341 1395
441 341 1475
462 341 1555
481 341 1610
500 341 1651
518 340 1693
312 263 420
315 271 479
319 278 537
323 287 605
329 300 693
336 313 780
346 323 880
357 331 986
369 340 1092
386 343 1195
403 347 1298
421 349 1392
441 349 1471
461 349 1549
479 348 1602
497 347 1643
515 346 1683
313 271 441
318 280 502
323 289 563
329 300 632
337 312 714
345 324 796
355 335 893
366 344 996
377 353 1099
393 358 1199
410 362 1299
427 364 1392
446 364 1468
465 364 1545
483 363 1597
500 361 1636
517 359 1675
313 279 462
320 290 526
327 301 589
335 312 658
345 324 735
354 335 813
364 346 906
375 357 1006
385 367 1107
401 372 1204
416 377 1301
433 380 1391
451 379 1466
470 379 1541
486 377 1591
502 374 1629
518 372 1667
316 287 494
324 299 559
332 311 624
341 323 693
352 335 768
363 347 844
375 359 931
387 371 1024
400 383 1117
414 388 1212
429 394 1306
445 398 1393
463 398 1466
480 398 1538
496 395 1587
511 392 1624
526 389 1661
319 295 532
328 308 597
337 320 663
347 333 732
360 347 807
373 360 883
387 373 963
402 386 1047
417 400 1130
431 406 1221
445 412 1312
460 416 1396
477 417 1467
494 418 1537
509 415 1585
523 412 1621
538 409 1657
323 304 569
332 317 635
342 330 702
353 344 771
368 358 846
382 372 921
399 387 995
416 401 1069
434 416 1143
448 423 1231
461 430 1319
475 435 1400
491 436 1468
508 438 1536
522 435 1582
536 432 1618
549 428 1653
329 316 634
339 329 697
349 342 761
361 355 828
377 370 899
393 384 971
411 399 1043
431 414 1114
451 428 1185
469 438 1261
488 448 1338
505 455 1410
520 457 1476
536 459 1542
550 457 1587
563 454 1621
576 450 1656
336 328 698
346 341 759
356 354 821
369 367 884
386 382 953
403 396 1021
424 411 1090
446 426 1158
468 441 1226
491 453 1292
514 466 1357
534 476 1421
549 478 1484
564 480 1547
578 479 1591
591 476 1624
604 473 1658
342 342 774
353 355 832
364 367 890
377 380 950
395 395 1014
414 409 1078
437 424 1142
461 439 1206
486 454 1271
513 468 1327
541 483 1384
565 494 1441
582 498 1499
600 502 1558
614 502 1599
627 499 1632
640 497 1665
349 360 875
360 373 927
372 384 979
386 397 1032
406 411 1089
425 424 1146
450 438 1204
477 453 1262
505 467 1321
536 482 1373
568 496 1426
598 509 1478
624 518 1529
649 527 1579
667 528 1617
680 526 1649
693 523 1681
356 379 976
368 390 1021
380 402 1067
395 414 1114
416 426 1164
437 439 1214
464 453 1266
493 467 1318
523 481 1370
559 496 1420
595 510 1469
630 524 1516
665 537 1558
699 551 1600
719 554 1635
732 552 1666
745 550 1697
360 401 1105
374 412 1143
388 423 1182
405 435 1221
428 446 1261
450 457 1301
479 470 1343
511 483 1386
543 497 1429
583 511 1472
624 525 1515
664 539 1556
706 555 1594
748 570 1632
778 578 1666
801 583 1697
825 587 1729
364 424 1249
380 436 1279
397 447 1309
415 458 1339
440 468 1368
465 478 1397
496 489 1428
530 501 1460
565 513 1492
609 527 1528
653 540 1563
699 555 1599
748 571 1635
797 587 1671
839 602 1704
878 616 1736
917 630 1769
368 448 1393
386 460 1415
405 471 1437
426 482 1457
452 490 1474
479 498 1492
512 508 1512
549 518 1534
586 529 1555
634 543 1583
683 556 1611
734 571 1641
789 587 1675
845 604 1709
900 625 1742
955 648 1776
1009 672 1809
404 238 392
404 253 449
403 268 507
404 282 577
406 293 671
408 303 765
415 313 872
425 322 985
435 330 1099
452 336 1208
469 341 1317
486 345 1417
506 348 1500
526 350 1584
544 352 1641
562 353 1685
580 355 1729
410 256 411
414 272 471
418 287 531
421 302 602
424 314 694
426 325 787
434 335 892
444 344 1003
454 352 1114
470 357 1220
486 361 1327
503 365 1425
523 366 1506
542 368 1587
561 369 1642
578 370 1684
595 370 1727
417 275 431
425 291 493
433 307 555
439 322 627
442 335 718
445 348 809
452 357 912
462 366 1020
472 374 1129
487 378 1233
503 382 1336
520 385 1432
540 385 1511
559 386 1590
577 386 1643
594 386 1684
611 385 1725
421 291 452
433 307 517
444 324 581
453 339 653
457 353 742
462 367 830
470 377 930
479 386 1036
489 394 1142
504 398 1243
519 401 1344
536 404 1437
555 404 1514
574 404 1591
591 403 1643
608 402 1683
625 401 1722
423 300 478
436 318 543
448 336 609
459 353 680
467 367 764
476 381 848
485 392 945
494 402 1048
503 412 1151
518 416 1249
533 420 1348
549 423 1439
567 423 1514
586 423 1590
603 422 1641
619 420 1679
635 418 1718
425 310 504
439 330 570
453 349 637
466 367 708
478 381 787
489 396 866
499 408 959
509 419 1059
518 429 1159
532 434 1256
547 439 1352
562 442 1441
580 442 1514
597 442 1588
614 440 1638
630 438 1676
645 435 1714
429 321 540
443 341 606
457 361 673
471 379 743
486 394 821
501 410 898
514 423 986
526 436 1079
539 449 1173
553 454 1266
567 460 1359
582 464 1446
599 464 1517
616 464 1589
632 463 1638
647 460 1675
662 457 1712
434 332 581
448 352 647
462 371 714
477 390 783
494 407 860
511 423 937
528 439 1019
545 454 1104
562 469 1188
576 476 1278
590 483 1369
605 488 1452
622 488 1521
638 489 1591
653 488 1638
668 485 1674
683 482 1711
439 343 623
453 363 688
467 382 754
482 402 823
501 419 900
520 437 977
542 455 1053
564 472 1128
586 489 1204
600 497 1291
614 505 1378
628 511 1458
644 513 1526
660 514 1593
675 513 1639
689 510 1674
703 506 1710
447 358 690
460 377 752
474 396 814
490 414 880
511 432 954
532 451 1028
556 469 1101
581 487 1173
606 505 1246
626 516 1323
646 528 1399
665 536 1472
681 539 1537
697 541 1601
711 540 1646
725 537 1680
739 535 1715
455 373 757
468 391 816
481 409 875
498 427 938
521 445 1008
544 464 1079
570 483 1149
598 501 1219
626 520 1289
653 535 1355
679 550 1421
702 561 1486
718 565 1548
733 568 1610
748 568 1653
761 565 1686
775 563 1720
463 391 836
476 407 890
489 424 945
506 441 1003
531 460 1069
556 479 1136
585 498 1202
616 517 1268
647 536 1334
679 554 1392
712 571 1450
739 585 1507
758 590 1565
776 596 1623
792 596 1663
805 595 1696
819 593 1729
472 413 938
485 427 986
498 442 1034
515 458 1085
542 477 1145
570 495 1205
601 514 1265
635 534 1325
669 553 1385
706 571 1439
743 588 1493
777 604 1546
805 614 1595
833 625 1645
851 628 1683
865 627 1714
878 625 1745
482 435 1041
494 448 1082
506 460 1123
524 475 1168
554 493 1221
583 512 1273
618 531 1327
654 550 1381
691 570 1436
733 588 1486
774 606 1536
814 623 1584
852 639 1626
889 655 1668
911 659 1702
925 659 1732
938 658 1762
490 461 1172
502 472 1204
515 482 1236
534 496 1273
566 514 1316
598 532 1360
636 550 1405
676 569 1450
716 588 1495
762 606 1539
808 625 1584
854 643 1625
899 661 1663
944 679 1701
975 688 1733
998 694 1762
1022 699 1792
497 489 1317
510 498 1340
524 507 1363
544 518 1389
579 536 1422
614 553 1455
655 571 1489
698 589 1524
742 607 1559
792 626 1596
843 644 1633
894 663 1669
946 681 1704
997 700 1739
1040 716 1770
1079 730 1800
1118 745 1829
504 517 1463
518 524 1476
532 531 1489
554 541 1505
592 557 1527
630 574 1550
674 591 1574
721 609 1599
768 626 1623
823 645 1653
878 664 1682
934 683 1713
992 702 1745
1051 722 1778
1106 744 1808
1159 767 1837
1213 790 1866
504 251 400
502 266 457
501 281 515
499 295 585
496 305 680
493 316 775
496 325 883
502 334 997
508 343 1112
521 349 1221
535 355 1330
549 360 1431
566 364 1514
584 367 1598
600 370 1655
616 372 1700
632 374 1744
513 274 428
519 293 490
526 313 552
529 329 625
528 341 719
526 353 812
530 363 917
536 371 1029
543 380 1140
556 385 1246
570 390 1352
585 394 1450
602 397 1530
620 399 1611
636 400 1666
652 401 1708
667 402 1751
523 298 456
537 321 523
551 344 590
560 364 665
560 377 757
559 390 849
564 400 952
571 408 1060
578 417 1168
592 421 1271
606 425 1374
621 429 1469
638 430 1546
656 431 1624
672 431 1677
688 431 1717
703 430 1757
531 318 485
550 343 555
569 369 625
582 392 701
585 406 791
588 421 880
594 431 980
601 440 1086
608 449 1191
622 452 1291
636 456 1391
651 459 1483
669 459 1558
687 459 1633
703 459 1684
718 457 1722
734 456 1761
534 330 515
554 357 585
573 383 655
589 407 729
598 422 815
606 438 900
614 450 996
622 460 1099
629 470 1202
643 474 1299
656 478 1397
671 481 1487
689 481 1560
706 482 1634
722 481 1684
737 479 1723
753 478 1761
538 342 545
558 370 615
578 397 684
596 422 758
611 439 838
625 456 919
635 469 1012
643 480 1112
650 492 1212
663 496 1307
677 501 1403
691 504 1491
708 504 1563
725 504 1636
741 503 1685
757 501 1723
772 499 1761
543 355 585
562 383 654
582 410 722
602 435 794
620 453 873
638 472 952
653 487 1041
665 501 1134
678 515 1228
691 520 1320
704 526 1413
719 530 1498
735 531 1569
752 531 1639
768 530 1688
783 528 1725
798 526 1762
548 369 631
568 396 698
587 422 764
607 447 835
628 467 914
649 487 992
669 505 1075
688 522 1161
708 539 1246
722 546 1336
735 553 1425
750 559 1508
766 560 1576
782 561 1644
798 560 1691
812 558 1728
827 555 1764
554 382 676
573 408 741
591 435 806
612 459 876
635 481 954
659 502 1032
685 522 1110
712 543 1187
738 563 1265
752 572 1351
766 581 1437
781 587 1517
797 589 1583
813 591 1649
828 590 1695
842 587 1731
857 585 1766
564 400 746
581 425 807
599 449 868
619 473 933
645 495 1009
672 517 1084
701 539 1159
731 560 1233
761 581 1308
783 594 1384
805 607 1461
825 617 1533
842 620 1597
858 624 1661
872 623 1705
887 621 1739
901 619 1774
574 418 816
590 441 872
606 464 929
627 486 991
656 509 1063
684 532 1136
717 555 1208
750 577 1280
784 600 1351
814 617 1418
845 634 1485
870 647 1550
886 652 1611
902 656 1672
917 657 1715
931 655 1748
946 653 1781
584 439 897
599 459 948
614 480 1000
635 501 1057
667 525 1125
698 548 1194
733 572 1262
770 595 1329
807 618 1397
845 639 1457
883 659 1516
914 675 1574
934 682 1631
953 689 1688
969 691 1728
983 690 1760
998 689 1792
596 465 1001
610 482 1045
623 499 1089
644 519 1139
679 543 1201
714 566 1263
752 590 1325
793 614 1387
834 638 1449
876 659 1504
918 680 1560
956 699 1613
986 711 1662
1017 724 1711
1036 728 1748
1050 728 1779
1064 728 1809
608 490 1106
620 505 1142
633 519 1178
654 536 1221
691 561 1277
729 585 1333
771 609 1389
816 633 1445
860 658 1501
907 680 1552
953 702 1604
998 722 1652
1039 740 1694
1080 758 1735
1103 765 1769
1117 765 1798
1131 766 1827
619 521 1238
630 531 1265
642 542 1291
663 557 1324
705 581 1372
746 606 1419
792 630 1466
840 655 1514
889 679 1562
940 702 1607
992 724 1652
1043 746 1695
1091 767 1732
1140 787 1769
1172 798 1800
1196 805 1828
1220 811 1855
629 553 1385
640 559 1401
651 566 1416
673 578 1439
718 603 1476
763 628 1513
813 652 1551
866 677 1589
919 701 1627
976 724 1665
1032 748 1703
1088 770 1739
1143 792 1774
1198 814 1808
1242 831 1837
1280 845 1863
1318 860 1889
640 585 1533
650 588 1537
660 590 1541
683 600 1553
732 625 1580
781 650 1607
835 675 1635
892 699 1663
949 723 1691
1011 747 1722
1073 771 1753
1134 795 1784
1195 817 1816
1256 840 1847
1312 863 1874
1364 885 1898
1417 908 1923
640 270 415
639 286 472
637 302 529
634 316 599
628 328 694
622 340 789
620 351 897
621 360 1013
621 370 1129
631 378 1239
640 385 1350
651 392 1451
665 398 1536
679 403 1620
693 407 1679
707 411 1725
721 415 1771
653 298 449
661 320 513
669 343 577
673 362 651
669 376 744
665 390 838
665 401 944
666 411 1057
668 420 1169
678 426 1275
688 433 1382
700 438 1480
714 442 1561
729 446 1642
744 449 1697
758 451 1740
