Assets/1__3DArt/KimSe/artstation_asset/LUTs_subway_asset/3DL/LoFi Chill 03.3dl
# LUT by SparkleStock. Enhanced with VOXCOLOR algorithms.
0 128 256 384 512 640 768 896 1023
624 512 656
632 526 741
646 543 878
668 561 1058
697 581 1275
732 600 1500
764 613 1692
793 621 1842
817 624 1937
638 527 678
643 536 765
656 552 900
677 574 1077
704 596 1286
735 616 1500
765 631 1685
792 639 1830
813 640 1924
644 538 706
655 549 803
671 567 938
692 590 1107
716 616 1309
745 638 1512
772 654 1687
796 663 1825
815 664 1916
648 546 746
667 564 858
687 585 994
710 610 1155
735 639 1343
761 664 1535
786 681 1699
807 691 1828
823 693 1913
656 557 805
678 579 927
702 608 1070
729 638 1227
760 666 1388
783 692 1568
806 711 1720
825 723 1839
839 726 1917
673 578 918
695 602 1040
720 632 1178
749 666 1327
781 701 1480
816 731 1629
840 752 1763
857 764 1871
871 767 1942
694 610 1086
715 635 1199
741 664 1322
771 697 1452
806 734 1587
846 770 1714
881 800 1830
907 820 1926
920 824 1991
715 652 1321
738 677 1415
765 704 1510
796 733 1609
833 768 1712
877 810 1818
924 852 1919
966 887 2006
992 906 2072
737 705 1633
765 731 1698
793 753 1753
825 777 1806
864 806 1863
912 849 1938
965 902 2023
1024 962 2110
1089 1025 2194
781 519 667
773 546 772
769 569 918
774 590 1103
790 616 1324
816 640 1548
842 660 1741
867 673 1891
887 681 1989
803 554 718
823 600 848
831 632 1003
837 657 1184
853 682 1394
879 704 1605
905 721 1785
928 732 1925
947 736 2016
817 577 769
846 632 910
865 672 1064
880 703 1239
896 730 1441
921 752 1641
946 769 1811
969 780 1944
987 784 2032
826 596 832
855 653 973
884 699 1124
911 737 1292
934 771 1481
958 795 1671
982 814 1833
1004 825 1960
1023 830 2044
835 619 915
863 675 1051
897 724 1204
937 770 1366
980 815 1531
1004 843 1711
1028 864 1864
1050 877 1982
1069 884 2061
852 657 1051
876 706 1171
915 755 1315
962 804 1470
1013 854 1627
1060 896 1776
1092 923 1911
1114 938 2021
1133 946 2093
872 707 1240
894 746 1335
936 792 1458
991 843 1597
1052 896 1737
1112 946 1864
1161 984 1979
1196 1009 2075
1216 1018 2141
897 771 1493
915 795 1549
962 836 1642
1025 887 1752
1095 941 1864
1165 995 1969
1233 1046 2065
1288 1085 2147
1321 1106 2210
925 847 1815
941 853 1822
992 888 1872
1064 938 1943
1144 990 2011
1225 1047 2086
1304 1105 2163
1379 1161 2237
1449 1216 2303
1088 541 687
1081 576 795
1060 615 958
1038 657 1162
1026 696 1397
1036 734 1630
1052 765 1831
1070 790 1989
1088 808 2097
1120 589 754
1146 654 899
1144 712 1077
1129 761 1281
1117 798 1500
1127 829 1716
1144 855 1899
1163 874 2042
1181 887 2137
1151 647 847
1186 724 1005
1209 797 1186
1217 858 1382
1210 896 1591
1223 924 1791
1241 946 1960
1261 961 2091
1280 969 2176
1177 706 957
1209 782 1112
1251 864 1285
1286 935 1472
1299 981 1666
1314 1010 1853
1334 1030 2010
1355 1044 2132
1374 1050 2212
1195 752 1074
1225 826 1217
1268 905 1381
1319 981 1553
1373 1045 1722
1391 1079 1900
1412 1103 2049
1434 1118 2164
1454 1127 2240
1218 816 1239
1243 879 1359
1285 950 1502
1342 1023 1659
1414 1092 1819
1473 1148 1968
1510 1181 2101
1534 1200 2208
1556 1210 2278
1244 895 1452
1265 943 1540
1306 1002 1653
1370 1069 1785
1459 1142 1929
1544 1208 2056
1608 1257 2169
1652 1288 2262
1676 1300 2327
1273 988 1717
1291 1017 1764
1332 1060 1839
1403 1119 1936
1509 1195 2054
1613 1265 2159
1705 1328 2252
1776 1376 2329
1815 1399 2387
1306 1093 2042
1322 1099 2038
1363 1125 2064
1441 1175 2118
1567 1253 2198
1690 1328 2273
1800 1396 2345
1896 1457 2408
1974 1508 2460
1519 576 718
1521 617 823
1498 678 998
1463 749 1223
1429 821 1480
1412 883 1734
1410 936 1952
1420 981 2126
1435 1018 2250
1560 635 796
1588 710 940
1583 793 1134
1557 876 1361
1525 946 1603
1509 999 1834
1509 1043 2030
1520 1079 2184
1536 1107 2289
1608 731 929
1642 818 1089
1667 920 1285
1674 1017 1506
1651 1089 1735
1641 1134 1944
1645 1170 2119
1658 1196 2253
1676 1215 2342
1654 842 1094
1685 927 1251
1734 1037 1437
1774 1145 1641
1781 1224 1851
1778 1265 2042
1787 1295 2199
1803 1315 2319
1822 1326 2396
1692 943 1266
1719 1022 1409
1764 1124 1576
1821 1230 1754
1885 1322 1930
1890 1367 2110
1903 1397 2255
1921 1415 2365
1941 1425 2436
1727 1042 1464
1751 1111 1582
1789 1196 1719
1845 1289 1870
1925 1380 2031
1993 1450 2179
2030 1492 2309
2052 1515 2412
2074 1527 2478
1763 1156 1700
1784 1209 1786
1816 1274 1886
1872 1351 2002
1966 1438 2139
2072 1520 2266
2148 1580 2377
2197 1617 2466
2222 1632 2526
1801 1283 1976
1820 1318 2025
1846 1358 2080
1903 1415 2154
2013 1497 2261
2145 1584 2366
2259 1660 2455
2344 1715 2527
2386 1741 2580
1841 1423 2296
1860 1436 2301
1882 1448 2306
1940 1482 2332
2067 1558 2399
2226 1652 2476
2365 1733 2542
2480 1801 2597
2564 1853 2640
2048 626 763
2061 672 867
2062 748 1039
2050 855 1272
2019 990 1560
1963 1090 1846
1935 1179 2093
1931 1256 2294
1944 1322 2440
2095 696 855
2124 778 996
2133 874 1183
2126 990 1418
2106 1132 1701
2050 1219 1960
2025 1294 2180
2023 1358 2354
2037 1410 2476
2148 810 1007
2181 905 1161
2209 1016 1348
2223 1144 1576
2212 1290 1848
2163 1366 2079
2144 1428 2273
2146 1478 2422
2163 1517 2523
2209 972 1214
2238 1062 1364
2280 1177 1540
2318 1309 1748
2331 1453 1992
2296 1520 2199
2286 1571 2367
2293 1608 2494
2312 1634 2576
2282 1182 1474
2301 1257 1608
2338 1355 1764
2391 1473 1937
2458 1610 2125
2442 1674 2312
2443 1715 2459
2457 1739 2565
2477 1753 2632
2336 1321 1707
2355 1388 1817
2385 1471 1943
2429 1570 2083
2489 1684 2235
2554 1769 2385
2585 1821 2513
2601 1850 2612
2621 1864 2673
2389 1474 1965
2406 1527 2045
2430 1590 2135
2465 1664 2236
2515 1751 2346
2628 1846 2470
2707 1916 2577
2755 1960 2662
2779 1977 2717
2441 1640 2250
2457 1675 2294
2475 1713 2344
2501 1757 2400
2541 1812 2463
2688 1912 2565
2814 1999 2650
2905 2061 2717
2946 2089 2764
2491 1815 2561
2508 1829 2567
2522 1840 2572
2542 1852 2580
2574 1871 2593
2755 1979 2668
2912 2072 2730
3036 2147 2779
3120 2201 2813
2558 688 831
2580 743 940
2599 834 1113
2614 963 1343
2623 1129 1627
2618 1319 1938
2591 1477 2222
2568 1609 2462
2576 1726 2642
2607 772 943
2636 860 1080
2657 968 1263
2673 1101 1492
2684 1268 1765
2682 1449 2054
2657 1590 2310
2636 1702 2519
2645 1798 2671
2662 908 1118
2692 1007 1263
2722 1124 1440
2746 1262 1655
2759 1424 1912
2759 1592 2177
2739 1716 2403
2723 1808 2582
2734 1883 2707
2725 1095 1349
2751 1188 1486
2786 1304 1647
2820 1438 1836
2843 1589 2061
2848 1742 2300
2835 1848 2496
2825 1922 2647
2839 1978 2747
2797 1330 1627
2815 1409 1747
2845 1508 1886
2884 1623 2040
2934 1755 2206
2945 1892 2418
2941 1982 2586
2939 2038 2710
2955 2076 2789
2870 1580 1917
2882 1639 2013
2903 1714 2123
2936 1804 2244
2979 1909 2376
3027 2017 2520
3043 2092 2654
3050 2139 2760
3067 2166 2825
2940 1793 2201
2950 1836 2268
2966 1890 2344
2990 1954 2429
3024 2029 2522
3084 2114 2622
3137 2187 2722
3177 2239 2806
3197 2263 2861
3006 1988 2485
3016 2017 2521
3028 2049 2561
3044 2086 2606
3067 2129 2657
3129 2192 2723
3219 2267 2792
3300 2331 2854
3334 2362 2898
3068 2187 2776
3078 2197 2779
3086 2204 2781
3096 2211 2785
3111 2221 2793
3175 2262 2823
3285 2333 2865
3398 2408 2907
3469 2461 2935
2962 752 916
2991 820 1035
3023 928 1213
3056 1078 1445
3091 1270 1724
3124 1512 2037
3136 1742 2336
3138 1951 2603
3143 2129 2823
3011 853 1051
3040 947 1185
3070 1067 1367
3102 1218 1592
3136 1407 1858
3167 1636 2150
3178 1848 2421
3180 2032 2657
3185 2181 2844
3068 1014 1255
3095 1114 1388
3125 1236 1554
3156 1383 1757
3187 1561 2002
3217 1773 2268
3227 1962 2509
3230 2120 2713
3237 2241 2867
3132 1229 1513
3155 1321 1633
3183 1434 1775
3213 1569 1944
3242 1726 2151
3271 1916 2388
3283 2080 2597
3288 2212 2769
3297 2306 2892
3202 1491 1811
3219 1569 1912
3241 1663 2029
3269 1772 2160
3303 1895 2302
3328 2059 2505
3343 2198 2682
3352 2305 2824
3363 2374 2919
3277 1786 2120
3285 1841 2197
3300 1910 2286
3321 1992 2385
3349 2085 2493
3382 2195 2620
3403 2301 2753
3417 2386 2869
3431 2436 2944
3346 2046 2404
3351 2082 2457
3360 2128 2517
3374 2183 2584
3394 2246 2658
3426 2318 2736
3460 2394 2825
3489 2459 2907
3506 2497 2967
3412 2276 2672
3416 2297 2699
3421 2321 2730
3429 2350 2764
3441 2384 2803
3465 2425 2848
3513 2478 2897
3561 2528 2945
3588 2564 2990
3476 2484 2935
3481 2490 2934
3485 2494 2933
3488 2498 2933
3492 2502 2936
3507 2512 2947
3560 2548 2969
3626 2596 2995
3680 2641 3017
3250 817 1017
3284 903 1155
3323 1030 1344
3368 1201 1579
3419 1416 1855
3474 1685 2158
3526 1972 2454
3565 2251 2729
3577 2494 2971
3297 938 1181
3325 1036 1311
3361 1170 1493
3403 1340 1720
3450 1549 1981
3501 1802 2261
3549 2068 2531
3584 2319 2777
3597 2529 2986
3354 1126 1416
3378 1223 1534
3407 1348 1688
3443 1506 1881
3484 1700 2118
3529 1929 2370
3573 2168 2610
3605 2388 2824
3617 2563 2998
3419 1370 1703
3438 1457 1804
3460 1565 1923
3487 1698 2072
3520 1862 2263
3559 2063 2481
3598 2269 2688
3628 2456 2870
3640 2598 3010
3490 1661 2023
3502 1732 2101
3517 1818 2193
3536 1917 2298
3557 2029 2412
3589 2198 2592
3623 2370 2764
3651 2523 2913
3665 2632 3022
3558 1968 2329
3563 2019 2385
3572 2080 2450
3583 2152 2524
3598 2232 2605
3621 2333 2707
3648 2459 2831
3674 2580 2949
3691 2663 3033
3617 2252 2597
3618 2283 2633
3621 2321 2674
3627 2365 2720
3636 2417 2772
3653 2474 2829
3673 2549 2901
3695 2624 2976
3713 2684 3042
3671 2499 2832
3670 2513 2848
3670 2530 2867
3672 2551 2888
3676 2575 2913
3687 2604 2943
3701 2633 2972
3719 2667 3006
3740 2709 3051
3722 2693 3039
3724 2697 3037
3723 2699 3033
3723 2701 3030
3722 2701 3029
3726 2703 3033
3735 2708 3040
3752 2721 3050
3783 2748 3063
3410 881 1137
3447 988 1300
3491 1139 1506
3541 1333 1749
3598 1571 2024
3660 1859 2315
3718 2165 2594
3770 2478 2850
3811 2786 3074
3454 1023 1334
3481 1125 1457
3519 1274 1643
3566 1465 1875
3619 1695 2134
3677 1966 2404
3730 2249 2659
3778 2533 2890
3818 2809 3087
3512 1240 1602
3531 1332 1700
3558 1460 1841
3595 1628 2027
3641 1838 2260
3693 2083 2500
3740 2334 2724
3784 2584 2925
3820 2823 3093
3578 1516 1918
3590 1594 1996
3607 1693 2089
3630 1824 2216
3665 1995 2395
3708 2205 2599
3749 2420 2788
3788 2631 2956
3821 2831 3095
3648 1835 2258
3655 1895 2312
3664 1970 2376
3676 2057 2452
3689 2158 2538
3723 2330 2699
3758 2505 2850
3792 2674 2985
3823 2835 3096
3712 2155 2561
3713 2194 2593
3715 2244 2631
3720 2303 2677
3726 2369 2729
3741 2459 2807
3765 2579 2907
3795 2710 3009
3826 2834 3097
3761 2433 2805
3759 2455 2819
3757 2483 2837
3757 2517 2859
3758 2555 2885
3764 2597 2918
3776 2659 2968
3797 2737 3028
3826 2827 3093
3795 2654 2983
3792 2664 2986
3789 2676 2990
3786 2689 2994
3785 2705 3001
3787 2722 3014
3791 2736 3028
3801 2762 3049
3822 2812 3086
3811 2802 3090
3811 2807 3089
3810 2810 3085
3809 2811 3079
3807 2811 3075
3808 2809 3077
3810 2804 3079
3811 2797 3079
3811 2786 3074
