Assets/1__3DArt/KimSe/artstation_asset/LUTs_subway_asset/3DL/Paranormal 01.3dl
# LUT by SparkleStock. Enhanced with VOXCOLOR algorithms.
0 256 512 768 1023
128 240 352
190 335 566
248 465 827
335 643 1216
448 865 1729
189 811 724
237 968 1041
352 1242 1479
503 1562 1998
669 1907 2568
364 1795 1406
304 1837 1666
413 2087 2132
626 2458 2673
861 2801 3175
1082 2883 2260
766 2845 2430
751 2934 2739
941 3109 3106
1202 3325 3475
2386 3555 2882
1817 3579 3056
1535 3580 3231
1573 3603 3427
1729 3635 3619
429 450 577
357 430 682
382 515 913
466 701 1314
581 948 1857
733 1185 1024
689 1282 1348
698 1405 1650
793 1665 2106
944 1995 2652
1104 2098 1665
1062 2197 2021
948 2266 2302
1094 2546 2758
1319 2866 3235
1901 3018 2410
1853 3079 2703
1611 3084 2905
1597 3183 3181
1821 3374 3518
2937 3600 2945
2889 3631 3169
2598 3635 3324
2410 3643 3481
2387 3656 3636
1030 831 956
760 732 1027
608 681 1154
657 817 1498
761 1050 2029
1497 1639 1404
1378 1702 1728
1252 1725 1980
1213 1840 2296
1264 2101 2771
1906 2369 1878
1914 2474 2257
1858 2558 2580
1785 2679 2885
1871 2935 3293
2548 3123 2493
2621 3209 2835
2614 3273 3109
2391 3288 3290
2462 3424 3568
3234 3606 2925
3342 3669 3216
3384 3710 3442
3153 3697 3562
2998 3692 3684
2038 1396 1441
1629 1307 1629
1250 1208 1776
1077 1203 2005
1085 1299 2356
2458 2148 1800
2332 2205 2170
2115 2226 2455
1954 2264 2713
1835 2338 3000
2764 2754 2176
2753 2813 2530
2741 2889 2863
2640 2970 3154
2513 3070 3424
3057 3230 2551
3120 3291 2880
3161 3353 3170
3135 3417 3414
3057 3497 3640
3418 3603 2866
3529 3666 3178
3608 3719 3438
3614 3763 3635
3483 3753 3754
3042 1953 1793
2786 2037 2270
2292 1943 2528
1873 1888 2753
1649 1889 3010
3287 2550 2069
3269 2660 2526
3112 2734 2904
2894 2783 3188
2771 2858 3445
3443 3030 2364
3448 3073 2727
3493 3146 3076
3454 3253 3400
3429 3363 3670
3536 3369 2623
3558 3392 2933
3608 3440 3224
3679 3524 3502
3732 3637 3775
3619 3619 2850
3678 3658 3127
3743 3703 3394
3813 3763 3622
3875 3827 3811
