Assets/1__3DArt/KimSe/artstation_asset/LUTs_subway_asset/3DL/Paranormal 03.3dl
# LUT by SparkleStock. Enhanced with VOXCOLOR algorithms.
0 256 512 768 1023
240 128 176
257 167 328
271 218 541
284 288 915
304 384 1489
346 607 494
352 726 804
398 954 1258
450 1226 1826
511 1535 2452
631 1615 1245
567 1635 1479
649 1884 1965
770 2253 2547
902 2599 3067
1296 2788 2257
1053 2726 2369
1047 2813 2643
1172 2986 3002
1330 3191 3364
2274 3539 2946
1792 3506 3044
1592 3494 3168
1608 3507 3337
1681 3523 3507
444 267 349
373 224 428
366 250 630
380 327 1038
396 441 1659
813 1015 849
747 1067 1150
693 1137 1451
703 1343 1942
763 1644 2540
1262 1970 1579
1210 2037 1892
1095 2086 2155
1144 2346 2634
1262 2664 3120
1968 2942 2418
1916 2984 2659
1707 2972 2823
1653 3056 3080
1760 3227 3404
2762 3558 2959
2712 3593 3153
2432 3573 3277
2229 3551 3403
2147 3537 3540
924 575 707
666 448 765
516 361 892
517 407 1243
532 512 1838
1459 1478 1277
1332 1504 1577
1172 1476 1809
1069 1535 2142
1057 1761 2652
1915 2264 1843
1904 2343 2172
1844 2397 2451
1710 2489 2764
1730 2731 3176
2501 3042 2504
2553 3121 2794
2539 3175 3041
2314 3169 3198
2302 3284 3463
3053 3538 2922
3150 3623 3183
3181 3681 3406
2926 3640 3505
2729 3602 3609
1828 1147 1267
1438 1017 1438
1055 841 1569
867 768 1798
829 777 2176
2295 1991 1747
2176 2037 2072
1959 2023 2323
1773 2005 2564
1618 2031 2859
2627 2631 2178
2611 2688 2475
2605 2764 2772
2487 2812 3040
2332 2880 3299
2925 3118 2554
2975 3187 2836
3013 3259 3105
2989 3313 3341
2879 3370 3554
3251 3502 2855
3356 3596 3138
3434 3682 3395
3444 3727 3602
3277 3688 3709
2722 1777 1745
2522 1864 2184
2077 1717 2405
1666 1574 2593
1441 1537 2802
3000 2393 2077
2997 2513 2460
2875 2584 2782
2683 2601 3028
2568 2641 3263
3182 2867 2389
3198 2924 2673
3265 3021 2979
3242 3119 3278
3224 3212 3550
3313 3209 2625
3345 3255 2881
3413 3327 3146
3509 3430 3431
3577 3537 3717
3443 3475 2802
3509 3563 3081
3594 3647 3353
3687 3724 3602
3763 3779 3811
