Assets/1__3DArt/KimSe/artstation_asset/LUTs_subway_asset/3DL/Paranormal 02_S.3dl
# LUT by SparkleStock. Enhanced with VOXCOLOR algorithms.
0 64 128 192 256 320 384 448 512 576 640 704 768 832 896 960 1023
80 112 176
87 126 223
94 139 269
101 152 320
107 165 381
113 178 441
118 191 517
123 204 601
128 217 685
131 231 799
134 246 913
136 261 1038
136 280 1184
136 298 1330
134 320 1499
131 344 1678
128 368 1857
106 218 236
112 239 296
117 261 357
123 284 423
129 308 502
136 333 581
141 359 675
146 386 776
152 413 878
155 444 1007
159 475 1136
162 508 1275
163 545 1431
164 583 1588
164 625 1759
164 671 1937
163 717 2116
133 323 296
136 353 370
139 383 445
144 415 527
151 451 624
158 488 720
164 527 832
170 568 951
175 609 1071
179 657 1215
184 704 1360
187 755 1512
190 811 1678
192 867 1845
194 931 2019
196 998 2197
199 1065 2375
166 471 381
167 503 464
168 536 546
171 573 639
179 621 753
187 669 867
194 721 995
200 775 1129
207 830 1264
212 892 1421
218 954 1578
223 1020 1740
229 1092 1913
234 1165 2086
239 1245 2260
245 1329 2435
251 1413 2610
212 703 517
210 726 597
207 750 676
209 785 772
218 844 899
228 902 1027
236 966 1167
245 1032 1314
253 1098 1460
262 1172 1622
272 1246 1784
281 1322 1950
291 1405 2122
302 1487 2295
313 1575 2464
325 1666 2631
337 1757 2799
258 934 654
253 949 730
247 964 806
246 997 904
257 1066 1045
269 1136 1187
279 1211 1340
289 1289 1498
300 1367 1656
313 1452 1823
326 1538 1990
339 1625 2159
355 1717 2331
370 1810 2503
387 1906 2667
405 2004 2828
423 2102 2988
332 1233 851
319 1239 920
307 1244 989
302 1269 1082
312 1335 1222
322 1400 1362
336 1476 1515
351 1556 1675
367 1637 1835
384 1727 2004
401 1818 2173
419 1910 2342
440 2006 2509
461 2102 2677
485 2199 2833
510 2297 2984
535 2395 3135
418 1567 1080
397 1562 1140
377 1557 1200
366 1572 1283
374 1626 1414
382 1680 1544
400 1750 1692
422 1828 1849
444 1906 2006
465 1999 2175
486 2092 2344
509 2186 2511
537 2282 2672
564 2379 2833
595 2474 2980
628 2568 3121
660 2663 3261
504 1900 1309
476 1885 1360
447 1870 1410
430 1874 1484
436 1918 1606
442 1961 1727
464 2025 1870
493 2100 2023
522 2175 2177
547 2271 2346
572 2366 2515
599 2462 2680
634 2559 2834
668 2656 2989
705 2749 3127
745 2839 3257
785 2930 3387
643 2243 1586
605 2223 1630
566 2202 1673
540 2199 1737
540 2230 1843
540 2262 1948
558 2313 2076
586 2375 2214
613 2437 2353
646 2517 2504
678 2596 2654
712 2679 2803
750 2768 2949
788 2857 3095
832 2941 3223
877 3022 3342
923 3103 3461
783 2586 1864
734 2560 1899
686 2534 1935
651 2523 1989
644 2543 2080
637 2562 2170
653 2602 2283
679 2651 2406
705 2700 2529
744 2763 2661
784 2827 2793
824 2896 2927
867 2977 3064
909 3058 3201
958 3133 3319
1009 3205 3427
1061 3277 3536
942 2901 2132
884 2872 2162
825 2843 2191
782 2827 2237
768 2836 2313
754 2845 2390
765 2873 2487
787 2910 2594
810 2946 2701
853 2995 2815
896 3044 2930
940 3099 3048
986 3168 3171
1031 3238 3295
1084 3302 3402
1140 3364 3500
1196 3426 3598
1140 3160 2380
1073 3133 2408
1006 3105 2437
954 3087 2477
931 3090 2541
908 3092 2605
911 3110 2686
927 3135 2776
942 3160 2865
982 3197 2964
1022 3234 3062
1064 3275 3162
1110 3325 3264
1156 3375 3367
1209 3426 3460
1266 3476 3549
1323 3527 3637
1337 3420 2628
1262 3393 2655
1187 3367 2682
1126 3348 2717
1094 3343 2769
1062 3339 2820
1057 3347 2886
1066 3361 2958
1075 3375 3030
1112 3400 3112
1148 3425 3194
1188 3451 3276
1234 3482 3357
1280 3513 3438
1334 3550 3518
1392 3589 3598
1450 3628 3677
1560 3598 2810
1482 3577 2839
1404 3555 2868
1339 3538 2903
1298 3530 2947
1258 3522 2991
1244 3523 3045
1243 3529 3104
1242 3535 3164
1270 3551 3231
1299 3566 3299
1332 3583 3366
1373 3603 3433
1415 3622 3500
1463 3649 3568
1516 3678 3636
1568 3707 3704
1797 3737 2958
1719 3721 2992
1640 3706 3026
1572 3692 3062
1523 3683 3101
1474 3673 3140
1450 3670 3185
1438 3670 3233
1426 3669 3281
1444 3677 3336
1462 3684 3390
1485 3693 3445
1520 3705 3501
1554 3718 3558
1594 3735 3614
1637 3755 3670
1680 3775 3726
2033 3875 3106
1955 3866 3145
1876 3856 3183
1805 3846 3220
1748 3836 3255
1691 3825 3289
1657 3817 3325
1633 3810 3362
1610 3803 3399
1617 3802 3440
1625 3802 3481
1639 3803 3524
1666 3808 3570
1694 3813 3615
1726 3822 3659
1759 3833 3703
1793 3843 3747
134 142 216
137 146 259
140 151 301
143 158 349
145 169 407
148 181 465
151 194 541
154 206 625
158 219 709
160 234 825
163 249 941
165 265 1068
165 284 1216
166 304 1364
164 327 1532
162 353 1711
160 378 1889
179 272 278
183 284 338
187 295 399
190 310 464
191 330 540
193 351 615
194 375 707
196 400 807
198 426 907
199 457 1037
201 488 1166
202 521 1305
203 559 1462
205 597 1619
205 641 1789
206 688 1967
207 735 2144
224 403 339
229 421 418
234 439 497
237 461 580
238 491 672
238 521 765
238 556 873
238 594 989
238 632 1106
238 679 1249
239 726 1392
240 777 1542
242 834 1708
244 891 1873
247 956 2046
250 1024 2223
254 1093 2399
272 568 428
276 589 518
281 610 608
284 637 704
284 675 811
283 714 918
283 760 1041
282 810 1172
282 860 1302
283 921 1456
284 982 1610
286 1047 1769
290 1121 1941
295 1194 2112
301 1275 2285
309 1360 2458
317 1445 2631
327 805 573
327 820 660
328 836 747
329 861 844
329 906 962
329 951 1079
330 1007 1213
332 1068 1354
334 1129 1496
339 1201 1655
345 1273 1814
351 1348 1977
360 1431 2148
370 1514 2318
382 1602 2486
397 1694 2652
411 1786 2819
381 1041 717
378 1051 801
376 1061 886
374 1085 984
374 1137 1112
375 1188 1240
378 1253 1384
382 1326 1537
387 1398 1690
396 1480 1854
405 1563 2018
416 1649 2184
430 1741 2355
445 1833 2525
463 1930 2688
484 2029 2847
505 2128 3006
463 1337 919
456 1341 998
448 1346 1077
442 1364 1171
440 1411 1295
438 1458 1419
443 1522 1563
451 1594 1715
460 1666 1868
473 1754 2033
486 1842 2199
502 1932 2365
523 2028 2531
543 2123 2696
568 2220 2852
596 2319 3001
623 2417 3151
559 1664 1150
546 1662 1222
534 1659 1294
523 1670 1380
517 1707 1494
510 1743 1608
517 1800 1744
530 1868 1891
543 1935 2037
560 2025 2203
578 2115 2368
599 2207 2532
626 2302 2691
653 2397 2850
685 2492 2997
720 2587 3136
754 2681 3275
655 1990 1380
637 1982 1445
619 1973 1511
603 1976 1589
593 2003 1693
582 2029 1797
591 2079 1925
608 2141 2066
626 2203 2207
648 2295 2373
670 2388 2538
696 2481 2699
729 2576 2852
762 2672 3005
801 2764 3142
844 2855 3270
886 2945 3399
803 2320 1651
779 2308 1710
755 2296 1769
733 2294 1839
716 2311 1929
698 2328 2019
702 2367 2134
716 2417 2260
730 2467 2386
756 2542 2531
783 2617 2676
813 2696 2821
851 2783 2965
888 2871 3109
933 2954 3236
980 3035 3354
1028 3117 3472
950 2650 1921
921 2635 1975
891 2619 2028
863 2612 2089
838 2619 2166
814 2626 2242
813 2654 2342
823 2693 2453
834 2731 2564
865 2788 2690
896 2846 2815
930 2910 2944
972 2990 3079
1014 3070 3214
1064 3145 3330
1117 3216 3438
1170 3288 3545
1116 2952 2181
1081 2935 2229
1046 2917 2277
1012 2906 2331
980 2905 2395
947 2905 2460
941 2923 2545
946 2950 2641
952 2978 2737
984 3020 2844
1017 3061 2951
1053 3112 3063
1097 3180 3185
1141 3248 3307
1193 3312 3412
1250 3374 3509
1307 3435 3606
1319 3199 2417
1279 3182 2463
1239 3166 2508
1198 3153 2557
1158 3149 2612
1117 3144 2667
1103 3154 2739
1101 3172 2819
1099 3190 2900
1127 3220 2991
1154 3251 3083
1186 3288 3177
1227 3336 3277
1268 3384 3377
1321 3434 3469
1378 3485 3557
1436 3535 3644
1521 3445 2654
1476 3430 2697
1431 3414 2740
1385 3401 2783
1336 3392 2829
1287 3382 2874
1265 3385 2933
1256 3393 2998
1247 3401 3063
1269 3421 3139
1291 3441 3214
1319 3464 3291
1357 3492 3369
1396 3520 3447
1448 3556 3526
1507 3595 3604
1565 3635 3683
1746 3615 2827
1699 3603 2869
1652 3590 2911
1602 3578 2953
1547 3567 2994
1491 3557 3034
1461 3555 3083
1443 3557 3137
1424 3559 3191
1438 3570 3254
1451 3582 3317
1471 3595 3381
1503 3612 3445
1535 3629 3508
1580 3654 3574
1631 3683 3641
1681 3712 3708
1983 3747 2967
1935 3738 3010
1888 3729 3054
1835 3720 3095
1774 3710 3132
1713 3699 3170
1674 3694 3213
1646 3691 3258
1617 3688 3303
1620 3693 3355
1623 3698 3406
1633 3704 3458
1657 3714 3511
1681 3724 3565
1714 3740 3619
1753 3759 3673
1791 3777 3727
2220 3879 3108
2171 3874 3152
2123 3869 3196
2068 3862 3236
2001 3852 3271
1934 3842 3306
1887 3833 3342
1849 3826 3379
1811 3818 3415
1803 3816 3455
1796 3814 3495
1796 3813 3535
1811 3816 3578
1826 3820 3621
1849 3826 3663
1875 3834 3705
1901 3843 3746
188 171 256
187 167 295
185 163 334
184 164 378
183 174 433
182 185 489
183 196 564
185 209 649
187 222 734
190 237 851
192 252 969
194 269 1098
194 289 1248
195 309 1398
194 334 1566
193 361 1744
192 388 1921
252 326 319
254 328 380
257 329 441
257 335 506
253 352 577
250 369 649
247 391 739
245 415 838
243 438 937
243 469 1067
243 500 1196
243 534 1335
244 573 1492
245 612 1650
247 658 1820
249 706 1996
251 754 2172
315 482 382
322 488 465
328 495 549
330 507 633
324 531 721
317 554 809
311 586 914
306 620 1027
300 655 1141
297 702 1282
294 748 1423
292 799 1572
294 857 1737
295 915 1902
299 981 2073
304 1050 2248
309 1120 2423
379 666 475
386 675 572
394 685 670
396 701 768
388 729 869
379 758 970
372 798 1088
364 844 1214
357 890 1340
353 950 1491
350 1010 1642
349 1075 1799
352 1149 1969
356 1223 2138
363 1305 2309
373 1391 2481
383 1477 2652
441 907 628
445 914 723
449 922 818
449 937 917
440 968 1024
430 999 1132
424 1047 1259
420 1103 1395
415 1159 1532
416 1229 1688
417 1299 1844
421 1374 2004
429 1457 2173
438 1540 2342
452 1630 2508
468 1722 2673
484 1815 2838
504 1148 781
504 1153 873
504 1159 966
501 1174 1065
491 1207 1179
481 1241 1293
477 1296 1429
475 1362 1577
474 1428 1724
479 1508 1885
484 1589 2046
492 1673 2209
506 1765 2378
520 1857 2546
540 1954 2708
563 2054 2866
586 2153 3024
595 1442 987
593 1444 1075
590 1447 1164
583 1459 1259
569 1487 1368
554 1515 1477
550 1567 1610
551 1632 1755
553 1696 1900
562 1781 2063
572 1866 2225
585 1955 2388
605 2049 2552
625 2144 2716
651 2242 2870
681 2341 3019
711 2439 3168
700 1761 1219
695 1761 1303
690 1762 1388
680 1768 1476
659 1787 1574
639 1806 1672
634 1851 1795
638 1907 1932
641 1964 2069
656 2051 2231
670 2138 2393
689 2227 2553
715 2322 2710
741 2416 2868
774 2511 3013
812 2605 3151
849 2700 3290
805 2081 1451
798 2078 1531
791 2076 1611
777 2078 1693
750 2088 1780
723 2098 1866
718 2134 1981
724 2182 2109
730 2231 2238
749 2320 2399
769 2409 2560
792 2500 2718
825 2594 2869
857 2688 3020
897 2780 3156
942 2870 3284
986 2961 3412
962 2397 1715
953 2394 1791
944 2390 1866
926 2389 1941
891 2391 2016
856 2394 2090
845 2420 2191
846 2459 2305
846 2497 2418
867 2567 2558
888 2637 2699
914 2712 2839
951 2799 2981
988 2885 3123
1033 2968 3249
1083 3049 3366
1132 3130 3483
1118 2714 1979
1107 2709 2050
1097 2704 2121
1076 2700 2189
1033 2695 2252
990 2690 2315
972 2707 2401
968 2735 2500
963 2762 2599
985 2813 2718
1008 2865 2837
1036 2925 2960
1078 3004 3093
1119 3083 3226
1169 3156 3342
1224 3228 3448
1278 3299 3555
1291 3003 2230
1279 2997 2296
1267 2992 2363
1242 2985 2425
1192 2975 2477
1141 2965 2530
1116 2973 2604
1105 2991 2689
1094 3009 2773
1116 3044 2873
1137 3079 2973
1165 3125 3079
1208 3192 3199
1250 3259 3318
1303 3322 3422
1361 3383 3518
1419 3444 3615
1498 3237 2455
1484 3232 2517
1471 3227 2580
1443 3219 2637
1385 3207 2683
1326 3195 2729
1294 3198 2792
1275 3208 2863
1256 3219 2934
1271 3244 3019
1285 3269 3104
1307 3301 3193
1344 3347 3290
1381 3393 3387
1432 3442 3478
1491 3493 3565
1549 3543 3651
1705 3471 2680
1690 3466 2739
1675 3461 2798
1644 3454 2850
1578 3440 2889
1512 3426 2928
1472 3423 2979
1445 3425 3037
1418 3428 3095
1426 3443 3165
1434 3458 3235
1449 3477 3307
1481 3502 3382
1512 3527 3456
1561 3562 3533
1621 3602 3611
1680 3642 3688
1932 3632 2843
1916 3629 2899
1900 3625 2955
1866 3618 3004
1795 3605 3040
1725 3592 3077
1678 3586 3121
1642 3584 3170
1607 3582 3219
1605 3590 3278
1604 3597 3336
1611 3607 3395
1633 3621 3456
1656 3636 3517
1696 3659 3581
1746 3688 3646
1795 3717 3712
2169 3758 2977
2152 3756 3029
2135 3753 3081
2099 3748 3128
2025 3737 3164
1951 3725 3200
1897 3718 3241
1853 3713 3283
1809 3708 3325
1797 3710 3374
1785 3711 3422
1781 3715 3471
1794 3723 3521
1807 3731 3572
1834 3745 3624
1868 3762 3676
1902 3779 3728
2407 3883 3110
2388 3882 3159
2370 3881 3208
2332 3878 3252
2255 3868 3288
2178 3859 3324
2117 3850 3360
2064 3842 3396
2011 3834 3431
1989 3830 3469
1966 3826 3508
1952 3823 3547
1955 3825 3587
1958 3826 3628
1972 3830 3667
1990 3836 3706
2009 3842 3745
260 208 307
255 195 342
249 182 378
243 176 420
235 184 473
226 191 526
223 202 599
222 214 682
221 226 765
223 241 883
224 257 1001
225 274 1130
226 295 1281
227 316 1433
227 342 1601
226 371 1778
226 399 1955
343 383 369
344 374 429
345 366 489
342 364 553
330 377 624
319 390 695
311 409 783
304 431 879
297 453 975
293 483 1103
290 514 1231
288 548 1369
288 587 1526
288 627 1683
290 673 1853
293 723 2028
