Assets/1__3DArt/KimSe/artstation_asset/LUTs_subway_asset/3DL/Paranormal 05.3dl
# LUT by SparkleStock. Enhanced with VOXCOLOR algorithms.
0 256 512 768 1023
352 224 352
400 299 612
449 405 998
496 572 1516
544 801 2098
450 758 687
476 881 1063
553 1133 1595
638 1441 2171
724 1778 2708
718 1748 1419
668 1750 1688
770 1957 2156
913 2294 2709
1059 2595 3148
1368 2813 2339
1142 2733 2472
1144 2782 2745
1285 2910 3065
1453 3076 3370
2338 3491 2978
1885 3431 3080
1688 3384 3200
1715 3370 3350
1825 3362 3507
608 404 576
544 385 762
562 457 1126
617 635 1655
675 889 2228
901 1181 1045
859 1225 1414
844 1323 1790
894 1568 2284
983 1883 2784
1311 2091 1729
1278 2133 2075
1199 2159 2351
1290 2402 2798
1442 2682 3201
2027 2967 2497
1980 2985 2748
1797 2952 2912
1787 3006 3144
1943 3153 3419
2875 3513 3010
2818 3524 3188
2547 3488 3303
2382 3449 3414
2361 3425 3535
1160 801 1019
890 677 1176
743 618 1389
779 747 1830
834 988 2355
1559 1673 1457
1438 1674 1823
1311 1664 2107
1260 1763 2459
1288 2011 2884
1943 2384 1949
1945 2430 2314
1911 2461 2604
1839 2554 2911
1910 2773 3255
2553 3078 2574
2606 3125 2873
2599 3158 3102
2418 3137 3246
2470 3237 3473
3154 3510 2984
3248 3555 3231
3283 3586 3409
3047 3547 3498
2899 3508 3586
2097 1462 1545
1685 1336 1814
1307 1185 2004
1139 1164 2243
1128 1257 2570
2437 2221 1861
2305 2224 2258
2091 2204 2550
1944 2213 2798
1834 2270 3052
2705 2772 2223
2688 2786 2569
2673 2824 2875
2589 2875 3141
2488 2943 3368
2987 3183 2606
3035 3211 2901
3071 3245 3155
3058 3287 3364
2998 3339 3547
3335 3507 2921
3428 3552 3195
3500 3592 3416
3509 3626 3578
3365 3591 3658
3010 2098 1873
2750 2161 2384
2277 2044 2646
1880 1944 2823
1681 1969 3010
3199 2637 2116
3173 2693 2561
3017 2740 2914
2830 2763 3163
2744 2819 3381
3327 3030 2392
3334 3045 2733
3371 3081 3047
3344 3172 3336
3348 3267 3579
3420 3303 2657
3443 3310 2933
3490 3335 3192
3565 3408 3444
3628 3507 3686
3539 3523 2882
3578 3546 3140
3639 3581 3374
3704 3632 3578
3763 3683 3747
