Assets/1__3DArt/KimSe/artstation_asset/LUTs_subway_asset/3DL/Paranormal 02_S.3dl
# LUT by SparkleStock. Enhanced with VOXCOLOR algorithms.
0 256 512 768 1023
80 112 176
107 165 381
128 217 685
136 280 1184
128 368 1857
212 703 517
218 844 899
253 1098 1460
291 1405 2122
337 1757 2799
504 1900 1309
436 1918 1606
522 2175 2177
634 2559 2834
785 2930 3387
1140 3160 2380
931 3090 2541
942 3160 2865
1110 3325 3264
1323 3527 3637
2033 3875 3106
1748 3836 3255
1610 3803 3399
1666 3808 3570
1793 3843 3747
369 257 378
313 205 539
264 234 810
262 304 1319
264 413 1991
745 1082 710
745 1070 1116
650 1221 1626
603 1507 2237
642 1866 2882
1147 2225 1526
1121 2203 1850
1038 2287 2294
1071 2627 2904
1212 2988 3434
1851 3293 2495
1827 3283 2752
1646 3273 2993
1636 3370 3317
1807 3557 3665
2723 3879 3101
2701 3889 3313
2455 3862 3463
2297 3843 3607
2268 3846 3749
1046 564 772
813 390 931
520 333 1146
453 380 1537
453 488 2149
1601 1456 970
1571 1277 1307
1358 1428 1951
1090 1659 2437
1024 1984 2991
1920 2410 1521
1920 2277 1705
1922 2354 2354
1728 2681 2973
1745 3042 3479
2519 3353 2487
2554 3319 2666
2560 3345 3047
2366 3411 3361
2402 3586 3694
3190 3847 3051
3293 3892 3302
3334 3916 3531
3061 3885 3655
2877 3866 3773
2208 1181 1338
1787 994 1632
1271 822 1872
940 787 2122
862 803 2473
2661 2024 1518
2605 1743 1733
2345 1806 2308
1980 2072 2821
1721 2255 3177
2900 2766 1893
2910 2481 1869
2922 2393 2367
2713 2807 3133
2479 3163 3565
3124 3401 2485
3143 3302 2472
3160 3268 2751
3141 3392 3330
3053 3634 3735
3480 3815 2984
3572 3871 3199
3635 3911 3420
3635 3923 3682
3475 3902 3815
3266 1905 1761
2971 1992 2386
2428 1828 2733
1919 1699 2950
1665 1713 3154
3481 2684 2134
3509 2527 2375
3347 2522 2834
3047 2673 3243
2839 2891 3539
3608 3206 2453
3719 2929 2331
3809 2726 2649
3685 2988 3275
3514 3456 3729
3673 3553 2715
3788 3406 2530
3884 3296 2687
3898 3355 3273
3819 3740 3824
3731 3795 2946
3799 3852 3081
3869 3902 3244
3907 3925 3581
3939 3939 3875
