Assets/1__3DArt/KimSe/artstation_asset/LUTs_subway_asset/3DL/Paranormal 01_S.3dl
# LUT by SparkleStock. Enhanced with VOXCOLOR algorithms.
0 256 512 768 1023
128 240 352
190 335 566
248 465 827
335 643 1216
448 865 1729
189 811 722
237 968 1040
350 1240 1479
500 1559 2000
664 1898 2576
359 1796 1393
303 1837 1661
411 2087 2132
619 2451 2674
851 2789 3185
1068 2883 2230
758 2845 2416
743 2934 2730
932 3107 3105
1194 3320 3480
2386 3555 2882
1817 3579 3056
1535 3580 3231
1573 3603 3427
1729 3635 3619
435 443 570
407 405 702
397 509 926
468 701 1316
581 948 1857
768 1125 848
791 1154 1202
760 1337 1626
809 1645 2107
945 1986 2659
1109 2068 1540
1083 2110 1843
992 2202 2233
1104 2523 2750
1315 2853 3244
1890 3010 2352
1838 3053 2623
1607 3064 2861
1594 3172 3170
1814 3369 3523
2937 3600 2945
2889 3631 3168
2598 3635 3324
2410 3643 3481
2387 3656 3636
1052 807 930
905 646 1026
677 653 1203
668 812 1506
761 1050 2029
1585 1453 1032
1606 1333 1342
1440 1501 1918
1264 1775 2298
1269 2092 2778
1922 2258 1514
1935 2212 1696
1938 2297 2310
1811 2596 2839
1874 2922 3303
2538 3096 2367
2578 3130 2571
2581 3185 2952
2388 3244 3242
2457 3418 3574
3234 3606 2924
3338 3674 3199
3382 3710 3441
3153 3697 3562
2998 3692 3684
2053 1378 1420
1738 1228 1600
1345 1151 1784
1101 1192 2017
1085 1299 2356
2527 1957 1496
2548 1744 1706
2345 1832 2228
2042 2124 2686
1841 2329 3006
2801 2586 1823
2866 2398 1832
2905 2344 2333
2718 2726 3040
2520 3056 3432
3054 3179 2379
3107 3155 2405
3141 3164 2698
3123 3277 3257
3057 3489 3645
3418 3601 2861
3530 3682 3109
3604 3748 3342
3611 3770 3614
3483 3753 3754
3042 1953 1793
2786 2037 2270
2292 1943 2528
1873 1888 2753
1649 1889 3010
3293 2536 2045
3376 2432 2295
3236 2456 2729
2962 2630 3129
2774 2855 3446
3451 3011 2323
3620 2808 2257
3743 2650 2601
3616 2905 3223
3437 3349 3676
3539 3359 2584
3699 3277 2460
3828 3214 2646
3843 3274 3230
3740 3624 3779
3619 3603 2818
3710 3682 2998
3801 3763 3179
3845 3804 3515
3875 3827 3811
