Assets/1__3DArt/KimSe/artstation_asset/LUTs_subway_asset/3DL/Paranormal 02.3dl
# LUT by SparkleStock. Enhanced with VOXCOLOR algorithms.
0 256 512 768 1023
80 112 176
107 165 381
128 217 685
136 280 1184
128 368 1857
212 703 519
219 844 899
256 1101 1460
293 1409 2121
341 1765 2793
510 1901 1320
439 1919 1611
524 2175 2177
641 2566 2833
794 2942 3379
1154 3162 2409
939 3091 2557
952 3162 2875
1122 3327 3266
1333 3535 3632
2033 3875 3106
1748 3836 3255
1610 3803 3399
1666 3808 3570
1793 3843 3747
358 263 385
258 218 513
248 238 797
260 304 1317
264 413 1991
710 1167 887
637 1210 1283
579 1287 1666
584 1527 2241
640 1874 2875
1143 2278 1661
1106 2326 2054
999 2369 2381
1062 2654 2919
1216 3002 3426
1862 3307 2556
1843 3323 2842
1653 3303 3044
1640 3385 3332
1813 3564 3660
2723 3879 3101
2701 3888 3313
2455 3862 3463
2297 3843 3607
2268 3846 3749
1020 581 796
654 443 921
446 350 1088
443 382 1528
453 488 2149
1534 1687 1346
1344 1680 1747
1138 1648 2053
1029 1722 2450
1019 1993 2985
1897 2585 1905
1901 2637 2332
1843 2678 2681
1699 2779 3040
1740 3054 3470
2528 3400 2625
2599 3441 2961
2593 3471 3231
2371 3470 3421
2405 3593 3688
3190 3847 3051
3298 3890 3320
3335 3916 3532
3061 3885 3656
2877 3866 3773
2192 1195 1356
1673 1048 1659
1167 857 1861
913 793 2108
862 803 2473
2621 2249 1836
2423 2258 2257
2121 2225 2592
1885 2216 2872
1715 2266 3173
2886 2986 2270
2837 3004 2642
2795 3045 2986
2641 3090 3287
2472 3181 3557
3131 3476 2668
3171 3503 2995
3203 3538 3283
3162 3576 3520
3052 3642 3731
3483 3815 2984
3576 3863 3274
3646 3899 3520
3640 3921 3705
3475 3902 3815
3266 1905 1761
2971 1992 2386
2428 1828 2733
1919 1699 2950
1665 1713 3154
3476 2698 2163
3422 2791 2627
3245 2838 3032
2991 2844 3312
2837 2897 3538
3600 3228 2502
3582 3253 2845
3608 3312 3175
3555 3385 3481
3508 3472 3728
3672 3566 2756
3677 3573 3039
3713 3605 3318
3774 3668 3581
3814 3756 3826
3747 3795 2946
3778 3835 3221
3833 3870 3478
3890 3907 3697
3939 3939 3875
