Assets/1__3DArt/KimSe/artstation_asset/LUTs_subway_asset/3DL/Paranormal 05_S.3dl
# LUT by SparkleStock. Enhanced with VOXCOLOR algorithms.
0 256 512 768 1023
352 224 352
400 299 612
449 405 998
496 572 1516
544 801 2098
449 759 685
475 881 1063
550 1131 1595
634 1437 2172
717 1768 2716
712 1748 1408
664 1751 1683
767 1957 2156
903 2289 2710
1045 2583 3158
1352 2813 2312
1132 2734 2456
1132 2783 2737
1273 2909 3064
1439 3071 3377
2338 3491 2978
1885 3431 3080
1688 3384 3200
1715 3370 3350
1825 3362 3507
616 400 569
586 362 772
574 451 1133
618 634 1656
675 889 2228
922 1108 857
924 1098 1230
886 1259 1740
904 1549 2279
983 1875 2791
1304 2053 1593
1268 2046 1875
1214 2096 2263
1291 2381 2783
1437 2669 3211
2011 2958 2436
1957 2960 2662
1783 2933 2863
1778 2997 3131
1935 3147 3425
2875 3513 3010
2818 3525 3187
2547 3488 3302
2382 3449 3414
2361 3425 3535
1181 785 991
1018 600 1151
804 588 1421
788 742 1836
834 988 2355
1634 1458 1063
1642 1298 1370
1474 1447 1988
1305 1701 2444
1292 2003 2890
1946 2253 1558
1944 2169 1706
1948 2214 2304
1852 2480 2852
1910 2760 3265
2538 3046 2440
2557 3052 2592
2556 3079 2936
2407 3098 3196
2466 3231 3479
3154 3510 2984
3245 3562 3213
3282 3589 3407
3046 3548 3497
2899 3508 3586
2111 1447 1525
1784 1260 1766
1395 1133 1992
1160 1153 2249
1128 1257 2570
2505 2006 1539
2529 1746 1744
2325 1808 2279
2031 2076 2753
1839 2262 3058
2743 2582 1850
2820 2367 1831
2863 2290 2312
2674 2643 3017
2495 2929 3377
2984 3127 2429
3038 3089 2407
3074 3082 2671
3057 3164 3207
2999 3333 3552
3332 3507 2921
3431 3573 3124
3502 3629 3320
3506 3638 3556
3365 3591 3658
3010 2098 1873
2750 2161 2384
2277 2044 2646
1880 1944 2823
1681 1969 3010
3204 2623 2088
3301 2468 2327
3164 2465 2742
2909 2612 3108
2746 2815 3383
3338 3011 2347
3542 2788 2254
3676 2610 2575
3539 2838 3170
3357 3253 3587
3431 3296 2618
3617 3214 2452
3761 3145 2612
3763 3185 3179
3639 3495 3694
3523 3523 2882
3610 3581 3011
3703 3654 3160
3740 3679 3472
3763 3683 3747
