Assets/1__3DArt/KimSe/artstation_asset/LUTs_subway_asset/3DL/Paranormal 04_S.3dl
# LUT by SparkleStock. Enhanced with VOXCOLOR algorithms.
0 128 256 384 512 640 768 896 1023
272 288 352
289 307 461
299 331 578
304 362 711
307 401 863
310 453 1048
316 516 1261
325 589 1507
336 672 1793
302 490 485
304 544 617
312 607 774
323 679 952
332 762 1147
341 862 1372
353 973 1619
368 1095 1889
383 1229 2184
347 803 696
334 852 822
338 940 1000
350 1052 1212
365 1171 1443
382 1308 1696
400 1453 1961
419 1606 2239
440 1767 2528
417 1222 985
386 1242 1088
379 1331 1262
389 1462 1485
410 1605 1735
434 1764 2003
459 1928 2274
485 2095 2546
512 2261 2816
527 1740 1353
463 1725 1424
439 1782 1567
444 1892 1766
471 2038 2005
502 2204 2278
535 2371 2545
571 2535 2801
608 2690 3044
745 2302 1781
622 2265 1823
556 2287 1927
539 2356 2084
559 2459 2281
604 2584 2503
650 2723 2740
699 2865 2973
752 2997 3186
1083 2810 2202
884 2765 2221
758 2763 2289
698 2795 2401
693 2856 2550
739 2939 2725
795 3031 2912
860 3130 3102
932 3232 3287
1567 3236 2601
1280 3199 2604
1076 3182 2639
952 3185 2706
901 3208 2804
930 3251 2933
987 3296 3067
1062 3349 3207
1150 3413 3358
2226 3555 2962
1841 3538 2957
1542 3518 2964
1332 3502 2989
1209 3496 3036
1199 3505 3116
1240 3520 3210
1315 3537 3310
1409 3555 3410
372 340 440
374 325 521
373 336 622
371 365 746
368 405 895
372 463 1087
380 532 1307
392 615 1558
407 711 1844
480 623 563
488 636 705
484 672 858
474 728 1026
464 801 1211
463 900 1431
471 1015 1674
488 1141 1942
512 1279 2234
578 975 787
580 1000 938
564 1049 1106
547 1124 1297
540 1227 1515
545 1358 1757
558 1503 2015
581 1658 2288
612 1819 2573
697 1402 1099
685 1427 1232
652 1474 1386
622 1550 1573
618 1666 1803
632 1816 2060
655 1977 2323
687 2144 2591
725 2312 2859
865 1910 1482
841 1930 1600
785 1955 1721
732 2004 1870
718 2100 2070
743 2255 2334
778 2418 2593
821 2580 2845
872 2737 3086
1144 2441 1907
1107 2456 2014
1018 2460 2105
927 2478 2212
885 2537 2366
901 2638 2565
943 2767 2790
1002 2908 3020
1070 3040 3231
1519 2916 2310
1467 2926 2409
1340 2916 2476
1203 2912 2547
1123 2939 2655
1117 2995 2801
1148 3075 2970
1209 3170 3153
1296 3273 3337
1998 3311 2676
1929 3318 2768
1762 3302 2818
1576 3285 2859
1447 3286 2925
1406 3309 3025
1411 3340 3137
1458 3385 3265
1544 3449 3413
2588 3606 2993
2503 3610 3075
2297 3597 3114
2058 3578 3136
1872 3562 3167
1782 3559 3223
1749 3562 3294
1762 3569 3377
1812 3580 3467
535 435 563
525 383 626
497 368 713
466 382 823
450 421 957
448 481 1144
455 554 1365
468 642 1621
486 748 1910
716 755 653
732 725 794
711 737 960
671 780 1135
628 846 1303
604 943 1509
596 1057 1743
605 1187 2005
629 1328 2294
865 1129 846
881 1118 992
865 1141 1186
828 1198 1401
781 1287 1608
755 1411 1835
747 1554 2081
759 1708 2345
791 1870 2625
1020 1561 1142
1024 1565 1265
1005 1588 1448
968 1641 1664
922 1732 1885
905 1873 2130
906 2029 2383
928 2193 2641
970 2359 2903
1217 2056 1544
1214 2071 1653
1178 2087 1798
1123 2117 1968
1060 2171 2147
1057 2314 2401
1073 2468 2651
1108 2627 2894
1162 2782 3130
1519 2558 1974
1521 2581 2086
1472 2591 2206
1390 2601 2330
1291 2623 2457
1264 2700 2636
1283 2817 2850
1334 2952 3072
1405 3082 3278
1893 3000 2365
1906 3027 2486
1847 3033 2588
1738 3029 2678
1602 3028 2761
1543 3061 2883
1537 3126 3037
1580 3213 3209
1667 3313 3388
2334 3363 2705
2360 3389 2832
2294 3394 2924
2163 3385 2991
1994 3369 3042
1897 3375 3120
1852 3391 3213
1863 3426 3327
1937 3486 3467
2835 3630 2980
2874 3652 3106
2807 3658 3193
2662 3651 3249
2466 3630 3283
2328 3617 3325
2242 3611 3380
2202 3609 3446
2205 3612 3522
775 582 724
747 493 777
685 444 854
614 434 951
560 461 1064
545 517 1234
544 588 1446
556 678 1699
577 786 1990
1022 910 773
1039 836 901
1001 822 1079
927 854 1270
839 917 1437
780 1006 1618
746 1115 1833
738 1241 2083
754 1383 2365
1212 1287 913
1239 1231 1040
1227 1230 1259
1177 1277 1511
1088 1365 1737
1014 1481 1942
970 1617 2168
958 1767 2416
978 1926 2685
1385 1712 1165
1402 1676 1258
1406 1679 1471
1380 1722 1736
1303 1807 1990
1235 1938 2222
1198 2088 2459
1194 2247 2703
1225 2409 2954
1577 2181 1550
1584 2167 1622
1583 2178 1791
1555 2205 2008
1482 2241 2223
1433 2373 2474
1414 2520 2715
1425 2674 2948
1471 2827 3177
1870 2655 1989
1886 2662 2073
1888 2679 2218
1852 2697 2386
1751 2708 2540
1678 2764 2710
1661 2870 2914
1688 2999 3128
1749 3124 3327
2216 3065 2376
2248 3087 2483
2261 3109 2617
2222 3122 2749
2100 3117 2855
1997 3130 2965
1950 3181 3106
1962 3259 3267
2036 3354 3439
2599 3397 2696
2650 3429 2827
2678 3455 2957
2644 3465 3067
2511 3452 3142
2379 3444 3209
2293 3447 3289
2267 3472 3389
2318 3526 3519
3001 3636 2938
3069 3671 3081
3116 3698 3209
3096 3709 3310
2967 3697 3374
2817 3679 3416
2699 3665 3462
2619 3656 3514
2581 3651 3575
1107 787 928
1045 662 972
953 582 1045
837 542 1137
706 537 1235
668 580 1368
654 643 1558
661 727 1798
684 830 2084
1403 1110 938
1412 991 1047
1360 948 1218
1258 966 1422
1114 1034 1626
1007 1106 1770
939 1200 1955
907 1314 2180
910 1447 2447
1623 1472 1030
1652 1366 1134
1640 1330 1343
1578 1366 1615
1459 1477 1914
1322 1581 2089
1228 1704 2285
1179 1843 2506
1174 1994 2756
1793 1865 1217
1816 1783 1284
1828 1749 1479
1810 1779 1770
1742 1891 2126
1608 2016 2342
1516 2159 2558
1468 2312 2779
1471 2471 3014
1937 2285 1509
1954 2241 1544
1963 2225 1689
1966 2243 1938
1966 2300 2288
1862 2426 2545
1793 2570 2782
1767 2723 3006
1793 2875 3224
2200 2734 1963
2221 2720 2010
2232 2720 2132
2237 2740 2329
2239 2782 2602
2128 2824 2778
2067 2922 2979
2056 3047 3185
2093 3169 3375
2500 3115 2351
2538 3128 2434
2562 3144 2553
2576 3166 2714
2583 3197 2922
2456 3196 3035
2373 3236 3173
2348 3307 3327
2394 3397 3489
2814 3418 2661
2875 3452 2784
2918 3480 2912
2947 3505 3051
2966 3529 3210
2829 3512 3283
2718 3505 3358
2659 3520 3450
2678 3568 3570
3120 3630 2876
3202 3674 3030
3266 3711 3168
3315 3741 3300
3353 3761 3430
3227 3740 3485
3105 3721 3533
3002 3705 3577
2928 3694 3624
1576 1080 1177
1470 948 1234
1330 845 1310
1170 775 1402
1004 743 1505
886 754 1619
832 786 1768
823 841 1964
840 922 2219
1875 1389 1173
1870 1245 1266
1793 1179 1426
1664 1177 1625
1502 1226 1831
1347 1306 2002
1232 1377 2160
1162 1456 2337
1139 1556 2565
2096 1722 1237
2124 1580 1311
2105 1512 1495
2034 1524 1753
1907 1620 2051
1747 1759 2287
1604 1872 2470
1500 1979 2645
1456 2100 2855
2259 2075 1379
2287 1951 1411
2304 1876 1573
2289 1873 1841
2220 1966 2192
2084 2143 2494
1942 2290 2713
1830 2423 2896
1783 2561 3095
2386 2446 1610
2411 2359 1608
2429 2302 1719
2439 2282 1943
2444 2309 2284
2354 2488 2645
2240 2649 2900
2146 2799 3099
2114 2944 3290
2533 2816 1952
2557 2775 1956
2573 2751 2040
2583 2749 2212
2590 2772 2482
2553 2852 2793
2482 2967 3041
2423 3096 3245
2422 3222 3426
2752 3155 2305
2789 3153 2349
2815 3157 2435
2833 3169 2575
2846 3191 2784
2827 3223 3026
2764 3275 3214
2711 3348 3375
2720 3441 3533
2999 3434 2612
3056 3462 2711
3100 3489 2817
3132 3513 2944
3158 3536 3107
3143 3551 3280
3075 3552 3399
3007 3564 3497
2992 3610 3613
3229 3624 2812
3308 3672 2965
3374 3714 3101
3427 3749 3231
3471 3776 3368
3470 3783 3494
3404 3773 3573
3309 3754 3623
3221 3737 3667
2091 1409 1424
1960 1301 1518
1784 1198 1612
1582 1109 1711
1374 1047 1817
1206 1030 1929
1101 1034 2056
1053 1056 2212
1054 1091 2409
2361 1706 1431
2349 1565 1525
2256 1494 1682
2106 1478 1875
1925 1504 2075
1748 1571 2256
1606 1634 2411
1504 1689 2563
1445 1735 2730
2561 2008 1487
2592 1856 1544
2572 1771 1705
2497 1761 1942
2364 1835 2225
2200 1972 2479
2045 2093 2676
1913 2193 2839
1817 2262 2991
2707 2318 1602
2742 2174 1607
2769 2069 1733
2762 2035 1968
2693 2102 2298
2562 2281 2623
2417 2450 2868
2279 2592 3055
2169 2692 3203
2814 2636 1783
2851 2519 1746
2881 2429 1818
2904 2374 2008
2917 2366 2322
2835 2546 2710
2720 2738 3005
2599 2912 3220
2499 3040 3373
2901 2939 2037
2936 2871 2000
2965 2819 2044
2987 2787 2184
3004 2783 2435
2992 2860 2789
2929 3004 3093
2849 3164 3332
2785 3292 3491
3029 3218 2314
3068 3198 2315
3099 3184 2362
3124 3179 2473
3144 3186 2669
3159 3219 2959
3128 3293 3216
3079 3389 3429
3044 3493 3583
3184 3453 2570
3234 3474 2636
3275 3494 2711
3309 3514 2816
3336 3534 2970
3360 3556 3188
3345 3572 3375
3311 3598 3531
3276 3651 3652
3350 3623 2761
3421 3672 2905
3483 3717 3028
3536 3756 3149
3581 3788 3285
3618 3806 3443
3612 3808 3569
3566 3798 3658
3482 3778 3704
2605 1747 1643
2480 1698 1800
2295 1621 1932
2072 1532 2051
1831 1448 2164
1629 1404 2280
1474 1383 2400
1377 1377 2528
1345 1375 2672
2823 2034 1688
2815 1934 1806
2723 1882 1974
2572 1864 2166
2384 1866 2354
2202 1906 2530
2048 1957 2690
1928 1999 2832
1842 2011 2956
2987 2311 1759
3025 2182 1819
3015 2101 1968
2949 2079 2183
2821 2127 2440
2667 2234 2681
2524 2356 2890
2391 2457 3059
2270 2504 3177
3107 2579 1863
3154 2443 1859
3196 2327 1957
3203 2270 2156
3145 2308 2451
3029 2454 2756
2905 2631 3019
2774 2789 3222
2637 2884 3348
3193 2843 2006
3246 2719 1946
3295 2610 1987
3335 2529 2140
3361 2487 2417
3292 2632 2779
3198 2835 3096
3083 3036 3339
2950 3177 3481
3253 3085 2187
3306 3001 2118
3355 2926 2127
3398 2868 2234
3428 2836 2458
3422 2886 2799
3374 3040 3136
3293 3230 3413
3189 3389 3573
3309 3301 2374
3359 3264 2337
3405 3232 2346
3446 3209 2427
3476 3197 2603
3493 3214 2894
3486 3297 3202
3452 3421 3470
3385 3559 3643
3380 3484 2557
3430 3494 2586
3476 3506 2628
3517 3518 2708
3550 3531 2849
3573 3547 3077
3595 3571 3323
3595 3617 3544
3554 3697 3697
3485 3631 2725
3544 3677 2852
3600 3722 2958
3651 3764 3063
3694 3798 3192
3726 3817 3359
3758 3829 3528
3761 3829 3665
3711 3813 3739
3074 2066 1809
2999 2113 2057
2846 2095 2251
2636 2032 2404
2389 1944 2534
2154 1872 2653
1961 1827 2773
1818 1807 2897
1729 1809 3026
3223 2351 1919
3234 2337 2093
3171 2333 2290
3049 2328 2488
2881 2314 2665
2701 2316 2825
2546 2337 2977
2425 2371 3120
2345 2415 3256
3340 2608 2029
3390 2547 2122
3403 2499 2275
3367 2478 2472
3270 2500 2697
3137 2561 2906
3012 2647 3098
2905 2746 3272
2827 2849 3421
3430 2843 2141
3493 2751 2154
3556 2652 2241
3588 2586 2407
3560 2593 2659
3470 2689 2920
3371 2824 3158
3275 2985 3367
3194 3154 3537
3496 3058 2258
3570 2955 2199
3643 2850 2223
3709 2756 2345
3755 2688 2579
3709 2779 2889
3636 2937 3176
3551 3141 3424
3468 3370 3619
3537 3240 2374
3615 3160 2288
3693 3078 2275
3762 3005 2356
3814 2950 2550
3820 2968 2860
3782 3084 3173
3717 3276 3455
3640 3520 3675
3570 3398 2484
3645 3354 2417
3721 3310 2399
3790 3270 2457
3843 3241 2613
3868 3239 2894
3862 3299 3195
3828 3432 3481
3766 3647 3719
3601 3535 2593
3666 3533 2589
3733 3532 2603
3795 3533 2662
3846 3534 2791
3872 3542 3021
3887 3558 3277
3883 3617 3531
3852 3754 3754
3635 3651 2706
3682 3688 2810
3732 3730 2894
3782 3772 2983
3824 3807 3101
3849 3827 3273
3868 3837 3456
3885 3841 3632
3907 3843 3779
