Assets/1__3DArt/KimSe/artstation_asset/LUTs_subway_asset/3DL/Paranormal 03_S.3dl
# LUT by SparkleStock. Enhanced with VOXCOLOR algorithms.
0 64 128 192 256 320 384 448 512 576 640 704 768 832 896 960 1023
240 128 176
245 137 212
250 147 247
254 157 285
257 167 328
261 177 371
264 190 424
268 204 482
271 218 541
274 234 624
277 251 706
280 269 799
284 288 915
288 308 1030
293 332 1173
298 358 1331
304 384 1489
259 213 231
262 230 279
266 247 327
270 265 379
275 285 437
280 306 495
285 329 565
289 354 641
294 379 717
299 409 816
304 438 916
309 469 1025
314 504 1153
320 539 1281
327 578 1432
334 620 1594
341 662 1756
277 299 286
280 323 346
283 346 407
287 373 472
293 403 546
299 434 619
305 468 705
311 504 799
318 541 892
324 583 1009
330 625 1125
337 670 1250
345 719 1392
352 769 1533
361 824 1691
370 882 1857
379 940 2024
304 419 365
305 445 433
305 471 501
309 502 576
316 543 664
324 584 753
332 629 855
340 677 963
349 724 1072
357 779 1202
366 833 1332
375 891 1469
386 953 1620
396 1015 1771
407 1083 1933
419 1154 2100
431 1226 2267
345 607 493
342 626 557
340 645 622
342 675 700
352 727 804
362 778 907
373 834 1021
384 893 1140
395 953 1260
408 1018 1397
420 1083 1534
434 1151 1676
448 1223 1828
463 1295 1981
479 1371 2139
494 1449 2300
510 1527 2461
385 794 620
380 807 682
375 819 743
376 848 824
388 910 943
399 972 1062
413 1039 1188
427 1110 1318
442 1181 1447
458 1257 1592
475 1333 1736
492 1411 1883
511 1493 2037
530 1574 2191
550 1658 2345
570 1743 2500
589 1828 2655
456 1046 806
444 1051 861
433 1055 916
429 1077 993
440 1137 1111
452 1197 1230
468 1266 1358
486 1340 1491
505 1414 1624
525 1497 1771
545 1579 1918
567 1663 2066
590 1749 2217
613 1835 2369
638 1921 2517
662 2007 2663
686 2094 2810
540 1331 1020
521 1326 1068
502 1321 1115
492 1335 1184
502 1386 1294
511 1438 1403
530 1503 1529
553 1576 1661
576 1649 1794
600 1736 1942
624 1823 2089
649 1911 2236
677 1998 2383
705 2086 2530
734 2172 2671
763 2257 2808
792 2341 2944
625 1615 1234
598 1601 1274
570 1587 1314
555 1592 1375
563 1636 1476
571 1679 1577
592 1741 1699
620 1812 1832
647 1884 1965
675 1976 2113
703 2067 2260
732 2158 2407
765 2248 2550
797 2338 2692
831 2423 2825
864 2506 2952
898 2589 3079
768 1927 1491
729 1908 1525
690 1889 1559
665 1887 1611
666 1920 1700
667 1953 1788
684 2004 1898
710 2065 2017
735 2126 2137
765 2203 2269
796 2280 2401
828 2360 2535
863 2445 2670
898 2530 2805
934 2609 2929
971 2684 3046
1008 2760 3164
910 2238 1748
860 2214 1776
810 2190 1803
774 2182 1847
769 2204 1923
763 2227 2000
777 2268 2096
800 2318 2202
823 2368 2308
856 2431 2425
889 2493 2542
923 2562 2663
961 2642 2791
998 2722 2919
1038 2794 3033
1078 2862 3141
1119 2930 3249
1074 2531 1997
1011 2504 2020
949 2477 2042
903 2464 2079
889 2477 2143
875 2491 2208
883 2522 2291
902 2561 2384
920 2600 2477
954 2650 2579
987 2699 2681
1022 2756 2787
1060 2826 2903
1098 2897 3020
1139 2960 3124
1182 3020 3223
1225 3080 3321
1280 2788 2229
1204 2762 2249
1128 2736 2270
1069 2721 2301
1043 2728 2355
1018 2735 2410
1017 2756 2480
1027 2785 2559
1038 2814 2637
1067 2852 2726
1097 2891 2814
1128 2934 2905
1163 2985 3001
1197 3036 3097
1238 3086 3189
1281 3137 3280
1324 3187 3370
1487 3044 2461
1397 3019 2479
1307 2994 2497
1234 2978 2523
1198 2978 2568
1161 2978 2612
1150 2991 2670
1153 3009 2734
1156 3027 2798
1181 3055 2873
1206 3083 2948
1234 3112 3023
1265 3143 3098
1297 3174 3174
1336 3212 3254
1380 3253 3337
1423 3294 3419
1735 3231 2640
1629 3211 2659
1523 3190 2678
1435 3176 2702
1385 3173 2740
1334 3170 2777
1312 3176 2825
1303 3186 2878
1294 3197 2931
1312 3216 2994
1329 3235 3057
1350 3254 3120
1377 3274 3183
1404 3294 3246
1437 3320 3313
1475 3349 3383
1512 3378 3453
2005 3385 2793
1882 3370 2814
1758 3356 2835
1654 3344 2860
1588 3340 2892
1523 3335 2924
1486 3336 2963
1465 3341 3006
1443 3345 3050
1451 3356 3102
1459 3367 3154
1471 3378 3206
1493 3391 3260
1514 3403 3314
1540 3418 3369
1568 3434 3424
1597 3451 3480
2274 3539 2946
2134 3530 2969
1994 3521 2993
1873 3513 3017
1792 3506 3044
1711 3500 3070
1661 3497 3101
1626 3495 3135
1592 3494 3168
1590 3497 3209
1588 3499 3251
1592 3503 3293
1608 3507 3337
1625 3512 3382
1643 3516 3425
1662 3520 3466
1681 3523 3507
280 153 209
282 156 241
284 158 272
286 162 307
288 172 348
289 183 389
291 195 442
293 209 501
295 223 560
298 240 645
300 258 729
303 276 825
307 297 944
310 318 1063
315 344 1210
320 371 1371
325 399 1532
321 263 268
324 272 317
327 282 366
329 294 417
330 311 473
330 328 528
332 349 596
333 372 671
334 396 745
337 425 844
340 454 944
343 485 1053
349 521 1183
354 556 1312
360 597 1465
368 640 1628
375 684 1792
362 372 327
365 389 393
369 406 460
372 425 528
372 449 597
372 474 667
372 503 750
373 536 840
374 568 930
377 609 1044
380 650 1158
384 694 1281
390 744 1421
397 794 1562
406 850 1720
416 909 1886
426 968 2052
406 510 411
409 530 488
412 550 565
414 575 645
414 606 728
414 637 811
415 676 908
416 717 1012
417 759 1115
422 812 1241
426 864 1367
432 920 1501
441 982 1649
450 1045 1798
462 1114 1958
475 1186 2123
487 1258 2289
456 703 547
456 720 621
456 737 695
456 760 776
456 798 871
457 836 966
460 884 1073
465 936 1187
469 989 1301
478 1051 1434
486 1113 1567
496 1179 1705
509 1250 1855
522 1322 2005
538 1398 2162
555 1477 2322
572 1557 2482
507 897 682
503 910 753
500 923 824
498 946 907
499 991 1014
500 1036 1120
506 1093 1238
514 1156 1363
521 1218 1487
534 1291 1627
546 1363 1767
560 1438 1910
577 1518 2061
595 1599 2213
615 1683 2366
636 1769 2520
657 1855 2675
588 1147 872
579 1155 938
571 1163 1004
565 1182 1082
564 1224 1186
562 1266 1291
569 1323 1409
579 1388 1536
590 1452 1662
606 1530 1804
622 1608 1947
640 1688 2091
662 1773 2240
684 1857 2388
708 1943 2535
734 2031 2681
759 2118 2828
684 1426 1088
670 1428 1148
656 1431 1208
645 1444 1279
639 1478 1374
634 1512 1469
641 1564 1583
654 1626 1707
667 1688 1830
687 1769 1974
707 1851 2117
729 1934 2260
755 2020 2404
781 2106 2549
810 2192 2688
840 2277 2824
870 2362 2960
780 1705 1304
760 1702 1358
740 1699 1412
724 1705 1476
715 1731 1562
706 1757 1648
713 1805 1757
728 1864 1878
744 1923 1999
767 2009 2143
791 2094 2286
817 2180 2429
848 2268 2569
878 2356 2709
912 2440 2840
946 2523 2966
980 2605 3093
931 2005 1556
904 1998 1604
877 1992 1653
854 1993 1710
836 2011 1785
819 2029 1860
821 2067 1956
832 2116 2065
843 2165 2173
867 2236 2300
891 2307 2427
918 2381 2556
951 2464 2688
984 2546 2821
1020 2623 2943
1058 2699 3060
1095 2774 3176
1082 2304 1807
1048 2294 1851
1014 2284 1894
983 2281 1944
958 2290 2008
933 2300 2071
929 2329 2156
936 2368 2251
943 2407 2347
967 2463 2457
991 2519 2567
1019 2582 2682
1055 2659 2808
1090 2736 2933
1129 2807 3046
1169 2874 3153
1210 2942 3260
1252 2585 2049
1210 2573 2088
1168 2561 2127
1129 2554 2171
1096 2557 2224
1062 2559 2278
1051 2580 2351
1052 2609 2433
1054 2639 2516
1076 2681 2610
1098 2724 2705
1125 2774 2806
1160 2842 2920
1195 2909 3033
1235 2971 3136
1278 3030 3234
1320 3089 3331
1458 2829 2270
1408 2818 2307
1358 2806 2343
1310 2798 2383
1266 2796 2428
1222 2794 2474
1202 2807 2536
1194 2828 2605
1187 2848 2675
1203 2881 2757
1220 2913 2839
1241 2951 2924
1270 2998 3017
1299 3046 3110
1338 3095 3201
1380 3145 3290
1422 3195 3379
1665 3073 2492
1607 3062 2526
1548 3051 2560
1491 3041 2595
1436 3035 2632
1382 3029 2670
1353 3034 2721
1336 3046 2778
1320 3058 2835
1331 3081 2903
1341 3103 2972
1356 3127 3042
1380 3155 3115
1404 3183 3187
1440 3220 3265
1482 3260 3346
1524 3300 3427
1904 3252 2662
1835 3243 2695
1767 3234 2728
1699 3226 2761
1633 3218 2794
1568 3211 2827
1528 3212 2869
1501 3218 2917
1474 3224 2964
1475 3238 3022
1477 3253 3080
1484 3268 3139
1501 3284 3198
1518 3301 3258
1546 3325 3323
1581 3354 3392
1615 3382 3460
2158 3399 2808
2079 3394 2840
2000 3388 2873
1922 3381 2904
1844 3374 2934
1767 3367 2964
1715 3365 3000
1676 3366 3040
1637 3368 3079
1628 3375 3127
1620 3382 3175
1617 3390 3224
1627 3399 3275
1636 3409 3326
1655 3422 3378
1678 3437 3432
1700 3452 3486
2412 3547 2953
2322 3544 2985
2233 3541 3017
2144 3537 3048
2055 3530 3074
1966 3523 3101
1902 3518 3130
1852 3515 3162
1801 3511 3194
1782 3511 3232
1763 3511 3270
1750 3512 3310
1753 3515 3352
1755 3517 3393
1763 3519 3434
1774 3520 3473
1786 3522 3513
320 179 242
319 174 270
319 168 298
319 168 329
318 178 368
317 188 408
317 200 461
318 214 520
319 228 579
321 246 666
323 264 753
326 284 851
329 306 973
333 329 1096
337 355 1246
342 384 1411
346 413 1575
383 312 305
385 315 355
387 317 405
388 323 456
384 337 509
381 350 562
378 369 628
376 391 701
375 412 773
375 441 872
376 469 971
378 501 1081
383 537 1212
387 574 1343
394 616 1497
401 660 1662
409 705 1827
446 446 368
451 455 440
455 465 512
456 478 583
450 495 649
444 513 716
439 538 795
435 567 881
430 595 967
430 635 1079
429 675 1190
430 718 1311
436 768 1451
441 819 1591
451 876 1748
461 937 1914
472 997 2080
508 601 458
513 615 544
518 630 630
519 647 713
511 669 792
503 690 870
497 722 962
492 758 1060
486 795 1158
486 844 1280
486 894 1402
489 948 1532
496 1011 1678
504 1074 1825
516 1144 1983
530 1217 2147
544 1290 2312
568 800 601
570 814 684
571 828 767
570 846 852
561 870 938
552 895 1024
548 934 1125
546 980 1234
544 1025 1343
548 1084 1471
552 1143 1600
558 1207 1735
570 1278 1882
581 1349 2030
598 1426 2185
616 1506 2344
635 1586 2503
628 999 744
626 1013 825
625 1026 905
620 1044 990
611 1072 1084
601 1100 1178
599 1146 1289
600 1201 1408
601 1256 1527
609 1324 1662
617 1393 1798
628 1465 1937
644 1544 2086
659 1624 2235
680 1708 2387
703 1795 2541
725 1882 2694
720 1248 938
714 1260 1014
709 1271 1091
701 1287 1172
687 1311 1262
673 1335 1352
670 1380 1461
673 1435 1580
675 1490 1700
687 1564 1838
699 1637 1976
714 1714 2116
734 1797 2262
754 1880 2408
779 1966 2554
805 2054 2700
832 2141 2845
827 1521 1156
819 1531 1228
810 1541 1300
797 1553 1375
777 1569 1455
757 1586 1535
752 1625 1638
755 1676 1752
758 1727 1867
774 1803 2005
789 1879 2144
808 1958 2284
832 2043 2425
857 2127 2567
886 2211 2704
917 2296 2840
948 2382 2976
935 1795 1374
923 1802 1442
910 1810 1510
893 1818 1578
867 1827 1648
840 1836 1718
834 1870 1814
837 1916 1924
840 1963 2033
860 2042 2173
880 2122 2312
902 2203 2451
931 2288 2588
960 2373 2725
993 2457 2855
1028 2539 2981
1063 2622 3107
1094 2082 1620
1079 2088 1684
1064 2094 1747
1042 2099 1810
1007 2102 1870
971 2105 1931
957 2130 2015
955 2168 2112
952 2205 2209
969 2269 2331
987 2333 2452
1009 2402 2576
1040 2482 2706
1071 2562 2836
1106 2638 2957
1144 2713 3073
1182 2788 3189
1254 2370 1866
1236 2374 1925
1218 2379 1985
1192 2380 2042
1147 2377 2092
1102 2373 2143
1081 2391 2216
1072 2419 2300
1063 2447 2385
1078 2496 2488
1094 2544 2592
1115 2601 2702
1149 2676 2824
1182 2750 2947
1220 2820 3059
1261 2887 3165
1301 2954 3271
1429 2639 2100
1409 2642 2156
1388 2645 2212
1356 2644 2263
1302 2636 2306
1249 2627 2348
1220 2638 2410
1203 2657 2482
1187 2677 2555
1198 2712 2642
1209 2748 2729
1228 2793 2825
1260 2857 2936
1292 2921 3047
1331 2981 3148
1373 3040 3245
1415 3099 3342
1636 2871 2311
1613 2873 2364
1589 2876 2417
1552 2874 2465
1489 2864 2501
1425 2853 2538
1387 2858 2591
1361 2871 2652
1336 2883 2713
1339 2909 2788
1343 2936 2863
1353 2968 2943
1377 3012 3033
1402 3056 3123
1437 3104 3212
1479 3153 3300
1521 3203 3388
1843 3103 2522
1816 3105 2572
1789 3107 2622
1747 3104 2666
1675 3092 2697
1602 3079 2728
1555 3078 2772
1520 3084 2821
1484 3089 2871
1480 3106 2934
1476 3123 2997
1478 3143 3062
1494 3167 3131
1511 3192 3200
1543 3227 3276
1585 3267 3356
1626 3307 3435
2071 3274 2685
2041 3276 2732
2011 3278 2779
1963 3276 2819
1882 3264 2848
1801 3252 2876
1744 3249 2914
1698 3250 2956
1653 3251 2998
1639 3260 3051
1624 3270 3103
1617 3281 3157
1624 3295 3214
1632 3308 3270
1655 3331 3334
1687 3359 3401
1718 3386 3468
2310 3414 2822
2276 3417 2866
2242 3420 2910
2189 3419 2949
2100 3409 2976
2011 3399 3004
1944 3394 3037
1887 3392 3073
1831 3390 3109
1806 3393 3153
1781 3397 3197
1763 3402 3242
1761 3408 3290
1758 3415 3337
1769 3426 3388
1787 3440 3441
1804 3453 3493
2549 3554 2960
2511 3558 3001
2473 3561 3042
2415 3561 3078
2318 3553 3105
2220 3546 3131
2143 3539 3160
2077 3534 3190
2010 3529 3220
1973 3526 3255
1937 3524 3290
1909 3522 3327
1897 3522 3366
1885 3522 3404
1884 3521 3443
1887 3521 3480
1890 3521 3518
373 212 284
371 200 309
370 187 334
366 182 363
360 189 401
354 196 439
350 208 490
349 222 548
347 236 606
348 254 693
349 272 780
351 292 880
354 316 1005
357 339 1130
361 367 1283
365 397 1450
369 427 1618
458 365 348
461 360 398
463 354 449
462 354 500
452 364 554
442 374 607
435 391 671
428 410 740
421 430 810
418 458 907
416 486 1005
415 517 1114
419 554 1245
422 591 1376
428 634 1531
435 680 1697
