Assets/1__3DArt/KimSe/artstation_asset/LUTs_subway_asset/3DL/Paranormal 03_S.3dl
# LUT by SparkleStock. Enhanced with VOXCOLOR algorithms.
0 128 256 384 512 640 768 896 1023
240 128 176
250 147 247
257 167 328
264 190 424
271 218 541
277 251 706
284 288 915
293 332 1173
304 384 1489
277 299 286
283 346 407
293 403 546
305 468 705
318 541 892
330 625 1125
345 719 1392
361 824 1691
379 940 2024
345 607 493
340 645 622
352 727 804
373 834 1021
395 953 1260
420 1083 1534
448 1223 1828
479 1371 2139
510 1527 2461
456 1046 806
433 1055 916
440 1137 1111
468 1266 1358
505 1414 1624
545 1579 1918
590 1749 2217
638 1921 2517
686 2094 2810
625 1615 1234
570 1587 1314
563 1636 1476
592 1741 1699
647 1884 1965
703 2067 2260
765 2248 2550
831 2423 2825
898 2589 3079
910 2238 1748
810 2190 1803
769 2204 1923
777 2268 2096
823 2368 2308
889 2493 2542
961 2642 2791
1038 2794 3033
1119 2930 3249
1280 2788 2229
1128 2736 2270
1043 2728 2355
1017 2756 2480
1038 2814 2637
1097 2891 2814
1163 2985 3001
1238 3086 3189
1324 3187 3370
1735 3231 2640
1523 3190 2678
1385 3173 2740
1312 3176 2825
1294 3197 2931
1329 3235 3057
1377 3274 3183
1437 3320 3313
1512 3378 3453
2274 3539 2946
1994 3521 2993
1792 3506 3044
1661 3497 3101
1592 3494 3168
1588 3499 3251
1608 3507 3337
1643 3516 3425
1681 3523 3507
320 179 242
319 168 298
318 178 368
317 200 461
319 228 579
323 264 753
329 306 973
337 355 1246
346 413 1575
446 446 368
455 465 512
450 495 649
439 538 795
430 595 967
429 675 1190
436 768 1451
451 876 1748
472 997 2080
568 800 601
571 828 767
561 870 938
548 934 1125
544 1025 1343
552 1143 1600
570 1278 1882
598 1426 2185
635 1586 2503
720 1248 938
709 1271 1091
687 1311 1262
670 1380 1461
675 1490 1700
699 1637 1976
734 1797 2262
779 1966 2554
832 2141 2845
935 1795 1374
910 1810 1510
867 1827 1648
834 1870 1814
840 1963 2033
880 2122 2312
931 2288 2588
993 2457 2855
1063 2622 3107
1254 2370 1866
1218 2379 1985
1147 2377 2092
1081 2391 2216
1063 2447 2385
1094 2544 2592
1149 2676 2824
1220 2820 3059
1301 2954 3271
1636 2871 2311
1589 2876 2417
1489 2864 2501
1387 2858 2591
1336 2883 2713
1343 2936 2863
1377 3012 3033
1437 3104 3212
1521 3203 3388
2071 3274 2685
2011 3278 2779
1882 3264 2848
1744 3249 2914
1653 3251 2998
1624 3270 3103
1624 3295 3214
1655 3331 3334
1718 3386 3468
2549 3554 2960
2473 3561 3042
2318 3553 3105
2143 3539 3160
2010 3529 3220
1937 3524 3290
1897 3522 3366
1884 3521 3443
1890 3521 3518
454 261 343
452 222 394
426 210 459
396 220 542
382 246 646
379 283 817
382 327 1041
388 379 1321
396 441 1659
668 586 462
689 572 614
667 581 772
623 610 929
575 655 1078
547 726 1280
534 816 1527
538 923 1815
556 1048 2144
844 972 681
862 973 847
846 994 1045
808 1037 1253
758 1105 1451
729 1208 1685
721 1333 1948
733 1477 2237
766 1637 2548
1026 1424 1008
1029 1435 1150
1012 1457 1344
981 1501 1565
939 1577 1787
924 1703 2044
930 1849 2314
958 2010 2593
1007 2182 2876
1259 1947 1454
1250 1964 1577
1216 1978 1735
1171 2001 1916
1127 2049 2107
1129 2183 2371
1152 2333 2632
1195 2492 2887
1260 2653 3133
1585 2479 1936
1578 2501 2054
1531 2507 2183
1461 2513 2319
1386 2533 2460
1370 2603 2646
1393 2716 2864
1446 2849 3088
1518 2978 3295
1955 2936 2361
1953 2962 2477
1897 2966 2586
1806 2961 2688
1698 2960 2787
1653 2989 2916
1649 3049 3072
1684 3130 3241
1755 3223 3411
2352 3302 2709
2359 3329 2823
2297 3334 2917
2188 3326 2997
2051 3313 3067
1971 3317 3156
1925 3328 3252
1922 3355 3362
1966 3404 3490
2762 3558 2959
2775 3584 3065
2711 3593 3152
2590 3589 3222
2432 3574 3277
2315 3561 3338
2229 3551 3403
2174 3543 3471
2147 3537 3540
659 384 489
649 318 538
594 278 602
524 267 678
469 282 764
452 315 916
447 357 1130
450 409 1406
457 472 1744
952 741 590
981 690 733
945 680 912
867 699 1090
768 738 1234
699 797 1405
657 877 1626
641 978 1896
649 1099 2215
1175 1141 774
1207 1106 918
1196 1109 1143
1140 1144 1390
1041 1205 1600
957 1291 1802
906 1402 2037
889 1535 2303
907 1689 2599
1374 1586 1065
1390 1566 1169
1392 1575 1388
1363 1611 1655
1284 1674 1902
1211 1781 2136
1170 1910 2383
1165 2060 2641
1197 2224 2909
1591 2073 1485
1591 2071 1562
1583 2084 1737
1555 2108 1959
1494 2135 2180
1444 2248 2434
1424 2382 2681
1436 2530 2923
1485 2685 3160
1900 2566 1967
1902 2578 2047
1893 2596 2191
1856 2612 2364
1769 2618 2526
1706 2665 2702
1688 2761 2908
1709 2882 3122
1763 3004 3321
2238 2986 2382
2251 3011 2476
2248 3033 2602
2206 3044 2736
2099 3038 2853
2011 3048 2970
1966 3092 3115
1967 3161 3274
2018 3248 3438
2586 3319 2714
2614 3353 2824
2621 3379 2940
2579 3390 3048
2460 3379 3132
2345 3370 3210
2261 3370 3297
2223 3387 3397
2244 3430 3518
2926 3552 2946
2966 3591 3066
2984 3621 3176
2950 3634 3269
2832 3626 3338
2695 3608 3392
2580 3592 3450
2492 3578 3509
2432 3565 3570
953 559 689
913 463 735
833 397 800
723 358 877
593 344 956
550 370 1068
529 405 1255
526 452 1512
532 512 1838
1303 932 771
1330 842 894
1287 809 1068
1182 819 1263
1026 863 1447
903 904 1573
821 966 1755
778 1051 1994
770 1160 2292
1562 1329 922
1604 1251 1037
1598 1226 1251
1533 1255 1521
1398 1338 1805
1241 1404 1965
1132 1495 2158
1072 1611 2389
1063 1753 2659
1760 1744 1154
1788 1687 1223
1803 1666 1422
1782 1694 1713
1700 1783 2060
1550 1873 2265
1445 1987 2480
1391 2122 2708
1392 2277 2954
1924 2175 1481
1934 2150 1510
1939 2146 1653
1937 2165 1900
1929 2212 2244
1818 2312 2497
1744 2434 2735
1713 2572 2964
1735 2720 3188
2196 2633 1964
2205 2633 1999
2207 2642 2115
2203 2662 2308
2193 2696 2578
2090 2726 2755
2026 2809 2956
2004 2920 3161
2031 3036 3350
2490 3020 2377
2510 3041 2440
2520 3063 2546
2520 3087 2700
2511 3111 2904
2396 3107 3021
2314 3139 3161
2278 3199 3313
2300 3279 3470
2782 3325 2702
2821 3363 2800
2844 3397 2910
2853 3425 3038
2850 3445 3190
2721 3428 3265
2613 3418 3345
2546 3426 3439
2536 3462 3554
3053 3538 2922
3110 3586 3048
3148 3628 3167
3171 3662 3285
3179 3682 3403
3049 3662 3453
2926 3641 3504
2817 3621 3556
2729 3602 3609
1379 825 963
1293 722 1022
1166 634 1090
1012 565 1166
849 523 1252
732 517 1352
672 530 1493
652 558 1694
652 602 1977
1728 1194 1038
1748 1081 1139
1683 1028 1298
1556 1023 1486
1386 1053 1675
1217 1103 1825
1085 1144 1973
999 1194 2153
963 1270 2401
1986 1566 1165
2038 1457 1242
2033 1406 1426
1964 1417 1678
1824 1491 1962
1643 1594 2176
1478 1672 2348
1356 1751 2522
1302 1856 2744
2176 1942 1356
2221 1851 1381
2253 1797 1540
2242 1799 1804
2163 1876 2146
2002 2015 2429
1838 2126 2635
1709 2233 2816
1653 2358 3019
2324 2324 1621
2357 2266 1604
2383 2229 1707
2398 2220 1927
2400 2245 2262
2289 2391 2609
2156 2520 2854
2046 2645 3048
2004 2778 3237
2486 2697 1985
2507 2679 1969
2523 2672 2041
2532 2679 2207
2534 2703 2471
2486 2767 2775
2401 2860 3016
2327 2968 3215
2310 3079 3392
2705 3039 2356
2731 3053 2375
2750 3070 2445
2761 3091 2576
2765 3116 2778
2737 3141 3017
2666 3181 3201
2599 3238 3357
2585 3316 3510
2941 3322 2677
2982 3360 2748
3013 3396 2835
3033 3429 2950
3044 3457 3104
3018 3469 3275
2942 3465 3390
2861 3468 3485
2821 3501 3597
3154 3520 2889
3215 3573 3012
3263 3623 3127
3297 3667 3243
3321 3699 3370
3303 3708 3491
3221 3695 3563
3112 3670 3610
3011 3644 3658
1848 1135 1253
1732 1055 1350
1566 966 1434
1372 879 1514
1167 807 1600
1002 772 1698
897 760 1815
842 764 1969
829 777 2176
2157 1491 1335
2174 1381 1430
2096 1327 1581
1951 1312 1761
1766 1323 1940
1579 1365 2099
1424 1401 2238
1308 1432 2383
1234 1456 2558
2387 1832 1453
2451 1714 1502
2453 1651 1658
2386 1647 1885
2246 1707 2151
2062 1812 2380
1887 1901 2558
1735 1972 2711
1624 2022 2865
2555 2164 1614
2621 2055 1603
2674 1978 1720
2680 1956 1947
2607 2016 2265
2452 2162 2567
2281 2295 2793
2120 2407 2966
1994 2487 3112
2681 2491 1827
2743 2409 1768
2795 2347 1826
2833 2311 2008
2852 2310 2315
2748 2461 2685
2606 2618 2962
2459 2760 3164
2340 2866 3309
2787 2795 2099
2835 2758 2035
2878 2731 2062
2911 2718 2192
2931 2723 2437
2906 2788 2780
2822 2906 3072
2717 3038 3300
2631 3142 3450
2927 3078 2388
2968 3081 2361
3005 3088 2389
3034 3100 2488
3054 3116 2677
3060 3147 2961
3013 3207 3211
2944 3283 3415
2881 3364 3560
3086 3320 2654
3130 3356 2691
3169 3392 2746
3200 3427 2838
3223 3457 2985
3236 3480 3198
3210 3492 3380
3158 3508 3530
3095 3543 3645
3251 3504 2857
3311 3560 2971
3364 3616 3074
3407 3667 3182
3441 3709 3309
3465 3732 3461
3444 3735 3582
3381 3720 3665
3277 3688 3709
2312 1461 1524
2199 1442 1687
2022 1381 1807
1805 1295 1902
1570 1203 1987
1372 1142 2086
1222 1106 2192
1125 1086 2311
1084 1076 2448
2553 1802 1633
2575 1728 1746
2502 1695 1904
2360 1683 2078
2173 1679 2240
1985 1699 2391
1827 1729 2530
1698 1752 2657
1600 1748 2774
2737 2111 1758
2814 2012 1802
2832 1956 1939
2781 1947 2140
2655 1989 2376
2488 2075 2591
2329 2171 2776
2180 2247 2926
2042 2274 3035
2875 2397 1904
2963 2295 1875
3039 2211 1958
3069 2173 2145
3017 2212 2426
2883 2336 2707
2736 2483 2946
2580 2612 3130
2422 2682 3244
2977 2668 2077
3070 2582 1988
3154 2506 2009
3221 2451 2149
3262 2425 2418
3176 2549 2762
3055 2721 3059
2909 2889 3284
2749 3002 3412
3058 2913 2274
3142 2865 2172
3221 2822 2160
3287 2790 2253
3332 2774 2469
3319 2820 2801
3249 2951 3124
3137 3109 3385
3002 3236 3533
3138 3134 2469
3206 3127 2399
3273 3124 2387
3331 3124 2454
3373 3128 2622
3389 3149 2909
3367 3221 3208
3306 3322 3466
3208 3432 3629
3230 3329 2657
3285 3359 2656
3341 3392 2677
3391 3425 2742
3432 3453 2876
3454 3476 3101
3467 3500 3343
3450 3536 3559
3378 3595 3704
3346 3494 2832
3403 3549 2931
3458 3609 3017
3510 3666 3109
3553 3713 3230
3582 3741 3394
3608 3758 3561
3600 3758 3695
3527 3733 3761
2722 1777 1745
2664 1860 2004
2522 1864 2184
2318 1809 2310
2077 1717 2405
1851 1632 2495
1666 1574 2593
1529 1544 2697
1441 1537 2802
2879 2101 1900
2921 2107 2066
2880 2123 2250
2772 2134 2427
2609 2123 2573
2433 2114 2702
2281 2122 2827
2160 2144 2948
2080 2176 3060
3009 2382 2052
3097 2341 2124
3143 2317 2262
3130 2317 2441
3042 2345 2642
2906 2396 2822
2775 2467 2988
2659 2550 3137
2571 2637 3265
3112 2630 2201
3220 2566 2184
3323 2497 2251
3387 2456 2402
3375 2476 2636
3278 2560 2874
3164 2678 3090
3048 2816 3277
2946 2963 3427
3194 2852 2347
3317 2785 2252
3435 2713 2252
3537 2649 2357
3608 2607 2583
3556 2686 2877
3464 2823 3147
3351 3001 3378
3234 3200 3557
3258 3039 2478
3382 2995 2356
3502 2948 2316
3607 2905 2379
3685 2875 2563
3692 2897 2867
3640 2998 3170
3547 3162 3441
3433 3374 3651
3320 3206 2595
3431 3195 2493
3543 3183 2450
3642 3172 2490
3719 3165 2637
3750 3173 2913
3736 3227 3209
3680 3342 3490
3585 3529 3723
3381 3356 2705
3468 3380 2670
3558 3406 2661
3644 3431 2704
3713 3453 2824
3748 3470 3052
3762 3490 3306
3747 3544 3557
3694 3663 3776
3443 3491 2818
3492 3543 2895
3552 3603 2959
3613 3663 3035
3669 3715 3147
3704 3744 3318
3728 3761 3501
3746 3771 3673
3763 3779 3811
