Assets/1__3DArt/KimSe/artstation_asset/LUTs_subway_asset/3DL/Paranormal 04.3dl
# LUT by SparkleStock. Enhanced with VOXCOLOR algorithms.
0 256 512 768 1023
272 288 352
299 331 578
307 401 863
316 516 1261
336 672 1793
348 802 698
338 940 1000
368 1174 1442
402 1456 1958
445 1775 2518
532 1739 1366
441 1782 1571
474 2038 2005
542 2376 2541
615 2702 3031
1096 2810 2236
766 2762 2303
700 2855 2555
803 3032 2909
938 3238 3281
2226 3555 2962
1542 3518 2964
1209 3496 3036
1240 3520 3210
1409 3555 3410
525 440 572
448 390 694
435 429 947
453 555 1364
486 748 1910
836 1190 1029
773 1259 1320
722 1345 1623
732 1571 2078
789 1879 2616
1219 2086 1674
1169 2170 1965
1029 2230 2205
1066 2488 2655
1164 2794 3117
1907 3007 2423
1863 3057 2664
1609 3047 2800
1541 3135 3045
1671 3318 3381
2835 3630 2980
2807 3658 3194
2466 3630 3283
2242 3611 3380
2205 3612 3522
1082 804 955
807 656 1046
636 566 1188
643 648 1551
684 830 2084
1539 1665 1406
1412 1690 1717
1265 1682 1961
1174 1763 2280
1170 2004 2749
1927 2398 1884
1945 2484 2236
1901 2542 2525
1768 2644 2817
1787 2888 3212
2511 3144 2479
2604 3224 2808
2617 3279 3067
2378 3277 3213
2397 3403 3483
3120 3630 2876
3270 3708 3184
3355 3761 3431
3105 3721 3533
2928 3694 3624
2075 1424 1447
1673 1267 1643
1277 1097 1810
1077 1045 2046
1054 1091 2409
2495 2205 1790
2358 2237 2154
2131 2224 2438
1954 2227 2699
1812 2272 2986
2776 2812 2133
2769 2853 2491
2752 2917 2814
2641 2977 3101
2493 3057 3363
3030 3270 2481
3109 3324 2819
3162 3381 3112
3137 3431 3356
3043 3501 3577
3350 3623 2759
3484 3702 3092
3587 3767 3372
3617 3804 3588
3482 3778 3704
3074 2066 1809
2846 2095 2251
2389 1944 2534
1961 1827 2773
1729 1809 3026
3331 2622 2053
3303 2730 2487
3152 2783 2851
2947 2803 3145
2824 2853 3419
3484 3077 2300
3485 3123 2659
3523 3197 3005
3482 3292 3323
3462 3385 3610
3563 3405 2513
3594 3435 2834
3643 3481 3138
3711 3562 3427
3762 3664 3711
3635 3651 2690
3710 3706 3010
3779 3757 3298
3842 3808 3555
3907 3843 3779
