Assets/1__3DArt/KimSe/artstation_asset/LUTs_subway_asset/3DL/Paranormal 01_S.3dl
# LUT by SparkleStock. Enhanced with VOXCOLOR algorithms.
0 128 256 384 512 640 768 896 1023
128 240 352
162 284 457
190 335 566
217 395 686
248 465 827
288 549 1006
335 643 1216
388 748 1456
448 865 1729
157 471 500
183 540 634
221 624 785
266 722 955
313 832 1143
369 957 1366
430 1091 1614
497 1235 1886
567 1388 2178
189 811 722
202 869 858
237 968 1040
288 1096 1252
350 1240 1479
422 1396 1731
500 1559 2000
581 1727 2283
664 1898 2576
248 1254 1019
236 1279 1141
257 1371 1331
305 1506 1564
377 1665 1816
464 1842 2084
558 2020 2358
656 2199 2636
754 2373 2915
359 1796 1393
306 1783 1494
303 1837 1661
341 1944 1879
411 2087 2132
509 2270 2406
619 2451 2674
735 2625 2935
851 2789 3185
635 2374 1823
514 2339 1905
463 2359 2042
471 2424 2223
528 2524 2438
625 2650 2668
740 2798 2907
867 2950 3141
999 3089 3357
1068 2883 2230
872 2846 2304
758 2845 2416
718 2875 2560
743 2934 2730
827 3013 2915
932 3107 3105
1055 3212 3295
1194 3320 3480
1653 3288 2592
1387 3268 2667
1204 3262 2761
1101 3270 2871
1072 3294 2998
1126 3334 3138
1205 3377 3277
1310 3429 3417
1437 3497 3564
2386 3555 2882
2069 3572 2970
1817 3579 3056
1638 3579 3142
1535 3580 3231
1532 3589 3328
1573 3603 3427
1644 3620 3524
1729 3635 3619
250 324 446
256 322 519
268 355 612
287 412 726
312 481 863
350 569 1044
396 669 1259
450 780 1506
510 904 1787
360 610 570
383 634 714
401 688 863
419 768 1024
442 869 1202
482 994 1420
533 1132 1665
595 1279 1933
667 1433 2224
444 977 797
463 1008 960
471 1068 1134
484 1160 1326
518 1286 1542
570 1439 1786
635 1602 2048
712 1771 2326
799 1943 2616
548 1422 1111
551 1451 1267
538 1502 1439
536 1586 1638
573 1716 1872
642 1884 2132
726 2060 2400
821 2237 2674
927 2412 2950
719 1944 1494
706 1968 1644
662 1995 1793
628 2046 1965
644 2143 2181
728 2311 2447
829 2486 2710
945 2658 2968
1069 2822 3216
1049 2482 1915
1017 2501 2058
934 2509 2185
856 2530 2322
839 2590 2499
896 2694 2709
996 2830 2938
1124 2979 3169
1264 3117 3383
1502 2952 2306
1450 2968 2440
1329 2966 2549
1205 2968 2659
1145 2998 2797
1169 3056 2959
1239 3138 3136
1351 3237 3319
1497 3344 3501
2059 3328 2649
1989 3342 2770
1836 3339 2865
1670 3334 2955
1563 3344 3060
1544 3371 3181
1569 3404 3306
1642 3450 3436
1765 3515 3578
2702 3584 2926
2617 3596 3029
2444 3602 3115
2248 3605 3194
2092 3606 3274
2019 3612 3361
1996 3622 3450
2013 3633 3539
2061 3643 3623
435 443 570
428 402 624
407 405 702
390 443 803
397 509 926
427 597 1102
468 701 1316
520 817 1568
581 948 1857
625 751 658
649 731 798
641 757 961
620 820 1131
605 913 1294
616 1036 1496
647 1174 1730
696 1323 1992
761 1480 2282
768 1125 848
794 1121 1003
791 1154 1202
775 1225 1418
760 1337 1626
773 1484 1856
809 1645 2107
866 1814 2375
945 1986 2659
913 1564 1141
927 1574 1281
918 1603 1478
899 1664 1705
883 1770 1935
909 1929 2187
959 2100 2447
1033 2276 2713
1131 2449 2982
1109 2068 1540
1113 2089 1674
1083 2110 1843
1037 2143 2034
992 2202 2233
1034 2357 2494
1104 2523 2750
1198 2691 3001
1315 2853 3244
1452 2573 1966
1457 2601 2104
1409 2616 2252
1331 2631 2404
1244 2659 2558
1246 2741 2752
1311 2866 2973
1418 3009 3199
1550 3145 3408
1890 3010 2352
1899 3041 2493
1838 3053 2623
1732 3057 2745
1607 3064 2861
1569 3102 3005
1594 3172 3170
1677 3265 3346
1814 3369 3523
2394 3359 2684
2408 3387 2821
2341 3399 2935
2218 3399 3034
2064 3397 3123
1986 3412 3228
1959 3434 3339
1992 3473 3460
2096 3536 3595
2937 3600 2945
2953 3620 3067
2889 3631 3168
2763 3637 3253
2598 3635 3324
2482 3638 3401
2410 3643 3481
2379 3650 3560
2387 3656 3636
698 602 730
674 527 771
615 498 839
553 510 928
515 562 1033
526 645 1192
557 746 1396
604 863 1645
664 996 1939
955 910 777
978 848 901
947 847 1077
885 895 1265
817 982 1428
787 1097 1605
787 1229 1818
814 1375 2066
866 1532 2350
1151 1276 913
1182 1231 1043
1176 1238 1264
1138 1297 1519
1070 1404 1746
1028 1544 1956
1019 1699 2187
1044 1865 2438
1101 2035 2711
1324 1697 1161
1344 1671 1262
1352 1680 1482
1334 1731 1756
1275 1829 2020
1240 1980 2262
1239 2146 2510
1275 2319 2762
1348 2490 3019
1515 2173 1543
1523 2167 1627
1522 2182 1810
1497 2213 2044
1431 2256 2278
1414 2401 2541
1434 2560 2793
1490 2725 3037
1585 2885 3272
1839 2650 1982
1851 2662 2080
1851 2683 2240
1813 2705 2427
1714 2723 2606
1659 2787 2794
1673 2902 3010
1743 3040 3231
1851 3172 3434
2235 3058 2371
2257 3083 2488
2262 3108 2632
2219 3125 2782
2097 3128 2916
2006 3150 3049
1982 3208 3206
2025 3293 3375
2136 3393 3547
2669 3382 2697
2704 3414 2830
2718 3439 2962
2677 3453 3082
2547 3450 3182
2429 3454 3276
2358 3467 3376
2350 3499 3488
2424 3557 3618
3109 3607 2944
3154 3637 3081
3178 3658 3200
3149 3669 3301
3034 3670 3380
2903 3667 3448
2801 3668 3518
2732 3670 3588
2702 3673 3656
1052 807 930
991 704 962
905 646 1026
799 631 1111
677 653 1203
657 722 1327
668 812 1506
705 922 1740
761 1050 2029
1356 1106 937
1368 1002 1042
1323 972 1211
1228 1007 1412
1094 1093 1614
1011 1193 1755
970 1312 1936
967 1445 2161
1000 1592 2430
1585 1453 1032
1615 1359 1134
1606 1333 1342
1551 1379 1617
1440 1501 1918
1330 1630 2098
1264 1775 2298
1243 1931 2523
1269 2092 2778
1764 1839 1222
1785 1769 1286
1797 1742 1483
1782 1778 1779
1721 1896 2141
1612 2041 2370
1546 2203 2596
1528 2372 2827
1562 2539 3069
1922 2258 1514
1931 2223 1549
1935 2212 1696
1937 2235 1952
1938 2297 2310
1854 2438 2586
1811 2596 2839
1815 2762 3076
1874 2922 3303
2202 2712 1970
2214 2705 2020
2219 2710 2146
2220 2732 2350
2218 2776 2634
2115 2829 2830
2073 2937 3048
2090 3071 3266
2161 3201 3462
2538 3096 2367
2564 3112 2450
2578 3130 2571
2583 3154 2736
2581 3185 2952
2458 3194 3086
2388 3244 3242
2384 3322 3408
2457 3418 3574
2894 3398 2690
2938 3430 2810
2966 3457 2935
2981 3481 3072
2984 3502 3233
2851 3497 3321
2750 3502 3415
2705 3526 3521
2742 3580 3645
3234 3606 2924
3294 3644 3070
3338 3674 3199
3368 3696 3319
3382 3710 3441
3263 3702 3500
3153 3697 3562
3061 3694 3623
2998 3692 3684
1533 1080 1176
1425 974 1225
1289 901 1291
1138 863 1373
985 862 1470
883 899 1581
846 957 1721
857 1039 1908
898 1144 2161
1836 1367 1171
1833 1240 1260
1761 1191 1417
1639 1209 1613
1487 1279 1817
1346 1381 1987
1249 1477 2142
1200 1577 2317
1200 1694 2545
2063 1687 1241
2094 1559 1310
2079 1502 1492
2013 1525 1751
1892 1632 2052
1745 1788 2292
1621 1924 2479
1539 2051 2658
1516 2184 2872
2237 2034 1393
2263 1924 1417
2282 1857 1575
2270 1861 1845
2205 1959 2202
2080 2147 2515
1956 2312 2743
1866 2464 2936
1840 2612 3142
2379 2406 1634
2397 2329 1622
2411 2280 1727
2421 2266 1952
2428 2296 2298
2346 2481 2673
2249 2655 2944
2175 2820 3156
2165 2975 3358
2545 2781 1983
2558 2749 1980
2567 2730 2059
2573 2731 2231
2577 2758 2505
2542 2843 2828
2484 2967 3091
2444 3107 3311
2464 3240 3500
2792 3126 2347
2815 3129 2385
2831 3136 2466
2841 3150 2603
2847 3173 2813
2824 3210 3063
2768 3270 3266
2729 3350 3440
2756 3449 3605
3069 3410 2669
3112 3437 2762
3143 3463 2861
3163 3487 2981
3176 3509 3140
3153 3527 3318
3086 3535 3445
3027 3554 3553
3025 3607 3677
3328 3603 2891
3391 3643 3036
3440 3679 3160
3478 3709 3279
3504 3732 3407
3490 3740 3529
3422 3735 3607
3332 3726 3663
3254 3720 3718
2053 1378 1420
1915 1299 1513
1738 1228 1600
1541 1176 1688
1345 1151 1784
1192 1163 1894
1101 1192 2017
1067 1237 2167
1085 1299 2356
2323 1661 1429
2314 1537 1521
2223 1485 1677
2076 1491 1868
1901 1539 2064
1733 1629 2244
1603 1713 2398
1515 1790 2547
1470 1856 2711
2527 1957 1496
2564 1817 1546
2548 1744 1706
2476 1746 1943
2345 1832 2228
2186 1984 2486
2042 2124 2686
1923 2242 2851
1841 2329 3006
2682 2266 1626
2719 2133 1619
2750 2037 1739
2745 2010 1973
2679 2082 2308
2551 2269 2641
2414 2452 2895
2289 2611 3089
2192 2726 3244
2801 2586 1823
2836 2481 1770
2866 2398 1832
2889 2349 2017
2905 2344 2333
2826 2526 2733
2718 2726 3040
2607 2913 3269
2520 3056 3432
2905 2894 2090
2933 2835 2038
2958 2790 2070
2978 2763 2203
2993 2762 2453
2982 2841 2813
2924 2990 3131
2853 3158 3385
2802 3296 3555
3054 3179 2379
3083 3165 2369
3107 3155 2405
3126 3154 2507
3141 3164 2698
3153 3199 2990
3123 3277 3257
3081 3379 3481
3057 3489 3645
3230 3421 2650
3269 3443 2708
3301 3464 2772
3327 3485 2866
3346 3506 3013
3361 3530 3229
3343 3549 3418
3311 3580 3579
3284 3639 3710
3418 3601 2861
3479 3642 2997
3530 3682 3109
3571 3718 3217
3604 3748 3342
3627 3765 3494
3611 3770 3614
3562 3765 3701
3483 3753 3754
2571 1676 1636
2435 1658 1803
2241 1612 1933
2012 1558 2040
1775 1512 2139
1584 1502 2250
1441 1505 2369
1354 1519 2496
1331 1540 2633
2782 1965 1686
2780 1879 1807
2687 1846 1979
2533 1849 2170
2344 1874 2354
2164 1938 2526
2017 2008 2685
1903 2068 2826
1825 2101 2945
2947 2246 1772
2994 2125 1827
2988 2055 1976
2924 2045 2192
2795 2105 2453
2639 2227 2695
2498 2363 2906
2370 2480 3075
2256 2546 3192
3073 2520 1896
3127 2392 1880
3174 2283 1970
3186 2232 2167
3130 2276 2467
3011 2430 2779
2887 2615 3049
2758 2786 3257
2627 2897 3386
3166 2791 2060
3224 2675 1982
3277 2572 2009
3321 2495 2154
3351 2457 2430
3280 2604 2804
3185 2810 3132
3071 3019 3386
2943 3176 3536
3238 3038 2259
3291 2961 2169
3342 2892 2163
3385 2839 2258
3417 2810 2476
3411 2861 2822
3362 3016 3170
3282 3209 3461
3183 3379 3633
3308 3256 2459
3354 3226 2405
3398 3199 2399
3437 3180 2467
3466 3172 2634
3483 3191 2925
3475 3275 3238
3440 3401 3516
3378 3545 3701
3395 3445 2655
3438 3457 2673
3479 3471 2701
3515 3485 2767
3545 3501 2898
3564 3521 3122
3582 3548 3365
3581 3596 3588
3542 3680 3750
3513 3601 2837
3567 3641 2958
3617 3683 3052
3661 3723 3145
3698 3758 3262
3723 3779 3422
3745 3794 3583
3741 3798 3714
3689 3789 3786
3042 1953 1793
2957 2029 2069
2786 2037 2270
2555 2001 2416
2292 1943 2528
2058 1904 2635
1873 1888 2753
1736 1885 2879
1649 1889 3010
3179 2260 1915
3198 2253 2101
3134 2264 2309
3003 2279 2513
2820 2283 2686
2633 2306 2838
2476 2348 2987
2356 2399 3128
2278 2450 3261
3293 2536 2045
3355 2474 2138
3376 2432 2295
3341 2422 2498
3236 2456 2729
3093 2530 2937
2962 2630 3129
2852 2742 3300
2774 2855 3446
3383 2785 2181
3458 2693 2186
3531 2596 2266
3570 2534 2430
3543 2550 2689
3446 2651 2958
3339 2794 3201
3237 2964 3412
3154 3142 3579
3451 3011 2323
3537 2911 2247
3620 2808 2257
3692 2715 2369
3743 2650 2601
3694 2744 2924
3616 2905 3223
3525 3113 3479
3437 3349 3676
3497 3199 2459
3584 3122 2352
3670 3043 2321
3745 2972 2387
3801 2920 2573
3805 2938 2888
3765 3055 3212
3695 3249 3508
3613 3497 3737
3539 3359 2584
3618 3318 2497
3699 3277 2460
3771 3240 2501
3828 3214 2646
3852 3213 2924
3843 3274 3230
3805 3407 3526
3740 3624 3779
3579 3493 2702
3643 3493 2685
3711 3494 2683
3775 3498 2725
3827 3504 2841
3853 3514 3065
3866 3532 3316
3858 3593 3570
3824 3734 3803
3619 3603 2818
3662 3640 2922
3710 3682 2998
3758 3724 3073
3801 3763 3179
3827 3788 3342
3845 3804 3515
3859 3815 3677
3875 3827 3811
