Assets/1__3DArt/KimSe/artstation_asset/LUTs_subway_asset/3DL/Paranormal 02.3dl
# LUT by SparkleStock. Enhanced with VOXCOLOR algorithms.
0 64 128 192 256 320 384 448 512 576 640 704 768 832 896 960 1023
80 112 176
87 126 223
94 139 269
101 152 320
107 165 381
113 178 441
118 191 517
123 204 601
128 217 685
131 231 799
134 246 913
136 261 1038
136 280 1184
136 298 1330
134 320 1499
131 344 1678
128 368 1857
106 218 236
112 239 296
117 261 357
123 284 423
129 308 502
136 333 581
142 359 675
147 386 776
152 414 878
155 444 1007
159 475 1136
162 509 1275
163 546 1431
164 584 1587
165 627 1758
164 673 1936
164 719 2114
133 323 296
136 353 370
139 383 445
144 415 527
152 452 624
160 489 720
166 528 832
171 569 951
176 610 1071
180 658 1215
184 705 1360
187 756 1512
190 813 1677
193 869 1843
195 934 2017
198 1001 2194
200 1069 2372
166 471 382
167 504 464
168 536 547
171 574 640
180 622 753
189 670 867
196 722 995
202 777 1129
208 831 1264
213 894 1421
219 956 1578
224 1022 1739
229 1095 1912
235 1168 2084
241 1249 2258
247 1334 2431
253 1419 2605
212 703 519
210 726 598
207 750 677
209 786 772
219 844 899
229 903 1027
238 967 1167
247 1034 1314
256 1101 1460
265 1175 1622
274 1250 1784
283 1327 1949
293 1409 2121
304 1492 2293
315 1581 2461
328 1673 2627
341 1765 2793
259 934 656
253 949 732
247 964 807
246 998 904
258 1067 1046
269 1136 1187
280 1212 1340
292 1292 1498
303 1371 1656
316 1457 1823
329 1543 1990
343 1631 2159
358 1723 2330
373 1816 2501
390 1913 2664
409 2013 2822
428 2112 2981
334 1234 857
321 1239 924
307 1245 992
302 1270 1084
313 1335 1223
323 1401 1363
337 1477 1516
354 1558 1675
370 1640 1835
388 1731 2004
405 1823 2173
424 1916 2342
445 2013 2508
465 2109 2675
489 2207 2830
515 2307 2978
541 2406 3127
422 1567 1088
400 1563 1147
379 1558 1205
367 1573 1287
376 1627 1417
384 1681 1547
402 1751 1694
424 1829 1850
447 1907 2006
469 2002 2175
492 2097 2344
515 2193 2510
543 2290 2671
570 2386 2831
601 2482 2977
634 2578 3115
668 2674 3253
510 1901 1320
480 1886 1369
450 1871 1417
432 1875 1490
439 1919 1611
445 1962 1731
466 2026 1873
495 2100 2025
524 2175 2177
551 2273 2346
578 2371 2515
607 2469 2679
641 2566 2833
675 2664 2988
713 2758 3124
754 2850 3251
794 2942 3379
652 2245 1603
612 2224 1643
571 2203 1684
544 2200 1746
544 2231 1851
544 2263 1956
563 2315 2082
590 2376 2219
618 2438 2355
651 2519 2505
685 2600 2655
720 2684 2803
759 2774 2948
797 2864 3094
840 2949 3220
887 3032 3337
933 3114 3454
794 2588 1885
743 2562 1918
692 2535 1950
656 2525 2001
650 2544 2091
643 2564 2181
659 2603 2291
685 2652 2413
711 2701 2534
752 2765 2664
792 2828 2795
833 2898 2927
876 2981 3063
919 3064 3200
968 3141 3316
1020 3213 3423
1072 3286 3529
955 2903 2158
894 2874 2184
834 2844 2210
788 2828 2252
775 2838 2328
761 2847 2403
772 2875 2498
795 2912 2603
819 2948 2709
862 2996 2821
906 3044 2933
950 3100 3048
996 3171 3171
1043 3243 3295
1095 3309 3400
1151 3372 3496
1206 3434 3592
1154 3162 2409
1085 3134 2433
1016 3106 2457
962 3088 2494
939 3091 2557
917 3094 2620
920 3111 2700
936 3137 2788
952 3162 2875
992 3198 2971
1033 3235 3067
1075 3276 3165
1122 3327 3266
1168 3378 3367
1221 3430 3458
1277 3482 3545
1333 3535 3632
1354 3422 2660
1276 3395 2683
1199 3368 2705
1136 3349 2737
1104 3344 2787
1072 3340 2837
1067 3348 2901
1076 3362 2972
1086 3376 3042
1123 3401 3122
1160 3425 3202
1201 3452 3281
1248 3483 3360
1294 3514 3439
1348 3552 3517
1404 3593 3594
1461 3635 3672
1573 3600 2834
1493 3578 2860
1414 3556 2886
1347 3538 2918
1306 3531 2961
1266 3523 3004
1251 3524 3057
1251 3530 3115
1250 3536 3173
1279 3552 3239
1308 3567 3305
1342 3584 3371
1384 3603 3436
1426 3623 3501
1474 3650 3567
1525 3681 3634
1575 3712 3701
1803 3737 2970
1724 3722 3003
1645 3706 3035
1576 3692 3069
1527 3683 3108
1478 3674 3147
1454 3670 3191
1442 3670 3239
1430 3670 3286
1448 3677 3340
1467 3684 3393
1490 3693 3448
1525 3706 3503
1560 3718 3558
1600 3736 3613
1642 3757 3668
1684 3777 3724
2033 3875 3106
1955 3866 3145
1876 3856 3183
1805 3846 3220
1748 3836 3255
1691 3825 3289
1657 3817 3325
1633 3810 3362
1610 3803 3399
1617 3802 3440
1625 3802 3481
1639 3803 3524
1666 3808 3570
1694 3813 3615
1726 3822 3659
1759 3833 3703
1793 3843 3747
132 142 217
132 147 256
131 152 296
132 159 341
137 171 401
142 182 460
147 194 537
151 207 622
156 220 707
159 234 824
162 249 940
165 265 1067
165 284 1216
165 304 1364
164 327 1532
162 353 1711
160 378 1889
174 279 292
173 292 351
171 305 409
172 321 472
176 340 545
180 359 618
184 382 709
187 406 809
191 430 908
194 460 1037
197 490 1167
200 523 1305
202 561 1462
204 599 1618
205 643 1788
206 690 1965
207 737 2142
217 415 368
214 437 445
212 459 522
211 482 603
214 509 690
218 536 777
221 569 882
224 604 995
227 640 1109
229 686 1251
232 731 1393
236 780 1543
239 837 1708
242 894 1872
246 959 2044
250 1028 2220
254 1097 2396
264 585 466
260 610 555
256 636 645
254 665 738
257 699 838
259 734 937
262 777 1055
265 823 1181
268 870 1308
272 930 1460
277 989 1612
281 1053 1770
287 1125 1940
293 1198 2111
301 1279 2282
309 1365 2454
318 1451 2626
320 820 609
315 841 699
309 863 788
305 891 884
306 931 993
308 972 1102
312 1025 1230
317 1083 1367
323 1141 1504
331 1211 1660
339 1281 1817
348 1356 1978
358 1437 2148
369 1519 2317
383 1608 2483
398 1701 2648
413 1794 2812
377 1055 753
369 1072 842
361 1089 931
356 1116 1030
356 1164 1148
356 1211 1267
361 1273 1405
369 1342 1552
377 1412 1699
389 1493 1860
401 1574 2022
414 1658 2186
430 1749 2355
446 1841 2523
465 1938 2684
486 2038 2841
508 2138 2998
462 1350 953
450 1361 1038
439 1372 1122
430 1394 1217
427 1437 1333
424 1480 1449
430 1541 1585
441 1611 1732
451 1680 1878
468 1767 2041
484 1853 2204
502 1942 2367
523 2037 2531
545 2131 2695
571 2229 2848
600 2329 2995
628 2429 3143
560 1674 1182
544 1679 1260
529 1683 1337
515 1697 1425
508 1731 1532
501 1764 1639
508 1818 1768
522 1883 1909
535 1948 2049
556 2037 2212
577 2126 2374
600 2217 2534
628 2311 2692
656 2406 2849
689 2501 2993
725 2597 3130
760 2693 3267
659 1999 1411
639 1997 1482
618 1994 1553
601 2001 1633
590 2025 1731
579 2049 1828
586 2096 1951
603 2156 2086
619 2215 2220
645 2307 2382
670 2399 2544
699 2492 2702
733 2586 2853
767 2681 3004
807 2774 3138
850 2866 3265
893 2958 3391
810 2328 1683
784 2321 1746
758 2313 1809
734 2314 1879
716 2329 1964
698 2344 2050
701 2381 2158
714 2430 2279
728 2478 2400
756 2552 2542
785 2626 2683
817 2704 2825
856 2792 2967
895 2879 3109
940 2963 3233
988 3045 3349
1036 3128 3465
960 2656 1954
929 2644 2010
897 2633 2065
868 2627 2125
843 2633 2198
817 2639 2271
816 2666 2366
826 2703 2473
836 2740 2579
868 2796 2701
900 2852 2822
935 2917 2948
979 2997 3081
1022 3078 3214
1072 3153 3328
1125 3225 3433
1179 3298 3538
1129 2957 2214
1092 2942 2263
1055 2927 2311
1020 2917 2364
987 2916 2425
954 2915 2486
947 2932 2568
953 2959 2661
958 2985 2753
991 3026 2856
1023 3067 2959
1059 3117 3068
1105 3186 3188
1150 3254 3307
1203 3319 3410
1260 3381 3505
1317 3444 3600
1333 3202 2451
1291 3187 2496
1249 3173 2540
1208 3161 2587
1167 3156 2639
1126 3151 2691
1111 3160 2760
1109 3178 2838
1107 3195 2916
1135 3225 3004
1162 3255 3092
1195 3291 3183
1237 3340 3281
1279 3388 3378
1331 3439 3468
1389 3490 3553
1446 3542 3639
1537 3448 2688
1490 3433 2728
1444 3418 2769
1396 3405 2810
1347 3396 2853
1297 3386 2896
1275 3388 2952
1266 3397 3015
1257 3405 3078
1279 3424 3151
1302 3444 3225
1330 3466 3299
1369 3494 3374
1408 3522 3449
1460 3558 3525
1517 3600 3602
1574 3641 3678
1758 3617 2852
1710 3605 2892
1662 3592 2933
1611 3580 2972
1555 3570 3011
1499 3559 3050
1469 3557 3098
1450 3559 3150
1432 3560 3203
1446 3572 3264
1460 3583 3325
1480 3597 3387
1513 3613 3448
1545 3629 3510
1589 3655 3574
1639 3686 3639
1688 3716 3705
1989 3748 2980
1941 3739 3022
1892 3731 3064
1840 3721 3104
1778 3711 3141
1717 3700 3178
1678 3695 3220
1650 3692 3264
1621 3689 3309
1625 3694 3359
1628 3698 3410
1638 3705 3461
1662 3715 3513
1686 3724 3566
1719 3741 3619
1757 3760 3672
1795 3779 3725
2220 3879 3108
2171 3874 3152
2123 3869 3196
2068 3862 3236
2001 3852 3271
1934 3842 3306
1887 3833 3342
1849 3826 3379
1811 3818 3415
1803 3816 3455
1796 3814 3495
1796 3813 3535
1811 3816 3578
1826 3820 3621
1849 3826 3663
1875 3834 3705
1901 3843 3746
184 173 258
176 169 290
168 165 322
164 166 363
167 177 421
171 187 479
175 198 556
179 210 643
184 222 730
187 237 849
191 252 968
193 269 1097
194 289 1247
195 309 1398
194 334 1566
193 361 1744
192 388 1921
243 340 349
234 345 405
226 350 461
221 358 521
222 372 588
223 385 656
225 404 744
228 425 841
230 446 939
233 475 1068
236 505 1197
239 537 1335
241 575 1492
243 614 1650
246 659 1819
248 708 1995
250 756 2171
301 507 439
292 520 519
284 534 600
278 549 679
277 566 756
276 584 833
276 610 931
276 640 1039
277 670 1148
279 713 1287
281 757 1426
284 805 1574
288 862 1738
292 918 1901
297 984 2072
303 1054 2246
309 1124 2420
362 698 549
353 717 647
344 736 744
337 756 837
333 777 922
330 798 1008
329 831 1115
329 870 1233
329 910 1352
332 966 1499
334 1022 1647
339 1084 1801
345 1156 1969
352 1228 2137
361 1309 2307
371 1396 2477
382 1483 2647
429 937 699
419 956 799
410 975 899
401 996 996
394 1019 1087
386 1042 1178
385 1082 1293
388 1132 1420
390 1181 1547
397 1247 1699
403 1313 1850
412 1385 2007
423 1466 2174
435 1547 2341
450 1636 2506
468 1730 2669
485 1823 2832
495 1176 849
485 1195 952
476 1214 1054
466 1235 1155
454 1260 1251
443 1285 1347
442 1334 1470
447 1393 1606
452 1453 1742
462 1529 1898
472 1605 2054
485 1685 2213
502 1775 2379
519 1865 2545
540 1962 2704
564 2063 2860
588 2164 3016
590 1466 1050
580 1483 1151
570 1500 1252
558 1518 1350
541 1538 1442
525 1559 1535
522 1605 1654
528 1663 1788
533 1721 1921
547 1802 2078
562 1883 2234
580 1968 2392
602 2061 2553
625 2153 2715
653 2251 2866
684 2351 3013
714 2451 3159
699 1782 1277
689 1795 1373
678 1809 1470
664 1822 1562
641 1835 1646
618 1847 1730
614 1886 1842
619 1937 1967
624 1988 2093
643 2072 2248
663 2155 2403
685 2241 2558
714 2333 2713
742 2426 2867
777 2521 3009
815 2617 3145
853 2712 3281
808 2097 1503
797 2108 1596
787 2118 1688
770 2126 1775
741 2131 1851
712 2136 1926
706 2167 2029
710 2211 2147
714 2255 2264
739 2341 2418
763 2426 2572
791 2514 2724
825 2606 2872
860 2698 3020
901 2790 3153
947 2882 3278
992 2973 3403
967 2411 1763
956 2417 1849
945 2424 1934
925 2428 2012
888 2426 2078
852 2425 2143
839 2448 2235
838 2483 2340
838 2517 2444
862 2584 2578
885 2652 2711
914 2725 2846
953 2810 2985
992 2895 3124
1039 2978 3246
1089 3059 3361
1139 3141 3475
1126 2724 2023
1114 2727 2101
1103 2730 2179
1080 2729 2250
1035 2722 2305
991 2715 2361
972 2729 2441
967 2754 2533
961 2780 2625
984 2828 2737
1008 2877 2850
1038 2935 2968
1081 3013 3098
1125 3091 3228
1176 3165 3340
1231 3237 3444
1286 3309 3547
1302 3010 2271
1289 3010 2342
1277 3010 2413
1251 3006 2476
1199 2995 2523
1147 2983 2570
1122 2990 2639
1110 3006 2718
1098 3023 2798
1119 3056 2892
1140 3089 2986
1168 3133 3087
1213 3200 3204
1257 3266 3320
1311 3329 3421
1369 3391 3515
1428 3453 3608
1511 3242 2493
1497 3241 2558
1483 3239 2623
1453 3234 2680
1394 3221 2721
1335 3208 2762
1302 3209 2821
1282 3219 2888
1263 3228 2956
1277 3252 3036
1292 3276 3117
1314 3307 3202
1352 3352 3296
1390 3398 3389
1441 3447 3477
1500 3498 3562
1558 3550 3646
1719 3474 2716
1704 3471 2774
1689 3468 2833
1656 3461 2883
1589 3447 2919
1522 3433 2955
1482 3429 3003
1455 3431 3058
1428 3433 3114
1435 3448 3181
1443 3462 3248
1459 3480 3316
1491 3505 3387
1522 3529 3459
1572 3565 3533
1630 3606 3609
1688 3647 3684
1943 3634 2870
1927 3632 2924
1910 3629 2979
1876 3622 3027
1804 3609 3061
1733 3595 3095
1686 3589 3138
1650 3587 3185
1615 3585 3233
1613 3592 3289
1612 3600 3345
1619 3609 3402
1642 3623 3460
1664 3636 3519
1704 3661 3581
1753 3690 3645
1801 3720 3709
2175 3759 2990
2157 3757 3042
2140 3755 3093
2104 3750 3139
2030 3738 3175
1955 3727 3210
1901 3720 3249
1857 3714 3290
1813 3709 3332
1801 3711 3379
1789 3713 3426
1785 3716 3474
1798 3724 3524
1811 3731 3573
1838 3745 3624
1872 3763 3675
1905 3781 3727
2407 3883 3110
2388 3882 3159
2370 3881 3208
2332 3878 3252
2255 3868 3288
2178 3859 3324
2117 3850 3360
2064 3842 3396
2011 3834 3431
1989 3830 3469
1966 3826 3508
1952 3823 3547
1955 3825 3587
1958 3826 3628
1972 3830 3667
1990 3836 3706
2009 3842 3745
254 210 311
236 200 337
218 189 364
206 183 400
205 190 454
204 196 509
206 206 585
210 216 671
214 227 758
217 243 878
221 258 998
224 275 1129
225 295 1281
226 316 1433
226 342 1601
226 371 1778
226 399 1955
328 405 415
311 403 469
294 401 523
282 402 580
277 409 642
273 417 704
272 431 787
273 448 881
273 465 976
275 493 1103
278 521 1231
280 552 1369
282 591 1526
285 629 1683
288 675 1852
291 725 2026
