Assets/1__3DArt/KimSe/artstation_asset/LUTs_subway_asset/3DL/Paranormal 01_S.3dl
# LUT by SparkleStock. Enhanced with VOXCOLOR algorithms.
0 64 128 192 256 320 384 448 512 576 640 704 768 832 896 960 1023
128 240 352
145 262 404
162 284 457
177 307 510
190 335 566
203 363 621
217 395 686
233 430 757
248 465 827
268 507 917
288 549 1006
309 593 1103
335 643 1216
360 693 1328
388 748 1456
418 806 1593
448 865 1729
142 355 426
157 384 486
172 412 545
188 443 608
206 480 675
223 516 743
242 559 821
261 604 903
281 649 985
304 701 1085
328 753 1186
354 808 1294
382 867 1415
411 927 1536
442 991 1671
475 1059 1812
508 1126 1954
157 471 500
170 506 567
183 540 634
199 579 705
221 624 785
243 670 866
266 722 955
290 777 1049
313 832 1143
341 895 1254
369 957 1366
398 1022 1484
430 1091 1614
462 1161 1745
497 1235 1886
532 1311 2032
567 1388 2178
172 614 593
182 650 663
193 687 734
208 729 812
233 783 904
257 837 996
284 897 1097
311 962 1201
339 1026 1306
371 1097 1426
402 1169 1547
435 1242 1673
471 1320 1810
507 1398 1947
545 1479 2092
583 1563 2241
621 1646 2390
189 811 722
195 840 790
202 869 858
214 908 938
237 968 1040
259 1028 1142
288 1096 1252
319 1168 1366
350 1240 1479
386 1318 1605
422 1396 1731
459 1476 1861
500 1559 2000
540 1642 2139
581 1727 2283
623 1812 2430
664 1898 2576
205 1007 851
208 1029 917
210 1051 982
219 1087 1064
240 1153 1176
261 1219 1289
292 1294 1408
326 1374 1530
361 1453 1652
401 1538 1784
442 1623 1915
483 1709 2049
528 1797 2190
573 1886 2330
617 1974 2473
662 2062 2618
707 2150 2763
248 1254 1019
242 1266 1080
236 1279 1141
239 1308 1219
257 1371 1331
275 1433 1443
305 1506 1564
341 1586 1690
377 1665 1816
420 1753 1950
464 1842 2084
509 1930 2219
558 2020 2358
607 2110 2497
656 2199 2636
705 2286 2776
754 2373 2915
304 1525 1206
287 1528 1262
271 1531 1317
265 1550 1390
280 1604 1496
294 1657 1602
323 1725 1722
358 1800 1848
394 1876 1974
440 1966 2109
486 2056 2245
535 2146 2380
588 2236 2516
642 2326 2652
695 2412 2785
749 2496 2918
802 2581 3050
359 1796 1393
332 1789 1443
306 1783 1494
292 1793 1560
303 1837 1661
313 1881 1762
341 1944 1879
376 2015 2006
411 2087 2132
460 2178 2269
509 2270 2406
561 2361 2541
619 2451 2674
677 2541 2807
735 2625 2935
793 2707 3060
851 2789 3185
497 2085 1608
453 2073 1654
410 2061 1699
381 2064 1760
383 2098 1852
384 2132 1943
406 2184 2051
438 2244 2168
470 2305 2285
518 2383 2411
567 2460 2537
620 2540 2663
680 2624 2790
740 2709 2917
801 2788 3038
863 2863 3154
925 2939 3271
635 2374 1823
575 2357 1864
514 2339 1905
471 2336 1960
463 2359 2042
455 2382 2125
471 2424 2223
500 2474 2331
528 2524 2438
577 2587 2553
625 2650 2668
678 2718 2785
740 2798 2907
803 2877 3028
867 2950 3141
933 3020 3249
999 3089 3357
812 2646 2032
734 2626 2070
656 2605 2108
597 2596 2158
577 2611 2231
557 2625 2305
565 2656 2394
588 2696 2491
611 2735 2587
658 2785 2691
705 2835 2795
756 2892 2902
819 2962 3014
881 3032 3127
947 3097 3231
1016 3159 3331
1085 3222 3430
1068 2883 2230
970 2864 2267
872 2846 2304
794 2836 2351
758 2845 2416
722 2853 2481
718 2875 2560
730 2904 2645
743 2934 2730
785 2973 2822
827 3013 2915
874 3056 3009
932 3107 3105
989 3159 3202
1055 3212 3295
1124 3266 3387
1194 3320 3480
1323 3120 2429
1205 3103 2465
1088 3087 2501
992 3076 2544
940 3079 2601
887 3081 2658
871 3094 2726
872 3113 2799
874 3132 2873
912 3161 2954
949 3190 3035
992 3220 3116
1045 3253 3196
1098 3286 3277
1162 3327 3360
1233 3373 3444
1303 3418 3529
1653 3288 2592
1520 3278 2629
1387 3268 2667
1275 3262 2709
1204 3262 2761
1134 3262 2812
1101 3270 2871
1087 3282 2935
1072 3294 2998
1099 3314 3068
1126 3334 3138
1159 3355 3208
1205 3377 3277
1252 3399 3346
1310 3429 3417
1373 3463 3490
1437 3497 3564
2019 3422 2737
1874 3421 2778
1728 3420 2818
1601 3420 2861
1511 3420 2908
1421 3421 2955
1369 3425 3007
1336 3431 3060
1304 3437 3114
1316 3449 3174
1329 3461 3233
1350 3475 3293
1389 3490 3352
1428 3506 3411
1477 3525 3471
1530 3545 3531
1583 3566 3591
2386 3555 2882
2227 3564 2926
2069 3572 2970
1927 3578 3013
1817 3579 3056
1708 3579 3098
1638 3579 3142
1586 3580 3186
1535 3580 3231
1534 3584 3280
1532 3589 3328
1541 3595 3377
1573 3603 3427
1604 3612 3476
1644 3620 3524
1686 3627 3572
1729 3635 3619
189 282 399
199 292 444
209 303 488
219 319 536
229 345 589
239 371 642
252 403 706
266 438 775
280 473 845
299 516 935
319 559 1025
340 605 1123
365 656 1237
390 707 1351
419 764 1481
449 824 1619
479 885 1758
224 411 467
235 428 524
246 445 581
258 467 641
270 501 706
283 534 772
297 574 848
313 618 928
329 662 1009
350 715 1109
372 767 1209
396 823 1317
424 884 1438
451 944 1560
482 1010 1695
515 1079 1837
548 1148 1980
258 541 535
271 564 605
283 587 674
296 616 746
311 656 824
326 696 902
343 745 989
360 798 1081
378 851 1173
402 913 1283
425 976 1393
451 1041 1510
482 1111 1639
512 1182 1769
546 1257 1909
581 1334 2055
617 1411 2201
290 693 625
302 720 702
314 746 779
327 779 860
342 824 949
358 870 1038
376 926 1135
396 987 1237
416 1048 1339
443 1119 1458
469 1190 1576
498 1264 1701
532 1342 1836
566 1421 1972
603 1503 2115
641 1586 2263
680 1670 2411
316 894 760
324 916 834
332 938 909
342 970 991
354 1018 1087
366 1067 1183
386 1128 1289
410 1195 1400
434 1263 1511
465 1340 1634
496 1417 1758
529 1497 1887
567 1580 2024
605 1664 2162
647 1749 2305
689 1835 2450
732 1920 2596
342 1094 894
346 1112 967
350 1131 1039
356 1161 1122
365 1212 1225
374 1263 1329
396 1329 1443
424 1403 1562
451 1477 1682
487 1561 1811
522 1644 1941
560 1730 2073
603 1818 2212
645 1906 2351
690 1995 2494
737 2083 2638
783 2171 2782
398 1338 1065
396 1351 1134
394 1365 1204
394 1390 1284
397 1436 1385
401 1483 1486
421 1546 1601
448 1618 1722
475 1690 1844
514 1777 1976
553 1863 2108
595 1950 2242
642 2040 2379
689 2130 2517
739 2218 2655
789 2305 2794
840 2392 2933
468 1604 1254
459 1612 1320
450 1620 1386
443 1638 1462
440 1676 1556
437 1714 1651
452 1770 1762
477 1836 1881
501 1903 2000
543 1990 2134
586 2077 2267
631 2165 2401
683 2254 2536
735 2344 2670
789 2430 2803
845 2514 2935
900 2599 3067
539 1870 1444
522 1873 1506
506 1875 1569
492 1887 1639
482 1916 1727
473 1945 1815
484 1995 1922
506 2055 2039
528 2115 2157
573 2203 2292
619 2291 2427
668 2379 2560
724 2468 2692
781 2558 2824
840 2642 2951
900 2724 3076
960 2806 3200
690 2149 1656
663 2148 1716
636 2148 1775
611 2154 1841
590 2175 1920
570 2196 1999
574 2236 2097
590 2286 2205
606 2336 2313
648 2408 2435
689 2481 2557
737 2558 2681
796 2641 2807
855 2725 2933
918 2803 3053
982 2879 3169
1046 2954 3285
842 2428 1869
804 2424 1925
765 2420 1982
730 2422 2043
698 2434 2114
667 2446 2184
664 2477 2273
673 2517 2371
683 2557 2469
722 2614 2578
760 2672 2688
807 2736 2802
868 2814 2922
930 2892 3043
996 2965 3155
1063 3034 3262
1131 3103 3370
1028 2690 2075
979 2684 2129
929 2678 2183
882 2676 2240
839 2681 2302
796 2687 2365
783 2709 2445
785 2739 2533
788 2770 2620
821 2814 2718
855 2857 2816
898 2910 2918
959 2978 3029
1019 3046 3141
1086 3110 3244
1157 3173 3343
1228 3235 3442
1285 2918 2268
1223 2912 2320
1161 2907 2372
1101 2904 2426
1044 2905 2482
986 2907 2539
962 2922 2609
953 2944 2686
944 2966 2764
971 3000 2850
998 3034 2937
1033 3073 3026
1086 3123 3120
1138 3172 3215
1203 3225 3307
1274 3278 3399
1346 3332 3490
1541 3145 2462
1467 3140 2512
1392 3136 2562
1319 3132 2612
1248 3129 2662
1177 3127 2712
1140 3135 2774
1120 3148 2840
1100 3162 2907
1120 3186 2982
1140 3211 3058
1168 3237 3134
1212 3268 3212
1257 3298 3289
1319 3339 3371
1392 3384 3454
1464 3429 3538
1856 3308 2621
1772 3307 2670
1688 3305 2719
1604 3303 2767
1520 3300 2813
1436 3298 2859
1385 3302 2913
1352 3311 2971
1318 3319 3029
1326 3336 3094
1335 3353 3160
1352 3370 3225
1387 3390 3291
1422 3410 3357
1476 3439 3427
1538 3473 3499
1601 3506 3571
2200 3439 2762
2108 3442 2811
2016 3445 2859
1922 3446 2906
1826 3445 2949
1729 3445 2993
1664 3447 3040
1615 3452 3091
1566 3456 3141
1560 3466 3196
1555 3477 3252
1560 3488 3308
1586 3502 3365
1611 3515 3421
1652 3533 3479
1700 3553 3538
1748 3573 3596
2544 3570 2904
2443 3577 2952
2343 3584 2999
2240 3590 3045
2131 3590 3085
2022 3591 3126
1943 3592 3168
1878 3593 3210
1814 3593 3252
1795 3597 3299
1775 3601 3345
1768 3606 3391
1784 3613 3439
1800 3620 3486
1828 3627 3532
1862 3633 3576
1895 3639 3621
250 324 446
253 323 482
256 322 519
261 330 561
268 355 612
276 380 663
287 412 726
299 447 794
312 481 863
331 525 954
350 569 1044
372 616 1143
396 669 1259
421 721 1374
450 780 1506
480 842 1646
510 904 1787
305 467 508
313 473 562
320 478 617
327 492 674
335 522 738
342 551 801
353 590 875
365 633 954
377 675 1033
397 728 1133
416 782 1232
438 838 1340
465 900 1462
491 962 1584
522 1030 1720
555 1099 1863
588 1169 2005
360 610 570
372 622 642
383 634 714
393 653 788
401 688 863
409 722 939
419 768 1024
431 819 1113
442 869 1202
462 932 1311
482 994 1420
505 1060 1536
533 1132 1665
562 1203 1793
595 1279 1933
631 1356 2079
667 1433 2224
409 773 658
422 789 741
435 805 825
446 828 908
452 866 994
458 904 1079
468 955 1174
481 1013 1273
494 1070 1372
515 1141 1489
537 1212 1605
561 1285 1728
593 1365 1862
624 1444 1996
661 1526 2138
700 1610 2285
739 1693 2431
444 977 797
453 992 879
463 1008 960
469 1031 1044
471 1068 1134
473 1105 1224
484 1160 1326
501 1223 1434
518 1286 1542
544 1362 1664
570 1439 1786
599 1518 1912
635 1602 2048
671 1686 2184
712 1771 2326
755 1857 2471
799 1943 2616
479 1180 937
485 1196 1016
490 1212 1096
493 1234 1180
490 1270 1274
488 1306 1369
500 1364 1478
521 1433 1595
542 1502 1712
572 1584 1839
603 1666 1966
637 1750 2097
677 1839 2235
718 1927 2373
763 2015 2514
811 2104 2657
859 2192 2800
548 1422 1111
550 1437 1189
551 1451 1267
549 1471 1349
538 1502 1439
527 1532 1530
536 1586 1638
555 1651 1755
573 1716 1872
608 1800 2002
642 1884 2132
680 1970 2264
726 2060 2400
771 2149 2537
821 2237 2674
874 2325 2812
927 2412 2950
633 1683 1303
631 1696 1379
628 1710 1455
620 1726 1534
600 1748 1616
580 1771 1699
582 1816 1801
595 1873 1914
609 1929 2027
647 2013 2158
685 2098 2289
727 2184 2422
778 2273 2555
828 2362 2689
883 2448 2821
941 2532 2952
998 2617 3083
719 1944 1494
712 1956 1569
706 1968 1644
691 1981 1718
662 1995 1793
632 2009 1868
628 2046 1965
636 2094 2073
644 2143 2181
686 2227 2314
728 2311 2447
774 2397 2580
829 2486 2710
885 2574 2841
945 2658 2968
1007 2740 3092
1069 2822 3216
884 2213 1705
873 2224 1778
861 2235 1851
840 2244 1922
798 2252 1989
756 2259 2056
742 2288 2144
742 2327 2242
742 2366 2340
777 2434 2459
812 2502 2578
855 2575 2699
913 2658 2824
971 2741 2949
1034 2819 3068
1100 2894 3184
1166 2970 3299
1049 2482 1915
1033 2492 1987
1017 2501 2058
988 2508 2126
934 2509 2185
880 2510 2244
856 2530 2322
847 2560 2411
839 2590 2499
867 2642 2604
896 2694 2709
935 2754 2818
996 2830 2938
1057 2907 3058
1124 2979 3169
1194 3048 3276
1264 3117 3383
1245 2734 2118
1224 2743 2188
1203 2751 2257
1167 2756 2321
1101 2752 2374
1035 2748 2426
1000 2761 2496
982 2782 2575
964 2804 2653
985 2842 2745
1006 2880 2836
1039 2927 2934
1098 2994 3044
1157 3060 3155
1225 3124 3257
1298 3186 3356
1371 3248 3454
1502 2952 2306
1476 2960 2373
1450 2968 2440
1407 2971 2501
1329 2966 2549
1251 2960 2597
1205 2968 2659
1175 2983 2728
1145 2998 2797
1157 3027 2878
1169 3056 2959
1192 3091 3043
1239 3138 3136
1286 3186 3228
1351 3237 3319
1424 3291 3410
1497 3344 3501
1759 3171 2495
1728 3178 2559
1697 3185 2623
1647 3187 2681
1557 3180 2724
1467 3172 2767
1410 3175 2821
1368 3184 2881
1326 3192 2941
1329 3212 3011
1331 3232 3081
1345 3255 3152
1380 3283 3227
1415 3311 3301
1476 3351 3381
1550 3396 3464
1624 3441 3547
2059 3328 2649
2024 3335 2710
1989 3342 2770
1933 3345 2824
1836 3339 2865
1738 3333 2906
1670 3334 2955
1617 3339 3008
1563 3344 3060
1554 3358 3121
1544 3371 3181
1545 3386 3243
1569 3404 3306
1593 3422 3368
1642 3450 3436
1703 3482 3507
1765 3515 3578
2380 3456 2787
2342 3463 2844
2303 3469 2900
2243 3473 2950
2140 3471 2990
2037 3469 3030
1959 3470 3074
1893 3472 3121
1828 3475 3167
1805 3483 3219
1781 3492 3271
1770 3501 3324
1782 3513 3378
1795 3525 3432
1827 3541 3487
1870 3560 3544
1913 3579 3601
2702 3584 2926
2660 3590 2977
2617 3596 3029
2553 3601 3076
2444 3602 3115
2336 3604 3154
2248 3605 3194
2170 3606 3234
2092 3606 3274
2056 3609 3317
2019 3612 3361
1995 3616 3405
1996 3622 3450
1996 3628 3495
2013 3633 3539
2037 3638 3581
2061 3643 3623
327 375 500
325 363 531
323 352 561
322 352 597
323 373 646
323 394 695
330 424 755
339 458 822
349 492 888
367 537 978
385 581 1068
405 629 1167
430 683 1284
454 737 1400
483 798 1534
513 861 1676
544 925 1819
402 527 555
407 522 606
411 517 658
414 522 714
414 547 777
414 572 840
419 608 912
425 649 988
432 691 1064
448 744 1162
464 797 1261
484 854 1367
509 918 1489
534 981 1610
564 1049 1747
596 1120 1891
