Assets/1__3DArt/KimSe/artstation_asset/LUTs_subway_asset/3DL/Paranormal 03.3dl
# LUT by SparkleStock. Enhanced with VOXCOLOR algorithms.
0 64 128 192 256 320 384 448 512 576 640 704 768 832 896 960 1023
240 128 176
245 137 212
250 147 247
254 157 285
257 167 328
261 177 371
264 190 424
268 204 482
271 218 541
274 234 624
277 251 706
280 269 799
284 288 915
288 308 1030
293 332 1173
298 358 1331
304 384 1489
259 213 231
262 230 279
266 247 327
270 265 379
275 285 437
280 306 495
285 330 565
290 355 640
295 380 716
299 409 816
304 439 915
309 470 1024
314 505 1152
320 539 1281
327 579 1431
334 621 1593
341 664 1754
277 299 286
280 323 346
283 346 407
287 373 472
293 404 546
299 435 619
305 469 705
312 505 798
318 541 891
324 584 1008
330 627 1124
337 671 1249
345 721 1390
352 770 1532
361 826 1689
370 885 1854
379 944 2019
304 419 365
305 445 433
305 471 501
309 502 576
316 543 664
324 585 753
333 630 854
341 678 962
350 725 1071
358 780 1201
367 835 1331
376 893 1468
386 955 1618
397 1018 1769
408 1087 1929
419 1159 2095
431 1231 2260
346 607 494
343 626 559
341 645 623
342 675 700
352 726 804
362 778 907
374 835 1021
385 894 1139
398 954 1258
410 1020 1395
423 1086 1532
436 1154 1674
450 1226 1826
465 1298 1978
480 1375 2134
495 1455 2293
511 1535 2452
387 794 623
381 806 684
376 819 745
376 847 825
388 909 943
400 971 1061
414 1039 1187
430 1111 1316
445 1183 1446
462 1260 1589
478 1337 1733
496 1415 1880
514 1497 2034
533 1578 2187
552 1664 2340
571 1751 2492
590 1838 2644
459 1046 811
446 1050 865
434 1054 919
430 1077 994
442 1136 1112
453 1196 1230
470 1266 1357
489 1340 1490
508 1415 1622
529 1499 1769
550 1583 1915
571 1667 2063
594 1753 2214
617 1840 2365
641 1927 2511
665 2016 2654
688 2104 2798
545 1331 1028
525 1326 1074
505 1321 1120
494 1334 1187
504 1386 1296
514 1437 1405
533 1503 1529
556 1576 1661
578 1650 1794
604 1738 1941
629 1826 2088
655 1915 2234
682 2003 2380
710 2091 2527
738 2178 2665
767 2265 2799
795 2351 2932
631 1615 1245
603 1601 1283
575 1587 1321
559 1592 1379
567 1635 1479
575 1678 1580
596 1740 1701
622 1812 1833
649 1884 1965
678 1977 2112
707 2070 2260
738 2162 2405
770 2253 2547
803 2343 2689
836 2430 2819
869 2514 2943
902 2599 3067
776 1927 1507
737 1908 1538
697 1889 1569
670 1887 1618
672 1919 1706
673 1952 1793
690 2003 1901
714 2065 2020
739 2126 2138
770 2204 2270
801 2282 2401
834 2363 2534
869 2448 2668
905 2534 2803
941 2614 2924
977 2691 3039
1013 2768 3153
922 2238 1770
870 2214 1794
819 2190 1817
782 2182 1858
776 2204 1932
770 2225 2007
784 2267 2102
806 2317 2206
829 2368 2311
862 2431 2427
895 2494 2543
929 2563 2662
968 2644 2790
1006 2725 2917
1045 2799 3030
1085 2868 3134
1124 2937 3240
1088 2531 2023
1024 2504 2041
960 2477 2059
912 2464 2092
898 2476 2154
884 2489 2217
891 2520 2299
910 2560 2390
929 2600 2481
962 2650 2582
994 2699 2682
1029 2756 2788
1068 2828 2903
1107 2899 3019
1148 2963 3122
1189 3024 3218
1231 3085 3314
1296 2788 2257
1218 2761 2273
1140 2735 2289
1079 2720 2317
1053 2726 2369
1028 2732 2421
1026 2754 2489
1037 2783 2566
1047 2813 2643
1077 2852 2730
1106 2891 2817
1137 2934 2907
1172 2986 3002
1207 3037 3097
1246 3088 3188
1288 3140 3276
1330 3191 3364
1505 3044 2491
1413 3019 2505
1320 2993 2519
1247 2977 2542
1209 2976 2583
1172 2976 2624
1161 2988 2680
1164 3007 2743
1166 3025 2806
1192 3054 2879
1218 3082 2952
1245 3112 3026
1276 3143 3100
1307 3175 3175
1345 3213 3253
1387 3255 3334
1429 3297 3415
1749 3231 2663
1641 3211 2679
1534 3190 2695
1445 3175 2717
1394 3171 2752
1343 3168 2787
1320 3174 2833
1311 3185 2885
1302 3196 2937
1320 3215 2999
1338 3235 3061
1359 3254 3122
1385 3274 3184
1411 3294 3246
1444 3320 3313
1480 3350 3382
1517 3380 3451
2012 3385 2805
1888 3370 2824
1764 3355 2844
1659 3344 2867
1593 3339 2898
1527 3334 2928
1490 3335 2967
1469 3340 3010
1447 3345 3053
1455 3356 3104
1463 3367 3156
1476 3378 3208
1497 3391 3261
1518 3403 3314
1543 3418 3369
1571 3435 3424
1599 3451 3479
2274 3539 2946
2134 3530 2969
1994 3521 2993
1873 3513 3017
1792 3506 3044
1711 3500 3070
1661 3497 3101
1626 3495 3135
1592 3494 3168
1590 3497 3209
1588 3499 3251
1592 3503 3293
1608 3507 3337
1625 3512 3382
1643 3516 3425
1662 3520 3466
1681 3523 3507
278 154 210
278 157 238
277 160 266
278 165 299
281 175 342
284 184 384
287 196 438
290 210 498
293 223 558
296 240 643
299 258 729
303 276 825
307 297 944
310 318 1063
315 344 1210
320 371 1371
325 399 1532
317 266 282
316 276 326
314 287 371
314 299 419
316 316 473
319 332 527
322 352 594
325 375 668
329 397 742
333 426 842
337 455 942
342 486 1052
347 521 1182
353 557 1311
360 598 1464
367 641 1627
375 685 1790
356 377 354
353 396 415
351 414 476
350 434 538
352 457 604
354 480 669
357 508 750
361 539 838
364 571 926
369 611 1041
374 652 1155
380 696 1278
388 746 1419
396 795 1560
405 852 1717
415 912 1883
424 972 2048
400 516 447
396 538 518
392 561 590
389 585 663
391 615 740
393 645 817
396 682 909
401 722 1010
406 763 1111
413 815 1238
420 867 1364
428 922 1498
438 985 1646
448 1047 1795
460 1117 1954
473 1190 2119
486 1263 2283
453 709 581
447 728 653
441 747 724
437 772 800
438 808 887
439 844 975
445 890 1078
452 942 1188
460 993 1299
471 1055 1432
481 1117 1564
493 1183 1702
508 1254 1852
522 1325 2002
538 1403 2157
555 1483 2315
572 1564 2473
506 902 716
498 918 787
490 933 857
485 958 937
485 1001 1035
485 1043 1133
493 1099 1246
503 1161 1366
514 1224 1487
529 1296 1625
543 1368 1764
559 1443 1907
577 1523 2058
595 1603 2209
615 1689 2360
637 1777 2512
658 1865 2664
589 1152 904
577 1163 971
565 1174 1038
557 1194 1115
554 1234 1210
552 1273 1306
559 1329 1420
572 1393 1541
584 1457 1663
602 1535 1804
621 1613 1945
640 1694 2088
663 1778 2236
685 1862 2384
710 1950 2529
736 2039 2672
761 2128 2815
687 1430 1119
671 1435 1180
654 1440 1242
641 1455 1312
635 1487 1400
629 1519 1488
635 1570 1596
648 1631 1715
662 1692 1834
684 1774 1975
706 1856 2116
730 1940 2258
757 2026 2401
784 2112 2545
813 2198 2681
843 2285 2815
873 2372 2948
785 1708 1333
764 1708 1390
743 1707 1446
726 1715 1510
715 1740 1589
705 1764 1669
711 1811 1773
725 1869 1889
739 1927 2005
766 2013 2146
792 2099 2287
820 2186 2428
851 2274 2566
883 2361 2705
916 2447 2834
950 2531 2957
984 2616 3080
939 2007 1586
911 2003 1636
883 1998 1685
858 2001 1742
840 2017 1811
822 2034 1881
823 2072 1973
833 2120 2077
843 2169 2180
868 2240 2305
893 2310 2429
921 2385 2556
956 2468 2687
990 2551 2818
1026 2629 2938
1063 2706 3052
1099 2782 3165
1093 2306 1839
1058 2298 1882
1023 2290 1925
991 2287 1974
965 2295 2033
939 2303 2092
934 2332 2173
940 2371 2264
947 2410 2356
971 2466 2463
995 2522 2570
1023 2585 2683
1060 2662 2807
1097 2740 2932
1135 2812 3042
1175 2880 3146
1215 2949 3250
1265 2586 2081
1223 2576 2119
1180 2565 2157
1140 2558 2199
1105 2560 2248
1071 2561 2298
1059 2581 2367
1060 2611 2447
1061 2640 2526
1082 2683 2618
1104 2725 2710
1130 2776 2808
1167 2844 2921
1203 2912 3033
1243 2975 3134
1284 3035 3229
1326 3094 3324
1474 2830 2302
1422 2819 2337
1371 2808 2372
1322 2800 2409
1277 2797 2450
1232 2795 2492
1212 2808 2551
1204 2828 2618
1196 2849 2686
1212 2882 2765
1228 2914 2844
1248 2952 2927
1278 3000 3019
1308 3048 3110
1345 3098 3199
1387 3148 3286
1428 3199 3373
1682 3074 2524
1622 3063 2555
1562 3052 2586
1504 3042 2618
1448 3035 2653
1393 3028 2687
1364 3034 2735
1347 3046 2790
1331 3057 2845
1341 3080 2912
1351 3103 2978
1366 3128 3046
1390 3156 3117
1413 3184 3188
1448 3221 3264
1489 3262 3344
1530 3303 3423
1916 3253 2687
1847 3244 2717
1778 3235 2748
1709 3226 2778
1643 3218 2809
1577 3210 2839
1536 3211 2880
1509 3217 2926
1482 3223 2972
1484 3238 3029
1485 3252 3085
1492 3268 3142
1508 3285 3200
1525 3301 3259
1552 3326 3323
1586 3355 3390
1619 3384 3458
2164 3400 2820
2085 3394 2851
2005 3388 2883
1927 3382 2913
1849 3374 2941
1771 3366 2970
1719 3365 3005
1680 3366 3044
1641 3367 3083
1633 3374 3130
1624 3382 3178
1621 3390 3226
1630 3400 3276
1640 3409 3326
1658 3423 3378
1680 3438 3432
1703 3453 3485
2412 3547 2953
2322 3544 2985
2233 3541 3017
2144 3537 3048
2055 3530 3074
1966 3523 3101
1902 3518 3130
1852 3515 3162
1801 3511 3194
1782 3511 3232
1763 3511 3270
1750 3512 3310
1753 3515 3352
1755 3517 3393
1763 3519 3434
1774 3520 3473
1786 3522 3513
317 181 244
310 177 265
304 173 285
301 173 314
304 182 356
307 191 398
310 202 453
312 215 514
315 228 575
319 246 663
322 264 751
325 284 851
329 306 973
333 329 1095
337 355 1246
342 384 1411
346 413 1575
376 318 333
369 323 374
362 327 415
357 334 459
357 346 509
358 358 559
359 375 623
361 395 696
363 414 768
366 443 868
370 471 968
374 502 1079
380 538 1211
386 574 1342
393 617 1496
400 662 1661
408 706 1826
435 456 422
427 468 483
419 481 544
413 495 604
411 510 662
409 525 719
409 547 794
409 574 878
410 600 961
414 639 1073
418 678 1186
424 720 1308
431 770 1448
439 820 1589
448 878 1746
459 939 1911
470 1000 2076
496 613 528
487 632 604
478 650 679
470 669 750
466 687 815
461 705 880
460 733 965
461 767 1059
462 801 1152
468 850 1275
473 899 1397
480 952 1528
490 1014 1675
500 1076 1821
513 1146 1979
527 1221 2143
542 1295 2306
560 812 669
550 830 747
541 849 824
532 869 900
524 889 971
516 910 1042
516 946 1135
519 989 1237
523 1033 1340
532 1091 1468
540 1149 1596
551 1211 1730
565 1282 1878
579 1352 2026
596 1430 2180
615 1512 2337
634 1593 2495
624 1010 809
614 1029 890
604 1048 970
593 1069 1050
582 1092 1127
571 1115 1204
571 1158 1304
577 1211 1416
583 1264 1528
595 1332 1661
608 1399 1795
622 1470 1933
640 1550 2082
658 1629 2230
679 1714 2381
702 1803 2532
726 1891 2683
719 1257 997
708 1275 1077
696 1293 1157
683 1311 1235
667 1331 1309
651 1351 1383
649 1393 1482
654 1446 1593
660 1499 1704
676 1571 1839
691 1644 1975
709 1720 2113
731 1803 2259
753 1885 2404
779 1972 2548
806 2062 2690
834 2151 2833
829 1530 1210
817 1545 1287
804 1560 1364
788 1575 1437
766 1588 1504
743 1600 1571
738 1637 1664
741 1686 1769
745 1734 1875
764 1810 2010
784 1886 2145
805 1965 2282
832 2049 2422
858 2132 2563
887 2218 2698
919 2305 2831
950 2392 2964
939 1802 1422
925 1815 1496
912 1827 1570
893 1838 1640
864 1844 1699
835 1850 1759
827 1882 1845
828 1926 1945
830 1970 2045
853 2049 2180
876 2129 2315
901 2210 2450
932 2295 2586
962 2379 2722
996 2464 2849
1031 2548 2971
1066 2633 3094
1102 2088 1665
1086 2098 1733
1070 2108 1802
1046 2115 1865
1009 2116 1917
971 2116 1968
956 2140 2045
951 2176 2134
947 2211 2223
966 2275 2340
985 2339 2457
1009 2408 2577
1042 2487 2706
1075 2567 2834
1111 2644 2952
1148 2720 3065
1186 2797 3178
1265 2374 1907
1246 2381 1970
1228 2389 2033
1200 2392 2090
1154 2387 2134
1107 2382 2178
1085 2398 2244
1075 2425 2322
1064 2452 2400
1080 2501 2499
1095 2549 2598
1117 2606 2704
1152 2680 2825
1187 2755 2946
1226 2825 3055
1266 2893 3158
1306 2960 3261
1442 2642 2139
1421 2647 2196
1400 2652 2254
1368 2653 2305
1313 2643 2342
1258 2633 2379
1228 2643 2436
1210 2662 2503
1193 2681 2571
1203 2716 2654
1213 2751 2737
1231 2796 2829
1265 2860 2938
1299 2925 3047
1338 2986 3146
1379 3045 3240
1421 3104 3333
1651 2873 2348
1627 2877 2401
1602 2881 2454
1565 2880 2500
1500 2868 2532
1436 2857 2564
1397 2861 2613
1370 2873 2671
1344 2885 2728
1347 2911 2799
1349 2937 2871
1359 2970 2948
1384 3015 3036
1409 3059 3124
1444 3107 3210
1485 3157 3296
1526 3206 3382
1859 3104 2557
1832 3107 2605
1804 3110 2654
1761 3107 2695
1688 3094 2722
1614 3081 2749
1566 3079 2790
1530 3084 2838
1495 3089 2885
1490 3107 2945
1485 3124 3005
1488 3144 3067
1503 3169 3134
1519 3194 3201
1551 3229 3275
1591 3269 3353
1631 3309 3431
2084 3274 2710
2053 3277 2756
2022 3280 2801
1974 3277 2840
1892 3265 2865
1811 3253 2891
1753 3249 2927
1707 3250 2967
1661 3250 3008
1647 3260 3059
1632 3270 3109
1625 3282 3162
1631 3295 3216
1638 3309 3271
1661 3332 3333
1691 3360 3399
1722 3388 3465
2317 3414 2835
2282 3417 2878
2247 3421 2922
2194 3419 2959
2105 3409 2985
2016 3399 3011
1948 3394 3043
1892 3392 3079
1835 3389 3114
1810 3393 3157
1785 3397 3200
1767 3402 3244
1764 3409 3291
1762 3415 3338
1772 3427 3388
1789 3441 3440
1806 3454 3492
2549 3554 2960
2511 3558 3001
2473 3561 3042
2415 3561 3078
2318 3553 3105
2220 3545 3131
2143 3539 3160
2077 3534 3190
2010 3529 3220
1973 3526 3255
1937 3524 3290
1909 3522 3327
1897 3522 3366
1885 3522 3404
1884 3521 3443
1887 3521 3480
1890 3521 3518
367 215 287
355 205 302
342 195 318
333 191 341
333 196 381
333 202 421
334 212 475
337 224 536
339 236 597
342 254 687
346 273 777
349 292 879
353 316 1004
357 339 1129
361 367 1283
365 397 1450
369 427 1618
445 376 391
432 375 429
418 374 467
408 376 508
404 382 553
400 388 599
399 401 660
399 418 730
399 435 800
402 462 899
405 489 999
409 519 1110
414 556 1242
419 592 1375
426 635 1530
434 681 1696
