Assets/1__3DArt/KimSe/artstation_asset/LUTs_subway_asset/3DL/Paranormal 02_S.3dl
# LUT by SparkleStock. Enhanced with VOXCOLOR algorithms.
0 128 256 384 512 640 768 896 1023
80 112 176
94 139 269
107 165 381
118 191 517
128 217 685
134 246 913
136 280 1184
134 320 1499
128 368 1857
133 323 296
139 383 445
151 451 624
164 527 832
175 609 1071
184 704 1360
190 811 1678
194 931 2019
199 1065 2375
212 703 517
207 750 676
218 844 899
236 966 1167
253 1098 1460
272 1246 1784
291 1405 2122
313 1575 2464
337 1757 2799
332 1233 851
307 1244 989
312 1335 1222
336 1476 1515
367 1637 1835
401 1818 2173
440 2006 2509
485 2199 2833
535 2395 3135
504 1900 1309
447 1870 1410
436 1918 1606
464 2025 1870
522 2175 2177
572 2366 2515
634 2559 2834
705 2749 3127
785 2930 3387
783 2586 1864
686 2534 1935
644 2543 2080
653 2602 2283
705 2700 2529
784 2827 2793
867 2977 3064
958 3133 3319
1061 3277 3536
1140 3160 2380
1006 3105 2437
931 3090 2541
911 3110 2686
942 3160 2865
1022 3234 3062
1110 3325 3264
1209 3426 3460
1323 3527 3637
1560 3598 2810
1404 3555 2868
1298 3530 2947
1244 3523 3045
1242 3535 3164
1299 3566 3299
1373 3603 3433
1463 3649 3568
1568 3707 3704
2033 3875 3106
1876 3856 3183
1748 3836 3255
1657 3817 3325
1610 3803 3399
1625 3802 3481
1666 3808 3570
1726 3822 3659
1793 3843 3747
188 171 256
185 163 334
183 174 433
183 196 564
187 222 734
192 252 969
194 289 1248
194 334 1566
192 388 1921
315 482 382
328 495 549
324 531 721
311 586 914
300 655 1141
294 748 1423
294 857 1737
299 981 2073
309 1120 2423
441 907 628
449 922 818
440 968 1024
424 1047 1259
415 1159 1532
417 1299 1844
429 1457 2173
452 1630 2508
484 1815 2838
595 1442 987
590 1447 1164
569 1487 1368
550 1567 1610
553 1696 1900
572 1866 2225
605 2049 2552
651 2242 2870
711 2439 3168
805 2081 1451
791 2076 1611
750 2088 1780
718 2134 1981
730 2231 2238
769 2409 2560
825 2594 2869
897 2780 3156
986 2961 3412
1118 2714 1979
1097 2704 2121
1033 2695 2252
972 2707 2401
963 2762 2599
1008 2865 2837
1078 3004 3093
1169 3156 3342
1278 3299 3555
1498 3237 2455
1471 3227 2580
1385 3207 2683
1294 3198 2792
1256 3219 2934
1285 3269 3104
1344 3347 3290
1432 3442 3478
1549 3543 3651
1932 3632 2843
1900 3625 2955
1795 3605 3040
1678 3586 3121
1607 3582 3219
1604 3597 3336
1633 3621 3456
1696 3659 3581
1795 3717 3712
2407 3883 3110
2370 3881 3208
2255 3868 3288
2117 3850 3360
2011 3834 3431
1966 3826 3508
1955 3825 3587
1972 3830 3667
2009 3842 3745
369 257 378
349 217 447
313 205 539
278 213 658
264 234 810
262 265 1041
262 304 1319
263 352 1638
264 413 1991
576 632 490
589 599 655
561 608 841
513 649 1042
463 707 1247
430 795 1513
413 901 1814
410 1027 2140
421 1170 2482
745 1082 710
762 1053 890
745 1070 1116
705 1128 1369
650 1221 1626
616 1353 1922
603 1507 2237
612 1679 2560
642 1866 2882
920 1611 1050
928 1586 1209
915 1598 1431
884 1653 1691
838 1755 1968
819 1915 2281
824 2092 2597
854 2282 2906
912 2478 3197
1147 2225 1526
1148 2204 1667
1121 2203 1850
1079 2228 2063
1038 2287 2294
1041 2451 2605
1071 2627 2904
1127 2809 3184
1212 2988 3434
1470 2813 2042
1479 2803 2179
1443 2795 2328
1381 2798 2489
1310 2821 2659
1306 2903 2878
1346 3031 3123
1421 3179 3365
1523 3318 3572
1851 3293 2495
1869 3292 2627
1827 3283 2752
1746 3274 2873
1646 3273 2993
1618 3304 3143
1636 3370 3317
1699 3459 3496
1807 3557 3665
2273 3652 2857
2297 3658 2983
2253 3653 3091
2158 3640 3184
2032 3625 3270
1971 3629 3372
1950 3642 3480
1977 3672 3596
2057 3726 3721
2723 3879 3101
2747 3889 3216
2701 3889 3313
2600 3879 3394
2455 3862 3463
2358 3850 3534
2297 3843 3607
2268 3842 3680
2268 3846 3749
647 384 547
597 313 614
516 272 702
432 257 811
371 267 939
353 294 1147
345 331 1411
345 380 1721
349 445 2066
925 798 636
926 718 784
872 703 985
784 732 1202
681 786 1403
610 862 1638
565 960 1914
545 1081 2221
550 1223 2549
1130 1255 809
1146 1175 957
1126 1167 1202
1066 1215 1489
963 1305 1760
874 1425 2030
820 1569 2322
802 1735 2625
820 1919 2932
1312 1764 1100
1323 1693 1212
1326 1681 1450
1297 1725 1752
1216 1821 2056
1137 1970 2356
1095 2141 2656
1093 2326 2950
1134 2519 3229
1520 2333 1544
1524 2278 1631
1521 2265 1823
1497 2286 2073
1438 2331 2336
1387 2485 2646
1372 2657 2939
1396 2836 3212
1465 3014 3456
1833 2886 2061
1845 2854 2152
1845 2845 2312
1814 2853 2506
1730 2868 2698
1673 2935 2911
1668 3055 3151
1711 3199 3387
1795 3337 3589
2193 3331 2504
2218 3320 2609
2227 3319 2747
2192 3321 2896
2088 3317 3033
2008 3336 3175
1979 3393 3341
2006 3475 3515
2093 3571 3679
2582 3659 2851
2621 3668 2971
2639 3674 3094
2605 3675 3211
2489 3663 3310
2379 3659 3404
2311 3664 3504
2297 3687 3612
2350 3737 3733
2983 3866 3081
3032 3884 3207
3057 3897 3320
3027 3900 3417
2907 3890 3496
2774 3875 3563
2671 3864 3630
2599 3857 3696
2560 3855 3759
1046 564 772
941 463 842
813 390 931
670 347 1035
520 333 1146
476 350 1307
453 380 1537
448 425 1822
453 488 2149
1369 1002 834
1344 877 959
1264 833 1153
1137 852 1385
972 914 1620
848 971 1808
765 1051 2043
720 1156 2317
712 1287 2622
1601 1456 970
1603 1322 1081
1571 1277 1307
1493 1313 1610
1358 1428 1951
1200 1531 2183
1090 1659 2437
1031 1810 2708
1024 1984 2991
1775 1925 1195
1776 1803 1262
1776 1749 1467
1750 1776 1783
1675 1899 2181
1522 2040 2462
1416 2202 2740
1365 2381 3010
1375 2570 3271
1920 2410 1521
1921 2321 1555
1920 2277 1705
1920 2286 1972
1922 2354 2354
1804 2508 2677
1728 2681 2973
1705 2863 3241
1745 3042 3479
2200 2936 2043
2206 2879 2083
2208 2850 2205
2207 2853 2412
2207 2892 2707
2102 2955 2930
2044 3074 3173
2039 3219 3409
2092 3357 3606
2519 3353 2487
2541 3330 2555
2554 3319 2666
2559 3323 2828
2560 3345 3047
2441 3358 3194
2366 3411 3361
2349 3491 3533
2402 3586 3694
2855 3659 2830
2898 3665 2934
2926 3671 3047
2941 3680 3178
2947 3693 3334
2809 3684 3428
2703 3684 3525
2649 3703 3630
2667 3749 3747
3190 3847 3051
3250 3872 3182
3293 3892 3302
3320 3906 3416
3334 3916 3531
3189 3899 3593
3061 3885 3655
2954 3874 3716
2877 3866 3773
1609 845 1057
1447 734 1157
1256 638 1260
1051 563 1367
847 518 1481
709 515 1609
641 523 1781
619 548 2001
619 595 2277
1918 1288 1110
1870 1135 1219
1755 1067 1404
1591 1066 1632
1397 1111 1867
1218 1184 2068
1083 1242 2262
996 1309 2472
961 1406 2724
2141 1719 1223
2133 1548 1294
2086 1469 1489
1992 1479 1773
1842 1579 2108
1660 1721 2388
1496 1836 2618
1376 1949 2833
1326 2087 3068
2303 2144 1407
2298 1981 1424
2294 1883 1582
2265 1872 1863
2183 1973 2249
2032 2164 2602
1872 2327 2875
1748 2481 3103
1701 2646 3326
2429 2573 1673
2425 2440 1650
2423 2352 1750
2422 2317 1976
2424 2345 2334
2328 2549 2747
2202 2738 3059
2100 2916 3303
2075 3090 3515
2582 2990 2055
2580 2907 2038
2577 2851 2109
2576 2829 2278
2579 2846 2557
2545 2943 2902
2469 3083 3194
2406 3240 3436
2413 3387 3630
2816 3362 2454
2828 3324 2475
2836 3299 2543
2841 3291 2674
2846 3302 2883
2827 3341 3144
2763 3410 3361
2708 3502 3546
2721 3607 3711
3085 3653 2798
3119 3654 2872
3143 3656 2957
3160 3662 3069
3172 3671 3224
3149 3686 3403
3075 3694 3534
3002 3715 3644
2984 3767 3763
3343 3829 3016
3400 3858 3142
3444 3882 3255
3478 3901 3367
3503 3915 3490
3483 3918 3607
3398 3909 3684
3286 3894 3740
3188 3883 3792
2208 1181 1338
2019 1094 1496
1787 994 1632
1531 898 1755
1271 822 1872
1067 794 1988
940 787 2122
876 792 2281
862 803 2473
2469 1622 1408
2414 1470 1519
2281 1396 1707
2093 1381 1933
1873 1401 2158
1664 1464 2359
1497 1520 2534
1376 1569 2700
1303 1608 2873
2661 2024 1518
2655 1842 1563
2605 1743 1733
2504 1730 1992
2345 1806 2308
2156 1947 2593
1980 2072 2821
1830 2176 3010
1721 2255 3177
2799 2401 1676
2799 2217 1655
2801 2087 1767
2775 2041 2006
2693 2112 2363
2547 2302 2727
2385 2486 3012
2233 2645 3232
2114 2766 3402
2900 2766 1893
2904 2605 1821
2910 2481 1869
2916 2407 2048
2922 2393 2367
2837 2592 2795
2713 2807 3133
2583 3008 3388
2479 3163 3565
2988 3098 2176
2993 2989 2103
2998 2903 2120
3004 2849 2244
3012 2835 2493
3001 2923 2869
2935 3088 3210
2851 3276 3484
2785 3430 3664
3124 3401 2485
3134 3345 2453
3143 3302 2472
3151 3274 2564
3160 3268 2751
3174 3304 3051
3141 3392 3330
3091 3510 3566
3053 3634 3735
3294 3648 2770
3317 3641 2807
3337 3637 2855
3354 3637 2939
3368 3643 3081
3385 3662 3297
3364 3682 3490
3325 3719 3654
3283 3788 3784
3480 3815 2984
3530 3845 3101
3572 3871 3199
3607 3894 3299
3635 3911 3420
3658 3922 3565
3635 3923 3682
3572 3916 3767
3475 3902 3815
2781 1544 1583
2607 1520 1826
2370 1449 2018
2092 1354 2170
1796 1255 2296
1547 1199 2411
1362 1177 2524
1245 1170 2638
1204 1160 2758
2975 1978 1700
2931 1866 1840
2806 1812 2044
2620 1795 2272
2393 1792 2485
2173 1827 2671
1992 1879 2835
1852 1921 2974
1752 1929 3086
3120 2352 1829
3128 2192 1876
3092 2096 2031
3003 2069 2265
2852 2118 2550
2672 2228 2811
2507 2355 3034
2357 2462 3210
2222 2513 3330
3227 2680 1980
3243 2506 1944
3262 2362 2022
3252 2290 2216
3182 2327 2530
3052 2482 2862
2914 2670 3148
2771 2843 3369
2621 2951 3507
3304 2980 2160
3327 2814 2056
3352 2672 2063
3375 2567 2195
3392 2515 2468
3319 2671 2857
3221 2890 3203
3101 3113 3472
2958 3279 3634
3361 3240 2367
3386 3116 2250
3412 3007 2221
3436 2924 2301
3455 2877 2513
3447 2932 2866
3401 3101 3227
3321 3314 3531
3212 3500 3713
3419 3466 2573
3441 3396 2492
3464 3334 2465
3486 3287 2518
3506 3260 2677
3521 3277 2971
3516 3369 3293
3483 3511 3580
3414 3676 3771
3495 3655 2773
3519 3639 2767
3544 3627 2777
3568 3619 2830
3589 3617 2953
3607 3631 3177
3627 3657 3424
3626 3713 3650
3581 3814 3812
3607 3803 2960
3648 3833 3060
3687 3861 3139
3721 3886 3223
3750 3907 3334
3774 3918 3490
3797 3928 3648
3791 3931 3775
3728 3921 3843
3266 1905 1761
3159 1992 2117
2971 1992 2386
2720 1928 2586
2428 1828 2733
2147 1744 2844
1919 1699 2950
1754 1690 3053
1665 1713 3154
3385 2334 1956
3374 2310 2161
3291 2308 2400
3146 2309 2638
2950 2292 2838
2736 2288 2997
2553 2309 3140
2412 2350 3267
2327 2405 3379
3481 2684 2134
3511 2590 2216
3509 2527 2375
3459 2501 2588
3347 2522 2834
3193 2584 3051
3047 2673 3243
2924 2779 3406
2839 2891 3539
3555 2969 2298
3598 2841 2279
3644 2712 2342
3665 2627 2497
3630 2630 2759
3530 2729 3033
3419 2872 3280
3312 3044 3488
3226 3224 3649
3608 3206 2453
3663 3067 2346
3719 2929 2331
3771 2809 2427
3809 2726 2649
3761 2820 2974
3685 2988 3275
3597 3208 3533
3514 3456 3729
3643 3393 2590
3702 3278 2449
3762 3165 2391
3816 3066 2439
3858 2994 2615
3862 3011 2930
3825 3135 3256
3764 3343 3553
3693 3610 3782
3673 3553 2715
3729 3478 2593
3788 3406 2530
3841 3342 2552
3884 3296 2687
3904 3291 2965
3898 3355 3273
3868 3502 3572
3819 3740 3824
3701 3686 2831
3749 3662 2783
3799 3639 2756
3847 3620 2782
3887 3606 2889
3908 3609 3113
3920 3626 3368
3918 3694 3625
3898 3848 3855
3731 3795 2946
3762 3823 3024
3799 3852 3081
3835 3879 3145
3869 3902 3244
3891 3916 3405
3907 3925 3581
3922 3932 3745
3939 3939 3875
