Assets/1__3DArt/KimSe/artstation_asset/LUTs_subway_asset/3DL/Paranormal 05.3dl
# LUT by SparkleStock. Enhanced with VOXCOLOR algorithms.
0 64 128 192 256 320 384 448 512 576 640 704 768 832 896 960 1023
352 224 352
364 241 410
375 258 468
387 277 533
400 299 612
412 321 691
424 347 788
437 376 893
449 405 998
461 443 1123
473 481 1248
485 523 1377
496 572 1516
508 620 1654
520 677 1799
532 739 1949
544 801 2098
370 326 411
379 348 480
388 371 549
399 396 626
413 427 717
427 458 809
441 495 916
454 534 1031
468 574 1145
482 623 1277
496 672 1409
509 725 1543
523 784 1684
536 842 1825
550 909 1969
564 980 2114
577 1050 2260
388 428 469
395 455 550
402 483 630
411 515 718
427 555 823
442 596 927
457 643 1044
472 693 1169
487 742 1293
503 803 1431
518 863 1569
533 926 1710
549 996 1853
565 1065 1996
580 1141 2139
595 1220 2280
611 1299 2421
413 562 553
417 589 639
421 617 725
429 652 821
446 701 936
462 749 1050
479 805 1176
496 865 1309
513 925 1442
531 994 1585
549 1063 1729
566 1135 1872
584 1213 2017
602 1291 2161
620 1373 2300
638 1458 2437
656 1543 2574
450 758 687
451 777 768
452 797 849
459 828 943
476 881 1063
493 935 1183
513 998 1316
533 1065 1455
553 1133 1595
574 1208 1739
595 1283 1884
616 1360 2028
638 1441 2171
660 1522 2313
681 1606 2447
703 1692 2577
724 1778 2708
487 955 820
486 966 897
484 977 973
488 1003 1066
506 1062 1191
524 1120 1315
546 1190 1455
570 1266 1601
594 1342 1747
618 1422 1894
642 1503 2040
666 1585 2184
692 1669 2324
717 1754 2464
742 1840 2593
767 1926 2717
792 2012 2841
554 1202 1003
546 1204 1072
538 1206 1140
538 1225 1226
554 1279 1347
571 1333 1468
595 1400 1603
621 1474 1745
648 1547 1888
675 1631 2034
703 1714 2180
731 1798 2323
760 1883 2459
789 1967 2595
818 2050 2718
847 2133 2835
876 2216 2952
636 1475 1211
620 1468 1270
603 1461 1328
597 1470 1405
611 1515 1517
626 1559 1630
650 1618 1756
679 1685 1889
709 1752 2022
741 1837 2167
772 1922 2313
804 2006 2453
837 2088 2584
869 2171 2714
902 2250 2831
935 2328 2940
968 2406 3050
718 1748 1419
693 1731 1468
668 1715 1517
656 1716 1584
668 1750 1688
680 1785 1792
705 1836 1909
738 1897 2033
770 1957 2156
806 2043 2301
841 2130 2445
877 2214 2584
913 2294 2709
949 2374 2834
986 2449 2944
1022 2522 3046
1059 2595 3148
859 2033 1658
823 2011 1699
787 1989 1739
765 1983 1797
769 2008 1888
774 2032 1980
794 2073 2084
823 2123 2196
853 2173 2308
890 2242 2433
927 2311 2559
964 2382 2682
1003 2457 2801
1041 2532 2920
1080 2600 3023
1120 2665 3117
1159 2730 3212
1001 2317 1898
953 2291 1930
906 2264 1962
873 2251 2009
870 2265 2088
867 2280 2167
883 2310 2260
909 2349 2360
935 2388 2460
973 2440 2566
1012 2492 2672
1051 2549 2781
1093 2620 2893
1134 2690 3006
1175 2751 3101
1217 2808 3188
1259 2866 3276
1163 2583 2127
1104 2554 2153
1044 2524 2179
1000 2506 2218
989 2511 2284
977 2516 2351
987 2537 2431
1008 2566 2519
1028 2594 2607
1066 2631 2697
1104 2668 2786
1143 2713 2880
1186 2773 2982
1228 2834 3084
1271 2887 3172
1314 2936 3251
1357 2986 3331
1368 2813 2339
1295 2783 2361
1222 2754 2383
1165 2734 2417
1142 2733 2472
1119 2732 2528
1119 2744 2596
1132 2763 2670
1144 2782 2745
1177 2809 2823
1210 2837 2901
1245 2869 2981
1285 2910 3065
1326 2950 3149
1367 2992 3225
1410 3034 3297
1453 3076 3370
1573 3042 2551
1486 3013 2569
1400 2984 2588
1330 2962 2615
1295 2955 2660
1261 2947 2704
1252 2951 2760
1256 2960 2822
1259 2970 2883
1288 2987 2950
1316 3005 3017
1347 3024 3083
1385 3046 3148
1423 3067 3213
1464 3097 3278
1506 3132 3344
1548 3166 3409
1815 3211 2710
1714 3186 2730
1613 3160 2749
1530 3140 2775
1481 3129 2812
1432 3118 2849
1411 3116 2895
1403 3118 2946
1396 3120 2997
1415 3130 3053
1435 3140 3110
1460 3150 3165
1493 3161 3219
1526 3172 3273
1563 3191 3329
1602 3214 3386
1641 3237 3443
2077 3351 2844
1961 3331 2867
1845 3311 2889
1747 3293 2915
1683 3280 2946
1619 3267 2978
1584 3260 3016
1563 3256 3057
1542 3252 3098
1551 3255 3145
1561 3258 3192
1577 3261 3239
1604 3266 3285
1631 3270 3331
1663 3279 3379
1698 3289 3427
1733 3300 3475
2338 3491 2978
2207 3476 3003
2077 3461 3029
1964 3446 3055
1885 3431 3080
1806 3415 3106
1757 3404 3136
1723 3394 3168
1688 3384 3200
1688 3380 3237
1687 3376 3274
1694 3372 3312
1715 3370 3350
1736 3369 3389
1764 3366 3428
1794 3364 3468
1825 3362 3507
401 258 394
406 268 445
411 279 496
417 292 557
428 312 636
439 332 715
451 358 813
463 386 919
475 415 1026
487 454 1153
500 494 1280
513 536 1411
525 586 1551
538 636 1690
550 695 1835
563 759 1983
576 822 2131
434 386 469
437 401 535
441 417 601
447 436 674
457 462 762
468 488 850
480 522 954
492 559 1067
504 596 1180
518 644 1311
532 693 1442
545 745 1576
560 805 1717
574 864 1858
588 932 2000
603 1003 2144
618 1074 2288
467 514 544
469 534 625
471 555 706
476 579 792
487 612 888
497 644 984
509 685 1095
522 731 1214
534 776 1333
549 834 1469
563 892 1604
578 954 1742
594 1024 1884
610 1093 2025
626 1168 2165
643 1247 2305
659 1325 2444
505 665 640
505 687 730
506 710 820
510 737 914
520 775 1017
529 812 1119
542 860 1237
556 913 1362
570 966 1487
586 1032 1625
602 1098 1764
619 1168 1903
637 1245 2045
655 1322 2187
674 1403 2324
693 1487 2458
712 1571 2593
552 864 776
550 882 865
549 900 953
551 924 1046
560 963 1151
568 1002 1256
582 1055 1378
599 1115 1508
615 1175 1639
635 1246 1779
654 1318 1918
674 1392 2058
696 1472 2197
717 1552 2336
740 1635 2468
763 1719 2597
787 1804 2726
599 1062 913
596 1076 1000
592 1089 1086
593 1111 1179
600 1151 1285
607 1192 1392
622 1250 1518
642 1317 1655
661 1384 1791
684 1460 1932
706 1537 2072
729 1615 2212
755 1698 2349
780 1782 2486
807 1866 2613
834 1952 2736
861 2037 2858
676 1306 1095
669 1314 1176
662 1321 1256
658 1338 1344
662 1373 1446
666 1408 1548
681 1462 1669
701 1526 1800
722 1590 1932
748 1669 2072
774 1748 2212
801 1827 2349
830 1910 2482
859 1993 2615
890 2075 2736
921 2158 2852
952 2241 2967
769 1572 1299
757 1573 1372
745 1575 1446
736 1585 1526
736 1611 1620
735 1638 1713
749 1684 1825
769 1740 1945
790 1795 2066
820 1875 2205
850 1954 2344
880 2034 2479
913 2114 2606
946 2195 2733
980 2273 2848
1015 2351 2956
1051 2429 3065
862 1837 1503
845 1833 1569
828 1828 1636
815 1831 1709
809 1849 1794
804 1868 1879
816 1905 1980
837 1953 2090
859 2000 2201
892 2080 2338
926 2161 2476
960 2240 2608
996 2319 2730
1033 2397 2852
1071 2471 2960
1110 2544 3061
1149 2617 3162
1012 2110 1732
988 2101 1792
964 2093 1851
943 2091 1915
930 2101 1989
917 2111 2063
923 2140 2154
939 2178 2253
955 2216 2352
987 2279 2470
1020 2341 2589
1054 2408 2706
1093 2481 2821
1133 2553 2937
1173 2621 3038
1215 2686 3132
1257 2751 3225
1163 2382 1962
1132 2370 2014
1100 2358 2065
1072 2351 2121
1051 2353 2184
1029 2355 2248
1029 2375 2327
1040 2403 2415
1052 2432 2503
1083 2477 2602
1114 2522 2701
1148 2575 2804
1190 2643 2913
1232 2710 3022
1276 2771 3116
1320 2828 3202
1364 2886 3289
1333 2637 2182
1294 2622 2227
1255 2607 2272
1218 2596 2320
1188 2591 2373
1157 2587 2427
1150 2598 2496
1155 2617 2572
1160 2637 2649
1188 2668 2732
1217 2698 2814
1249 2738 2902
1291 2796 3001
1334 2853 3100
1378 2906 3186
1424 2956 3265
1470 3005 3344
1541 2854 2383
1493 2839 2423
1445 2824 2464
1400 2811 2505
1359 2802 2550
1318 2794 2595
1301 2799 2654
1297 2810 2719
1293 2821 2785
1315 2843 2856
1337 2865 2928
1364 2893 3003
1401 2931 3083
1438 2970 3164
1481 3011 3238
1526 3053 3310
1572 3095 3382
1750 3072 2584
1693 3056 2620
1636 3041 2655
1581 3026 2690
1530 3014 2727
1478 3001 2764
1452 2999 2812
1439 3002 2866
1426 3006 2920
1441 3019 2981
1457 3032 3042
1478 3047 3103
1510 3067 3165
1542 3086 3227
1583 3115 3291
1628 3150 3356
1674 3184 3421
1988 3233 2736
1922 3219 2769
1856 3205 2802
1791 3191 2835
1728 3177 2867
1664 3164 2899
1627 3157 2940
1603 3155 2985
1579 3153 3030
1585 3159 3082
1591 3165 3133
1604 3172 3184
1629 3181 3235
1655 3190 3286
1690 3208 3341
1730 3231 3397
1770 3254 3453
2241 3366 2863
2166 3355 2896
2090 3344 2928
2015 3332 2960
1940 3318 2989
1864 3304 3018
1815 3295 3052
1778 3288 3090
1742 3281 3128
1737 3281 3170
1733 3281 3213
1736 3282 3256
1754 3285 3300
1771 3287 3343
1799 3295 3389
1831 3305 3436
1864 3315 3483
2494 3499 2990
2409 3490 3022
2325 3482 3054
2239 3472 3084
2151 3458 3110
2064 3444 3136
2002 3432 3165
1953 3421 3195
1905 3409 3225
1890 3403 3259
1875 3397 3294
1868 3392 3329
1878 3388 3365
1888 3385 3401
1908 3381 3437
1933 3379 3475
1957 3376 3512
450 292 435
448 295 480
446 299 524
448 307 580
457 325 660
466 343 739
477 368 838
488 397 946
500 425 1054
513 465 1183
527 506 1312
540 550 1445
554 601 1586
567 653 1727
581 713 1871
594 778 2018
608 844 2165
498 446 527
496 454 590
493 463 653
494 475 723
502 497 806
509 518 890
519 548 992
530 583 1103
541 618 1214
554 666 1345
568 714 1475
582 766 1609
596 826 1750
611 886 1890
627 954 2032
642 1026 2174
658 1098 2316
546 599 619
543 613 700
541 627 781
541 644 865
547 668 953
553 693 1041
561 728 1146
571 769 1260
582 810 1374
595 866 1507
609 922 1639
623 982 1774
639 1051 1914
655 1120 2054
672 1195 2192
690 1273 2330
708 1351 2467
597 768 726
594 786 820
591 803 914
590 822 1007
593 848 1098
597 874 1188
605 914 1297
615 961 1414
626 1008 1532
641 1071 1665
655 1134 1799
671 1201 1935
689 1277 2074
707 1352 2213
727 1433 2347
748 1515 2479
769 1598 2612
654 969 866
650 986 961
646 1002 1056
643 1021 1149
643 1045 1239
643 1069 1328
652 1112 1440
664 1165 1561
677 1217 1683
695 1285 1818
713 1352 1952
732 1423 2087
754 1502 2223
775 1581 2360
799 1663 2490
824 1747 2617
849 1830 2744
711 1170 1007
706 1186 1102
701 1202 1198
697 1219 1292
693 1241 1380
689 1263 1468
698 1309 1582
713 1368 1709
729 1427 1835
749 1499 1970
770 1571 2105
792 1646 2239
818 1727 2373
844 1809 2507
872 1893 2633
901 1978 2754
930 2063 2875
798 1410 1186
792 1423 1280
786 1436 1373
779 1451 1463
770 1467 1545
761 1483 1628
767 1525 1735
782 1579 1855
796 1633 1976
820 1707 2109
844 1781 2243
870 1857 2376
900 1938 2505
929 2019 2635
961 2100 2754
994 2183 2869
1027 2265 2983
902 1668 1386
894 1678 1475
887 1689 1564
876 1699 1648
860 1708 1722
845 1717 1796
847 1750 1893
859 1794 2002
872 1838 2110
899 1912 2243
927 1986 2375
957 2062 2504
990 2140 2628
1023 2219 2752
1059 2297 2865
1096 2374 2972
1134 2452 3079
1005 1926 1586
996 1934 1671
987 1941 1755
973 1947 1833
951 1949 1899
928 1951 1965
928 1974 2051
937 2009 2148
947 2043 2245
978 2118 2376
1010 2192 2506
1043 2267 2632
1080 2343 2751
1117 2419 2870
1157 2493 2976
1198 2566 3076
1240 2639 3176
1165 2187 1807
1153 2192 1884
1141 2197 1962
1122 2199 2033
1091 2195 2090
1060 2191 2147
1051 2207 2223
1054 2233 2310
1058 2259 2396
1085 2316 2507
1113 2372 2618
1144 2434 2730
1184 2504 2842
1224 2575 2954
1266 2642 3053
1311 2707 3146
1355 2772 3239
1325 2447 2027
1310 2450 2098
1295 2452 2169
1271 2450 2232
1231 2440 2280
1191 2430 2328
1175 2439 2395
1172 2457 2471
1168 2475 2547
1192 2514 2639
1216 2553 2731
1246 2600 2827
1288 2666 2933
1331 2731 3039
1376 2791 3131
1423 2848 3216
1470 2906 3302
1502 2690 2237
1484 2690 2302
1465 2690 2366
1437 2686 2423
1387 2671 2463
1338 2657 2503
1314 2659 2560
1303 2669 2626
1292 2679 2691
1310 2704 2767
1329 2728 2843
1355 2763 2925
1397 2818 3020
1439 2873 3116
1485 2925 3200
1534 2975 3278
1582 3025 3356
1715 2896 2428
1692 2895 2486
1669 2894 2544
1634 2888 2594
1575 2872 2629
1517 2856 2663
1483 2853 2712
1462 2857 2768
1442 2861 2824
1453 2877 2889
1463 2894 2955
1482 2917 3024
1516 2953 3101
1550 2989 3178
1594 3029 3252
1642 3071 3323
1691 3113 3394
1927 3102 2618
1900 3100 2670
1873 3098 2721
1832 3090 2765
1764 3073 2794
1695 3055 2823
1652 3047 2864
1622 3045 2910
1592 3042 2957
1595 3051 3012
1598 3059 3067
1608 3071 3123
1635 3088 3182
1661 3105 3241
1702 3133 3304
1751 3168 3368
1800 3202 3433
2160 3255 2762
2130 3253 2808
2099 3250 2855
2052 3243 2895
1974 3226 2922
1896 3209 2949
1843 3199 2984
1802 3192 3024
1761 3186 3063
1755 3188 3110
1748 3190 3156
1749 3194 3203
1766 3201 3251
1784 3208 3299
1817 3225 3352
1858 3248 3408
1899 3271 3463
2405 3381 2882
2370 3379 2924
2335 3377 2967
2283 3370 3004
2196 3356 3031
2109 3341 3058
2045 3330 3089
1993 3320 3123
1941 3310 3157
1923 3307 3196
1905 3304 3235
1896 3303 3274
1904 3303 3315
1912 3304 3356
1935 3311 3399
1965 3321 3445
1994 3330 3490
2649 3507 3002
2611 3505 3040
2572 3503 3079
2514 3498 3113
2418 3485 3140
2321 3473 3166
2247 3460 3194
2184 3448 3222
2122 3435 3250
2092 3427 3282
2063 3418 3313
2043 3411 3345
2042 3406 3379
2040 3401 3412
2052 3397 3446
2071 3393 3482
2090 3390 3517
514 337 491
504 334 531
493 330 570
488 332 621
493 346 698
498 360 774
507 383 871
517 411 978
528 438 1085
542 479 1215
556 520 1345
570 564 1479
584 617 1620
598 670 1762
612 732 1906
626 799 2052
640 866 2197
575 513 595
566 515 656
557 517 716
551 524 782
553 539 861
556 554 939
562 580 1037
571 611 1144
580 643 1252
593 690 1381
606 736 1511
620 788 1644
635 848 1784
650 909 1923
666 977 2064
682 1050 2204
