Assets/1__3DArt/KimSe/artstation_asset/LUTs_subway_asset/3DL/Paranormal 05.3dl
# LUT by SparkleStock. Enhanced with VOXCOLOR algorithms.
0 128 256 384 512 640 768 896 1023
352 224 352
375 258 468
400 299 612
424 347 788
449 405 998
473 481 1248
496 572 1516
520 677 1799
544 801 2098
388 428 469
402 483 630
427 555 823
457 643 1044
487 742 1293
518 863 1569
549 996 1853
580 1141 2139
611 1299 2421
450 758 687
452 797 849
476 881 1063
513 998 1316
553 1133 1595
595 1283 1884
638 1441 2171
681 1606 2447
724 1778 2708
554 1202 1003
538 1206 1140
554 1279 1347
595 1400 1603
648 1547 1888
703 1714 2180
760 1883 2459
818 2050 2718
876 2216 2952
718 1748 1419
668 1715 1517
668 1750 1688
705 1836 1909
770 1957 2156
841 2130 2445
913 2294 2709
986 2449 2944
1059 2595 3148
1001 2317 1898
906 2264 1962
870 2265 2088
883 2310 2260
935 2388 2460
1012 2492 2672
1093 2620 2893
1175 2751 3101
1259 2866 3276
1368 2813 2339
1222 2754 2383
1142 2733 2472
1119 2744 2596
1144 2782 2745
1210 2837 2901
1285 2910 3065
1367 2992 3225
1453 3076 3370
1815 3211 2710
1613 3160 2749
1481 3129 2812
1411 3116 2895
1396 3120 2997
1435 3140 3110
1493 3161 3219
1563 3191 3329
1641 3237 3443
2338 3491 2978
2077 3461 3029
1885 3431 3080
1757 3404 3136
1688 3384 3200
1687 3376 3274
1715 3370 3350
1764 3366 3428
1825 3362 3507
450 292 435
446 299 524
457 325 660
477 368 838
500 425 1054
527 506 1312
554 601 1586
581 713 1871
608 844 2165
546 599 619
541 627 781
547 668 953
561 728 1146
582 810 1374
609 922 1639
639 1051 1914
672 1195 2192
708 1351 2467
654 969 866
646 1002 1056
643 1045 1239
652 1112 1440
677 1217 1683
713 1352 1952
754 1502 2223
799 1663 2490
849 1830 2744
798 1410 1186
786 1436 1373
770 1467 1545
767 1525 1735
796 1633 1976
844 1781 2243
900 1938 2505
961 2100 2754
1027 2265 2983
1005 1926 1586
987 1941 1755
951 1949 1899
928 1974 2051
947 2043 2245
1010 2192 2506
1080 2343 2751
1157 2493 2976
1240 2639 3176
1325 2447 2027
1295 2452 2169
1231 2440 2280
1175 2439 2395
1168 2475 2547
1216 2553 2731
1288 2666 2933
1376 2791 3131
1470 2906 3302
1715 2896 2428
1669 2894 2544
1575 2872 2629
1483 2853 2712
1442 2861 2824
1463 2894 2955
1516 2953 3101
1594 3029 3252
1691 3113 3394
2160 3255 2762
2099 3250 2855
1974 3226 2922
1843 3199 2984
1761 3186 3063
1748 3190 3156
1766 3201 3251
1817 3225 3352
1899 3271 3463
2649 3507 3002
2572 3503 3079
2418 3485 3140
2247 3460 3194
2122 3435 3250
2063 3418 3313
2042 3406 3379
2052 3397 3446
2090 3390 3517
608 404 576
565 384 650
544 385 762
543 408 919
562 457 1126
588 537 1381
617 635 1655
646 752 1939
675 889 2228
751 786 793
718 793 954
695 805 1105
684 834 1270
691 891 1472
710 988 1720
735 1109 1983
766 1250 2253
802 1406 2521
901 1181 1045
881 1206 1245
859 1225 1414
844 1257 1586
844 1323 1790
864 1434 2032
894 1568 2284
934 1720 2538
983 1883 2784
1081 1610 1352
1072 1643 1557
1049 1661 1726
1025 1689 1890
1016 1748 2082
1042 1865 2317
1083 2002 2556
1136 2153 2791
1202 2311 3011
1311 2091 1729
1309 2122 1924
1278 2133 2075
1235 2139 2210
1199 2159 2351
1237 2273 2576
1290 2402 2798
1359 2540 3008
1442 2682 3201
1643 2563 2134
1645 2590 2305
1604 2592 2433
1540 2584 2539
1473 2581 2646
1478 2630 2799
1527 2722 2978
1606 2835 3162
1699 2947 3326
2027 2967 2497
2031 2988 2642
1980 2985 2748
1895 2969 2832
1797 2952 2912
1768 2963 3017
1787 3006 3144
1847 3072 3282
1943 3153 3419
2444 3288 2796
2450 3304 2917
2391 3300 3005
2287 3283 3074
2159 3258 3134
2095 3249 3210
2071 3249 3290
2093 3266 3381
2167 3309 3486
2875 3513 3010
2884 3525 3110
2818 3524 3188
2700 3512 3250
2547 3488 3303
2446 3467 3357
2382 3449 3414
2355 3435 3473
2361 3425 3535
839 570 772
748 526 841
681 496 930
643 490 1055
640 516 1231
664 587 1471
690 681 1732
719 798 2008
749 936 2291
1019 1002 996
954 994 1157
894 982 1294
850 980 1433
831 1005 1602
836 1079 1823
851 1183 2066
875 1313 2322
906 1466 2580
1200 1410 1237
1164 1425 1438
1123 1431 1604
1085 1441 1760
1056 1467 1927
1051 1543 2134
1062 1651 2360
1088 1786 2596
1129 1942 2830
1398 1817 1516
1387 1844 1721
1366 1863 1899
1334 1879 2059
1293 1899 2214
1286 1975 2410
1300 2083 2620
1336 2214 2834
1392 2362 3044
1627 2243 1850
1631 2274 2045
1619 2295 2215
1585 2305 2357
1522 2299 2471
1519 2372 2657
1543 2472 2850
1593 2593 3043
1666 2726 3227
1948 2667 2219
1963 2695 2393
1959 2715 2544
1921 2721 2666
1835 2704 2756
1791 2722 2876
1805 2789 3030
1862 2884 3196
1944 2989 3352
2305 3027 2546
2329 3052 2699
2332 3070 2830
2292 3073 2934
2189 3052 3005
2111 3043 3086
2090 3067 3192
2122 3120 3315
2205 3194 3445
2676 3312 2813
2707 3335 2947
2717 3351 3060
2679 3353 3148
2564 3334 3208
2460 3315 3268
2396 3304 3335
2385 3313 3414
2438 3350 3512
3036 3513 3004
3075 3533 3122
3093 3547 3220
3059 3551 3297
2942 3540 3356
2817 3518 3405
2722 3497 3454
2660 3479 3505
2634 3464 3558
1160 801 1019
1010 734 1095
890 677 1176
800 636 1272
743 618 1389
757 667 1595
779 747 1830
805 854 2086
834 988 2355
1366 1262 1233
1270 1243 1401
1170 1215 1535
1082 1188 1655
1019 1175 1781
1003 1210 1960
1002 1284 2169
1012 1393 2399
1033 1533 2640
1559 1673 1457
1504 1677 1658
1438 1674 1823
1370 1668 1968
1311 1664 2107
1275 1692 2269
1260 1763 2459
1264 1872 2667
1288 2011 2884
1748 2044 1695
1726 2058 1894
1695 2073 2072
1657 2084 2232
1612 2090 2377
1563 2116 2529
1542 2186 2704
1550 2291 2893
1585 2424 3088
1943 2384 1949
1949 2410 2142
1945 2430 2314
1933 2447 2468
1911 2461 2604
1856 2487 2749
1839 2554 2911
1857 2652 3082
1910 2773 3255
2238 2761 2281
2258 2786 2457
2266 2807 2613
2261 2825 2751
2243 2840 2873
2149 2828 2961
2119 2866 3087
2140 2939 3233
2200 3033 3379
2553 3078 2574
2587 3104 2734
2606 3125 2873
2610 3143 2995
2599 3158 3102
2481 3132 3160
2418 3137 3246
2413 3172 3353
2470 3237 3473
2866 3331 2814
2912 3356 2958
2942 3377 3082
2955 3395 3190
2954 3408 3283
2826 3383 3330
2729 3365 3384
2683 3364 3452
2707 3393 3540
3154 3510 2984
3209 3535 3117
3248 3555 3231
3272 3572 3327
3283 3586 3409
3158 3568 3454
3047 3547 3498
2957 3526 3541
2899 3508 3586
1610 1120 1295
1417 1049 1400
1240 974 1491
1089 906 1582
975 860 1683
927 864 1822
918 903 2001
934 976 2211
956 1083 2443
1813 1568 1479
1703 1550 1665
1570 1514 1806
1439 1474 1926
1333 1446 2045
1274 1448 2179
1239 1476 2337
1224 1538 2518
1224 1640 2720
1996 1955 1673
1934 1957 1880
1853 1950 2051
1763 1939 2198
1673 1928 2333
1614 1935 2468
1564 1960 2613
1531 2015 2773
1522 2114 2954
2164 2291 1878
2133 2298 2076
2099 2309 2256
2054 2319 2418
1992 2324 2563
1939 2339 2701
1884 2365 2838
1845 2418 2984
1840 2513 3147
2328 2589 2098
2324 2602 2283
2316 2615 2451
2303 2631 2606
2286 2651 2750
2244 2674 2890
2193 2704 3022
2159 2756 3156
2167 2845 3304
2519 2862 2340
2535 2880 2511
2544 2896 2667
2547 2913 2808
2543 2931 2939
2510 2943 3050
2465 2966 3164
2439 3012 3284
2462 3088 3416
2763 3123 2584
2796 3144 2742
2819 3163 2885
2834 3180 3013
2840 3198 3130
2810 3207 3222
2751 3212 3307
2709 3231 3396
2730 3284 3505
3019 3346 2798
3065 3370 2946
3100 3390 3078
3125 3409 3194
3141 3427 3298
3114 3437 3380
3039 3426 3438
2970 3417 3495
2960 3436 3573
3245 3507 2952
3300 3532 3094
3345 3554 3218
3380 3574 3326
3406 3593 3421
3390 3605 3495
3316 3595 3545
3220 3573 3583
3140 3550 3620
2097 1462 1545
1896 1410 1698
1685 1336 1814
1483 1255 1911
1307 1185 2004
1198 1157 2111
1139 1164 2243
1119 1199 2397
1128 1257 2570
2280 1873 1697
2178 1865 1906
2032 1835 2065
1872 1795 2195
1727 1758 2312
1628 1743 2427
1561 1747 2553
1516 1771 2688
1486 1813 2836
2437 2221 1861
2385 2226 2077
2305 2224 2258
2205 2216 2412
2091 2204 2550
2010 2204 2675
1944 2213 2798
1887 2234 2923
1834 2270 3052
2577 2517 2036
2547 2521 2234
2518 2531 2417
2475 2543 2583
2406 2551 2732
2345 2565 2866
2287 2582 2990
2229 2605 3109
2170 2642 3227
2705 2772 2223
2696 2777 2402
2688 2786 2569
2680 2801 2725
2673 2824 2875
2634 2850 3015
2589 2875 3141
2539 2904 3257
2488 2943 3368
2830 2981 2413
2839 2991 2578
2848 3002 2731
2855 3016 2873
2862 3036 3010
2857 3062 3134
2830 3089 3252
2794 3122 3364
2761 3162 3468
2987 3183 2606
3013 3197 2760
3035 3211 2901
3054 3226 3032
3071 3245 3155
3081 3269 3266
3058 3287 3364
3023 3307 3456
2998 3339 3547
3162 3363 2782
3199 3381 2929
3233 3399 3062
3263 3416 3184
3288 3435 3296
3304 3458 3396
3280 3466 3474
3238 3470 3541
3199 3480 3608
3335 3507 2921
3384 3530 3066
3428 3552 3195
3467 3572 3311
3500 3592 3416
3526 3616 3507
3509 3626 3578
3454 3620 3628
3365 3591 3658
2579 1797 1746
2409 1790 1963
2198 1739 2120
1967 1664 2236
1741 1583 2332
1574 1534 2426
1455 1516 2526
1385 1521 2635
1365 1541 2754
2726 2154 1872
2653 2166 2107
2522 2158 2295
2359 2133 2446
2188 2098 2570
2056 2076 2681
1958 2071 2789
1887 2074 2895
1833 2078 2999
2850 2454 2012
2819 2468 2237
2756 2477 2432
2665 2482 2600
2546 2479 2746
2448 2481 2872
2374 2491 2989
2309 2499 3096
2237 2498 3191
2955 2707 2162
2937 2714 2363
2921 2726 2549
2890 2742 2719
2827 2759 2876
2763 2780 3013
2714 2804 3139
2660 2822 3250
2584 2825 3340
3047 2922 2321
3040 2925 2498
3036 2932 2664
3037 2946 2822
3044 2971 2976
3011 3004 3120
2986 3040 3252
2950 3068 3367
2880 3080 3457
3128 3094 2482
3133 3098 2641
3140 3104 2790
3151 3116 2933
3168 3137 3072
3178 3170 3205
3179 3208 3334
3159 3242 3449
3107 3263 3540
3211 3247 2633
3227 3254 2781
3245 3263 2919
3265 3275 3050
3288 3293 3176
3314 3322 3297
3331 3355 3412
3327 3387 3517
3291 3411 3604
3308 3385 2773
3334 3397 2914
3362 3410 3046
3391 3424 3169
3419 3442 3286
3447 3467 3395
3473 3495 3495
3478 3519 3583
3443 3533 3655
3432 3512 2896
3467 3530 3038
3503 3548 3168
3539 3567 3287
3575 3588 3399
3606 3612 3498
3635 3640 3590
3633 3653 3662
3573 3635 3701
3010 2098 1873
2919 2161 2169
2750 2161 2384
2528 2115 2537
2277 2044 2646
2054 1980 2734
1880 1944 2823
1755 1940 2915
1681 1969 3010
3113 2389 1988
3091 2431 2252
3007 2461 2478
2874 2471 2663
2706 2453 2804
2546 2430 2915
2421 2421 3020
2332 2430 3122
2282 2459 3224
3199 2637 2116
3200 2664 2349
3173 2693 2561
3114 2720 2750
3017 2740 2914
2912 2748 3043
2830 2763 3163
2773 2786 3275
2744 2819 3381
3270 2848 2253
3270 2864 2456
3274 2879 2643
3266 2902 2819
3231 2938 2990
3175 2969 3133
3130 3002 3264
3101 3039 3384
3091 3079 3495
3327 3030 2392
3328 3037 2568
3334 3045 2733
3348 3058 2891
3371 3081 3047
3356 3125 3198
3344 3172 3336
3340 3219 3463
3348 3267 3579
3373 3176 2528
3378 3178 2684
3387 3183 2831
3403 3192 2974
3429 3211 3114
3456 3248 3253
3473 3294 3390
3488 3344 3519
3510 3398 3638
3420 3303 2657
3430 3306 2798
3443 3310 2933
3463 3319 3063
3490 3335 3192
3530 3368 3319
3565 3408 3444
3597 3454 3567
3628 3507 3686
3473 3417 2776
3487 3423 2910
3506 3430 3037
3529 3441 3159
3559 3457 3279
3596 3486 3394
3636 3519 3505
3676 3557 3613
3711 3600 3722
3539 3523 2882
3555 3533 3015
3578 3546 3140
3607 3562 3259
3639 3581 3374
3672 3606 3479
3704 3632 3578
3734 3659 3667
3763 3683 3747
