Assets/1__3DArt/KimSe/artstation_asset/LUTs_subway_asset/3DL/Paranormal 04_S.3dl
# LUT by SparkleStock. Enhanced with VOXCOLOR algorithms.
0 64 128 192 256 320 384 448 512 576 640 704 768 832 896 960 1023
272 288 352
281 297 406
289 307 461
296 318 517
299 331 578
302 345 640
304 362 711
305 382 787
307 401 863
308 427 956
310 453 1048
312 482 1148
316 516 1261
320 550 1374
325 589 1507
330 630 1650
336 672 1793
287 389 418
292 407 479
296 426 539
301 446 603
305 469 676
310 492 749
313 520 832
316 551 918
319 581 1005
323 619 1108
326 657 1210
330 698 1319
335 744 1440
340 791 1561
346 842 1698
353 896 1843
360 951 1989
302 490 485
303 517 551
304 544 617
306 574 689
312 607 774
318 640 859
323 679 952
327 720 1050
332 762 1147
337 812 1260
341 862 1372
347 914 1490
353 973 1619
360 1031 1748
368 1095 1889
375 1162 2037
383 1229 2184
321 618 571
318 650 639
315 681 707
315 716 784
321 759 879
328 803 974
334 851 1078
340 903 1185
346 954 1292
353 1015 1413
359 1075 1534
366 1138 1660
374 1207 1794
382 1276 1929
391 1350 2072
400 1426 2220
409 1503 2368
347 803 696
341 828 759
334 852 822
332 886 898
338 940 1000
343 994 1101
350 1052 1212
357 1112 1328
365 1171 1443
373 1240 1570
382 1308 1696
390 1378 1825
400 1453 1961
409 1528 2097
419 1606 2239
429 1686 2383
440 1767 2528
372 987 820
363 1005 879
354 1023 938
350 1057 1013
354 1121 1120
359 1186 1228
366 1252 1347
375 1321 1471
384 1389 1595
394 1464 1726
404 1540 1857
414 1618 1991
425 1699 2128
435 1780 2266
447 1863 2405
458 1947 2546
470 2030 2687
417 1222 985
402 1232 1036
386 1242 1088
377 1269 1157
379 1331 1262
382 1394 1367
389 1462 1485
400 1534 1610
410 1605 1735
422 1685 1869
434 1764 2003
446 1845 2138
459 1928 2274
471 2012 2411
485 2095 2546
498 2178 2681
512 2261 2816
472 1481 1169
449 1482 1213
425 1483 1256
409 1502 1318
409 1556 1415
409 1611 1512
417 1677 1626
429 1749 1748
441 1822 1870
454 1903 2005
468 1984 2140
482 2066 2275
497 2150 2409
512 2233 2543
528 2315 2674
544 2395 2802
560 2476 2930
527 1740 1353
495 1732 1389
463 1725 1424
441 1735 1478
439 1782 1567
436 1828 1657
444 1892 1766
457 1965 1886
471 2038 2005
486 2121 2142
502 2204 2278
518 2287 2413
535 2371 2545
553 2455 2676
571 2535 2801
590 2612 2923
608 2690 3044
636 2021 1567
589 2008 1595
543 1995 1623
508 1998 1669
497 2034 1747
487 2070 1826
491 2124 1925
503 2186 2034
515 2249 2143
534 2321 2267
553 2394 2390
572 2469 2515
593 2547 2642
613 2626 2769
635 2700 2887
658 2772 3001
680 2843 3115
745 2302 1781
684 2283 1802
622 2265 1823
575 2261 1859
556 2287 1927
538 2313 1995
539 2356 2084
549 2408 2182
559 2459 2281
581 2522 2392
604 2584 2503
626 2650 2617
650 2723 2740
673 2797 2862
699 2865 2973
725 2931 3079
752 2997 3186
884 2569 1994
806 2547 2008
727 2525 2022
665 2516 2050
636 2532 2107
607 2549 2165
602 2582 2242
608 2623 2330
614 2664 2417
639 2716 2516
663 2768 2615
688 2824 2718
715 2889 2831
741 2953 2945
771 3014 3048
802 3073 3147
833 3132 3246
1083 2810 2202
983 2787 2212
884 2765 2221
803 2754 2242
758 2763 2289
714 2772 2335
698 2795 2401
695 2825 2475
693 2856 2550
716 2897 2638
739 2939 2725
765 2982 2816
795 3031 2912
825 3080 3008
860 3130 3102
896 3182 3194
932 3232 3287
1281 3050 2411
1161 3028 2416
1040 3006 2420
940 2991 2435
880 2993 2471
820 2994 2506
793 3008 2559
782 3028 2621
772 3048 2683
794 3079 2759
815 3109 2836
841 3141 2913
875 3174 2992
909 3207 3071
948 3247 3155
989 3290 3241
1030 3333 3327
1567 3236 2601
1423 3217 2603
1280 3199 2604
1157 3185 2613
1076 3182 2639
996 3178 2665
952 3185 2706
926 3196 2755
901 3208 2804
916 3229 2869
930 3251 2933
952 3273 2999
987 3296 3067
1021 3319 3134
1062 3349 3207
1106 3381 3283
1150 3413 3358
1896 3396 2782
1728 3382 2781
1560 3368 2780
1413 3357 2785
1309 3350 2802
1206 3343 2818
1142 3343 2848
1098 3348 2884
1055 3352 2920
1060 3365 2972
1065 3378 3025
1079 3392 3079
1113 3408 3138
1147 3424 3197
1189 3443 3259
1234 3463 3321
1279 3484 3384
2226 3555 2962
2033 3546 2959
1841 3538 2957
1670 3529 2957
1542 3518 2964
1415 3507 2971
1332 3502 2989
1271 3499 3012
1209 3496 3036
1204 3500 3076
1199 3505 3116
1207 3511 3160
1240 3520 3210
1273 3528 3260
1315 3537 3310
1362 3546 3360
1409 3555 3410
322 314 396
327 315 443
332 316 491
335 321 542
336 333 600
337 346 659
337 363 728
338 383 804
338 403 879
339 431 973
341 458 1067
344 489 1169
348 524 1284
353 560 1399
358 602 1533
365 647 1676
371 692 1818
357 435 460
360 444 518
364 453 576
366 466 638
367 486 708
368 507 778
368 533 859
368 563 944
368 592 1029
370 631 1132
372 670 1234
375 711 1344
380 759 1465
386 807 1587
393 860 1724
401 916 1869
409 973 2014
391 556 524
393 573 592
396 590 661
398 611 734
398 639 816
398 668 898
398 703 989
398 742 1084
398 781 1179
400 831 1290
402 881 1402
406 934 1518
412 994 1647
419 1053 1775
428 1118 1916
438 1186 2062
448 1254 2209
426 700 610
426 721 684
427 743 758
427 769 838
427 805 929
426 840 1021
426 884 1121
426 932 1225
427 980 1329
430 1040 1448
433 1100 1566
438 1163 1690
445 1232 1823
453 1302 1956
463 1376 2098
475 1453 2245
486 1529 2392
462 889 741
460 907 811
457 926 880
454 952 958
451 994 1053
448 1037 1148
448 1088 1254
451 1144 1367
453 1199 1479
458 1266 1603
463 1333 1726
470 1403 1854
479 1478 1988
488 1553 2123
500 1632 2263
513 1712 2407
526 1793 2550
499 1078 873
493 1093 937
487 1109 1002
481 1135 1078
475 1184 1176
470 1233 1275
471 1291 1388
475 1355 1509
479 1418 1629
486 1492 1758
493 1566 1886
502 1643 2018
513 1724 2154
523 1805 2290
537 1888 2428
551 1972 2569
565 2056 2709
557 1312 1042
546 1323 1101
536 1334 1160
525 1357 1231
516 1403 1324
506 1448 1418
506 1506 1529
510 1571 1649
514 1635 1769
524 1713 1900
533 1790 2031
544 1870 2164
557 1953 2299
570 2036 2434
586 2120 2568
602 2203 2703
619 2286 2837
627 1568 1230
610 1575 1283
594 1581 1336
578 1598 1400
564 1635 1484
549 1673 1569
547 1727 1674
551 1790 1789
554 1852 1903
566 1931 2036
578 2010 2169
591 2090 2301
607 2174 2434
623 2257 2566
641 2339 2696
660 2419 2823
679 2500 2951
696 1825 1417
674 1826 1465
652 1828 1512
631 1839 1569
612 1868 1644
593 1898 1720
588 1948 1818
591 2008 1928
594 2069 2038
608 2149 2172
622 2229 2306
638 2311 2439
657 2394 2569
675 2478 2699
696 2558 2823
718 2636 2944
740 2714 3065
820 2098 1631
789 2096 1673
758 2094 1715
728 2100 1765
699 2121 1830
671 2142 1896
660 2182 1983
659 2233 2082
658 2284 2181
673 2352 2300
687 2420 2420
704 2492 2541
727 2570 2667
749 2648 2792
773 2722 2910
799 2794 3023
826 2866 3137
945 2371 1844
905 2366 1881
864 2361 1918
825 2361 1961
787 2373 2016
749 2386 2071
733 2417 2148
727 2458 2236
722 2498 2323
737 2555 2429
752 2611 2534
771 2673 2644
796 2745 2765
822 2818 2886
850 2886 2996
881 2952 3102
911 3018 3208
1096 2631 2054
1045 2623 2086
995 2615 2119
945 2611 2156
896 2616 2201
847 2621 2246
823 2643 2312
812 2674 2388
800 2706 2465
815 2750 2556
829 2795 2648
848 2846 2746
875 2910 2858
903 2974 2970
935 3035 3073
970 3094 3171
1004 3153 3270
1301 2863 2256
1238 2854 2285
1175 2846 2315
1112 2840 2346
1049 2839 2383
986 2839 2419
950 2853 2474
929 2875 2538
908 2897 2602
918 2932 2683
928 2967 2763
944 3006 2848
972 3053 2941
999 3100 3035
1034 3150 3127
1074 3201 3220
1114 3253 3312
1506 3094 2459
1430 3085 2484
1355 3076 2510
1279 3068 2537
1202 3062 2564
1124 3057 2592
1077 3063 2636
1047 3076 2688
1016 3089 2740
1022 3114 2809
1028 3139 2878
1041 3165 2949
1068 3196 3024
1095 3227 3100
1134 3266 3182
1178 3309 3268
1223 3352 3354
1782 3274 2639
1693 3266 2662
1604 3258 2686
1514 3250 2708
1419 3242 2728
1325 3234 2749
1264 3235 2783
1219 3241 2824
1174 3247 2865
1171 3263 2922
1168 3280 2979
1175 3298 3039
1199 3318 3102
1223 3338 3165
1260 3367 3236
1303 3399 3311
1347 3431 3386
2095 3427 2808
1991 3422 2829
1888 3416 2851
1782 3409 2870
1670 3400 2884
1557 3390 2898
1479 3387 2922
1418 3388 2953
1357 3388 2983
1343 3397 3029
1330 3406 3074
1327 3416 3123
1347 3429 3177
1366 3442 3231
1399 3460 3290
1439 3479 3351
1479 3499 3412
2407 3581 2977
2289 3577 2997
2172 3574 3016
2050 3568 3031
1920 3558 3039
1790 3547 3047
1695 3540 3062
1618 3534 3082
1540 3529 3101
1516 3530 3135
1491 3532 3169
1479 3535 3207
1495 3541 3252
1510 3546 3297
1539 3553 3344
1575 3560 3391
1610 3567 3439
372 340 440
373 332 481
374 325 521
374 324 566
373 336 622
372 347 677
371 365 746
370 385 821
368 405 895
370 434 991
372 463 1087
375 495 1190
380 532 1307
385 570 1424
392 615 1558
399 663 1701
407 711 1844
426 481 502
429 481 557
431 481 613
432 486 672
428 504 740
425 521 808
422 546 886
419 575 970
416 603 1053
417 643 1156
418 682 1259
420 724 1368
426 774 1490
431 823 1613
440 878 1750
450 937 1894
459 995 2039
480 623 563
484 629 634
488 636 705
489 649 779
484 672 858
479 695 938
474 728 1026
469 764 1118
464 801 1211
464 851 1321
463 900 1431
465 954 1546
471 1015 1674
477 1075 1802
488 1141 1942
500 1210 2088
512 1279 2234
531 781 649
535 793 729
540 805 809
540 822 892
532 850 979
524 878 1067
518 917 1164
513 962 1265
507 1007 1366
507 1065 1482
507 1124 1598
509 1187 1719
516 1257 1851
523 1327 1983
535 1402 2124
549 1479 2270
564 1556 2416
578 975 787
579 987 862
580 1000 938
576 1018 1017
564 1049 1106
553 1079 1194
547 1124 1297
544 1175 1406
540 1227 1515
543 1293 1636
545 1358 1757
549 1427 1882
558 1503 2015
567 1579 2148
581 1658 2288
596 1738 2431
612 1819 2573
625 1168 925
622 1181 995
620 1194 1066
613 1214 1143
597 1247 1232
581 1280 1322
575 1330 1430
575 1389 1547
574 1448 1664
578 1520 1790
583 1592 1916
589 1667 2044
600 1749 2179
612 1830 2314
627 1913 2451
643 1998 2591
660 2082 2730
697 1402 1099
691 1414 1165
685 1427 1232
674 1445 1304
652 1474 1386
630 1502 1469
622 1550 1573
620 1608 1688
618 1666 1803
625 1741 1931
632 1816 2060
641 1894 2190
655 1977 2323
669 2060 2457
687 2144 2591
706 2228 2725
725 2312 2859
781 1656 1290
772 1667 1353
763 1679 1416
748 1693 1482
719 1714 1554
690 1735 1626
677 1777 1721
673 1830 1829
668 1883 1937
678 1959 2067
688 2036 2197
700 2114 2327
717 2197 2458
733 2280 2589
754 2362 2718
776 2443 2845
799 2524 2972
865 1910 1482
853 1920 1541
841 1930 1600
821 1942 1660
785 1955 1721
749 1968 1783
732 2004 1870
725 2052 1970
718 2100 2070
730 2177 2202
743 2255 2334
758 2335 2464
778 2418 2593
798 2500 2721
821 2580 2845
847 2659 2965
872 2737 3086
1005 2175 1694
989 2184 1751
974 2193 1807
948 2201 1862
901 2207 1913
855 2213 1965
830 2241 2041
815 2280 2130
801 2318 2218
812 2382 2334
822 2446 2449
837 2515 2568
860 2592 2691
884 2670 2815
912 2744 2932
941 2816 3045
971 2889 3159
1144 2441 1907
1126 2449 1960
1107 2456 2014
1075 2461 2064
1018 2460 2105
960 2459 2147
927 2478 2212
906 2508 2289
885 2537 2366
893 2587 2465
901 2638 2565
916 2695 2671
943 2767 2790
970 2839 2910
1002 2908 3020
1036 2974 3125
1070 3040 3231
1308 2692 2114
1285 2699 2165
1263 2705 2216
1225 2707 2261
1156 2700 2294
1087 2693 2327
1045 2705 2381
1015 2726 2447
986 2747 2512
990 2785 2597
995 2823 2681
1007 2869 2775
1036 2932 2885
1064 2994 2995
1099 3055 3097
1137 3114 3195
1176 3174 3294
1519 2916 2310
1493 2921 2359
1467 2926 2409
1422 2926 2450
1340 2916 2476
1257 2906 2502
1203 2912 2547
1163 2925 2601
1123 2939 2655
1120 2967 2728
1117 2995 2801
1124 3030 2879
1148 3075 2970
1172 3120 3061
1209 3170 3153
1252 3221 3245
1296 3273 3337
1730 3139 2506
1700 3143 2553
1670 3147 2601
1618 3145 2639
1523 3132 2658
1428 3119 2677
1362 3119 2712
1311 3124 2755
1259 3130 2797
1250 3149 2858
1240 3168 2920
1240 3190 2984
1261 3218 3056
1281 3246 3128
1320 3285 3209
1367 3328 3295
1415 3372 3381
1998 3311 2676
1963 3315 2722
1929 3318 2768
1870 3315 2803
1762 3302 2818
1654 3289 2832
1576 3285 2859
1511 3286 2892
1447 3286 2925
1426 3297 2975
1406 3309 3025
1397 3323 3078
1411 3340 3137
1424 3357 3196
1458 3385 3265
1501 3417 3339
1544 3449 3413
2293 3459 2835
2254 3461 2878
2216 3464 2921
2150 3462 2954
2030 3450 2966
1909 3438 2977
1817 3431 2997
1738 3428 3022
1659 3424 3046
1627 3429 3085
1594 3434 3124
1574 3441 3166
1580 3451 3216
1586 3461 3265
1610 3477 3321
1644 3496 3381
1678 3514 3440
2588 3606 2993
2545 3608 3034
2503 3610 3075
2430 3608 3106
2297 3597 3114
2164 3586 3122
2058 3578 3136
1965 3570 3151
1872 3562 3167
1827 3560 3195
1782 3559 3223
1752 3559 3254
1749 3562 3294
1747 3565 3334
1762 3569 3377
1787 3574 3422
1812 3580 3467
438 377 493
436 360 528
433 344 562
429 336 602
422 345 655
416 353 708
411 370 774
408 390 846
404 411 919
405 440 1015
407 470 1111
409 503 1214
415 542 1333
420 581 1452
428 628 1587
436 679 1730
444 730 1873
511 533 549
512 523 602
514 513 656
512 511 713
503 525 780
494 538 847
486 561 923
479 589 1004
471 616 1084
470 656 1186
468 695 1288
468 738 1396
473 789 1519
478 839 1642
487 896 1779
498 957 1923
