Assets/1__3DArt/KimSe/artstation_asset/LUTs_subway_asset/3DL/Paranormal 01.3dl
# LUT by SparkleStock. Enhanced with VOXCOLOR algorithms.
0 64 128 192 256 320 384 448 512 576 640 704 768 832 896 960 1023
128 240 352
145 262 404
162 284 457
177 307 510
190 335 566
203 363 621
217 395 686
233 430 757
248 465 827
268 507 917
288 549 1006
309 593 1103
335 643 1216
360 693 1328
388 748 1456
418 806 1593
448 865 1729
142 355 427
157 384 486
172 412 545
188 443 608
206 480 675
223 517 743
242 559 821
261 604 903
281 649 985
305 701 1085
329 753 1186
354 808 1293
383 867 1414
412 927 1535
443 992 1669
476 1060 1810
508 1128 1951
157 471 502
170 506 568
183 540 634
199 579 705
221 625 785
243 672 866
266 724 955
290 778 1049
313 833 1143
341 895 1254
369 957 1365
399 1022 1483
431 1092 1613
464 1162 1742
498 1237 1883
533 1314 2028
569 1391 2174
172 614 595
182 650 665
193 687 735
208 729 812
233 784 904
257 838 996
284 899 1097
312 963 1201
339 1027 1306
371 1099 1426
403 1170 1546
437 1243 1672
473 1322 1808
510 1400 1944
547 1483 2088
586 1567 2236
624 1652 2384
189 811 724
195 840 792
202 869 860
214 908 939
237 968 1041
259 1029 1143
288 1097 1252
320 1170 1366
352 1242 1479
388 1320 1605
424 1398 1731
462 1478 1860
503 1562 1998
543 1646 2136
585 1732 2278
627 1819 2423
669 1907 2568
206 1007 854
208 1029 919
211 1051 985
219 1087 1066
240 1153 1177
261 1220 1289
292 1295 1408
328 1376 1530
364 1457 1652
404 1542 1784
445 1627 1915
487 1714 2049
532 1802 2188
576 1891 2327
622 1981 2468
668 2071 2611
714 2161 2753
250 1254 1024
244 1266 1085
237 1279 1145
239 1308 1223
257 1371 1334
276 1433 1445
306 1507 1565
343 1587 1690
379 1668 1816
424 1757 1950
468 1846 2084
514 1936 2219
563 2026 2356
612 2117 2494
662 2206 2631
712 2296 2768
762 2385 2905
307 1524 1215
290 1527 1269
272 1531 1323
266 1550 1395
281 1604 1500
296 1657 1605
325 1725 1724
360 1801 1849
396 1877 1974
444 1969 2109
491 2061 2245
541 2152 2380
594 2242 2514
648 2332 2649
702 2420 2780
757 2506 2910
812 2593 3040
364 1795 1406
336 1789 1454
308 1782 1501
293 1793 1566
304 1837 1666
316 1881 1766
343 1944 1882
378 2015 2007
413 2087 2132
464 2181 2269
515 2275 2406
568 2368 2541
626 2458 2673
684 2548 2804
742 2634 2930
802 2717 3052
861 2801 3175
505 2084 1626
459 2073 1668
414 2061 1711
384 2064 1769
386 2098 1859
388 2132 1950
410 2184 2057
442 2244 2172
473 2305 2287
523 2384 2412
573 2463 2537
627 2544 2663
687 2630 2789
747 2715 2915
809 2795 3034
872 2872 3148
935 2949 3262
645 2374 1846
583 2357 1883
520 2339 1920
476 2336 1972
468 2359 2053
460 2382 2134
476 2424 2231
505 2474 2337
534 2524 2442
583 2587 2556
631 2651 2669
685 2720 2785
748 2802 2906
811 2883 3027
876 2956 3138
942 3026 3243
1008 3096 3349
825 2646 2060
744 2626 2093
664 2605 2126
603 2596 2172
583 2611 2244
563 2625 2316
572 2656 2403
595 2696 2499
618 2735 2594
665 2785 2696
711 2835 2797
763 2893 2902
827 2964 3014
890 3036 3126
956 3102 3229
1025 3164 3326
1093 3227 3424
1082 2883 2260
981 2864 2292
881 2846 2324
802 2836 2367
766 2845 2430
730 2853 2494
726 2875 2571
738 2904 2655
751 2934 2739
793 2973 2829
835 3013 2919
883 3056 3011
941 3109 3106
999 3161 3202
1064 3215 3294
1133 3270 3384
1202 3325 3475
1338 3120 2459
1219 3103 2491
1099 3087 2523
1001 3076 2562
949 3079 2617
896 3081 2672
880 3094 2739
882 3113 2811
884 3132 2883
922 3161 2962
959 3190 3041
1002 3220 3120
1055 3253 3199
1108 3286 3277
1172 3328 3359
1241 3375 3442
1311 3422 3525
1664 3288 2615
1530 3278 2650
1396 3268 2684
1282 3262 2724
1212 3262 2773
1141 3262 2823
1108 3270 2881
1094 3282 2944
1080 3294 3006
1107 3314 3075
1134 3334 3143
1167 3355 3212
1213 3377 3279
1259 3399 3346
1317 3430 3417
1380 3464 3489
1442 3499 3561
2025 3422 2749
1879 3421 2788
1732 3420 2827
1604 3420 2868
1515 3420 2914
1424 3421 2961
1373 3425 3012
1340 3431 3065
1307 3437 3118
1320 3449 3177
1333 3461 3236
1354 3475 3295
1393 3490 3353
1432 3506 3411
1480 3525 3471
1533 3546 3530
1586 3567 3590
2386 3555 2882
2227 3564 2926
2069 3572 2970
1927 3578 3013
1817 3579 3056
1708 3579 3098
1638 3579 3142
1586 3580 3186
1535 3580 3231
1534 3584 3280
1532 3589 3328
1541 3595 3377
1573 3603 3427
1604 3612 3476
1644 3620 3524
1686 3627 3572
1729 3635 3619
188 283 400
195 295 442
202 307 483
210 323 529
222 349 583
234 374 637
248 406 702
263 440 773
278 474 843
298 517 934
318 559 1025
340 605 1123
365 656 1237
390 707 1351
419 764 1481
449 824 1619
479 885 1758
220 416 483
226 436 537
232 456 591
241 480 648
256 512 711
271 544 775
288 583 849
305 625 929
323 667 1008
346 718 1109
369 770 1209
394 824 1316
423 885 1437
451 946 1559
482 1012 1694
515 1081 1836
548 1149 1977
252 549 566
257 577 632
262 606 699
272 638 767
290 676 839
307 714 912
327 760 995
348 810 1085
368 860 1174
394 920 1283
420 981 1392
448 1044 1508
480 1114 1638
512 1184 1767
546 1259 1907
582 1337 2052
617 1414 2197
282 704 665
286 737 740
290 770 815
299 806 892
317 849 972
335 892 1053
357 945 1145
381 1003 1244
405 1060 1342
434 1129 1459
464 1197 1576
495 1269 1699
530 1347 1834
566 1425 1969
603 1507 2112
642 1591 2258
681 1675 2405
310 903 797
311 932 872
312 961 948
318 996 1028
331 1041 1115
345 1087 1202
368 1146 1302
395 1211 1408
423 1276 1515
457 1351 1637
491 1426 1759
527 1503 1886
567 1586 2022
606 1669 2159
648 1755 2300
692 1842 2444
735 1929 2589
338 1102 928
336 1127 1005
335 1152 1081
337 1186 1163
346 1234 1257
354 1283 1352
378 1347 1459
410 1419 1573
442 1491 1688
480 1573 1815
518 1654 1942
559 1738 2073
603 1825 2211
647 1913 2348
693 2002 2489
741 2092 2631
789 2182 2773
396 1344 1098
389 1364 1172
382 1384 1246
379 1412 1326
382 1456 1419
385 1500 1512
406 1562 1620
436 1633 1735
466 1703 1851
508 1788 1980
550 1873 2110
594 1959 2242
643 2048 2378
692 2137 2514
743 2226 2650
795 2316 2787
847 2405 2923
469 1609 1286
456 1623 1356
443 1637 1426
433 1658 1502
429 1694 1590
426 1729 1677
441 1784 1782
467 1849 1895
493 1913 2009
538 2000 2139
584 2087 2270
632 2174 2402
685 2263 2535
739 2351 2668
794 2439 2798
851 2525 2928
908 2611 3057
542 1874 1474
522 1881 1540
503 1889 1607
486 1903 1678
476 1931 1760
466 1958 1842
477 2007 1944
499 2065 2055
520 2124 2167
569 2212 2299
618 2300 2431
670 2389 2562
727 2477 2691
785 2566 2821
846 2651 2946
907 2734 3069
969 2818 3191
696 2152 1688
666 2156 1749
637 2159 1811
610 2167 1877
589 2187 1951
568 2206 2026
571 2245 2119
587 2294 2222
602 2343 2324
646 2416 2443
690 2488 2562
740 2565 2683
800 2648 2807
861 2732 2932
924 2811 3049
989 2888 3163
1054 2965 3277
851 2431 1901
811 2430 1958
771 2428 2015
733 2431 2076
701 2443 2142
669 2454 2209
665 2484 2294
675 2523 2388
684 2562 2482
723 2619 2588
763 2676 2694
810 2741 2804
873 2820 2923
936 2898 3042
1003 2971 3152
1071 3041 3257
1140 3111 3363
1040 2692 2108
989 2688 2161
938 2684 2214
889 2683 2269
845 2687 2329
801 2692 2389
788 2713 2465
790 2744 2549
792 2774 2634
826 2817 2728
859 2860 2822
903 2912 2921
965 2982 3031
1026 3051 3140
1094 3116 3242
1165 3178 3339
1236 3241 3436
1298 2919 2302
1235 2915 2352
1171 2911 2402
1110 2908 2453
1052 2909 2506
994 2910 2560
968 2925 2628
959 2947 2702
950 2969 2777
977 3002 2861
1004 3036 2944
1040 3075 3031
1093 3125 3123
1146 3175 3215
1211 3228 3306
1282 3283 3395
1353 3337 3485
1556 3146 2495
1480 3142 2542
1405 3138 2589
1331 3134 2636
1258 3131 2684
1186 3128 2731
1149 3136 2790
1129 3150 2855
1109 3163 2920
1129 3188 2993
1149 3212 3066
1178 3238 3140
1222 3269 3215
1266 3300 3290
1329 3341 3370
1400 3387 3452
1471 3433 3534
1867 3309 2645
1783 3308 2692
1698 3306 2738
1613 3304 2784
1528 3302 2829
1443 3299 2873
1393 3303 2925
1359 3311 2982
1325 3320 3039
1333 3336 3103
1342 3353 3167
1360 3371 3230
1395 3391 3294
1430 3411 3358
1483 3440 3426
1545 3474 3497
1606 3508 3568
2206 3439 2774
2113 3442 2822
2020 3445 2869
1926 3447 2915
1830 3446 2957
1733 3445 2999
1668 3448 3047
1618 3452 3096
1569 3456 3146
1564 3467 3201
1559 3477 3256
1564 3488 3311
1590 3502 3366
1615 3515 3422
1655 3533 3479
1703 3554 3537
1751 3574 3595
2544 3570 2904
2443 3577 2952
2343 3584 2999
2240 3590 3045
2131 3590 3085
2022 3591 3126
1943 3592 3168
1878 3593 3210
1814 3593 3252
1795 3597 3299
1775 3601 3345
1768 3606 3391
1784 3613 3439
1800 3620 3486
1828 3627 3532
1862 3633 3576
1895 3639 3621
249 326 448
245 328 479
242 330 510
243 339 548
255 362 601
266 386 654
279 416 719
293 450 789
308 483 859
328 526 951
348 569 1043
370 616 1143
396 669 1258
421 721 1374
450 780 1506
480 842 1646
510 904 1787
298 477 539
295 489 588
292 501 637
294 518 689
306 544 747
318 571 806
333 606 877
349 645 955
366 685 1032
388 736 1132
410 787 1231
434 841 1338
462 903 1460
490 964 1583
522 1031 1718
555 1101 1861
588 1171 2004
347 627 630
344 649 696
342 672 763
345 696 829
358 726 894
371 756 958
388 796 1036
405 841 1120
423 887 1205
447 945 1312
472 1004 1420
498 1067 1534
529 1137 1663
559 1207 1791
594 1282 1931
630 1360 2075
666 1437 2220
393 794 735
390 823 815
387 853 895
389 882 971
401 914 1041
412 946 1110
430 990 1194
450 1042 1286
470 1093 1378
497 1159 1492
524 1225 1606
553 1295 1726
587 1372 1860
622 1450 1993
659 1531 2135
699 1615 2280
739 1699 2426
431 995 869
427 1024 952
423 1053 1036
422 1083 1116
426 1114 1189
430 1146 1262
447 1194 1352
471 1252 1451
495 1309 1550
526 1381 1669
558 1453 1788
592 1528 1912
631 1610 2047
670 1692 2182
712 1778 2322
757 1865 2466
801 1951 2609
469 1196 1003
464 1225 1090
459 1254 1177
455 1284 1261
451 1315 1337
447 1345 1414
465 1398 1510
492 1462 1617
519 1526 1723
555 1603 1846
591 1681 1969
630 1762 2097
674 1848 2233
717 1935 2370
765 2024 2510
814 2114 2651
863 2204 2792
541 1435 1171
535 1463 1259
528 1490 1346
519 1517 1429
507 1542 1504
494 1568 1578
506 1617 1674
529 1678 1780
552 1738 1886
592 1819 2011
632 1899 2136
675 1982 2265
723 2070 2399
772 2158 2534
824 2246 2670
878 2336 2806
932 2425 2942
630 1694 1356
622 1718 1443
613 1743 1529
599 1765 1610
577 1784 1679
555 1802 1749
558 1843 1840
574 1896 1942
590 1949 2044
633 2031 2170
676 2112 2296
723 2196 2423
776 2283 2555
829 2371 2686
886 2457 2816
945 2543 2945
1004 2630 3074
719 1952 1542
709 1974 1627
698 1996 1712
680 2014 1790
648 2025 1855
616 2036 1919
611 2070 2006
619 2115 2104
627 2161 2202
674 2243 2328
720 2326 2455
771 2410 2582
829 2497 2710
887 2584 2838
949 2668 2963
1013 2751 3085
1076 2835 3207
888 2220 1749
874 2238 1830
859 2257 1911
835 2271 1985
791 2276 2043
747 2281 2102
732 2307 2181
731 2344 2271
731 2381 2361
769 2447 2474
807 2514 2587
853 2585 2703
914 2667 2825
974 2749 2948
1039 2827 3064
1107 2904 3178
1174 2981 3292
1056 2488 1957
1039 2503 2034
1021 2518 2111
990 2527 2180
934 2526 2232
878 2525 2285
853 2544 2357
844 2573 2439
835 2602 2521
864 2652 2619
894 2702 2718
935 2761 2823
998 2838 2940
1061 2914 3057
1130 2987 3166
1201 3056 3271
1272 3126 3376
1255 2738 2157
1233 2750 2230
1212 2763 2303
1175 2769 2367
1106 2764 2414
1038 2758 2461
1003 2770 2526
984 2791 2600
965 2812 2674
986 2849 2760
1008 2885 2847
1042 2932 2940
1103 2999 3047
1163 3066 3155
1232 3130 3255
1306 3192 3352
1379 3255 3448
1514 2955 2343
1488 2966 2411
1461 2976 2479
1417 2981 2539
1337 2974 2582
1257 2967 2626
1211 2974 2684
1180 2989 2750
1150 3004 2816
1162 3032 2892
1174 3060 2969
1198 3094 3050
1246 3142 3140
1294 3189 3229
1359 3241 3318
1432 3295 3407
1505 3350 3496
1773 3172 2530
1742 3181 2593
1711 3189 2655
1660 3192 2710
1568 3184 2751
1477 3176 2791
1418 3179 2842
1376 3187 2900
1334 3195 2957
1337 3215 3025
1340 3234 3092
1353 3257 3160
1389 3285 3232
1425 3313 3303
1485 3353 3381
1558 3398 3462
1631 3444 3543
2070 3330 2675
2035 3337 2734
2000 3344 2793
1944 3347 2845
1845 3341 2884
1746 3335 2923
1677 3336 2970
1623 3341 3021
1569 3346 3072
1560 3359 3131
1551 3372 3190
1553 3387 3249
1577 3405 3309
1600 3422 3370
1649 3451 3436
1710 3484 3505
1770 3518 3575
2386 3457 2800
2347 3464 2856
2309 3470 2911
2248 3474 2961
2145 3472 2999
2041 3470 3038
1963 3471 3082
1897 3473 3127
1831 3476 3173
1808 3484 3224
1785 3492 3275
1774 3502 3327
1786 3513 3380
1798 3525 3432
1831 3542 3487
1873 3561 3543
1916 3580 3599
2702 3584 2926
2660 3590 2977
2617 3596 3029
2553 3601 3076
2444 3602 3115
2336 3604 3154
2248 3605 3194
2170 3606 3234
2092 3606 3274
2056 3609 3317
2019 3612 3361
1995 3616 3405
1996 3622 3450
1996 3628 3495
2013 3633 3539
2037 3638 3581
2061 3643 3623
324 379 504
310 372 527
297 366 550
290 368 581
296 386 630
303 404 679
314 432 742
328 464 811
341 496 881
361 539 973
381 582 1065
403 629 1166
429 683 1283
454 737 1400
483 798 1534
513 861 1676
544 925 1819
389 544 602
377 550 647
365 555 692
360 566 739
366 585 792
373 605 845
384 635 913
398 671 987
412 707 1061
433 757 1160
454 806 1258
477 860 1365
504 922 1487
531 984 1609
562 1051 1745
595 1122 1889
