Assets/1__3DArt/KimSe/artstation_asset/LUTs_subway_asset/3DL/Paranormal 02.3dl
# LUT by SparkleStock. Enhanced with VOXCOLOR algorithms.
0 128 256 384 512 640 768 896 1023
80 112 176
94 139 269
107 165 381
118 191 517
128 217 685
134 246 913
136 280 1184
134 320 1499
128 368 1857
133 323 296
139 383 445
152 452 624
166 528 832
176 610 1071
184 705 1360
190 813 1677
195 934 2017
200 1069 2372
212 703 519
207 750 677
219 844 899
238 967 1167
256 1101 1460
274 1250 1784
293 1409 2121
315 1581 2461
341 1765 2793
334 1234 857
307 1245 992
313 1335 1223
337 1477 1516
370 1640 1835
405 1823 2173
445 2013 2508
489 2207 2830
541 2406 3127
510 1901 1320
450 1871 1417
439 1919 1611
466 2026 1873
524 2175 2177
578 2371 2515
641 2566 2833
713 2758 3124
794 2942 3379
794 2588 1885
692 2535 1950
650 2544 2091
659 2603 2291
711 2701 2534
792 2828 2795
876 2981 3063
968 3141 3316
1072 3286 3529
1154 3162 2409
1016 3106 2457
939 3091 2557
920 3111 2700
952 3162 2875
1033 3235 3067
1122 3327 3266
1221 3430 3458
1333 3535 3632
1573 3600 2834
1414 3556 2886
1306 3531 2961
1251 3524 3057
1250 3536 3173
1308 3567 3305
1384 3603 3436
1474 3650 3567
1575 3712 3701
2033 3875 3106
1876 3856 3183
1748 3836 3255
1657 3817 3325
1610 3803 3399
1625 3802 3481
1666 3808 3570
1726 3822 3659
1793 3843 3747
184 173 258
168 165 322
167 177 421
175 198 556
184 222 730
191 252 968
194 289 1247
194 334 1566
192 388 1921
301 507 439
284 534 600
277 566 756
276 610 931
277 670 1148
281 757 1426
288 862 1738
297 984 2072
309 1124 2420
429 937 699
410 975 899
394 1019 1087
385 1082 1293
390 1181 1547
403 1313 1850
423 1466 2174
450 1636 2506
485 1823 2832
590 1466 1050
570 1500 1252
541 1538 1442
522 1605 1654
533 1721 1921
562 1883 2234
602 2061 2553
653 2251 2866
714 2451 3159
808 2097 1503
787 2118 1688
741 2131 1851
706 2167 2029
714 2255 2264
763 2426 2572
825 2606 2872
901 2790 3153
992 2973 3403
1126 2724 2023
1103 2730 2179
1035 2722 2305
972 2729 2441
961 2780 2625
1008 2877 2850
1081 3013 3098
1176 3165 3340
1286 3309 3547
1511 3242 2493
1483 3239 2623
1394 3221 2721
1302 3209 2821
1263 3228 2956
1292 3276 3117
1352 3352 3296
1441 3447 3477
1558 3550 3646
1943 3634 2870
1910 3629 2979
1804 3609 3061
1686 3589 3138
1615 3585 3233
1612 3600 3345
1642 3623 3460
1704 3661 3581
1801 3720 3709
2407 3883 3110
2370 3881 3208
2255 3868 3288
2117 3850 3360
2011 3834 3431
1966 3826 3508
1955 3825 3587
1972 3830 3667
2009 3842 3745
358 263 385
295 232 435
258 218 513
244 220 630
248 238 797
255 266 1035
260 304 1317
262 352 1638
264 413 1991
540 698 614
486 701 778
442 701 917
412 710 1065
399 744 1253
395 815 1514
397 911 1812
405 1031 2138
419 1174 2479
710 1167 887
677 1194 1104
637 1210 1283
601 1234 1459
579 1287 1666
575 1392 1939
584 1527 2241
606 1688 2558
640 1874 2875
900 1688 1228
888 1727 1457
854 1751 1649
814 1781 1834
782 1839 2041
786 1964 2316
809 2118 2609
851 2295 2904
911 2490 3188
1143 2278 1661
1143 2313 1880
1106 2326 2054
1051 2339 2212
999 2369 2381
1019 2500 2648
1062 2654 2919
1127 2823 3183
1216 3002 3426
1475 2843 2136
1489 2870 2328
1450 2873 2475
1379 2870 2601
1301 2877 2733
1297 2941 2919
1342 3054 3140
1424 3191 3365
1529 3328 3565
1862 3307 2556
1885 3325 2720
1843 3323 2842
1758 3312 2944
1653 3303 3044
1622 3327 3175
1640 3385 3332
1705 3467 3498
1813 3564 3660
2284 3656 2889
2311 3668 3026
2266 3665 3131
2170 3652 3216
2042 3635 3294
1979 3637 3389
1957 3648 3489
1983 3676 3598
2062 3729 3719
2723 3879 3101
2747 3889 3217
2701 3888 3313
2600 3879 3394
2455 3862 3463
2358 3850 3535
2297 3843 3607
2268 3842 3680
2268 3846 3749
629 395 563
503 345 612
409 302 674
352 276 766
333 276 908
336 298 1133
340 332 1407
344 380 1720
349 445 2066
869 911 824
772 897 990
678 872 1122
604 852 1250
561 856 1405
543 901 1635
535 979 1910
536 1088 2218
547 1228 2546
1073 1411 1097
1018 1426 1317
952 1427 1499
885 1427 1664
827 1437 1831
796 1501 2061
783 1607 2331
790 1750 2624
815 1927 2926
1275 1915 1412
1261 1946 1644
1228 1969 1850
1177 1986 2034
1107 1997 2199
1071 2073 2425
1063 2193 2681
1082 2348 2952
1129 2531 3221
1508 2440 1795
1516 2472 2018
1502 2498 2216
1458 2512 2385
1376 2512 2523
1347 2592 2740
1352 2711 2975
1391 2859 3216
1465 3028 3448
1835 2948 2225
1861 2974 2423
1861 2995 2598
1820 3003 2743
1720 2992 2854
1658 3020 3001
1659 3103 3190
1710 3219 3393
1798 3347 3582
2203 3359 2599
2242 3381 2771
2255 3397 2922
2217 3400 3046
2103 3385 3137
2013 3387 3241
1982 3424 3374
2009 3490 3522
2097 3577 3674
2592 3667 2893
2640 3686 3042
2662 3699 3171
2627 3701 3278
2505 3686 3356
2391 3677 3436
2319 3677 3522
2301 3695 3619
2354 3740 3731
2983 3866 3081
3033 3884 3211
3059 3896 3325
3028 3899 3421
2907 3890 3497
2774 3875 3564
2671 3864 3630
2599 3857 3696
2560 3855 3759
1020 581 796
820 510 858
654 443 921
528 387 994
446 350 1088
442 357 1281
443 382 1528
447 425 1821
453 488 2149
1306 1161 1073
1163 1137 1248
1016 1098 1383
882 1058 1501
782 1028 1624
743 1034 1805
718 1080 2039
707 1167 2314
709 1293 2619
1534 1687 1346
1445 1689 1564
1344 1680 1747
1238 1665 1906
1138 1648 2053
1071 1658 2228
1029 1722 2450
1012 1835 2707
1019 1993 2985
1725 2161 1622
1685 2176 1845
1638 2191 2051
1578 2201 2236
1497 2200 2398
1412 2218 2568
1361 2293 2778
1346 2416 3015
1368 2583 3263
1897 2585 1905
1905 2612 2128
1901 2637 2332
1881 2659 2516
1843 2678 2681
1749 2701 2844
1699 2779 3040
1696 2900 3253
1740 3054 3470
2198 3037 2293
2225 3061 2493
2238 3082 2674
2233 3101 2837
2207 3118 2983
2086 3112 3093
2031 3162 3248
2036 3252 3424
2092 3367 3600
2528 3400 2625
2571 3422 2802
2599 3441 2961
2607 3457 3104
2593 3471 3231
2454 3454 3312
2371 3470 3421
2352 3517 3550
2405 3593 3688
2865 3671 2884
2921 3694 3041
2960 3711 3181
2979 3725 3306
2978 3737 3417
2830 3719 3485
2715 3710 3558
2654 3718 3643
2669 3753 3744
3190 3847 3051
3252 3872 3192
3298 3890 3320
3325 3904 3433
3335 3916 3532
3190 3899 3594
3061 3885 3656
2954 3874 3716
2877 3866 3773
1586 864 1082
1338 786 1188
1103 698 1275
896 615 1356
732 551 1446
651 530 1578
619 528 1764
615 548 1999
619 595 2277
1864 1459 1348
1708 1438 1542
1522 1393 1693
1334 1342 1821
1176 1300 1947
1079 1285 2086
1015 1288 2259
977 1325 2469
959 1411 2721
2084 1974 1604
1987 1977 1823
1867 1967 2012
1733 1949 2177
1592 1929 2329
1492 1924 2476
1408 1936 2642
1348 1988 2834
1320 2099 3063
2261 2419 1854
2204 2427 2066
2148 2439 2267
2076 2448 2453
1975 2448 2620
1881 2455 2774
1789 2479 2935
1719 2541 3113
1693 2662 3318
2409 2803 2101
2392 2816 2306
2373 2832 2498
2349 2850 2678
2318 2870 2846
2238 2889 3004
2148 2923 3160
2081 2989 3324
2069 3105 3507
2579 3132 2365
2593 3148 2559
2600 3165 2738
2600 3184 2903
2590 3204 3056
2536 3217 3187
2459 3245 3323
2403 3302 3467
2411 3397 3623
2823 3430 2634
2858 3448 2811
2885 3466 2973
2901 3483 3121
2907 3501 3257
2864 3510 3367
2782 3521 3472
2715 3550 3582
2721 3614 3707
3094 3671 2865
3143 3693 3025
3183 3711 3170
3212 3727 3303
3228 3742 3424
3191 3749 3520
3100 3744 3597
3013 3745 3672
2986 3770 3761
3344 3829 3016
3403 3856 3163
3451 3877 3298
3488 3894 3420
3514 3909 3531
3487 3917 3619
3399 3909 3686
3286 3894 3740
3188 3883 3792
2192 1195 1356
1942 1137 1529
1673 1048 1659
1408 948 1765
1167 857 1861
1007 811 1969
913 793 2108
869 794 2276
862 803 2473
2432 1769 1604
2292 1765 1823
2099 1728 2000
1885 1676 2149
1681 1625 2283
1532 1598 2409
1426 1586 2546
1352 1591 2698
1300 1613 2871
2621 2249 1836
2537 2260 2059
2423 2258 2257
2283 2246 2434
2121 2225 2592
1991 2217 2734
1885 2216 2872
1795 2230 3016
1715 2266 3173
2768 2650 2056
2713 2658 2263
2662 2672 2461
2594 2685 2646
2490 2689 2817
2388 2697 2970
2290 2709 3111
2196 2734 3251
2106 2783 3395
2886 2986 2270
2860 2992 2460
2837 3004 2642
2815 3021 2817
2795 3045 2986
2723 3067 3143
2641 3090 3287
2555 3125 3422
2472 3181 3557
2987 3244 2467
2987 3252 2647
2988 3265 2817
2989 3281 2979
2989 3303 3132
2968 3326 3273
2912 3352 3407
2843 3390 3535
2781 3444 3658
3131 3476 2668
3152 3489 2837
3171 3503 2995
3189 3519 3143
3203 3538 3283
3205 3558 3407
3162 3576 3520
3103 3601 3626
3052 3642 3731
3302 3670 2848
3338 3689 3007
3372 3707 3154
3402 3723 3290
3427 3740 3418
3437 3757 3529
3402 3765 3621
3343 3772 3702
3284 3791 3782
3483 3815 2984
3532 3841 3135
3576 3863 3274
3614 3882 3401
3646 3899 3520
3667 3915 3622
3640 3921 3705
3574 3916 3768
3475 3902 3815
2774 1551 1592
2570 1545 1849
2313 1482 2041
2028 1386 2186
1737 1279 2301
1507 1212 2408
1340 1182 2518
1239 1171 2634
1204 1160 2758
2956 2070 1817
2856 2095 2067
2692 2086 2281
2488 2051 2462
2268 2000 2611
2080 1967 2740
1936 1954 2861
1829 1947 2975
1750 1933 3085
3099 2495 2027
3044 2522 2256
2958 2538 2468
2839 2542 2660
2684 2531 2831
2540 2525 2976
2424 2529 3107
2321 2532 3224
2217 2523 3327
3209 2843 2222
3170 2857 2426
3136 2878 2621
3088 2900 2807
3001 2914 2985
2902 2930 3140
2817 2949 3279
2727 2964 3401
2614 2967 3502
3295 3129 2405
3270 3134 2585
3252 3146 2760
3241 3166 2930
3237 3195 3096
3180 3223 3256
3127 3253 3400
3057 3281 3525
2951 3299 3628
3360 3346 2567
3352 3349 2732
3349 3357 2892
3351 3372 3048
3360 3395 3200
3357 3424 3344
3339 3458 3482
3292 3491 3607
3206 3517 3709
3423 3526 2713
3430 3532 2869
3441 3542 3020
3456 3556 3164
3475 3575 3304
3494 3600 3434
3498 3628 3558
3475 3658 3672
3412 3687 3769
3503 3676 2843
3523 3690 2995
3547 3704 3139
3573 3720 3276
3599 3737 3406
3622 3757 3524
3640 3778 3632
3633 3798 3729
3581 3818 3811
3615 3803 2960
3648 3827 3108
3681 3849 3247
3715 3868 3378
3748 3886 3501
3776 3903 3611
3799 3920 3710
3791 3929 3789
3728 3921 3843
3266 1905 1761
3159 1992 2117
2971 1992 2386
2720 1928 2586
2428 1828 2733
2147 1744 2844
1919 1699 2950
1754 1690 3053
1665 1713 3154
3383 2341 1969
3343 2411 2252
3247 2451 2512
3099 2458 2735
2907 2425 2910
2703 2387 3042
2532 2372 3163
2402 2378 3274
2326 2406 3379
3476 2698 2163
3459 2745 2398
3422 2791 2627
3354 2825 2841
3245 2838 3032
3110 2835 3180
2991 2844 3312
2897 2864 3430
2837 2897 3538
3547 2990 2341
3531 3014 2543
3524 3046 2736
3510 3081 2925
3469 3117 3114
3395 3139 3272
3323 3165 3412
3263 3197 3537
3222 3235 3648
3600 3228 2502
3586 3237 2675
3582 3253 2845
3588 3278 3012
3608 3312 3175
3584 3347 3336
3555 3385 3481
3527 3426 3612
3508 3472 3728
3637 3411 2636
3629 3413 2790
3629 3421 2943
3639 3437 3095
3660 3463 3245
3680 3497 3391
3686 3536 3531
3686 3579 3663
3686 3629 3782
3672 3566 2756
3671 3566 2898
3677 3573 3039
3690 3585 3179
3713 3605 3318
3747 3635 3452
3774 3668 3581
3795 3708 3705
3814 3756 3826
3708 3693 2859
3714 3700 2997
3726 3710 3132
3744 3723 3265
3770 3740 3395
3802 3764 3519
3836 3790 3634
3868 3821 3746
3896 3857 3857
3747 3795 2946
3758 3815 3086
3778 3835 3221
3803 3853 3352
3833 3870 3478
3863 3889 3593
3890 3907 3697
3916 3925 3792
3939 3939 3875
