Assets/1__3DArt/KimSe/artstation_asset/LUTs_subway_asset/3DL/Paranormal 03.3dl
# LUT by SparkleStock. Enhanced with VOXCOLOR algorithms.
0 128 256 384 512 640 768 896 1023
240 128 176
250 147 247
257 167 328
264 190 424
271 218 541
277 251 706
284 288 915
293 332 1173
304 384 1489
277 299 286
283 346 407
293 404 546
305 469 705
318 541 891
330 627 1124
345 721 1390
361 826 1689
379 944 2019
346 607 494
341 645 623
352 726 804
374 835 1021
398 954 1258
423 1086 1532
450 1226 1826
480 1375 2134
511 1535 2452
459 1046 811
434 1054 919
442 1136 1112
470 1266 1357
508 1415 1622
550 1583 1915
594 1753 2214
641 1927 2511
688 2104 2798
631 1615 1245
575 1587 1321
567 1635 1479
596 1740 1701
649 1884 1965
707 2070 2260
770 2253 2547
836 2430 2819
902 2599 3067
922 2238 1770
819 2190 1817
776 2204 1932
784 2267 2102
829 2368 2311
895 2494 2543
968 2644 2790
1045 2799 3030
1124 2937 3240
1296 2788 2257
1140 2735 2289
1053 2726 2369
1026 2754 2489
1047 2813 2643
1106 2891 2817
1172 2986 3002
1246 3088 3188
1330 3191 3364
1749 3231 2663
1534 3190 2695
1394 3171 2752
1320 3174 2833
1302 3196 2937
1338 3235 3061
1385 3274 3184
1444 3320 3313
1517 3380 3451
2274 3539 2946
1994 3521 2993
1792 3506 3044
1661 3497 3101
1592 3494 3168
1588 3499 3251
1608 3507 3337
1643 3516 3425
1681 3523 3507
317 181 244
304 173 285
304 182 356
310 202 453
315 228 575
322 264 751
329 306 973
337 355 1246
346 413 1575
435 456 422
419 481 544
411 510 662
409 547 794
410 600 961
418 678 1186
431 770 1448
448 878 1746
470 1000 2076
560 812 669
541 849 824
524 889 971
516 946 1135
523 1033 1340
540 1149 1596
565 1282 1878
596 1430 2180
634 1593 2495
719 1257 997
696 1293 1157
667 1331 1309
649 1393 1482
660 1499 1704
691 1644 1975
731 1803 2259
779 1972 2548
834 2151 2833
939 1802 1422
912 1827 1570
864 1844 1699
827 1882 1845
830 1970 2045
876 2129 2315
932 2295 2586
996 2464 2849
1066 2633 3094
1265 2374 1907
1228 2389 2033
1154 2387 2134
1085 2398 2244
1064 2452 2400
1095 2549 2598
1152 2680 2825
1226 2825 3055
1306 2960 3261
1651 2873 2348
1602 2881 2454
1500 2868 2532
1397 2861 2613
1344 2885 2728
1349 2937 2871
1384 3015 3036
1444 3107 3210
1526 3206 3382
2084 3274 2710
2022 3280 2801
1892 3265 2865
1753 3249 2927
1661 3250 3008
1632 3270 3109
1631 3295 3216
1661 3332 3333
1722 3388 3465
2549 3554 2960
2473 3561 3042
2318 3553 3105
2143 3539 3160
2010 3529 3220
1937 3524 3290
1897 3522 3366
1884 3521 3443
1890 3521 3518
444 267 349
399 237 376
373 224 428
363 228 512
366 250 630
372 284 810
380 327 1038
388 379 1320
396 441 1659
629 623 579
588 633 700
553 634 803
527 643 913
514 673 1056
513 737 1266
519 821 1519
533 926 1812
553 1051 2141
813 1015 849
783 1049 1014
747 1067 1150
713 1090 1285
693 1137 1451
692 1227 1679
703 1343 1942
727 1483 2232
763 1644 2540
1017 1459 1176
999 1504 1354
963 1532 1502
921 1562 1647
890 1616 1817
895 1726 2052
916 1862 2312
953 2019 2586
1005 2192 2864
1262 1970 1579
1252 2016 1754
1210 2037 1892
1152 2053 2017
1095 2086 2155
1110 2206 2389
1144 2346 2634
1195 2501 2881
1262 2664 3120
1595 2492 2022
1592 2532 2180
1543 2544 2299
1466 2547 2401
1381 2557 2508
1364 2621 2670
1391 2727 2871
1449 2856 3085
1522 2985 3285
1968 2942 2418
1972 2976 2556
1916 2984 2659
1820 2978 2743
1707 2972 2823
1658 2999 2937
1653 3056 3080
1689 3134 3240
1760 3227 3404
2364 3304 2739
2372 3333 2860
2311 3339 2951
2200 3331 3023
2062 3316 3085
1979 3319 3168
1932 3330 3258
1927 3357 3363
1970 3406 3487
2762 3558 2959
2776 3583 3066
2712 3593 3153
2590 3589 3222
2432 3573 3277
2315 3561 3338
2229 3551 3403
2174 3543 3471
2147 3537 3540
640 395 501
553 347 523
486 308 560
444 287 625
431 290 729
434 319 899
441 358 1124
449 409 1405
457 472 1744
879 814 766
812 813 888
744 794 982
686 777 1075
649 780 1194
633 820 1377
628 888 1611
632 982 1891
646 1103 2212
1111 1232 1047
1070 1260 1213
1017 1269 1348
961 1271 1472
909 1280 1603
880 1334 1793
870 1423 2027
877 1545 2296
902 1697 2592
1344 1664 1360
1328 1706 1536
1295 1737 1693
1246 1758 1836
1181 1770 1966
1147 1836 2157
1138 1939 2384
1154 2074 2635
1192 2234 2899
1590 2124 1719
1589 2170 1894
1568 2205 2051
1520 2227 2185
1436 2229 2292
1405 2303 2481
1404 2410 2693
1431 2544 2919
1484 2696 3148
1908 2594 2118
1920 2637 2279
1910 2671 2424
1863 2687 2544
1761 2680 2632
1691 2709 2757
1679 2786 2928
1708 2893 3121
1765 3013 3311
2251 2998 2469
2274 3038 2616
2275 3069 2748
2229 3082 2855
2113 3070 2928
2014 3073 3015
1967 3108 3134
1970 3170 3277
2022 3253 3431
2597 3322 2752
2630 3360 2885
2640 3389 3005
2598 3401 3102
2476 3388 3168
2355 3378 3234
2268 3376 3309
2227 3391 3401
2246 3432 3515
2926 3552 2946
2966 3590 3070
2985 3619 3181
2951 3633 3273
2832 3625 3338
2695 3608 3393
2580 3592 3450
2492 3578 3509
2432 3565 3570
924 575 707
783 508 732
666 448 765
576 397 816
516 361 892
514 377 1037
517 407 1243
524 452 1510
532 512 1838
1207 1043 993
1113 1035 1119
1010 1006 1213
912 969 1297
834 938 1392
796 945 1534
773 984 1733
764 1058 1986
767 1164 2288
1459 1478 1277
1402 1500 1441
1332 1504 1577
1253 1495 1696
1172 1476 1809
1109 1484 1950
1069 1535 2142
1052 1627 2379
1057 1761 2652
1692 1884 1559
1665 1918 1728
1630 1947 1886
1582 1966 2030
1514 1966 2157
1435 1980 2297
1387 2041 2482
1370 2145 2700
1385 2288 2944
1915 2264 1843
1915 2306 2012
1904 2343 2172
1881 2374 2318
1844 2397 2451
1758 2420 2590
1710 2489 2764
1701 2594 2962
1730 2731 3176
2202 2683 2195
2220 2725 2356
2224 2762 2506
2213 2793 2644
2187 2817 2770
2068 2811 2857
2008 2856 2996
1998 2938 3164
2030 3045 3340
2501 3042 2504
2534 3084 2654
2553 3121 2794
2554 3152 2923
2539 3175 3041
2402 3156 3102
2314 3169 3198
2278 3212 3320
2302 3284 3463
2791 3330 2751
2838 3374 2893
2868 3411 3024
2882 3442 3145
2877 3464 3255
2737 3443 3307
2621 3430 3368
2548 3434 3446
2538 3465 3551
3053 3538 2922
3110 3583 3057
3150 3623 3183
3174 3657 3300
3181 3681 3406
3051 3661 3455
2926 3640 3505
2817 3621 3556
2729 3602 3609
1351 841 982
1170 771 1034
997 692 1078
846 616 1128
727 555 1199
669 532 1313
648 535 1473
647 559 1691
652 602 1977
1634 1317 1258
1532 1314 1398
1400 1281 1501
1263 1236 1587
1145 1196 1681
1069 1176 1797
1014 1176 1947
978 1205 2143
960 1275 2398
1877 1741 1521
1818 1764 1689
1739 1769 1829
1644 1761 1952
1539 1743 2066
1457 1733 2189
1382 1739 2332
1325 1777 2510
1296 1865 2737
2089 2119 1775
2057 2147 1938
2023 2177 2096
1976 2199 2243
1901 2205 2373
1824 2209 2503
1741 2225 2643
1675 2272 2807
1646 2371 3009
2281 2461 2023
2273 2493 2181
2262 2526 2333
2247 2558 2480
2226 2590 2623
2161 2610 2758
2081 2637 2896
2017 2691 3047
1997 2790 3226
2480 2775 2273
2492 2811 2427
2499 2846 2574
2499 2879 2716
2490 2911 2851
2442 2926 2966
2371 2953 3088
2314 3004 3225
2307 3089 3382
2712 3073 2522
2744 3113 2671
2767 3150 2812
2781 3185 2946
2785 3216 3074
2746 3229 3177
2667 3239 3271
2597 3264 3374
2585 3322 3503
2947 3331 2737
2996 3374 2882
3033 3414 3018
3059 3450 3147
3074 3482 3267
3043 3496 3365
2955 3488 3434
2863 3483 3501
2822 3503 3594
3154 3519 2889
3214 3567 3030
3262 3612 3164
3299 3652 3290
3324 3688 3407
3305 3704 3503
3222 3693 3565
3112 3669 3611
3011 3644 3658
1828 1147 1267
1641 1096 1367
1438 1017 1438
1236 927 1500
1055 841 1569
937 791 1669
867 768 1798
834 765 1964
829 777 2176
2083 1599 1514
1992 1612 1677
1854 1589 1799
1695 1546 1899
1542 1500 1995
1429 1468 2103
1344 1450 2225
1281 1447 2373
1230 1460 2555
2295 1991 1747
2248 2022 1921
2176 2037 2072
2078 2037 2204
1959 2023 2323
1860 2011 2441
1773 2005 2564
1693 2009 2700
1618 2031 2859
2473 2331 1968
2445 2360 2129
2422 2393 2287
2383 2421 2438
2311 2436 2575
2234 2444 2704
2154 2452 2830
2070 2468 2960
1986 2500 3103
2627 2631 2178
2618 2657 2327
2611 2688 2475
2607 2723 2623
2605 2764 2772
2554 2789 2910
2487 2812 3040
2412 2839 3167
2332 2880 3299
2767 2881 2367
2775 2910 2512
2784 2941 2654
2792 2976 2795
2801 3013 2935
2792 3045 3067
2748 3075 3194
2688 3109 3318
2626 3152 3441
2925 3118 2554
2951 3152 2697
2975 3187 2836
2995 3222 2971
3013 3259 3105
3023 3290 3230
2989 3313 3341
2933 3336 3446
2879 3370 3554
3090 3330 2722
3133 3371 2866
3170 3410 3003
3202 3448 3136
3229 3486 3264
3246 3516 3383
3217 3529 3477
3161 3534 3559
3095 3546 3641
3251 3502 2855
3307 3550 3000
3356 3596 3138
3398 3640 3270
3434 3682 3395
3462 3715 3511
3444 3727 3602
3382 3718 3668
3277 3688 3709
2303 1467 1531
2154 1466 1700
1956 1412 1817
1732 1325 1903
1504 1227 1979
1327 1156 2074
1198 1112 2182
1118 1088 2306
1084 1076 2448
2511 1869 1740
2452 1908 1931
2335 1912 2085
2181 1887 2210
2012 1844 2315
1869 1810 2423
1758 1789 2534
1670 1772 2651
1597 1751 2772
2680 2213 1938
2657 2258 2122
2607 2290 2288
2526 2307 2436
2412 2306 2566
2304 2302 2687
2216 2303 2806
2132 2299 2921
2037 2281 3031
2818 2510 2126
2804 2543 2287
2797 2582 2448
2776 2620 2604
2722 2649 2752
2650 2669 2886
2587 2689 3014
2515 2700 3133
2414 2694 3237
2934 2768 2302
2929 2792 2446
2931 2823 2590
2940 2861 2738
2959 2909 2892
2923 2947 3037
2888 2982 3174
2833 3007 3298
2739 3016 3403
3033 2980 2456
3039 3002 2592
3050 3030 2728
3067 3064 2866
3092 3106 3009
3106 3151 3152
3103 3194 3291
3070 3228 3418
2994 3247 3525
3129 3167 2592
3148 3194 2727
3170 3224 2861
3195 3258 2994
3224 3298 3130
3255 3340 3266
3272 3379 3397
3259 3413 3517
3203 3438 3622
3230 3335 2714
3263 3370 2853
3296 3407 2988
3330 3444 3122
3364 3484 3254
3397 3522 3381
3426 3556 3501
3427 3582 3610
3377 3597 3699
3346 3488 2825
3392 3534 2970
3437 3579 3110
3480 3623 3245
3522 3667 3376
3561 3706 3498
3597 3739 3615
3597 3753 3708
3527 3733 3761
2722 1777 1745
2664 1860 2004
2522 1864 2184
2318 1809 2310
2077 1717 2405
1851 1632 2495
1666 1574 2593
1529 1544 2697
1441 1537 2802
2875 2105 1912
2869 2184 2140
2807 2233 2337
2696 2249 2500
2541 2226 2623
2381 2193 2731
2247 2173 2840
2144 2167 2950
2078 2177 3060
3000 2393 2077
3008 2454 2272
2997 2513 2460
2957 2559 2632
2875 2584 2782
2773 2590 2906
2683 2601 3028
2613 2617 3147
2568 2641 3263
3100 2645 2238
3104 2686 2402
3119 2733 2567
3126 2784 2732
3107 2835 2895
3055 2869 3036
3005 2902 3170
2965 2936 3299
2940 2971 3422
3182 2867 2389
3184 2892 2529
3198 2924 2673
3224 2966 2821
3265 3021 2979
3256 3071 3132
3242 3119 3278
3230 3166 3416
3224 3212 3550
3248 3049 2516
3255 3068 2646
3270 3094 2778
3296 3128 2914
3336 3173 3058
3376 3227 3209
3397 3281 3357
3409 3334 3502
3423 3387 3643
3313 3209 2625
3326 3230 2754
3345 3255 2881
3374 3287 3011
3413 3327 3146
3466 3378 3289
3509 3430 3431
3545 3482 3573
3577 3537 3717
3377 3350 2720
3398 3380 2852
3425 3411 2982
3458 3445 3113
3498 3485 3245
3547 3530 3379
3599 3575 3510
3648 3620 3641
3689 3666 3773
3443 3475 2802
3473 3520 2943
3509 3563 3081
3550 3604 3218
3594 3647 3353
3641 3688 3481
3687 3724 3602
3728 3756 3713
3763 3779 3811
