Assets/1__3DArt/KimSe/artstation_asset/LUTs_subway_asset/3DL/Paranormal 05_S.3dl
# LUT by SparkleStock. Enhanced with VOXCOLOR algorithms.
0 64 128 192 256 320 384 448 512 576 640 704 768 832 896 960 1023
352 224 352
364 241 410
375 258 468
387 277 533
400 299 612
412 321 691
424 347 788
437 376 893
449 405 998
461 443 1123
473 481 1248
485 523 1377
496 572 1516
508 620 1654
520 677 1799
532 739 1949
544 801 2098
370 326 410
379 348 479
388 371 549
399 396 626
413 427 717
426 458 809
440 494 916
454 534 1031
467 573 1145
481 622 1277
495 672 1409
509 724 1543
522 783 1684
536 841 1825
549 908 1970
563 977 2116
576 1047 2262
388 428 468
395 455 549
402 483 630
411 514 718
426 554 823
441 594 927
456 641 1044
471 692 1169
486 742 1293
501 802 1431
517 862 1569
533 925 1710
548 994 1853
564 1063 1997
579 1138 2140
593 1216 2283
608 1294 2426
412 562 551
417 590 638
421 617 725
429 652 821
445 700 935
461 748 1050
478 803 1176
494 863 1309
511 923 1442
529 992 1585
547 1061 1729
565 1133 1873
583 1210 2017
601 1287 2162
618 1369 2303
634 1452 2442
651 1535 2580
449 759 685
450 778 766
451 797 848
458 828 943
475 881 1063
492 934 1183
511 996 1316
531 1063 1455
550 1131 1595
571 1205 1740
592 1280 1885
613 1357 2029
634 1437 2172
656 1518 2314
677 1601 2450
697 1684 2583
717 1768 2716
487 955 818
484 966 895
482 977 972
487 1003 1065
505 1062 1190
523 1120 1315
545 1189 1455
567 1263 1601
590 1338 1747
613 1418 1894
637 1499 2041
661 1581 2185
686 1665 2326
711 1749 2467
735 1832 2598
760 1916 2724
784 2000 2851
552 1203 998
544 1205 1068
535 1207 1137
535 1226 1224
552 1279 1345
569 1333 1467
592 1399 1602
618 1472 1745
644 1544 1888
671 1627 2034
697 1710 2181
725 1794 2324
753 1877 2461
782 1961 2597
810 2043 2722
838 2123 2842
866 2203 2962
632 1475 1203
616 1468 1263
600 1461 1323
594 1471 1401
608 1515 1514
623 1559 1627
647 1618 1754
676 1684 1888
705 1751 2022
736 1834 2168
766 1918 2314
796 2001 2455
828 2083 2586
860 2165 2717
892 2242 2835
924 2318 2947
955 2393 3060
712 1748 1408
688 1732 1459
664 1716 1509
652 1716 1578
664 1751 1683
676 1785 1788
702 1836 1906
734 1897 2031
767 1957 2156
800 2041 2301
834 2126 2446
868 2209 2585
903 2289 2710
939 2368 2836
974 2442 2948
1010 2513 3053
1045 2583 3158
850 2033 1642
815 2011 1685
780 1990 1728
759 1984 1788
763 2008 1880
768 2032 1973
789 2074 2079
818 2123 2192
847 2173 2306
883 2240 2432
918 2308 2559
955 2378 2683
993 2453 2802
1031 2527 2921
1069 2594 3026
1106 2657 3124
1144 2720 3221
989 2317 1877
943 2291 1912
897 2265 1947
865 2252 1997
862 2266 2077
859 2280 2157
876 2311 2252
901 2350 2353
927 2388 2455
965 2439 2563
1003 2491 2671
1042 2548 2781
1082 2617 2894
1122 2686 3007
1163 2746 3104
1203 2802 3194
1244 2857 3284
1149 2583 2103
1091 2554 2132
1033 2525 2161
991 2507 2202
979 2512 2270
968 2517 2338
977 2538 2421
998 2566 2511
1018 2595 2600
1056 2632 2692
1094 2668 2784
1133 2713 2879
1174 2772 2982
1215 2831 3085
1257 2883 3174
1300 2931 3256
1342 2979 3339
1352 2813 2312
1281 2784 2337
1210 2755 2363
1155 2735 2399
1132 2734 2456
1108 2733 2513
1108 2746 2583
1120 2764 2660
1132 2783 2737
1165 2810 2817
1198 2837 2897
1233 2868 2979
1273 2909 3064
1312 2949 3149
1354 2989 3227
1397 3030 3302
1439 3071 3377
1555 3042 2521
1471 3013 2543
1386 2985 2565
1319 2964 2596
1284 2956 2642
1249 2949 2688
1240 2953 2746
1243 2962 2809
1246 2971 2873
1274 2988 2942
1302 3006 3011
1333 3024 3079
1371 3045 3146
1408 3067 3212
1450 3096 3280
1493 3129 3348
1537 3163 3415
1802 3211 2688
1702 3186 2710
1603 3162 2732
1521 3141 2760
1472 3131 2798
1423 3120 2837
1402 3117 2884
1393 3119 2936
1385 3121 2989
1405 3131 3047
1424 3140 3105
1448 3150 3162
1481 3161 3217
1514 3172 3273
1552 3190 3330
1593 3213 3389
1633 3235 3448
2070 3351 2833
1955 3331 2857
1840 3311 2881
1742 3294 2907
1679 3281 2939
1615 3267 2972
1579 3260 3010
1558 3257 3052
1536 3253 3094
1546 3255 3142
1556 3258 3190
1571 3261 3237
1598 3266 3284
1625 3270 3331
1658 3278 3379
1693 3289 3428
1729 3299 3477
2338 3491 2978
2207 3476 3003
2077 3461 3029
1964 3446 3055
1885 3431 3080
1806 3415 3106
1757 3404 3136
1723 3394 3168
1688 3384 3200
1688 3380 3237
1687 3376 3274
1694 3372 3312
1715 3370 3350
1736 3369 3389
1764 3366 3428
1794 3364 3468
1825 3362 3507
403 258 393
410 267 446
417 275 499
425 288 561
434 309 640
443 329 718
454 356 815
465 385 921
476 414 1026
488 454 1153
500 493 1280
513 536 1411
525 586 1551
538 636 1690
550 695 1835
563 759 1983
576 822 2131
437 381 453
443 393 520
450 405 587
458 423 661
467 451 752
476 479 843
486 514 949
497 552 1063
507 591 1177
520 641 1309
533 690 1441
546 743 1576
560 803 1717
574 863 1858
588 930 2001
602 1001 2146
617 1071 2290
471 503 512
477 519 593
483 536 674
491 558 762
499 593 865
508 628 967
518 671 1083
529 720 1205
539 768 1328
552 827 1465
566 887 1602
580 950 1741
595 1020 1884
610 1090 2026
626 1165 2167
642 1243 2308
658 1320 2449
508 652 598
513 669 687
519 686 776
525 710 872
533 751 983
542 791 1094
552 842 1218
564 898 1348
575 955 1478
590 1023 1619
604 1091 1761
620 1162 1902
637 1240 2045
654 1317 2188
672 1398 2327
691 1481 2463
709 1563 2599
554 852 737
556 864 822
557 876 906
561 898 1001
570 940 1114
578 982 1227
591 1037 1356
605 1100 1492
619 1163 1629
637 1236 1772
655 1309 1914
674 1385 2056
695 1466 2197
715 1546 2338
737 1628 2472
760 1711 2603
782 1794 2734
599 1052 876
598 1060 957
596 1067 1037
598 1086 1129
606 1129 1245
615 1173 1360
629 1233 1494
647 1302 1637
664 1371 1779
685 1449 1924
705 1527 2068
727 1608 2210
752 1691 2349
777 1775 2488
802 1859 2618
828 1942 2743
855 2025 2868
674 1297 1060
668 1299 1134
662 1302 1209
660 1316 1295
665 1353 1405
670 1391 1515
685 1447 1643
704 1512 1781
724 1578 1919
748 1658 2063
772 1738 2207
797 1819 2348
826 1903 2482
854 1986 2617
883 2067 2740
913 2148 2859
943 2228 2977
765 1564 1265
753 1561 1333
742 1558 1401
735 1566 1480
735 1594 1580
736 1623 1680
750 1670 1798
771 1727 1925
792 1784 2052
819 1865 2195
847 1945 2338
876 2026 2476
908 2107 2606
939 2188 2735
973 2265 2852
1007 2341 2963
1041 2416 3075
855 1832 1471
839 1823 1532
822 1815 1594
809 1816 1665
805 1835 1755
801 1854 1846
815 1893 1953
837 1942 2070
859 1991 2186
890 2072 2328
921 2152 2469
954 2232 2605
989 2311 2729
1025 2390 2853
1062 2463 2964
1100 2534 3068
1138 2605 3172
1003 2105 1701
979 2094 1756
956 2083 1812
936 2079 1875
923 2090 1954
911 2101 2033
918 2131 2128
935 2170 2233
952 2209 2337
983 2272 2460
1014 2335 2582
1047 2401 2703
1085 2474 2820
1124 2547 2938
1163 2614 3041
1204 2678 3138
1244 2741 3234
1151 2379 1930
1120 2365 1980
1089 2350 2030
1062 2342 2085
1041 2345 2152
1020 2348 2219
1021 2368 2303
1033 2397 2396
1045 2426 2488
1076 2472 2591
1107 2518 2695
1141 2571 2800
1182 2638 2911
1222 2705 3022
1265 2765 3119
1308 2821 3208
1351 2877 3297
1318 2635 2150
1280 2618 2195
1242 2602 2239
1206 2589 2288
1177 2586 2344
1147 2582 2401
1140 2594 2473
1145 2613 2554
1150 2633 2634
1179 2664 2721
1208 2695 2807
1241 2735 2899
1281 2792 2999
1322 2850 3100
1366 2901 3188
1411 2950 3269
1457 2998 3351
1525 2853 2351
1479 2837 2392
1432 2821 2433
1387 2807 2476
1347 2799 2524
1306 2791 2572
1290 2796 2634
1286 2808 2702
1282 2820 2770
1304 2842 2845
1326 2864 2920
1353 2891 2998
1389 2929 3080
1426 2967 3163
1468 3007 3240
1514 3048 3314
1560 3089 3389
1732 3071 2552
1677 3055 2590
1622 3039 2627
1568 3025 2665
1517 3013 2704
1466 3000 2743
1440 2999 2794
1426 3002 2850
1413 3006 2906
1428 3019 2970
1444 3032 3033
1465 3047 3097
1497 3066 3162
1529 3085 3226
1570 3114 3292
1617 3147 3359
1663 3180 3427
1975 3233 2712
1910 3219 2747
1845 3205 2782
1781 3191 2817
1718 3177 2850
1655 3164 2884
1618 3158 2927
1593 3156 2973
1569 3153 3020
1575 3159 3073
1581 3165 3127
1593 3172 3180
1619 3181 3233
1644 3190 3285
1680 3207 3342
1721 3230 3399
1763 3252 3457
2234 3366 2851
2159 3355 2885
2085 3344 2918
2010 3332 2950
1935 3318 2980
1859 3304 3010
1810 3295 3046
1773 3288 3084
1737 3281 3122
1732 3281 3166
1728 3281 3210
1731 3282 3254
1749 3284 3299
1766 3287 3343
1794 3294 3389
1827 3304 3437
1860 3314 3485
2494 3499 2990
2409 3491 3022
2325 3482 3054
2239 3472 3084
2151 3458 3110
2064 3444 3136
2002 3432 3165
1953 3421 3195
1905 3409 3225
1890 3403 3259
1875 3397 3294
1868 3392 3329
1878 3388 3365
1888 3385 3401
1908 3381 3437
1933 3379 3475
1957 3376 3512
453 291 434
456 292 483
458 292 531
462 299 589
468 319 667
475 338 745
483 364 842
493 394 949
502 424 1055
515 464 1184
527 505 1312
540 549 1445
554 601 1586
567 652 1727
581 713 1871
594 778 2018
608 844 2165
503 435 495
508 438 560
512 440 625
516 450 697
520 475 787
525 500 876
532 533 982
539 571 1095
547 609 1209
559 659 1341
571 709 1473
583 762 1608
598 823 1750
612 885 1891
627 953 2033
642 1024 2176
658 1095 2318
553 579 556
559 584 637
565 588 718
570 601 806
572 631 906
575 661 1007
580 702 1121
586 748 1242
592 794 1363
603 853 1499
614 913 1635
627 976 1772
641 1046 1914
656 1117 2055
673 1192 2195
690 1269 2333
707 1347 2472
605 742 645
610 748 736
616 754 827
621 769 923
621 801 1031
622 834 1139
627 880 1259
633 933 1387
639 986 1515
650 1054 1654
662 1121 1792
675 1192 1932
692 1269 2073
708 1347 2214
727 1427 2350
747 1510 2484
767 1592 2618
658 946 790
661 951 877
663 956 964
665 969 1058
665 999 1165
664 1030 1272
670 1078 1397
679 1137 1530
689 1195 1663
703 1267 1803
718 1338 1944
735 1413 2084
755 1494 2223
775 1574 2361
798 1656 2494
822 1739 2623
846 1822 2752
711 1150 935
711 1153 1018
710 1157 1102
709 1169 1193
708 1197 1299
706 1225 1406
714 1277 1534
726 1340 1673
738 1404 1812
756 1480 1953
774 1556 2095
794 1635 2235
818 1718 2372
842 1801 2509
869 1885 2637
897 1968 2761
925 2051 2885
797 1392 1121
793 1394 1201
789 1397 1281
785 1405 1367
778 1427 1465
771 1449 1563
778 1495 1685
791 1553 1817
804 1611 1950
825 1688 2091
847 1766 2232
870 1845 2371
898 1928 2504
926 2010 2636
957 2092 2759
989 2172 2876
1021 2253 2993
898 1654 1327
891 1654 1403
885 1655 1480
876 1660 1559
862 1673 1646
849 1687 1733
853 1723 1843
865 1770 1963
878 1818 2083
903 1895 2223
928 1972 2363
955 2050 2498
987 2130 2626
1018 2211 2753
1053 2288 2869
1089 2364 2979
1126 2440 3089
998 1915 1534
989 1915 1606
980 1914 1679
967 1915 1752
946 1920 1828
926 1924 1904
927 1951 2001
939 1988 2108
952 2025 2216
980 2102 2354
1009 2178 2493
1040 2255 2626
1075 2333 2748
1111 2411 2870
1150 2484 2979
1190 2555 3082
1230 2627 3186
1156 2178 1759
1143 2177 1827
1131 2175 1895
1113 2173 1962
1083 2171 2027
1054 2170 2093
1047 2188 2178
1052 2216 2273
1057 2245 2368
1083 2303 2487
1109 2361 2605
1140 2424 2723
1178 2496 2838
1217 2568 2954
1258 2634 3056
1301 2698 3152
1344 2762 3248
1313 2441 1984
1297 2438 2048
1282 2436 2112
1259 2431 2173
1220 2423 2227
1181 2415 2282
1167 2425 2355
1165 2445 2438
1162 2464 2521
1186 2504 2619
1210 2545 2718
1240 2593 2820
1281 2659 2929
1322 2725 3038
1367 2784 3133
1412 2841 3221
1458 2897 3310
1488 2686 2198
1469 2682 2258
1450 2679 2318
1422 2672 2373
1374 2659 2418
1326 2646 2463
1303 2649 2526
1293 2660 2597
1282 2672 2668
1302 2697 2749
1321 2723 2830
1348 2758 2918
1389 2813 3016
1429 2868 3115
1475 2920 3202
1523 2968 3282
1571 3017 3363
1699 2893 2391
1676 2890 2447
1654 2886 2503
1620 2879 2553
1562 2864 2592
1504 2849 2631
1471 2847 2684
1451 2852 2744
1431 2856 2804
1442 2873 2873
1453 2890 2943
1472 2914 3016
1506 2950 3097
1539 2986 3177
1583 3026 3253
1632 3067 3327
1680 3108 3401
1910 3101 2584
1883 3097 2636
1857 3094 2688
1817 3086 2733
1750 3069 2766
1682 3052 2798
1640 3045 2841
1610 3043 2890
1580 3041 2939
1583 3049 2998
1585 3058 3056
1596 3069 3115
1623 3087 3177
1649 3104 3239
1691 3132 3305
1740 3165 3371
1790 3198 3438
2147 3254 2737
2117 3251 2784
2087 3248 2832
2041 3241 2873
1964 3224 2903
1887 3208 2932
1834 3198 2969
1793 3192 3010
1753 3185 3051
1745 3188 3100
1738 3190 3148
1739 3194 3197
1757 3201 3248
1774 3208 3298
1808 3225 3353
1850 3247 3410
1892 3269 3467
2398 3380 2869
2364 3378 2912
2329 3376 2955
2278 3370 2993
2191 3355 3021
2104 3340 3049
2041 3329 3081
1989 3320 3116
1937 3310 3151
1919 3307 3191
1900 3304 3231
1891 3302 3271
1899 3303 3313
1907 3304 3355
1930 3311 3400
1961 3320 3446
1991 3329 3492
2649 3507 3002
2611 3505 3040
2572 3504 3079
2514 3498 3113
2418 3486 3140
2321 3473 3166
2247 3460 3194
2184 3448 3222
2122 3435 3250
2092 3427 3282
2063 3418 3313
2043 3411 3345
2042 3406 3379
2040 3401 3412
2052 3397 3446
2071 3393 3482
2090 3390 3517
519 336 489
518 327 532
516 318 576
515 318 631
515 334 707
515 351 783
520 376 879
527 406 984
533 435 1089
545 477 1218
557 518 1346
570 563 1479
584 616 1621
598 670 1762
612 732 1906
626 799 2052
640 866 2197
585 494 546
587 487 608
589 479 670
590 481 741
588 502 830
585 523 919
587 554 1023
590 591 1134
594 628 1246
603 678 1377
613 728 1508
624 782 1643
637 844 1783
651 906 1924
666 975 2065
682 1048 2206
