Assets/1__3DArt/KimSe/artstation_asset/LUTs_subway_asset/3DL/Paranormal 04.3dl
# LUT by SparkleStock. Enhanced with VOXCOLOR algorithms.
0 64 128 192 256 320 384 448 512 576 640 704 768 832 896 960 1023
272 288 352
281 297 406
289 307 461
296 318 517
299 331 578
302 345 640
304 362 711
305 382 787
307 401 863
308 427 956
310 453 1048
312 482 1148
316 516 1261
320 550 1374
325 589 1507
330 630 1650
336 672 1793
287 389 418
292 407 479
296 426 539
301 446 603
306 469 676
310 492 749
314 521 831
317 551 918
320 582 1005
323 620 1107
326 658 1210
330 699 1318
335 745 1439
340 791 1560
347 843 1697
354 898 1842
361 953 1986
303 490 485
303 517 551
304 544 617
306 574 689
313 607 773
319 640 858
324 679 952
329 721 1049
333 763 1147
338 812 1259
342 862 1371
348 915 1489
354 974 1618
361 1033 1746
369 1097 1887
378 1165 2033
386 1233 2180
322 618 571
318 650 639
315 681 707
315 716 784
322 759 879
329 803 974
336 852 1077
342 904 1184
349 956 1291
355 1016 1412
361 1076 1533
368 1140 1658
376 1209 1792
384 1278 1926
393 1353 2069
403 1431 2215
414 1509 2361
348 802 698
341 827 760
335 852 823
333 886 899
338 940 1000
344 994 1101
352 1053 1212
360 1113 1327
368 1174 1442
376 1242 1568
384 1310 1694
392 1381 1823
402 1456 1958
411 1531 2094
422 1611 2234
434 1693 2376
445 1775 2518
373 987 824
364 1005 881
355 1023 939
350 1057 1013
355 1121 1121
359 1186 1228
367 1253 1346
377 1323 1470
387 1392 1594
397 1468 1725
407 1544 1856
417 1622 1988
428 1703 2125
439 1785 2262
451 1869 2399
464 1955 2537
476 2040 2675
419 1221 991
404 1231 1041
388 1241 1091
378 1269 1159
380 1331 1264
382 1394 1368
391 1463 1486
402 1536 1610
414 1608 1734
426 1688 1868
437 1768 2001
450 1849 2135
463 1933 2271
476 2017 2406
490 2102 2539
504 2187 2671
519 2272 2803
476 1480 1178
451 1481 1220
427 1483 1261
411 1502 1321
410 1556 1418
410 1611 1514
418 1677 1627
431 1750 1748
444 1823 1870
458 1905 2004
472 1988 2139
487 2071 2273
502 2155 2406
517 2239 2539
534 2322 2667
550 2405 2792
567 2487 2917
532 1739 1366
499 1732 1399
466 1725 1431
443 1735 1483
441 1782 1571
438 1828 1660
446 1892 1769
460 1965 1887
474 2038 2005
491 2123 2141
507 2208 2276
524 2292 2410
542 2376 2541
559 2461 2672
577 2542 2794
596 2622 2913
615 2702 3031
643 2020 1586
595 2007 1610
547 1995 1634
512 1998 1676
501 2034 1754
490 2070 1832
495 2124 1929
507 2186 2037
519 2249 2144
539 2323 2267
558 2396 2389
578 2472 2512
599 2552 2639
620 2631 2765
642 2707 2881
665 2780 2992
687 2853 3103
755 2302 1806
692 2283 1822
629 2265 1838
580 2261 1870
561 2287 1937
542 2312 2003
543 2355 2090
554 2407 2186
564 2459 2283
587 2522 2392
609 2585 2501
633 2652 2614
657 2727 2736
681 2802 2857
707 2871 2967
733 2938 3072
759 3005 3176
896 2569 2024
816 2547 2032
736 2525 2041
672 2516 2064
643 2532 2120
613 2548 2175
607 2581 2250
614 2622 2335
620 2664 2421
645 2716 2517
669 2768 2614
695 2824 2716
722 2891 2828
750 2957 2941
780 3019 3043
810 3079 3141
840 3139 3238
1096 2810 2236
995 2787 2239
894 2765 2242
811 2753 2259
766 2762 2303
721 2771 2347
704 2794 2410
702 2825 2482
700 2855 2555
723 2897 2641
746 2938 2726
772 2982 2815
803 3032 2909
835 3082 3004
868 3134 3097
903 3186 3189
938 3238 3281
1297 3050 2447
1175 3028 2446
1052 3006 2444
951 2991 2454
889 2992 2486
828 2993 2519
801 3007 2570
790 3027 2629
779 3047 2689
801 3078 2764
823 3108 2838
849 3140 2914
884 3174 2990
919 3208 3067
957 3248 3150
997 3293 3237
1036 3337 3323
1579 3236 2629
1434 3217 2626
1289 3199 2623
1165 3185 2628
1084 3181 2652
1002 3178 2675
958 3184 2714
932 3196 2762
906 3207 2810
921 3229 2873
936 3250 2936
958 3272 3000
993 3296 3066
1028 3319 3131
1069 3349 3204
1111 3383 3280
1154 3416 3355
1903 3396 2796
1734 3382 2793
1565 3368 2790
1417 3357 2793
1313 3350 2808
1209 3342 2823
1145 3343 2852
1101 3347 2887
1058 3352 2923
1063 3365 2974
1068 3377 3026
1083 3391 3080
1117 3408 3138
1151 3424 3196
1192 3443 3257
1237 3464 3320
1281 3486 3383
2226 3555 2962
2033 3546 2959
1841 3538 2957
1670 3529 2957
1542 3518 2964
1415 3507 2971
1332 3502 2989
1271 3499 3012
1209 3496 3036
1204 3500 3076
1199 3505 3116
1207 3511 3160
1240 3520 3210
1273 3528 3260
1315 3537 3310
1362 3546 3360
1409 3555 3410
321 314 397
322 316 442
324 319 486
326 324 535
329 336 595
331 348 655
333 365 726
335 385 802
336 404 878
338 432 973
341 459 1067
344 489 1168
348 524 1284
353 560 1399
358 602 1533
365 647 1676
371 692 1818
353 439 476
352 451 530
351 463 585
352 477 643
354 496 712
357 515 780
359 540 859
361 568 944
363 597 1028
366 634 1131
369 672 1233
374 713 1342
379 760 1464
385 808 1586
393 861 1723
402 918 1867
410 975 2012
386 564 555
382 586 619
378 608 683
377 631 752
380 656 828
382 682 905
385 715 992
387 752 1085
390 789 1178
394 837 1289
398 885 1400
404 937 1516
411 996 1645
418 1056 1773
428 1121 1913
439 1190 2059
449 1258 2205
420 710 650
414 737 720
408 765 791
404 794 865
406 826 949
407 858 1032
410 899 1127
413 945 1228
417 990 1329
422 1048 1447
428 1106 1564
434 1167 1687
443 1236 1820
452 1305 1953
464 1380 2094
476 1458 2240
489 1536 2385
459 898 780
450 922 848
442 946 916
436 976 990
434 1015 1076
431 1054 1163
434 1103 1264
439 1156 1372
444 1210 1481
452 1275 1603
459 1340 1725
467 1408 1851
478 1483 1985
488 1558 2119
501 1637 2258
515 1719 2400
529 1801 2541
497 1085 909
487 1107 975
476 1128 1040
468 1158 1114
461 1204 1204
455 1250 1294
458 1306 1401
465 1368 1516
472 1430 1632
481 1502 1759
490 1574 1886
500 1649 2015
512 1730 2150
525 1811 2285
539 1895 2422
554 1981 2559
570 2067 2697
557 1318 1077
543 1335 1137
529 1352 1198
516 1377 1268
505 1420 1353
495 1464 1439
495 1520 1544
502 1583 1659
508 1647 1773
520 1723 1902
531 1799 2032
543 1877 2162
558 1960 2296
572 2042 2429
589 2127 2561
606 2212 2693
624 2298 2825
629 1573 1263
610 1585 1318
591 1596 1373
573 1615 1436
558 1651 1514
542 1687 1592
540 1739 1691
545 1800 1800
550 1862 1910
563 1940 2040
577 2018 2170
592 2098 2300
609 2181 2431
626 2263 2562
645 2346 2689
665 2429 2813
685 2512 2938
701 1828 1449
677 1834 1498
653 1840 1548
630 1853 1604
610 1881 1674
590 1909 1744
585 1958 1837
588 2017 1942
591 2077 2046
607 2157 2177
623 2237 2308
640 2319 2438
660 2401 2566
680 2484 2694
701 2565 2816
723 2645 2934
746 2726 3052
827 2101 1664
795 2103 1707
762 2104 1749
730 2112 1798
701 2131 1858
671 2151 1919
660 2191 2002
659 2240 2096
657 2290 2189
673 2358 2306
690 2426 2422
708 2498 2541
731 2576 2665
754 2654 2788
779 2729 2904
805 2803 3014
832 2876 3125
954 2374 1879
913 2371 1915
871 2368 1951
830 2370 1992
791 2381 2043
752 2392 2093
735 2423 2166
730 2463 2250
724 2503 2333
740 2559 2435
756 2615 2537
775 2677 2644
802 2750 2763
828 2824 2882
857 2893 2991
887 2960 3095
917 3027 3198
1108 2632 2089
1056 2626 2120
1004 2620 2150
953 2618 2185
903 2622 2226
853 2626 2267
828 2647 2329
817 2678 2402
805 2709 2475
819 2754 2563
834 2798 2651
853 2849 2747
881 2914 2857
910 2978 2967
942 3040 3068
976 3100 3165
1011 3160 3262
1315 2864 2292
1251 2856 2318
1186 2849 2345
1122 2844 2373
1057 2843 2405
993 2842 2438
957 2856 2490
935 2878 2551
914 2900 2612
924 2934 2690
934 2969 2767
951 3007 2849
979 3055 2941
1007 3103 3032
1042 3154 3123
1081 3206 3214
1120 3258 3305
1522 3095 2495
1445 3086 2517
1368 3078 2539
1291 3070 2562
1212 3064 2585
1133 3058 2609
1085 3064 2650
1054 3077 2700
1023 3090 2750
1029 3115 2816
1035 3139 2882
1049 3166 2951
1076 3197 3024
1104 3227 3097
1142 3267 3179
1185 3312 3264
1228 3356 3349
1795 3274 2666
1705 3267 2687
1615 3259 2707
1523 3251 2726
1427 3243 2744
1332 3234 2761
1270 3235 2793
1225 3241 2833
1179 3247 2872
1177 3264 2927
1174 3280 2983
1181 3298 3041
1205 3318 3102
1230 3338 3164
1266 3367 3234
1309 3400 3308
1351 3433 3382
2101 3427 2822
1997 3422 2842
1893 3416 2861
1786 3410 2879
1674 3400 2891
1561 3391 2904
1482 3388 2928
1421 3388 2957
1360 3388 2987
1346 3397 3031
1332 3406 3076
1330 3416 3124
1350 3429 3177
1370 3442 3230
1403 3460 3289
1442 3480 3350
1481 3500 3410
2407 3581 2977
2289 3577 2997
2172 3574 3016
2050 3568 3031
1920 3558 3039
1790 3547 3047
1695 3540 3062
1618 3534 3082
1540 3529 3101
1516 3530 3135
1491 3532 3169
1479 3535 3207
1495 3541 3252
1510 3546 3297
1539 3553 3344
1575 3560 3391
1610 3567 3439
369 340 443
364 336 477
359 331 511
356 331 553
359 342 612
361 352 670
363 369 741
364 388 817
366 408 894
368 436 990
371 464 1086
375 495 1189
380 533 1306
385 570 1424
392 615 1558
399 663 1701
407 711 1844
419 489 534
413 495 582
406 501 630
402 509 684
403 523 747
403 538 811
404 560 887
405 586 970
406 612 1052
409 649 1155
413 686 1257
417 727 1366
424 776 1489
431 824 1612
439 880 1749
449 938 1893
459 997 2037
469 638 624
461 654 687
453 671 750
448 688 815
447 705 883
446 723 952
446 751 1033
446 783 1122
446 815 1210
450 862 1319
454 909 1428
459 959 1544
468 1019 1672
476 1078 1800
487 1144 1939
500 1214 2084
512 1283 2229
519 801 729
510 825 802
501 848 874
493 871 946
489 892 1018
485 913 1090
484 947 1177
485 986 1272
485 1025 1367
490 1080 1481
495 1135 1596
501 1194 1716
511 1263 1848
521 1332 1980
534 1407 2120
549 1485 2265
564 1562 2409
570 993 862
559 1017 935
549 1041 1008
539 1065 1081
529 1089 1153
518 1114 1225
516 1153 1316
518 1200 1417
521 1246 1519
527 1308 1637
534 1370 1756
542 1436 1879
554 1510 2012
566 1584 2145
580 1664 2283
597 1746 2423
613 1828 2564
620 1184 994
609 1209 1068
598 1233 1142
585 1259 1215
568 1286 1287
551 1314 1359
548 1359 1455
552 1414 1563
556 1468 1671
565 1536 1793
573 1605 1916
584 1677 2042
597 1757 2176
610 1837 2309
627 1921 2445
645 2007 2582
663 2093 2719
695 1416 1162
683 1439 1234
670 1462 1306
654 1485 1376
631 1509 1443
607 1533 1510
600 1577 1603
602 1631 1708
603 1685 1813
614 1757 1937
625 1829 2062
637 1904 2189
653 1986 2321
669 2067 2452
688 2152 2584
708 2238 2715
728 2323 2846
782 1667 1347
769 1688 1416
755 1709 1485
736 1728 1551
705 1745 1610
674 1762 1669
662 1801 1754
658 1851 1852
655 1900 1950
668 1974 2075
682 2048 2200
697 2125 2327
716 2206 2456
734 2288 2585
756 2370 2711
779 2453 2835
803 2536 2960
870 1918 1533
855 1937 1598
840 1956 1664
818 1972 1725
779 1981 1777
741 1991 1828
723 2025 1906
715 2070 1996
707 2115 2087
723 2191 2213
739 2267 2339
757 2345 2465
778 2426 2591
800 2508 2717
825 2588 2838
851 2669 2955
877 2749 3073
1012 2182 1742
994 2198 1803
977 2213 1864
949 2225 1920
900 2229 1963
852 2232 2006
825 2258 2074
811 2295 2154
796 2331 2235
808 2394 2345
821 2456 2455
837 2523 2569
862 2600 2691
887 2677 2812
916 2751 2926
946 2825 3037
976 2899 3147
1154 2446 1951
1134 2459 2008
1114 2471 2065
1081 2479 2114
1021 2476 2149
962 2473 2184
928 2491 2242
906 2519 2313
884 2547 2383
893 2596 2477
903 2645 2572
918 2702 2674
946 2774 2790
975 2845 2907
1007 2914 3015
1041 2982 3118
1075 3049 3221
1319 2696 2155
1296 2706 2208
1273 2716 2260
1234 2720 2305
1163 2711 2332
1093 2703 2359
1049 2714 2408
1019 2734 2468
990 2755 2529
994 2791 2609
998 2828 2689
1011 2874 2778
1040 2936 2886
1069 2999 2993
1105 3061 3093
1143 3121 3189
1181 3181 3285
1533 2918 2349
1506 2925 2398
1479 2933 2447
1433 2934 2487
1349 2923 2508
1265 2913 2529
1210 2918 2569
1169 2931 2619
1128 2944 2669
1126 2971 2739
1123 2999 2808
1129 3033 2883
1154 3078 2972
1179 3123 3060
1216 3173 3150
1259 3226 3240
1301 3278 3330
1747 3140 2543
1715 3145 2588
1684 3150 2634
1631 3149 2669
1534 3136 2684
1437 3122 2699
1370 3122 2731
1318 3127 2770
1267 3133 2810
1257 3151 2868
1247 3170 2927
1248 3192 2989
1269 3220 3058
1289 3247 3128
1327 3286 3207
1374 3331 3291
1421 3375 3375
2010 3312 2704
1975 3316 2747
1940 3319 2791
1880 3317 2824
1771 3304 2836
1662 3291 2847
1582 3287 2872
1517 3287 2903
1453 3287 2934
1432 3299 2982
1412 3310 3030
1403 3323 3081
1417 3340 3139
1431 3358 3196
1464 3385 3264
1506 3418 3337
1548 3451 3409
2299 3459 2848
2260 3462 2891
2221 3465 2933
2155 3462 2965
2034 3451 2975
1913 3439 2985
1820 3432 3004
1741 3428 3027
1662 3425 3050
1630 3430 3088
1597 3434 3126
1578 3441 3168
1583 3451 3216
1589 3461 3265
1613 3477 3320
1647 3496 3379
1680 3515 3438
2588 3606 2993
2545 3608 3034
2503 3610 3075
2430 3608 3106
2297 3597 3114
2164 3586 3122
2058 3578 3136
1965 3570 3151
1872 3562 3167
1827 3560 3195
1782 3559 3223
1752 3559 3254
1749 3562 3294
1747 3565 3334
1762 3569 3377
1787 3574 3422
1812 3580 3467
433 378 498
420 367 524
406 355 551
397 350 586
396 356 641
395 363 695
395 377 764
396 396 839
398 415 915
401 443 1012
404 472 1109
409 504 1213
414 543 1332
420 582 1451
428 628 1587
436 679 1730
444 730 1873
498 548 598
485 548 642
472 547 686
462 550 735
458 558 793
454 567 850
453 585 922
452 607 1002
452 630 1081
455 667 1183
458 703 1285
463 744 1394
470 793 1517
477 842 1640
486 898 1777
497 959 1921
