Assets/1__3DArt/KimSe/artstation_asset/LUTs_subway_asset/3DL/Paranormal 04_S.3dl
# LUT by SparkleStock. Enhanced with VOXCOLOR algorithms.
0 256 512 768 1023
272 288 352
299 331 578
307 401 863
316 516 1261
336 672 1793
347 803 696
338 940 1000
365 1171 1443
400 1453 1961
440 1767 2528
527 1740 1353
439 1782 1567
471 2038 2005
535 2371 2545
608 2690 3044
1083 2810 2202
758 2763 2289
693 2856 2550
795 3031 2912
932 3232 3287
2226 3555 2962
1542 3518 2964
1209 3496 3036
1240 3520 3210
1409 3555 3410
535 435 563
497 368 713
450 421 957
455 554 1365
486 748 1910
865 1129 846
865 1141 1186
781 1287 1608
747 1554 2081
791 1870 2625
1217 2056 1544
1178 2087 1798
1060 2171 2147
1073 2468 2651
1162 2782 3130
1893 3000 2365
1847 3033 2588
1602 3028 2761
1537 3126 3037
1667 3313 3388
2835 3630 2980
2807 3658 3193
2466 3630 3283
2242 3611 3380
2205 3612 3522
1107 787 928
953 582 1045
706 537 1235
654 643 1558
684 830 2084
1623 1472 1030
1640 1330 1343
1459 1477 1914
1228 1704 2285
1174 1994 2756
1937 2285 1509
1963 2225 1689
1966 2300 2288
1793 2570 2782
1793 2875 3224
2500 3115 2351
2562 3144 2553
2583 3197 2922
2373 3236 3173
2394 3397 3489
3120 3630 2876
3266 3711 3168
3353 3761 3430
3105 3721 3533
2928 3694 3624
2091 1409 1424
1784 1198 1612
1374 1047 1817
1101 1034 2056
1054 1091 2409
2561 2008 1487
2572 1771 1705
2364 1835 2225
2045 2093 2676
1817 2262 2991
2814 2636 1783
2881 2429 1818
2917 2366 2322
2720 2738 3005
2499 3040 3373
3029 3218 2314
3099 3184 2362
3144 3186 2669
3128 3293 3216
3044 3493 3583
3350 3623 2761
3483 3717 3028
3581 3788 3285
3612 3808 3569
3482 3778 3704
3074 2066 1809
2846 2095 2251
2389 1944 2534
1961 1827 2773
1729 1809 3026
3340 2608 2029
3403 2499 2275
3270 2500 2697
3012 2647 3098
2827 2849 3421
3496 3058 2258
3643 2850 2223
3755 2688 2579
3636 2937 3176
3468 3370 3619
3570 3398 2484
3721 3310 2399
3843 3241 2613
3862 3299 3195
3766 3647 3719
3635 3651 2706
3732 3730 2894
3824 3807 3101
3868 3837 3456
3907 3843 3779
