Assets/1__3DArt/KimSe/artstation_asset/LUTs_subway_asset/3DL/Paranormal 04.3dl
# LUT by SparkleStock. Enhanced with VOXCOLOR algorithms.
0 128 256 384 512 640 768 896 1023
272 288 352
289 307 461
299 331 578
304 362 711
307 401 863
310 453 1048
316 516 1261
325 589 1507
336 672 1793
303 490 485
304 544 617
313 607 773
324 679 952
333 763 1147
342 862 1371
354 974 1618
369 1097 1887
386 1233 2180
348 802 698
335 852 823
338 940 1000
352 1053 1212
368 1174 1442
384 1310 1694
402 1456 1958
422 1611 2234
445 1775 2518
419 1221 991
388 1241 1091
380 1331 1264
391 1463 1486
414 1608 1734
437 1768 2001
463 1933 2271
490 2102 2539
519 2272 2803
532 1739 1366
466 1725 1431
441 1782 1571
446 1892 1769
474 2038 2005
507 2208 2276
542 2376 2541
577 2542 2794
615 2702 3031
755 2302 1806
629 2265 1838
561 2287 1937
543 2355 2090
564 2459 2283
609 2585 2501
657 2727 2736
707 2871 2967
759 3005 3176
1096 2810 2236
894 2765 2242
766 2762 2303
704 2794 2410
700 2855 2555
746 2938 2726
803 3032 2909
868 3134 3097
938 3238 3281
1579 3236 2629
1289 3199 2623
1084 3181 2652
958 3184 2714
906 3207 2810
936 3250 2936
993 3296 3066
1069 3349 3204
1154 3416 3355
2226 3555 2962
1841 3538 2957
1542 3518 2964
1332 3502 2989
1209 3496 3036
1199 3505 3116
1240 3520 3210
1315 3537 3310
1409 3555 3410
369 340 443
359 331 511
359 342 612
363 369 741
366 408 894
371 464 1086
380 533 1306
392 615 1558
407 711 1844
469 638 624
453 671 750
447 705 883
446 751 1033
446 815 1210
454 909 1428
468 1019 1672
487 1144 1939
512 1283 2229
570 993 862
549 1041 1008
529 1089 1153
516 1153 1316
521 1246 1519
534 1370 1756
554 1510 2012
580 1664 2283
613 1828 2564
695 1416 1162
670 1462 1306
631 1509 1443
600 1577 1603
603 1685 1813
625 1829 2062
653 1986 2321
688 2152 2584
728 2323 2846
870 1918 1533
840 1956 1664
779 1981 1777
723 2025 1906
707 2115 2087
739 2267 2339
778 2426 2591
825 2588 2838
877 2749 3073
1154 2446 1951
1114 2471 2065
1021 2476 2149
928 2491 2242
884 2547 2383
903 2645 2572
946 2774 2790
1007 2914 3015
1075 3049 3221
1533 2918 2349
1479 2933 2447
1349 2923 2508
1210 2918 2569
1128 2944 2669
1123 2999 2808
1154 3078 2972
1216 3173 3150
1301 3278 3330
2010 3312 2704
1940 3319 2791
1771 3304 2836
1582 3287 2872
1453 3287 2934
1412 3310 3030
1417 3340 3139
1464 3385 3264
1548 3451 3409
2588 3606 2993
2503 3610 3075
2297 3597 3114
2058 3578 3136
1872 3562 3167
1782 3559 3223
1749 3562 3294
1762 3569 3377
1812 3580 3467
525 440 572
478 406 619
448 390 694
434 396 801
435 429 947
442 484 1139
453 555 1364
468 643 1621
486 748 1910
682 807 784
641 821 906
608 828 1019
585 845 1142
573 885 1296
574 965 1502
584 1068 1737
601 1191 2001
627 1333 2290
836 1190 1029
808 1232 1186
773 1259 1320
741 1290 1458
722 1345 1623
721 1445 1837
732 1571 2078
755 1717 2339
789 1879 2616
1009 1609 1320
994 1664 1487
956 1700 1627
911 1738 1765
877 1797 1926
878 1912 2146
894 2049 2384
925 2204 2635
969 2370 2891
1219 2086 1674
1214 2142 1838
1169 2170 1965
1102 2193 2080
1029 2230 2205
1039 2350 2425
1066 2488 2655
1107 2637 2888
1164 2794 3117
1528 2575 2062
1534 2623 2216
1481 2642 2327
1391 2648 2418
1285 2661 2510
1259 2726 2663
1281 2833 2858
1336 2962 3068
1408 3091 3269
1907 3007 2423
1924 3046 2567
1863 3057 2664
1750 3053 2735
1609 3047 2800
1547 3075 2905
1541 3135 3045
1585 3218 3208
1671 3318 3381
2346 3365 2736
2374 3395 2870
2308 3401 2959
2175 3392 3018
2002 3375 3061
1904 3379 3132
1858 3394 3219
1869 3428 3327
1941 3488 3463
2835 3630 2980
2874 3652 3107
2807 3658 3194
2662 3651 3249
2466 3630 3283
2328 3617 3325
2242 3611 3380
2202 3609 3446
2205 3612 3522
757 592 741
663 536 782
589 490 835
542 467 916
523 477 1039
528 524 1222
539 591 1443
556 679 1699
577 786 1990
961 1009 968
891 1007 1091
823 992 1192
768 982 1294
733 993 1423
721 1049 1605
721 1135 1825
731 1248 2078
752 1387 2361
1157 1409 1207
1118 1442 1370
1069 1457 1507
1018 1468 1634
971 1485 1767
946 1551 1948
938 1651 2165
948 1781 2410
974 1935 2676
1357 1815 1476
1347 1864 1652
1320 1901 1808
1275 1928 1949
1212 1948 2076
1180 2022 2256
1171 2130 2466
1185 2266 2697
1221 2422 2941
1574 2246 1792
1583 2299 1968
1570 2340 2123
1524 2367 2253
1431 2375 2353
1400 2452 2530
1397 2560 2730
1420 2692 2944
1470 2838 3164
1878 2692 2144
1905 2740 2314
1906 2778 2461
1860 2799 2577
1745 2793 2655
1667 2824 2771
1654 2904 2936
1687 3014 3127
1750 3133 3317
2229 3081 2464
2273 3125 2627
2289 3159 2766
2246 3174 2872
2114 3160 2935
2002 3164 3012
1953 3202 3126
1967 3269 3270
2040 3359 3433
2610 3401 2734
2668 3439 2889
2699 3469 3023
2665 3481 3123
2527 3465 3180
2390 3454 3233
2300 3455 3301
2272 3477 3393
2322 3528 3516
3001 3636 2938
3070 3671 3084
3117 3697 3214
3097 3708 3314
2968 3697 3375
2817 3679 3416
2699 3665 3462
2619 3656 3514
2581 3651 3575
1082 804 955
933 725 998
807 656 1046
706 602 1108
636 566 1188
635 595 1347
643 648 1551
660 727 1797
684 830 2084
1327 1253 1179
1226 1241 1311
1120 1212 1414
1021 1180 1506
946 1158 1607
913 1176 1752
897 1233 1942
895 1325 2174
907 1451 2444
1539 1665 1406
1483 1684 1576
1412 1690 1717
1337 1688 1842
1265 1682 1961
1208 1700 2099
1174 1763 2280
1162 1866 2499
1170 2004 2749
1734 2045 1639
1717 2078 1819
1687 2109 1983
1643 2132 2130
1585 2143 2263
1512 2166 2397
1467 2235 2570
1452 2343 2775
1465 2484 3004
1927 2398 1884
1943 2443 2068
1945 2484 2236
1932 2517 2387
1901 2542 2525
1815 2571 2653
1768 2644 2817
1758 2753 3007
1787 2888 3212
2204 2798 2198
2241 2842 2378
2261 2880 2538
2262 2913 2682
2243 2939 2812
2116 2937 2891
2057 2986 3024
2053 3071 3190
2092 3178 3366
2511 3144 2479
2567 3187 2653
2604 3224 2808
2621 3254 2945
2617 3279 3067
2469 3261 3122
2378 3277 3213
2352 3325 3335
2397 3403 3483
2824 3425 2709
2896 3467 2879
2948 3503 3028
2982 3532 3160
2996 3556 3278
2849 3533 3327
2729 3522 3382
2665 3531 3458
2682 3571 3567
3120 3630 2876
3204 3672 3039
3270 3708 3184
3319 3737 3314
3355 3761 3431
3227 3740 3486
3105 3721 3533
3002 3705 3577
2928 3694 3624
1553 1099 1206
1366 1013 1272
1186 927 1333
1025 850 1398
897 793 1478
832 778 1594
811 795 1754
819 842 1962
840 922 2219
1804 1545 1408
1691 1534 1558
1553 1498 1674
1413 1455 1774
1295 1422 1879
1221 1414 2000
1171 1427 2147
1144 1472 2331
1137 1560 2562
2012 1942 1608
1950 1959 1789
1865 1962 1942
1768 1955 2076
1666 1946 2202
1592 1949 2330
1525 1966 2471
1474 2014 2639
1450 2110 2849
2191 2298 1810
2164 2320 1994
2130 2345 2166
2081 2367 2323
2010 2379 2464
1941 2395 2599
1865 2421 2737
1804 2475 2893
1776 2575 3085
2352 2618 2017
2358 2646 2202
2356 2675 2372
2344 2705 2531
2322 2736 2679
2263 2764 2819
2188 2800 2955
2127 2859 3103
2109 2958 3279
2528 2912 2244
2560 2945 2425
2581 2977 2590
2591 3009 2743
2589 3039 2884
2541 3056 3003
2473 3088 3124
2420 3143 3259
2419 3232 3418
2760 3198 2472
2813 3234 2650
2853 3268 2811
2881 3299 2957
2896 3327 3092
2858 3340 3198
2781 3353 3292
2718 3383 3395
2721 3448 3528
3007 3445 2672
3076 3484 2847
3132 3519 3004
3175 3550 3145
3205 3578 3275
3180 3591 3375
3097 3585 3446
3016 3585 3515
2995 3613 3610
3229 3624 2812
3310 3667 2985
3378 3705 3139
3435 3738 3278
3480 3768 3406
3475 3781 3505
3406 3773 3573
3309 3754 3623
3221 3737 3667
2075 1424 1447
1883 1354 1554
1673 1267 1643
1465 1176 1724
1277 1097 1810
1150 1057 1915
1077 1045 2046
1047 1058 2209
1054 1091 2409
2307 1840 1620
2205 1842 1796
2057 1812 1933
1892 1768 2050
1736 1728 2164
1622 1707 2283
1539 1700 2411
1482 1711 2557
1442 1739 2727
2495 2205 1790
2440 2229 1986
2358 2237 2154
2253 2234 2302
2131 2224 2438
2036 2223 2569
1954 2227 2699
1880 2242 2835
1812 2272 2986
2647 2527 1960
2620 2547 2151
2590 2573 2331
2544 2597 2498
2468 2612 2649
2396 2629 2791
2321 2646 2924
2243 2669 3056
2162 2707 3195
2776 2812 2133
2773 2830 2317
2769 2853 2491
2762 2882 2656
2752 2917 2814
2703 2948 2964
2641 2977 3101
2570 3011 3231
2493 3057 3363
2888 3046 2306
2910 3068 2485
2927 3093 2652
2940 3121 2809
2949 3152 2959
2938 3182 3098
2896 3215 3230
2838 3255 3357
2781 3305 3482
3030 3270 2481
3072 3297 2657
3109 3324 2819
3139 3352 2970
3162 3381 3112
3171 3408 3242
3137 3431 3356
3087 3458 3465
3043 3501 3577
3189 3468 2639
3248 3501 2813
3299 3532 2972
3343 3561 3118
3379 3590 3256
3400 3616 3379
3375 3626 3477
3326 3635 3563
3277 3655 3649
3350 3623 2759
3421 3665 2934
3484 3702 3092
3539 3735 3237
3587 3767 3372
3624 3794 3492
3617 3804 3588
3568 3798 3658
3482 3778 3704
2598 1754 1655
2442 1728 1823
2238 1661 1955
2008 1572 2066
1775 1481 2169
1590 1424 2278
1454 1393 2395
1371 1379 2525
1345 1375 2672
2793 2118 1800
2722 2146 2006
2593 2139 2176
2429 2108 2320
2253 2068 2450
2106 2042 2577
1992 2031 2703
1905 2025 2829
1840 2015 2953
2947 2438 1942
2914 2476 2152
2850 2499 2340
2757 2508 2507
2634 2506 2658
2525 2508 2799
2437 2516 2934
2355 2521 3060
2266 2513 3172
3068 2720 2085
3048 2746 2281
3031 2776 2470
2998 2807 2647
2932 2831 2811
2859 2854 2962
2798 2879 3105
2728 2896 3233
2631 2897 3341
3164 2968 2229
3158 2985 2411
3155 3007 2588
3156 3036 2759
3161 3074 2925
3121 3112 3083
3086 3150 3231
3034 3181 3363
2943 3194 3471
3236 3170 2367
3247 3184 2542
3260 3203 2709
3274 3228 2869
3290 3260 3025
3296 3298 3173
3289 3340 3320
3257 3378 3454
3185 3404 3564
3304 3345 2497
3332 3363 2667
3359 3383 2827
3386 3406 2980
3412 3434 3128
3436 3468 3266
3448 3503 3403
3435 3538 3529
3383 3570 3636
3381 3498 2615
3425 3523 2784
3466 3548 2942
3504 3574 3090
3540 3601 3231
3569 3629 3363
3593 3655 3487
3594 3680 3599
3554 3703 3693
3485 3631 2717
3541 3668 2889
3593 3701 3048
3640 3732 3196
3685 3762 3335
3722 3790 3463
3756 3815 3580
3761 3826 3676
3711 3813 3739
3074 2066 1809
2999 2113 2057
2846 2095 2251
2636 2032 2404
2389 1944 2534
2154 1872 2653
1961 1827 2773
1818 1807 2897
1729 1809 3026
3219 2358 1930
3198 2426 2171
3120 2459 2384
2995 2461 2567
2831 2435 2721
2663 2408 2858
2522 2396 2992
2414 2398 3124
2344 2416 3256
3331 2622 2053
3328 2682 2277
3303 2730 2487
3247 2765 2680
3152 2783 2851
3042 2790 3001
2947 2803 3145
2872 2824 3285
2824 2853 3419
3418 2862 2177
3414 2899 2379
3417 2940 2574
3410 2983 2762
3375 3025 2941
3314 3056 3099
3259 3089 3250
3216 3124 3394
3190 3162 3532
3484 3077 2300
3481 3097 2482
3485 3123 2659
3499 3156 2833
3523 3197 3005
3503 3245 3168
3482 3292 3323
3467 3338 3470
3462 3385 3610
3527 3253 2412
3531 3267 2581
3540 3284 2746
3557 3308 2908
3582 3341 3069
3606 3385 3222
3617 3434 3375
3623 3486 3523
3634 3538 3664
3563 3405 2513
3577 3419 2677
3594 3435 2834
3615 3455 2987
3643 3481 3138
3681 3519 3284
3711 3562 3427
3737 3610 3569
3762 3664 3711
3597 3537 2604
3623 3557 2768
3649 3576 2922
3677 3596 3070
3708 3620 3215
3744 3651 3354
3781 3684 3486
3817 3721 3616
3851 3766 3749
3635 3651 2690
3673 3680 2855
3710 3706 3010
3744 3731 3157
3779 3757 3298
3811 3783 3431
3842 3808 3555
3874 3828 3671
3907 3843 3779
