Assets/1__3DArt/KimSe/artstation_asset/LUTs_subway_asset/3DL/Paranormal 01.3dl
# LUT by SparkleStock. Enhanced with VOXCOLOR algorithms.
0 128 256 384 512 640 768 896 1023
128 240 352
162 284 457
190 335 566
217 395 686
248 465 827
288 549 1006
335 643 1216
388 748 1456
448 865 1729
157 471 502
183 540 634
221 625 785
266 724 955
313 833 1143
369 957 1365
431 1092 1613
498 1237 1883
569 1391 2174
189 811 724
202 869 860
237 968 1041
288 1097 1252
352 1242 1479
424 1398 1731
503 1562 1998
585 1732 2278
669 1907 2568
250 1254 1024
237 1279 1145
257 1371 1334
306 1507 1565
379 1668 1816
468 1846 2084
563 2026 2356
662 2206 2631
762 2385 2905
364 1795 1406
308 1782 1501
304 1837 1666
343 1944 1882
413 2087 2132
515 2275 2406
626 2458 2673
742 2634 2930
861 2801 3175
645 2374 1846
520 2339 1920
468 2359 2053
476 2424 2231
534 2524 2442
631 2651 2669
748 2802 2906
876 2956 3138
1008 3096 3349
1082 2883 2260
881 2846 2324
766 2845 2430
726 2875 2571
751 2934 2739
835 3013 2919
941 3109 3106
1064 3215 3294
1202 3325 3475
1664 3288 2615
1396 3268 2684
1212 3262 2773
1108 3270 2881
1080 3294 3006
1134 3334 3143
1213 3377 3279
1317 3430 3417
1442 3499 3561
2386 3555 2882
2069 3572 2970
1817 3579 3056
1638 3579 3142
1535 3580 3231
1532 3589 3328
1573 3603 3427
1644 3620 3524
1729 3635 3619
249 326 448
242 330 510
255 362 601
279 416 719
308 483 859
348 569 1043
396 669 1258
450 780 1506
510 904 1787
347 627 630
342 672 763
358 726 894
388 796 1036
423 887 1205
472 1004 1420
529 1137 1663
594 1282 1931
666 1437 2220
431 995 869
423 1053 1036
426 1114 1189
447 1194 1352
495 1309 1550
558 1453 1788
631 1610 2047
712 1778 2322
801 1951 2609
541 1435 1171
528 1490 1346
507 1542 1504
506 1617 1674
552 1738 1886
632 1899 2136
723 2070 2399
824 2246 2670
932 2425 2942
719 1952 1542
698 1996 1712
648 2025 1855
611 2070 2006
627 2161 2202
720 2326 2455
829 2497 2710
949 2668 2963
1076 2835 3207
1056 2488 1957
1021 2518 2111
934 2526 2232
853 2544 2357
835 2602 2521
894 2702 2718
998 2838 2940
1130 2987 3166
1272 3126 3376
1514 2955 2343
1461 2976 2479
1337 2974 2582
1211 2974 2684
1150 3004 2816
1174 3060 2969
1246 3142 3140
1359 3241 3318
1505 3350 3496
2070 3330 2675
2000 3344 2793
1845 3341 2884
1677 3336 2970
1569 3346 3072
1551 3372 3190
1577 3405 3309
1649 3451 3436
1770 3518 3575
2702 3584 2926
2617 3596 3029
2444 3602 3115
2248 3605 3194
2092 3606 3274
2019 3612 3361
1996 3622 3450
2013 3633 3539
2061 3643 3623
429 450 577
381 428 617
357 430 682
358 458 779
382 515 913
420 600 1096
466 701 1314
520 817 1567
581 948 1857
587 803 785
552 833 915
533 858 1027
533 894 1145
551 960 1291
587 1062 1491
634 1186 1725
692 1328 1988
759 1484 2278
733 1185 1024
711 1242 1202
689 1282 1348
680 1329 1489
698 1405 1650
738 1524 1863
793 1665 2106
862 1824 2371
944 1995 2652
895 1611 1312
885 1677 1508
855 1723 1671
827 1770 1823
828 1843 1988
878 1973 2209
946 2124 2452
1031 2289 2710
1132 2462 2974
1104 2098 1665
1103 2162 1863
1062 2197 2021
1002 2225 2160
948 2266 2302
1010 2397 2524
1094 2546 2758
1198 2705 2998
1319 2866 3235
1457 2590 2052
1465 2645 2238
1412 2669 2380
1326 2682 2501
1230 2700 2620
1235 2769 2784
1306 2884 2985
1421 3019 3198
1556 3154 3402
1901 3018 2410
1916 3062 2576
1853 3079 2703
1743 3082 2807
1611 3084 2905
1570 3118 3031
1597 3183 3181
1683 3271 3346
1821 3374 3518
2405 3362 2715
2422 3393 2860
2355 3406 2972
2230 3407 3063
2073 3403 3145
1994 3416 3244
1965 3438 3347
1998 3475 3461
2102 3538 3592
2937 3600 2945
2953 3619 3068
2889 3631 3169
2764 3637 3253
2598 3635 3324
2482 3638 3401
2410 3643 3481
2379 3650 3560
2387 3656 3636
684 617 745
590 578 777
519 549 820
479 544 892
478 577 1006
510 652 1178
551 748 1391
603 863 1644
664 996 1939
892 1007 968
827 1027 1096
768 1029 1197
727 1035 1296
715 1068 1417
732 1146 1593
763 1253 1809
807 1384 2061
864 1537 2347
1089 1395 1199
1054 1446 1377
1011 1477 1526
973 1503 1659
954 1539 1790
961 1623 1969
988 1739 2186
1034 1881 2433
1098 2044 2704
1289 1798 1462
1280 1861 1658
1252 1911 1836
1215 1951 1993
1175 1985 2126
1180 2073 2308
1211 2194 2522
1266 2340 2759
1345 2503 3010
1504 2236 1778
1513 2299 1978
1499 2349 2158
1452 2384 2311
1363 2400 2429
1373 2488 2611
1414 2606 2816
1486 2746 3037
1586 2899 3263
1842 2684 2133
1866 2740 2324
1863 2785 2493
1814 2812 2633
1698 2815 2736
1639 2853 2866
1662 2940 3039
1742 3056 3234
1856 3182 3427
2245 3073 2459
2281 3120 2635
2289 3158 2788
2242 3178 2914
2109 3175 3004
2008 3186 3103
1982 3231 3231
2028 3304 3380
2142 3398 3541
2679 3386 2736
2722 3424 2895
2740 3453 3031
2699 3468 3142
2564 3465 3223
2441 3465 3304
2365 3476 3392
2355 3504 3493
2430 3559 3615
3109 3607 2944
3154 3636 3086
3179 3656 3206
3150 3668 3305
3035 3670 3380
2903 3667 3448
2801 3668 3518
2732 3670 3588
2702 3673 3656
1030 831 956
882 777 988
760 732 1027
668 699 1081
608 681 1154
625 736 1303
657 817 1498
703 923 1740
761 1050 2029
1278 1247 1177
1182 1257 1310
1085 1249 1412
997 1235 1502
933 1230 1600
923 1271 1739
930 1348 1925
956 1458 2155
997 1598 2427
1497 1639 1404
1443 1678 1579
1378 1702 1728
1312 1715 1859
1252 1725 1980
1221 1762 2116
1213 1840 2296
1228 1955 2516
1264 2101 2771
1702 2012 1636
1681 2061 1824
1651 2105 2001
1611 2142 2163
1561 2167 2304
1515 2205 2439
1500 2286 2615
1513 2404 2824
1557 2551 3060
1906 2369 1878
1918 2425 2075
1914 2474 2257
1894 2518 2425
1858 2558 2580
1802 2597 2715
1785 2679 2885
1807 2795 3081
1871 2935 3293
2204 2773 2200
2234 2825 2391
2247 2870 2564
2241 2909 2722
2216 2944 2866
2096 2950 2961
2059 3006 3104
2087 3098 3274
2164 3211 3454
2548 3123 2493
2594 3169 2674
2621 3209 2835
2628 3243 2979
2614 3273 3109
2468 3264 3185
2391 3288 3290
2387 3342 3419
2462 3424 3568
2903 3405 2740
2959 3445 2909
2998 3479 3056
3017 3507 3187
3017 3532 3304
2872 3520 3370
2761 3519 3443
2711 3537 3531
2746 3582 3642
3234 3606 2925
3296 3641 3081
3342 3669 3216
3372 3691 3335
3384 3710 3442
3264 3702 3501
3153 3697 3562
3062 3694 3623
2998 3692 3684
1511 1104 1204
1322 1050 1262
1146 995 1313
994 948 1369
879 917 1441
830 923 1554
826 965 1706
853 1040 1905
898 1144 2161
1761 1520 1406
1655 1530 1557
1524 1517 1671
1393 1497 1767
1285 1487 1869
1225 1498 1987
1192 1531 2129
1184 1596 2310
1197 1699 2542
1976 1899 1611
1918 1933 1796
1839 1952 1953
1750 1963 2090
1659 1971 2216
1596 1991 2344
1546 2026 2483
1515 2089 2652
1511 2194 2866
2167 2248 1822
2139 2285 2008
2106 2323 2186
2062 2357 2351
1998 2382 2498
1941 2412 2635
1883 2452 2775
1842 2518 2935
1833 2625 3134
2345 2570 2038
2345 2610 2224
2339 2649 2399
2325 2688 2566
2303 2730 2726
2256 2768 2871
2198 2814 3013
2157 2883 3166
2159 2989 3348
2541 2875 2273
2565 2916 2456
2580 2954 2626
2583 2990 2784
2576 3028 2934
2529 3057 3060
2473 3096 3189
2440 3157 3330
2463 3251 3492
2800 3168 2514
2844 3208 2692
2875 3244 2854
2893 3277 3002
2899 3310 3140
2857 3332 3251
2786 3352 3354
2736 3388 3465
2759 3456 3600
3077 3421 2731
3134 3459 2902
3178 3492 3055
3209 3521 3193
3226 3549 3319
3193 3567 3420
3110 3569 3498
3036 3576 3574
3028 3610 3674
3328 3604 2893
3392 3639 3056
3444 3669 3201
3484 3695 3330
3512 3719 3447
3493 3737 3541
3423 3735 3609
3333 3726 3663
3254 3720 3718
2038 1396 1441
1840 1360 1548
1629 1307 1629
1426 1252 1700
1250 1208 1776
1138 1192 1878
1077 1203 2005
1062 1239 2162
1085 1299 2356
2266 1792 1619
2169 1813 1798
2025 1806 1936
1864 1786 2049
1715 1771 2158
1611 1771 2274
1539 1785 2398
1494 1814 2541
1468 1860 2709
2458 2148 1800
2409 2184 1999
2332 2205 2170
2232 2218 2320
2115 2226 2455
2027 2243 2585
1954 2264 2713
1892 2294 2848
1835 2338 3000
2621 2467 1986
2594 2498 2176
2568 2532 2359
2527 2565 2531
2456 2592 2685
2388 2623 2828
2321 2654 2961
2254 2691 3094
2185 2739 3236
2764 2754 2176
2759 2782 2356
2753 2813 2530
2747 2848 2698
2741 2889 2863
2695 2930 3015
2640 2970 3154
2578 3015 3287
2513 3070 3424
2894 2997 2361
2910 3027 2537
2923 3057 2702
2932 3089 2860
2939 3126 3012
2928 3165 3154
2891 3205 3288
2843 3252 3418
2798 3308 3548
3057 3230 2551
3091 3262 2722
3120 3291 2880
3143 3321 3029
3161 3353 3170
3167 3388 3298
3135 3417 3414
3090 3451 3525
3057 3497 3640
3236 3438 2726
3286 3470 2893
3328 3499 3045
3362 3527 3186
3389 3556 3317
3403 3586 3434
3375 3604 3530
3328 3619 3617
3285 3643 3707
3418 3603 2866
3479 3636 3030
3529 3666 3178
3572 3693 3313
3608 3719 3438
3631 3747 3548
3614 3763 3635
3563 3765 3703
3483 3753 3754
2564 1685 1645
2398 1691 1825
2185 1658 1955
1950 1605 2055
1720 1551 2143
1548 1525 2247
1422 1514 2364
1349 1520 2492
1331 1540 2633
2752 2047 1798
2685 2089 2014
2555 2101 2189
2389 2093 2333
2212 2077 2456
2070 2076 2577
1962 2084 2701
1882 2096 2824
1823 2104 2943
2906 2370 1958
2879 2414 2173
2820 2446 2366
2729 2468 2538
2606 2482 2688
2497 2502 2826
2412 2526 2958
2334 2546 3080
2251 2553 3188
3033 2657 2121
3016 2687 2319
3004 2722 2510
2976 2758 2690
2913 2791 2858
2840 2826 3008
2779 2864 3149
2712 2895 3274
2620 2909 3380
3138 2911 2286
3132 2931 2467
3131 2957 2641
3135 2990 2812
3146 3031 2982
3106 3077 3141
3072 3124 3289
3022 3165 3420
2935 3190 3528
3224 3118 2444
3232 3137 2614
3242 3159 2776
3255 3186 2933
3273 3221 3087
3281 3264 3236
3276 3312 3382
3244 3358 3515
3176 3392 3626
3306 3301 2591
3328 3321 2754
3350 3343 2908
3373 3367 3055
3398 3398 3198
3422 3435 3333
3435 3477 3464
3423 3518 3587
3374 3555 3696
3398 3463 2728
3434 3487 2886
3467 3510 3035
3499 3534 3175
3530 3561 3310
3557 3593 3433
3580 3627 3547
3580 3659 3652
3541 3684 3747
3513 3608 2851
3562 3635 3007
3605 3661 3153
3644 3687 3290
3682 3713 3419
3714 3742 3534
3740 3773 3640
3739 3793 3728
3689 3789 3786
3042 1953 1793
2957 2029 2069
2786 2037 2270
2555 2001 2416
2292 1943 2528
2058 1904 2635
1873 1888 2753
1736 1885 2879
1649 1889 3010
3176 2267 1926
3161 2341 2186
3080 2389 2412
2946 2410 2601
2768 2402 2750
2593 2396 2877
2451 2405 3006
2344 2424 3134
2278 2450 3261
3287 2550 2069
3290 2607 2305
3269 2660 2526
3213 2704 2728
3112 2734 2904
2994 2754 3049
2894 2783 3188
2818 2818 3320
2771 2858 3445
3375 2804 2217
3374 2840 2426
3382 2879 2626
3379 2923 2819
3346 2971 3007
3281 3012 3166
3222 3055 3314
3176 3100 3450
3149 3150 3576
3443 3030 2364
3441 3050 2549
3448 3073 2727
3464 3105 2902
3493 3146 3076
3475 3200 3245
3454 3253 3400
3437 3307 3542
3429 3363 3670
3490 3212 2498
3492 3224 2668
3502 3241 2830
3521 3264 2989
3549 3298 3146
3575 3342 3300
3587 3395 3453
3594 3453 3598
3603 3512 3731
3536 3369 2623
3544 3379 2781
3558 3392 2933
3579 3412 3079
3608 3440 3224
3648 3479 3364
3679 3524 3502
3706 3577 3639
3732 3637 3775
3579 3503 2740
3595 3515 2889
3616 3530 3032
3642 3550 3171
3673 3575 3307
3710 3608 3435
3748 3645 3556
3786 3688 3676
3820 3741 3801
3619 3619 2850
3648 3638 2990
3678 3658 3127
3709 3680 3262
3743 3703 3394
3778 3731 3513
3813 3763 3622
3846 3796 3721
3875 3827 3811
