Assets/1__3DArt/KimSe/artstation_asset/LUTs_subway_asset/3DL/Paranormal 03_S.3dl
# LUT by SparkleStock. Enhanced with VOXCOLOR algorithms.
0 256 512 768 1023
240 128 176
257 167 328
271 218 541
284 288 915
304 384 1489
345 607 493
352 727 804
395 953 1260
448 1223 1828
510 1527 2461
625 1615 1234
563 1636 1476
647 1884 1965
765 2248 2550
898 2589 3079
1280 2788 2229
1043 2728 2355
1038 2814 2637
1163 2985 3001
1324 3187 3370
2274 3539 2946
1792 3506 3044
1592 3494 3168
1608 3507 3337
1681 3523 3507
454 261 343
426 210 459
382 246 646
382 327 1041
396 441 1659
844 972 681
846 994 1045
758 1105 1451
721 1333 1948
766 1637 2548
1259 1947 1454
1216 1978 1735
1127 2049 2107
1152 2333 2632
1260 2653 3133
1955 2936 2361
1897 2966 2586
1698 2960 2787
1649 3049 3072
1755 3223 3411
2762 3558 2959
2711 3593 3152
2432 3574 3277
2229 3551 3403
2147 3537 3540
953 559 689
833 397 800
593 344 956
529 405 1255
532 512 1838
1562 1329 922
1598 1226 1251
1398 1338 1805
1132 1495 2158
1063 1753 2659
1924 2175 1481
1939 2146 1653
1929 2212 2244
1744 2434 2735
1735 2720 3188
2490 3020 2377
2520 3063 2546
2511 3111 2904
2314 3139 3161
2300 3279 3470
3053 3538 2922
3148 3628 3167
3179 3682 3403
2926 3641 3504
2729 3602 3609
1848 1135 1253
1566 966 1434
1167 807 1600
897 760 1815
829 777 2176
2387 1832 1453
2453 1651 1658
2246 1707 2151
1887 1901 2558
1624 2022 2865
2681 2491 1827
2795 2347 1826
2852 2310 2315
2606 2618 2962
2340 2866 3309
2927 3078 2388
3005 3088 2389
3054 3116 2677
3013 3207 3211
2881 3364 3560
3251 3504 2857
3364 3616 3074
3441 3709 3309
3444 3735 3582
3277 3688 3709
2722 1777 1745
2522 1864 2184
2077 1717 2405
1666 1574 2593
1441 1537 2802
3009 2382 2052
3143 2317 2262
3042 2345 2642
2775 2467 2988
2571 2637 3265
3194 2852 2347
3435 2713 2252
3608 2607 2583
3464 2823 3147
3234 3200 3557
3320 3206 2595
3543 3183 2450
3719 3165 2637
3736 3227 3209
3585 3529 3723
3443 3491 2818
3552 3603 2959
3669 3715 3147
3728 3761 3501
3763 3779 3811
