Assets/1__3DArt/KimSe/artstation_asset/LUTs_subway_asset/3DL/Paranormal 05_S.3dl
# LUT by SparkleStock. Enhanced with VOXCOLOR algorithms.
0 128 256 384 512 640 768 896 1023
352 224 352
375 258 468
400 299 612
424 347 788
449 405 998
473 481 1248
496 572 1516
520 677 1799
544 801 2098
388 428 468
402 483 630
426 554 823
456 641 1044
486 742 1293
517 862 1569
548 994 1853
579 1138 2140
608 1294 2426
449 759 685
451 797 848
475 881 1063
511 996 1316
550 1131 1595
592 1280 1885
634 1437 2172
677 1601 2450
717 1768 2716
552 1203 998
535 1207 1137
552 1279 1345
592 1399 1602
644 1544 1888
697 1710 2181
753 1877 2461
810 2043 2722
866 2203 2962
712 1748 1408
664 1716 1509
664 1751 1683
702 1836 1906
767 1957 2156
834 2126 2446
903 2289 2710
974 2442 2948
1045 2583 3158
989 2317 1877
897 2265 1947
862 2266 2077
876 2311 2252
927 2388 2455
1003 2491 2671
1082 2617 2894
1163 2746 3104
1244 2857 3284
1352 2813 2312
1210 2755 2363
1132 2734 2456
1108 2746 2583
1132 2783 2737
1198 2837 2897
1273 2909 3064
1354 2989 3227
1439 3071 3377
1802 3211 2688
1603 3162 2732
1472 3131 2798
1402 3117 2884
1385 3121 2989
1424 3140 3105
1481 3161 3217
1552 3190 3330
1633 3235 3448
2338 3491 2978
2077 3461 3029
1885 3431 3080
1757 3404 3136
1688 3384 3200
1687 3376 3274
1715 3370 3350
1764 3366 3428
1825 3362 3507
453 291 434
458 292 531
468 319 667
483 364 842
502 424 1055
527 505 1312
554 601 1586
581 713 1871
608 844 2165
553 579 556
565 588 718
572 631 906
580 702 1121
592 794 1363
614 913 1635
641 1046 1914
673 1192 2195
707 1347 2472
658 946 790
663 956 964
665 999 1165
670 1078 1397
689 1195 1663
718 1338 1944
755 1494 2223
798 1656 2494
846 1822 2752
797 1392 1121
789 1397 1281
778 1427 1465
778 1495 1685
804 1611 1950
847 1766 2232
898 1928 2504
957 2092 2759
1021 2253 2993
998 1915 1534
980 1914 1679
946 1920 1828
927 1951 2001
952 2025 2216
1009 2178 2493
1075 2333 2748
1150 2484 2979
1230 2627 3186
1313 2441 1984
1282 2436 2112
1220 2423 2227
1167 2425 2355
1162 2464 2521
1210 2545 2718
1281 2659 2929
1367 2784 3133
1458 2897 3310
1699 2893 2391
1654 2886 2503
1562 2864 2592
1471 2847 2684
1431 2856 2804
1453 2890 2943
1506 2950 3097
1583 3026 3253
1680 3108 3401
2147 3254 2737
2087 3248 2832
1964 3224 2903
1834 3198 2969
1753 3185 3051
1738 3190 3148
1757 3201 3248
1808 3225 3353
1892 3269 3467
2649 3507 3002
2572 3504 3079
2418 3486 3140
2247 3460 3194
2122 3435 3250
2063 3418 3313
2042 3406 3379
2052 3397 3446
2090 3390 3517
616 400 569
606 362 649
586 362 772
570 394 935
574 451 1133
593 534 1385
618 634 1656
646 752 1939
675 889 2228
779 725 658
792 690 811
777 707 1006
752 763 1226
732 847 1454
732 964 1714
745 1097 1983
769 1245 2255
803 1402 2525
922 1108 857
933 1081 1015
924 1098 1230
905 1157 1480
886 1259 1740
886 1396 2010
904 1549 2279
936 1710 2541
983 1875 2791
1084 1550 1166
1083 1534 1302
1073 1542 1501
1058 1586 1743
1043 1678 2004
1057 1823 2281
1088 1980 2545
1136 2141 2793
1200 2299 3021
1304 2053 1593
1295 2047 1713
1268 2046 1875
1236 2059 2063
1214 2096 2263
1243 2235 2534
1291 2381 2783
1356 2528 3009
1437 2669 3211
1630 2542 2041
1622 2545 2160
1582 2540 2291
1525 2535 2431
1468 2543 2574
1475 2603 2759
1524 2706 2962
1600 2826 3162
1691 2937 3334
2011 2958 2436
2008 2967 2554
1957 2960 2662
1876 2946 2764
1783 2933 2863
1758 2949 2987
1778 2997 3131
1839 3066 3281
1935 3147 3425
2431 3285 2764
2434 3298 2877
2375 3293 2968
2273 3276 3044
2148 3253 3111
2085 3246 3194
2062 3247 3283
2086 3264 3380
2161 3306 3489
2875 3513 3010
2884 3526 3109
2818 3525 3187
2700 3512 3250
2547 3488 3302
2446 3467 3357
2382 3449 3414
2355 3435 3473
2361 3425 3535
855 561 754
821 482 823
764 449 932
707 456 1076
672 501 1249
677 580 1480
694 679 1736
720 797 2009
749 936 2291
1072 892 793
1083 812 927
1047 801 1127
984 844 1356
917 923 1579
883 1032 1816
872 1161 2066
881 1305 2324
907 1462 2583
1246 1270 932
1264 1200 1059
1251 1192 1289
1211 1240 1567
1146 1338 1842
1102 1467 2096
1086 1614 2350
1096 1771 2598
1131 1933 2836
1417 1695 1192
1422 1642 1283
1423 1631 1497
1407 1665 1778
1357 1749 2069
1323 1887 2341
1318 2038 2597
1341 2195 2835
1392 2350 3054
1622 2165 1596
1614 2134 1662
1607 2128 1832
1589 2140 2058
1548 2162 2293
1535 2290 2569
1550 2431 2817
1593 2575 3040
1664 2713 3237
1935 2624 2055
1932 2614 2128
1925 2615 2269
1895 2620 2442
1826 2619 2611
1790 2662 2793
1805 2755 2994
1858 2870 3191
1939 2979 3360
2290 3008 2452
2298 3015 2542
2296 3023 2663
2259 3024 2793
2166 3010 2909
2099 3010 3026
2082 3047 3164
2115 3110 3310
2199 3188 3451
2664 3308 2773
2687 3325 2880
2694 3338 2987
2656 3339 3085
2545 3321 3165
2446 3305 3240
2386 3297 3319
2378 3308 3409
2434 3347 3515
3036 3513 3004
3074 3535 3118
3092 3550 3214
3058 3554 3293
2941 3540 3354
2816 3518 3404
2722 3497 3454
2660 3479 3505
2634 3464 3558
1181 785 991
1108 670 1053
1018 600 1151
914 574 1276
804 588 1421
785 654 1610
788 742 1836
807 853 2088
834 988 2355
1437 1104 978
1439 979 1089
1387 936 1276
1291 962 1506
1162 1042 1749
1082 1135 1950
1037 1249 2169
1022 1381 2402
1035 1529 2643
1634 1458 1063
1656 1340 1159
1642 1298 1370
1584 1333 1659
1474 1447 1988
1370 1565 2217
1305 1701 2444
1279 1848 2668
1292 2003 2890
1795 1841 1254
1809 1747 1306
1816 1702 1494
1799 1724 1789
1737 1829 2165
1639 1961 2427
1580 2108 2669
1562 2261 2891
1589 2412 3097
1946 2253 1558
1945 2197 1574
1944 2169 1706
1944 2173 1951
1948 2214 2304
1883 2340 2597
1852 2480 2852
1859 2623 3073
1910 2760 3265
2226 2687 2034
2226 2661 2058
2223 2651 2163
2221 2658 2351
2220 2684 2623
2145 2716 2817
2119 2804 3024
2138 2917 3222
2197 3023 3388
2538 3046 2440
2551 3047 2495
2557 3052 2592
2558 3063 2737
2556 3079 2936
2460 3069 3056
2407 3098 3196
2406 3156 3341
2466 3231 3479
2856 3323 2763
2889 3342 2855
2909 3360 2955
2919 3374 3070
2921 3385 3208
2804 3365 3280
2716 3351 3356
2676 3355 3442
2704 3390 3543
3154 3510 2984
3207 3538 3107
3245 3562 3213
3269 3579 3310
3282 3589 3407
3156 3570 3452
3046 3548 3497
2957 3526 3541
2899 3508 3586
1630 1101 1267
1510 979 1348
1368 886 1445
1218 828 1559
1070 809 1689
974 839 1836
936 894 2010
937 974 2212
956 1083 2443
1882 1398 1230
1875 1246 1326
1797 1179 1498
1672 1183 1715
1521 1240 1945
1386 1334 2148
1292 1424 2334
1239 1521 2520
1226 1636 2723
2075 1713 1281
2104 1559 1345
2086 1485 1527
2018 1495 1794
1896 1591 2112
1753 1737 2378
1634 1862 2589
1554 1980 2773
1528 2106 2960
2227 2046 1425
2253 1914 1438
2272 1831 1587
2259 1820 1853
2191 1907 2216
2068 2082 2544
1952 2233 2786
1869 2368 2978
1846 2501 3155
2357 2401 1669
2374 2307 1640
2388 2242 1732
2399 2214 1945
2406 2230 2283
2326 2400 2665
2238 2556 2939
2175 2699 3142
2170 2832 3313
2518 2755 2033
2527 2709 2006
2534 2679 2066
2540 2668 2223
2544 2680 2485
2516 2746 2803
2470 2850 3059
2440 2969 3263
2463 3078 3424
2751 3075 2409
2768 3066 2419
2780 3064 2477
2788 3068 2596
2793 3080 2791
2778 3100 3029
2733 3140 3216
2702 3200 3371
2728 3278 3511
3009 3334 2735
3043 3352 2801
3069 3370 2876
3086 3386 2975
3097 3400 3116
3078 3406 3277
3017 3398 3386
2961 3399 3475
2957 3433 3576
3244 3507 2952
3300 3538 3074
3343 3568 3176
3377 3593 3273
3401 3611 3379
3386 3613 3482
3313 3597 3543
3219 3573 3582
3140 3550 3620
2111 1447 1525
1964 1352 1651
1784 1260 1766
1587 1183 1877
1395 1133 1992
1248 1130 2114
1160 1153 2249
1124 1197 2399
1128 1257 2570
2334 1727 1497
2324 1575 1597
2230 1503 1765
2082 1493 1970
1908 1525 2180
1746 1601 2371
1622 1677 2537
1536 1748 2689
1488 1810 2838
2505 2006 1539
2545 1838 1585
2529 1746 1744
2457 1734 1985
2325 1808 2279
2169 1947 2544
2031 2076 2753
1918 2184 2919
1839 2262 3058
2637 2290 1655
2680 2136 1639
2715 2023 1750
2712 1981 1978
2644 2043 2314
2515 2218 2650
2383 2386 2908
2264 2530 3099
2176 2629 3235
2743 2582 1850
2784 2462 1782
2820 2367 1831
2848 2306 2005
2863 2290 2312
2779 2459 2711
2674 2643 3017
2571 2810 3237
2495 2929 3377
2842 2866 2127
2874 2797 2054
2903 2743 2069
2926 2707 2188
2942 2696 2428
2928 2760 2781
2873 2891 3091
2808 3038 3330
2765 3151 3475
2984 3127 2429
3012 3105 2393
3038 3089 2407
3059 3081 2493
3074 3082 2671
3085 3103 2953
3057 3164 3207
3019 3246 3414
2999 3333 3552
3153 3347 2709
3187 3360 2739
3217 3376 2781
3242 3392 2856
3261 3406 2988
3276 3420 3189
3258 3425 3363
3226 3439 3506
3198 3478 3611
3332 3507 2921
3385 3539 3034
3431 3573 3124
3470 3605 3213
3502 3629 3320
3524 3640 3452
3506 3638 3556
3452 3621 3626
3365 3591 3658
2585 1790 1736
2443 1756 1935
2249 1694 2087
2024 1619 2209
1792 1547 2316
1607 1513 2421
1472 1507 2527
1389 1519 2637
1365 1541 2754
2757 2064 1754
2755 1947 1882
2662 1893 2062
2509 1882 2261
2323 1891 2448
2151 1936 2616
2013 1994 2765
1907 2047 2894
1835 2075 3001
2892 2317 1815
2946 2166 1867
2944 2075 2013
2880 2051 2228
2751 2099 2488
2601 2207 2725
2466 2330 2928
2345 2435 3088
2241 2491 3195
2997 2556 1924
3062 2407 1899
3119 2280 1980
3134 2214 2168
3076 2247 2465
2957 2389 2771
2834 2562 3033
2710 2718 3230
2590 2813 3346
3078 2789 2082
3149 2661 1991
3213 2548 2005
3264 2460 2139
3295 2411 2405
3219 2546 2774
3120 2738 3093
3007 2930 3333
2888 3066 3465
3147 3006 2288
3212 2923 2179
3273 2848 2156
3324 2789 2238
3358 2752 2447
3346 2791 2785
3291 2931 3123
3209 3105 3399
3114 3250 3548
3216 3201 2500
3269 3166 2421
3320 3136 2395
3365 3113 2448
3398 3099 2604
3410 3107 2885
3396 3177 3188
3357 3283 3450
3296 3403 3610
3303 3371 2707
3346 3377 2698
3390 3387 2705
3430 3399 2754
3461 3410 2871
3479 3420 3083
3493 3435 3315
3488 3468 3522
3445 3530 3659
3423 3512 2896
3470 3542 2993
3517 3578 3067
3561 3614 3142
3597 3644 3243
3620 3658 3386
3642 3666 3533
3635 3661 3648
3573 3635 3701
3010 2098 1873
2919 2161 2169
2750 2161 2384
2528 2115 2537
2277 2044 2646
2054 1980 2734
1880 1944 2823
1755 1940 2915
1681 1969 3010
3115 2382 1976
3136 2343 2166
3071 2336 2374
2941 2339 2575
2767 2333 2741
2592 2339 2877
2450 2363 3002
2345 2403 3117
2283 2458 3224
3204 2623 2088
3277 2531 2178
3301 2468 2327
3267 2443 2521
3164 2465 2742
3029 2527 2935
2909 2612 3108
2812 2710 3259
2746 2815 3383
3279 2829 2212
3370 2718 2208
3454 2603 2276
3497 2526 2429
3468 2528 2676
3371 2618 2931
3269 2750 3159
3173 2905 3351
3096 3070 3500
3338 3011 2347
3443 2901 2257
3542 2788 2254
3623 2686 2354
3676 2610 2575
3620 2690 2886
3539 2838 3170
3446 3033 3409
3357 3253 3587
3385 3162 2485
3490 3083 2360
3591 3001 2312
3676 2925 2364
3737 2866 2541
3735 2875 2847
3687 2977 3160
3609 3153 3439
3521 3382 3647
3431 3296 2618
3525 3255 2508
3617 3214 2452
3699 3176 2477
3761 3145 2612
3780 3137 2883
3763 3185 3179
3714 3301 3462
3639 3495 3694
3476 3415 2750
3548 3412 2706
3623 3412 2682
3693 3415 2708
3749 3418 2811
3771 3421 3026
3777 3430 3269
3761 3476 3512
3718 3594 3727
3523 3523 2882
3562 3546 2957
3610 3581 3011
3660 3619 3070
3703 3654 3160
3726 3672 3309
3740 3679 3472
3751 3681 3626
3763 3683 3747
