Assets/1__3DArt/KimSe/artstation_asset/LUTs_subway_asset/3DL/Underground 03_S.3dl
# LUT by SparkleStock. Enhanced with VOXCOLOR algorithms.
0 64 128 192 256 320 384 448 512 576 640 704 768 832 896 960 1023
208 96 144
213 97 267
218 98 391
222 102 533
224 114 714
227 127 896
227 146 1097
225 170 1308
224 193 1519
220 225 1726
215 257 1933
211 292 2131
207 330 2310
202 369 2489
203 411 2644
205 453 2787
208 496 2930
271 167 224
261 198 335
251 229 445
244 257 585
243 279 784
242 301 983
241 323 1189
238 345 1398
236 367 1607
232 395 1806
228 423 2005
225 454 2195
222 489 2367
219 525 2539
219 565 2688
222 606 2826
224 648 2964
335 237 304
310 299 402
284 361 499
266 412 636
262 443 854
257 475 1071
254 499 1281
251 520 1488
249 540 1695
245 564 1886
242 588 2077
239 615 2259
237 648 2424
235 681 2589
236 719 2733
238 759 2865
240 800 2998
407 320 396
375 396 478
342 472 560
316 541 689
302 596 912
287 651 1136
280 689 1355
276 716 1571
273 744 1787
270 767 1974
268 789 2162
265 814 2339
264 843 2497
263 872 2655
264 906 2792
267 943 2919
269 981 3046
498 427 509
474 485 571
450 543 634
422 618 744
384 726 949
346 834 1155
331 905 1389
326 957 1638
321 1010 1888
320 1035 2079
318 1060 2270
316 1085 2449
316 1109 2601
316 1132 2753
317 1160 2883
320 1190 3003
322 1220 3122
589 534 622
574 574 665
558 614 708
528 694 799
466 856 986
405 1017 1173
381 1122 1424
375 1198 1706
370 1275 1988
369 1303 2183
368 1332 2379
367 1357 2558
368 1374 2704
368 1392 2850
370 1413 2974
373 1437 3086
376 1460 3199
710 676 759
700 704 790
689 732 821
662 803 893
601 957 1048
540 1112 1204
500 1245 1443
471 1368 1724
441 1491 2005
441 1542 2227
442 1592 2448
443 1632 2646
445 1651 2795
447 1670 2944
450 1688 3066
454 1705 3174
458 1722 3283
846 835 908
839 855 930
832 874 952
812 927 1006
762 1044 1123
713 1162 1241
654 1322 1455
589 1503 1717
524 1684 1980
526 1765 2239
527 1847 2498
530 1909 2723
534 1933 2880
539 1957 3036
544 1972 3159
549 1984 3265
554 1996 3371
982 994 1056
979 1005 1070
975 1017 1084
961 1051 1119
923 1132 1198
886 1212 1278
807 1399 1467
707 1638 1711
607 1877 1955
610 1989 2251
613 2101 2548
617 2186 2800
624 2215 2964
631 2243 3128
637 2257 3252
644 2263 3355
650 2269 3459
1163 1196 1230
1161 1204 1241
1159 1212 1252
1148 1237 1280
1118 1299 1341
1087 1362 1401
1020 1509 1551
933 1700 1745
847 1891 1939
803 2052 2221
759 2213 2504
733 2341 2758
743 2401 2958
752 2462 3157
762 2490 3299
771 2502 3413
780 2514 3526
1344 1398 1404
1344 1402 1412
1344 1407 1420
1336 1424 1440
1312 1467 1483
1288 1511 1525
1232 1620 1635
1159 1763 1779
1086 1905 1923
995 2115 2191
904 2325 2460
848 2496 2717
861 2588 2952
874 2680 3186
886 2723 3347
898 2740 3470
909 2758 3592
1535 1605 1581
1536 1607 1587
1538 1608 1593
1533 1618 1607
1515 1647 1634
1497 1675 1662
1451 1752 1740
1390 1854 1842
1330 1956 1944
1212 2182 2186
1095 2409 2427
1015 2602 2673
1012 2727 2929
1008 2851 3184
1017 2914 3363
1031 2944 3502
1046 2975 3641
1747 1821 1765
1749 1821 1770
1752 1821 1775
1748 1828 1785
1735 1848 1805
1721 1869 1826
1683 1927 1885
1633 2005 1962
1582 2082 2040
1479 2260 2229
1375 2438 2418
1286 2610 2626
1227 2769 2873
1168 2928 3120
1160 3020 3316
1178 3079 3485
1197 3138 3654
1959 2038 1948
1962 2036 1952
1965 2035 1956
1964 2038 1963
1955 2050 1977
1945 2062 1990
1915 2102 2029
1875 2155 2082
1835 2208 2135
1745 2338 2272
1655 2468 2409
1556 2618 2579
1442 2811 2818
1327 3004 3056
1303 3126 3268
1325 3213 3468
1347 3301 3668
2175 2231 2127
2179 2230 2130
2183 2228 2133
2184 2230 2138
2177 2237 2146
2171 2245 2155
2147 2273 2182
2115 2310 2219
2084 2348 2256
2007 2445 2358
1931 2543 2460
1838 2668 2596
1713 2847 2802
1588 3027 3007
1536 3161 3214
1520 3273 3420
1504 3385 3627
2392 2412 2305
2398 2412 2306
2403 2411 2307
2406 2412 2310
2401 2417 2315
2397 2422 2321
2379 2441 2339
2355 2468 2365
2331 2494 2390
2268 2568 2466
2204 2642 2542
2125 2739 2646
2012 2881 2807
1899 3023 2967
1812 3161 3155
1738 3295 3357
1664 3430 3559
2610 2594 2482
2617 2594 2482
2624 2594 2482
2627 2595 2483
2625 2597 2484
2623 2599 2486
2611 2610 2496
2594 2625 2510
2578 2640 2524
2528 2690 2574
2478 2741 2624
2412 2809 2695
2311 2915 2811
2210 3020 2927
2089 3160 3096
1957 3318 3294
1825 3475 3491
332 98 152
316 122 260
300 147 367
294 166 501
307 175 685
320 185 870
328 199 1076
332 217 1294
336 235 1511
334 262 1723
332 289 1935
328 319 2137
323 354 2319
318 389 2501
316 429 2657
316 470 2800
316 511 2943
359 178 224
355 228 332
350 278 441
349 317 580
356 332 779
362 348 978
365 365 1188
366 384 1404
367 403 1620
364 430 1826
360 456 2032
356 486 2227
351 522 2403
347 558 2579
345 598 2730
345 641 2869
345 683 3008
386 258 296
393 334 405
400 410 514
405 468 658
404 489 872
404 511 1085
402 531 1300
400 551 1514
398 571 1729
393 597 1929
388 624 2128
384 654 2317
379 690 2487
375 726 2656
374 768 2803
374 812 2937
374 856 3072
433 347 382
451 438 488
470 529 594
478 604 736
466 645 952
454 686 1167
446 718 1387
441 744 1610
436 771 1832
430 797 2028
425 824 2224
420 853 2409
416 887 2572
412 921 2735
411 961 2876
411 1004 3006
411 1046 3135
520 452 496
548 538 591
577 624 686
585 711 813
552 798 1005
520 885 1196
504 944 1425
496 989 1675
488 1034 1924
483 1061 2121
477 1088 2319
472 1115 2503
469 1142 2660
465 1170 2817
464 1203 2951
465 1238 3074
465 1273 3197
608 557 610
646 638 694
684 719 779
692 818 890
639 951 1058
586 1084 1225
562 1171 1464
551 1235 1740
541 1298 2015
535 1325 2215
529 1352 2414
525 1377 2597
522 1398 2748
519 1419 2898
518 1444 3026
519 1472 3142
520 1500 3258
725 696 749
771 774 826
818 852 904
831 947 1001
779 1074 1137
727 1202 1274
688 1314 1498
656 1418 1766
624 1523 2034
617 1568 2257
611 1613 2479
606 1650 2678
604 1670 2831
602 1690 2983
602 1711 3108
603 1732 3220
604 1753 3332
859 851 899
911 928 973
964 1004 1046
986 1087 1129
945 1183 1231
905 1278 1333
849 1415 1529
785 1572 1773
722 1729 2017
715 1801 2273
708 1873 2529
702 1928 2753
701 1951 2911
699 1974 3069
700 1991 3195
701 2005 3303
703 2019 3412
992 1007 1050
1051 1081 1119
1111 1156 1188
1141 1227 1257
1112 1291 1324
1082 1355 1392
1010 1516 1561
915 1725 1780
820 1934 2000
812 2033 2289
804 2132 2579
798 2207 2827
798 2232 2991
797 2258 3156
798 2271 3281
800 2278 3386
802 2284 3491
1171 1206 1225
1234 1278 1292
1296 1349 1359
1330 1414 1421
1307 1462 1473
1283 1511 1525
1222 1638 1657
1142 1803 1830
1062 1968 2003
1013 2113 2273
963 2257 2543
930 2371 2789
929 2425 2987
929 2480 3185
931 2505 3327
935 2516 3440
938 2527 3554
1351 1405 1401
1416 1474 1466
1482 1543 1531
1520 1600 1586
1502 1634 1622
1484 1667 1658
1435 1759 1754
1370 1881 1880
1304 2003 2007
1213 2192 2257
1122 2381 2507
1061 2535 2751
1061 2618 2983
1062 2702 3214
1065 2740 3373
1069 2754 3495
1074 2769 3617
1541 1610 1579
1608 1675 1642
1675 1741 1705
1715 1791 1754
1703 1812 1777
1690 1833 1801
1651 1897 1867
1599 1983 1955
1546 2068 2043
1432 2272 2264
1319 2476 2484
1238 2650 2715
1222 2764 2964
1206 2878 3214
1205 2933 3388
1211 2959 3525
1217 2985 3663
1753 1825 1763
1818 1885 1823
1884 1946 1883
1924 1991 1929
1915 2006 1946
1905 2021 1963
1873 2068 2013
1831 2132 2079
1788 2197 2145
1690 2356 2316
1592 2515 2487
1505 2669 2680
1441 2815 2916
1376 2961 3153
1359 3045 3343
1367 3098 3509
1375 3151 3675
1964 2040 1948
2028 2095 2005
2093 2151 2062
2133 2191 2104
2127 2199 2115
2120 2208 2125
2096 2239 2158
2063 2282 2202
2030 2325 2246
1948 2439 2368
1866 2553 2489
1773 2688 2645
1659 2866 2869
1546 3044 3092
1514 3157 3297
1523 3236 3492
1532 3316 3688
2180 2232 2127
2240 2283 2180
2301 2334 2233
2339 2369 2271
2335 2375 2278
2331 2380 2285
2312 2401 2307
2287 2431 2337
2261 2461 2367
2193 2546 2457
2125 2631 2546
2040 2742 2669
1920 2908 2860
1799 3073 3050
1743 3197 3247
1718 3301 3448
1694 3404 3648
2397 2413 2305
2452 2459 2353
2508 2506 2401
2544 2538 2435
2541 2541 2439
2539 2544 2443
2525 2559 2458
2506 2580 2478
2487 2601 2499
2433 2665 2565
2378 2728 2630
2306 2814 2723
2201 2944 2871
2096 3074 3018
2010 3202 3196
1934 3328 3389
1858 3455 3582
2614 2594 2482
2665 2636 2525
2715 2677 2569
2748 2706 2598
2748 2707 2599
2747 2709 2601
2738 2717 2608
2726 2729 2619
2714 2741 2630
2672 2783 2672
2630 2826 2715
2572 2886 2777
2482 2981 2881
2392 3076 2985
2277 3207 3144
2149 3356 3330
2022 3505 3516
456 100 160
419 148 252
382 196 344
366 230 468
389 236 656
413 242 845
428 252 1056
439 264 1279
449 276 1502
449 298 1720
448 320 1937
446 346 2144
440 378 2328
434 410 2513
430 447 2670
427 486 2813
423 525 2956
447 190 223
448 259 330
449 328 437
455 377 574
468 386 773
482 395 972
489 408 1187
494 424 1410
498 439 1633
495 464 1845
492 490 2058
487 519 2259
481 555 2439
475 590 2618
471 631 2771
468 675 2911
465 718 3051
437 280 287
477 369 408
516 459 530
544 523 680
547 535 890
551 548 1100
550 564 1318
549 583 1541
547 602 1763
541 631 1971
535 659 2179
528 692 2375
522 732 2549
516 771 2724
512 816 2873
510 864 3010
507 912 3146
458 374 368
527 480 498
597 587 628
640 667 784
630 694 991
621 721 1198
613 747 1419
606 772 1648
598 797 1878
590 828 2082
582 858 2286
574 892 2478
567 931 2647
561 971 2816
557 1016 2960
555 1064 3093
553 1112 3225
542 477 483
623 591 611
703 706 739
748 804 883
721 870 1060
694 936 1237
677 984 1462
666 1021 1711
655 1059 1960
646 1087 2164
636 1115 2368
628 1144 2557
621 1176 2719
615 1208 2881
612 1246 3019
610 1286 3145
608 1326 3272
626 580 598
718 702 724
810 825 849
856 942 982
812 1046 1129
767 1151 1276
742 1220 1504
727 1271 1774
711 1321 2043
701 1347 2246
691 1372 2449
682 1397 2636
676 1421 2791
669 1445 2946
666 1475 3078
665 1508 3198
663 1541 3318
741 716 738
843 844 863
946 972 988
1000 1091 1110
956 1192 1226
913 1292 1343
876 1383 1553
841 1469 1808
806 1554 2064
793 1594 2287
781 1634 2510
770 1668 2710
763 1690 2866
756 1711 3022
753 1735 3151
751 1759 3266
750 1784 3381
871 868 891
984 1001 1015
1096 1134 1140
1160 1247 1252
1128 1321 1338
1096 1395 1425
1044 1508 1604
982 1640 1829
920 1773 2054
904 1836 2307
888 1899 2560
875 1948 2782
867 1970 2942
860 1992 3103
856 2010 3230
854 2026 3341
852 2042 3452
1002 1020 1043
1124 1157 1168
1246 1295 1292
1321 1403 1394
1300 1450 1450
1279 1498 1506
1212 1633 1655
1123 1812 1850
1034 1992 2044
1015 2078 2327
995 2164 2610
980 2228 2854
971 2250 3019
963 2272 3184
959 2284 3310
957 2292 3417
955 2300 3524
1180 1216 1220
1306 1352 1344
1433 1487 1467
1512 1590 1563
1496 1625 1606
1479 1660 1648
1425 1766 1764
1352 1906 1916
1278 2046 2067
1223 2173 2325
1167 2300 2583
1127 2401 2820
1116 2449 3017
1106 2498 3213
1101 2520 3354
1099 2530 3468
1097 2540 3582
1358 1412 1397
1489 1546 1519
1620 1680 1641
1703 1776 1732
1692 1800 1761
1680 1823 1790
1638 1898 1873
1580 1999 1982
1523 2100 2091
1431 2269 2323
1339 2437 2555
1274 2574 2786
1261 2649 3014
1249 2724 3242
1244 2757 3399
1241 2768 3520
1239 2780 3641
1547 1615 1577
1680 1744 1697
1812 1873 1816
1898 1964 1902
1891 1978 1920
1883 1992 1939
1851 2042 1994
1807 2111 2068
1763 2180 2142
1652 2362 2342
1542 2543 2542
1460 2699 2756
1432 2802 2999
1405 2904 3243
1394 2953 3414
1391 2974 3549
1388 2996 3684
1758 1828 1762
1887 1949 1877
2016 2070 1992
2100 2154 2073
2095 2163 2087
2089 2172 2100
2064 2209 2140
2029 2260 2195
1994 2311 2250
1902 2451 2403
1810 2591 2556
1725 2728 2733
1655 2862 2960
1584 2995 3186
1559 3070 3370
1556 3117 3533
1553 3163 3696
1969 2041 1947
2095 2154 2058
2220 2267 2168
2302 2344 2245
2299 2348 2253
2296 2353 2261
2277 2376 2287
2251 2409 2322
2224 2442 2357
2151 2540 2464
2077 2638 2570
1990 2758 2711
1877 2922 2920
1764 3085 3128
1724 3187 3325
1721 3259 3517
1717 3331 3708
2185 2233 2127
2301 2336 2231
2418 2439 2334
2495 2509 2405
2493 2512 2410
2491 2515 2414
2477 2530 2432
2458 2552 2455
2438 2575 2478
2379 2647 2556
2320 2719 2633
2242 2817 2742
2127 2968 2918
2011 3119 3093
1950 3233 3281
1917 3328 3475
1884 3424 3669
2402 2413 2305
2507 2507 2400
2612 2600 2495
2682 2663 2559
2682 2665 2562
2681 2667 2565
2672 2677 2576
2658 2693 2591
2644 2708 2607
2597 2762 2663
2551 2815 2719
2487 2890 2801
2390 3007 2935
2292 3125 3068
2207 3243 3236
2129 3361 3421
2051 3479 3606
2619 2594 2482
2713 2677 2569
2807 2761 2655
2870 2816 2713
2870 2817 2714
2871 2819 2715
2866 2825 2720
2858 2833 2728
2849 2842 2736
2816 2877 2770
2782 2911 2805
2733 2963 2859
2653 3047 2952
2573 3131 3044
2464 3253 3191
2341 3394 3367
2218 3535 3542
605 105 164
555 168 253
505 230 341
477 277 459
491 293 635
506 309 811
525 322 1021
546 333 1248
567 345 1475
574 363 1699
581 381 1923
584 402 2136
581 429 2326
577 456 2516
573 489 2676
569 525 2821
564 561 2967
572 205 220
578 284 330
584 363 441
590 421 577
596 438 765
602 454 953
612 470 1167
625 485 1395
637 501 1622
639 524 1842
640 547 2062
639 574 2270
634 607 2455
628 640 2640
623 679 2796
619 721 2939
