Assets/1__3DArt/KimSe/artstation_asset/LUTs_subway_asset/3DL/Underground 05.3dl
# LUT by SparkleStock. Enhanced with VOXCOLOR algorithms.
0 256 512 768 1023
80 16 48
103 61 544
161 198 1359
226 480 2246
272 865 2898
324 285 351
224 570 800
235 950 1810
316 1195 2582
385 1465 3101
826 796 852
756 937 1008
422 1739 1932
633 2254 3017
793 2425 3464
1707 1647 1623
1686 1682 1659
1490 1953 1952
1148 2763 2936
1360 3211 3672
2658 2562 2482
2674 2565 2485
2617 2613 2531
2286 2921 2849
1761 3507 3539
633 73 88
432 257 441
552 427 1230
730 654 2207
820 972 2896
469 323 359
934 877 984
947 1141 1890
989 1389 2714
1062 1720 3266
839 806 859
1509 1507 1519
1334 2028 2114
1315 2327 3067
1388 2499 3522
1717 1655 1624
2322 2263 2222
2334 2459 2431
1979 2948 3076
1949 3243 3706
2671 2562 2482
3028 2959 2898
3076 3032 2977
2915 3179 3128
2484 3594 3605
1705 209 102
1396 445 561
835 802 858
1415 1146 1925
1740 1397 2823
1408 541 345
1977 998 954
1659 1607 1610
1910 1767 2566
2001 1963 3226
857 821 877
1660 1609 1610
2317 2261 2234
2247 2397 3029
2270 2603 3526
1720 1660 1628
2423 2357 2314
2938 2882 2838
2728 3099 3185
2593 3256 3692
2667 2562 2482
3088 3021 2969
3396 3357 3316
3343 3407 3370
3057 3672 3664
2777 354 132
2638 547 725
2140 1117 1377
1899 1673 1780
2450 2116 2624
2659 715 239
2995 1025 937
2784 1638 1900
2545 2304 2434
2803 2571 3093
2191 1359 907
2813 1783 1393
3197 2175 2198
2989 2775 2900
3048 2944 3437
1941 1792 1677
2592 2416 2294
3056 2865 2780
3270 3208 3224
3238 3339 3663
2663 2562 2482
3082 3016 2965
3388 3348 3310
3585 3573 3539
3479 3741 3718
3362 432 192
3347 583 912
3172 1155 1802
2849 2072 2336
2658 2562 2482
3364 753 173
3541 1008 976
3476 1548 2098
3243 2468 2769
3089 3021 2971
3237 1579 704
3521 1724 1150
3671 2125 2252
3529 2790 3045
3398 3356 3320
2902 2328 1805
3278 2645 2188
3551 2861 2606
3685 3186 3220
3627 3602 3570
2658 2562 2482
3074 3012 2955
3378 3338 3297
3615 3592 3555
3795 3795 3763
