Assets/1__3DArt/KimSe/artstation_asset/LUTs_subway_asset/3DL/Underground 05_S.3dl
# LUT by SparkleStock. Enhanced with VOXCOLOR algorithms.
0 64 128 192 256 320 384 448 512 576 640 704 768 832 896 960 1023
80 16 48
83 23 150
86 30 251
92 41 375
103 61 544
113 82 712
128 116 916
144 157 1137
161 198 1359
178 261 1592
195 325 1824
212 395 2046
226 480 2246
240 565 2446
252 661 2609
262 763 2754
272 865 2898
128 71 113
118 101 208
108 130 304
105 162 431
115 196 623
124 230 815
138 269 1025
154 312 1245
169 355 1465
186 415 1687
203 475 1909
219 542 2121
234 621 2311
248 701 2502
260 791 2658
271 887 2796
282 983 2935
177 126 178
154 179 267
131 231 356
119 282 487
127 330 702
135 377 917
148 422 1135
163 467 1353
177 512 1571
194 568 1783
211 625 1994
227 688 2195
242 763 2376
257 837 2557
269 922 2706
281 1011 2839
292 1100 2971
238 194 254
208 257 332
179 320 410
159 386 538
157 457 766
155 528 994
165 588 1224
180 644 1454
196 699 1684
213 755 1889
231 812 2095
248 872 2289
264 941 2460
280 1010 2631
294 1087 2772
307 1169 2898
320 1250 3024
323 286 349
301 335 408
279 384 468
254 455 581
224 570 800
194 685 1019
197 779 1271
215 864 1540
234 948 1809
254 1009 2018
275 1070 2227
295 1131 2420
314 1193 2582
334 1255 2744
351 1323 2875
367 1393 2991
383 1463 3107
409 378 443
394 413 485
379 448 526
349 524 624
291 683 834
233 842 1044
228 970 1319
250 1084 1627
271 1197 1934
295 1263 2147
319 1328 2359
342 1390 2552
365 1445 2704
387 1500 2857
408 1558 2978
427 1617 3084
446 1677 3190
534 507 568
523 532 597
512 558 627
485 625 707
423 776 885
362 927 1064
336 1082 1334
327 1238 1650
319 1395 1965
351 1485 2206
383 1575 2448
414 1654 2659
443 1709 2812
472 1764 2965
498 1816 3082
522 1866 3182
546 1916 3281
677 654 707
670 672 728
663 691 750
640 742 809
588 859 946
535 976 1082
480 1153 1333
425 1360 1641
370 1567 1948
413 1692 2231
456 1817 2514
497 1920 2755
535 1979 2913
572 2039 3072
605 2086 3187
635 2127 3281
666 2168 3375
821 801 846
817 812 859
813 824 872
796 859 912
752 942 1007
708 1025 1101
625 1224 1332
524 1482 1632
422 1739 1932
476 1899 2256
530 2058 2580
581 2186 2851
627 2250 3015
673 2313 3178
712 2355 3292
749 2388 3381
785 2420 3470
1024 1004 1026
1022 1012 1036
1020 1020 1047
1007 1047 1078
969 1112 1152
932 1177 1225
858 1338 1409
764 1546 1649
671 1754 1889
658 1957 2213
645 2161 2536
658 2328 2818
722 2424 3018
785 2519 3217
838 2574 3347
885 2608 3443
932 2643 3538
1227 1208 1206
1227 1212 1214
1227 1216 1222
1217 1235 1244
1187 1282 1297
1157 1329 1349
1090 1451 1487
1005 1609 1667
920 1768 1846
840 2016 2169
760 2263 2492
734 2471 2785
816 2598 3021
898 2725 3256
963 2792 3402
1021 2829 3504
1078 2866 3606
1445 1422 1396
1446 1424 1402
1448 1426 1407
1441 1438 1423
1417 1470 1459
1393 1501 1494
1335 1590 1592
1259 1707 1722
1183 1824 1851
1061 2083 2152
939 2342 2452
879 2567 2740
944 2726 3001
1010 2885 3262
1078 2969 3426
1149 3016 3542
1220 3062 3657
1690 1660 1605
1692 1660 1610
1694 1661 1615
1690 1669 1627
1672 1692 1654
1654 1715 1680
1604 1782 1754
1540 1872 1853
1475 1962 1952
1360 2167 2187
1244 2373 2422
1160 2573 2668
1140 2763 2935
1120 2954 3202
1173 3065 3387
1262 3136 3530
1351 3207 3673
1935 1897 1814
1938 1896 1819
1941 1895 1823
1939 1900 1832
1927 1914 1849
1914 1928 1865
1874 1975 1916
1820 2037 1984
1767 2100 2052
1658 2252 2222
1549 2403 2392
1442 2579 2597
1336 2800 2870
1231 3022 3143
1268 3160 3348
1375 3256 3518
1483 3352 3688
2177 2123 2033
2181 2122 2037
2186 2121 2040
2186 2123 2045
2177 2132 2056
2168 2141 2067
2137 2174 2103
2095 2218 2150
2052 2263 2197
1957 2377 2323
1861 2492 2448
1753 2636 2611
1623 2840 2848
1492 3043 3086
1483 3190 3288
1534 3308 3471
1586 3427 3655
2418 2342 2258
2423 2342 2259
2429 2341 2261
2431 2343 2264
2425 2349 2271
2420 2354 2277
2397 2377 2301
2366 2407 2332
2335 2438 2364
2255 2524 2455
2176 2610 2546
2080 2720 2668
1954 2880 2849
1828 3040 3030
1758 3187 3217
1716 3327 3407
1673 3467 3597
2658 2562 2482
2665 2562 2482
2672 2562 2482
2675 2563 2483
2674 2565 2485
2672 2567 2487
2658 2579 2499
2637 2596 2515
2617 2613 2531
2554 2670 2588
2490 2727 2645
2408 2804 2725
2286 2921 2849
2165 3038 2974
2033 3185 3147
1897 3346 3343
1761 3507 3539
181 24 61
167 45 148
153 66 235
150 87 351
170 107 522
190 128 693
211 160 901
232 198 1128
254 236 1355
274 296 1591
294 356 1826
313 423 2050
328 504 2251
344 585 2451
356 677 2613
367 776 2756
378 875 2899
202 88 117
202 133 213
201 177 308
205 217 435
220 246 626
234 276 816
250 313 1031
267 354 1257
285 395 1482
303 455 1709
320 515 1935
337 582 2150
352 662 2341
368 742 2532
381 833 2688
394 930 2826
407 1026 2964
224 151 174
236 220 277
249 289 380
261 348 519
269 385 730
278 423 940
289 465 1160
303 510 1385
316 554 1610
331 614 1827
346 675 2044
362 741 2250
377 820 2432
392 900 2614
406 989 2763
421 1083 2896
436 1177 3028
265 224 243
290 308 349
316 392 455
331 467 598
327 524 816
323 580 1034
329 634 1263
340 688 1498
350 741 1733
364 802 1945
379 863 2156
393 929 2355
409 1005 2528
424 1081 2701
441 1165 2843
457 1254 2969
474 1343 3095
348 314 339
383 396 435
418 479 532
431 565 664
402 660 867
372 754 1069
370 836 1315
381 911 1582
392 987 1848
408 1049 2061
423 1111 2274
439 1175 2470
457 1242 2634
475 1309 2798
493 1383 2931
512 1461 3048
531 1538 3165
431 404 434
475 485 522
520 566 609
531 664 730
476 796 918
422 928 1105
411 1037 1366
422 1135 1665
434 1232 1964
451 1295 2178
468 1359 2392
486 1420 2586
505 1479 2741
525 1538 2896
546 1601 3019
567 1667 3127
588 1734 3236
552 529 560
605 610 642
657 690 725
674 786 832
617 911 989
560 1037 1146
530 1168 1397
512 1303 1697
495 1439 1996
517 1522 2236
539 1605 2475
562 1679 2686
587 1736 2841
611 1793 2995
635 1848 3114
660 1904 3216
685 1959 3317
692 673 700
752 754 780
812 835 860
837 920 952
791 1016 1071
744 1112 1189
688 1264 1418
627 1445 1703
565 1625 1987
595 1738 2264
624 1851 2541
654 1945 2779
684 2003 2937
714 2061 3096
743 2110 3213
772 2155 3309
801 2199 3405
832 816 840
900 897 917
967 979 994
1000 1055 1072
964 1121 1153
928 1188 1233
846 1360 1439
741 1586 1709
636 1812 1979
673 1954 2293
709 2097 2607
746 2211 2871
782 2271 3034
817 2330 3197
851 2372 3311
884 2406 3402
917 2439 3492
1034 1016 1021
1104 1096 1097
1174 1175 1174
1211 1245 1245
1181 1297 1307
1152 1348 1369
1080 1485 1532
988 1666 1746
896 1847 1959
870 2029 2265
843 2212 2572
842 2363 2842
892 2451 3038
941 2538 3235
984 2590 3365
1024 2624 3461
1065 2658 3557
1236 1216 1202
1308 1294 1278
1381 1372 1353
1421 1436 1418
1398 1472 1462
1375 1508 1506
1315 1610 1625
1235 1746 1782
1156 1882 1940
1066 2104 2238
977 2327 2536
939 2514 2812
1001 2631 3043
1064 2747 3274
1117 2809 3419
1165 2843 3520
1213 2877 3622
1452 1428 1393
1525 1503 1467
1598 1578 1541
1641 1636 1601
1624 1660 1629
1606 1684 1658
1556 1757 1742
1489 1854 1852
1422 1952 1963
1295 2185 2236
1168 2417 2508
1098 2621 2774
1144 2766 3027
1189 2911 3281
1242 2988 3441
1300 3029 3556
1358 3071 3671
1696 1664 1603
1766 1734 1675
1836 1805 1747
1878 1857 1801
1865 1874 1823
1852 1890 1844
1810 1945 1906
1755 2019 1989
1699 2093 2073
1585 2276 2283
1471 2458 2494
1384 2638 2718
1350 2812 2972
1317 2986 3225
1353 3087 3403
1425 3152 3544
1496 3217 3685
1941 1900 1813
2007 1965 1882
2074 2031 1952
2115 2077 2002
2106 2087 2016
2097 2097 2029
2065 2134 2071
2021 2184 2126
1977 2235 2182
1876 2367 2331
1775 2499 2479
1670 2654 2663
1557 2858 2916
1444 3061 3169
1464 3187 3365
1549 3275 3532
1635 3363 3700
2183 2124 2033
2243 2184 2096
2303 2243 2160
2341 2285 2205
2336 2291 2214
2330 2297 2222
2306 2322 2251
2272 2357 2288
2238 2393 2326
2152 2491 2434
2067 2589 2542
1966 2716 2686
1834 2902 2903
1703 3087 3120
1681 3222 3311
1715 3332 3490
1749 3441 3668
2423 2343 2257
2476 2396 2314
2528 2450 2370
2563 2486 2409
2560 2490 2414
2557 2493 2420
2540 2511 2438
2515 2535 2463
2490 2559 2488
2421 2631 2566
2352 2704 2643
2266 2800 2749
2146 2945 2913
2026 3089 3076
1952 3224 3251
1901 3355 3431
1851 3485 3612
2663 2562 2482
2708 2609 2531
2754 2656 2579
2784 2687 2612
2784 2689 2615
2784 2690 2617
2773 2699 2626
2758 2712 2638
2743 2725 2650
2690 2772 2697
2638 2819 2744
2567 2885 2812
2458 2988 2922
2350 3091 3032
2223 3226 3190
2088 3378 3373
1952 3529 3556
282 32 74
251 67 147
220 102 220
209 132 326
238 153 500
266 174 674
294 204 887
320 239 1119
347 274 1351
370 331 1590
393 387 1829
414 450 2055
430 527 2255
447 605 2455
460 694 2617
472 789 2758
483 885 2900
276 104 121
285 165 217
294 225 312
306 273 439
325 297 629
343 322 818
362 356 1036
381 396 1268
401 435 1500
419 495 1731
437 555 1962
455 622 2179
471 703 2371
487 783 2563
502 875 2719
517 972 2855
531 1069 2992
271 176 169
319 262 287
368 347 405
403 413 552
412 441 757
420 470 962
431 508 1185
442 552 1417
454 596 1648
468 660 1871
482 724 2094
496 794 2304
511 878 2488
527 962 2671
544 1056 2821
561 1155 2953
579 1254 3085
293 254 232
373 359 366
452 465 499
503 549 657
497 591 866
491 632 1074
493 680 1303
499 732 1543
505 784 1782
516 849 2000
527 915 2217
539 986 2421
554 1069 2596
569 1152 2771
587 1243 2913
608 1340 3039
628 1437 3165
373 342 329
465 458 462
557 574 596
608 676 747
579 750 934
550 823 1120
543 892 1358
547 959 1623
551 1026 1888
561 1089 2104
572 1152 2321
584 1218 2520
600 1291 2687
616 1363 2853
636 1444 2987
657 1529 3105
679 1613 3223
452 429 425
557 556 559
661 683 693
714 803 837
662 909 1001
610 1015 1166
593 1104 1414
595 1186 1704
597 1268 1993
607 1328 2209
617 1389 2424
629 1450 2620
646 1513 2777
663 1575 2934
684 1645 3060
707 1718 3171
730 1790 3281
570 552 551
686 687 687
803 823 823
863 947 958
811 1047 1093
759 1146 1227
724 1255 1461
698 1369 1744
671 1482 2028
684 1558 2265
696 1635 2503
711 1705 2713
730 1763 2869
750 1821 3025
773 1881 3146
798 1941 3250
823 2002 3354
707 691 693
834 835 831
962 978 969
1034 1099 1095
994 1174 1196
953 1248 1296
895 1376 1504
828 1529 1765
760 1683 2026
776 1784 2297
793 1885 2568
811 1971 2802
833 2027 2961
856 2084 3120
881 2135 3239
908 2182 3336
935 2230 3434
844 831 834
982 982 975
1121 1134 1116
1204 1251 1232
1176 1300 1299
1148 1350 1365
1066 1496 1546
958 1690 1786
849 1884 2025
869 2010 2330
889 2135 2634
911 2237 2891
936 2292 3054
962 2346 3216
990 2388 3331
1019 2424 3422
1048 2459 3514
1044 1028 1016
1186 1179 1158
1328 1330 1301
1415 1444 1412
1393 1481 1463
1371 1518 1513
1303 1633 1655
1212 1787 1842
1120 1940 2029
1081 2101 2318
1042 2263 2608
1027 2397 2865
1062 2478 3059
1096 2558 3254
1130 2607 3383
1164 2640 3479
1198 2674 3576
1244 1225 1199
1389 1376 1342
1534 1527 1485
1626 1636 1592
1610 1662 1627
1594 1687 1662
1539 1770 1763
1465 1883 1898
1391 1995 2033
1293 2193 2307
1194 2391 2581
1143 2558 2839
1187 2664 3065
1230 2769 3292
1270 2825 3435
1309 2857 3537
1347 2888 3638
1459 1435 1390
1603 1583 1533
1748 1731 1676
1841 1835 1778
1830 1850 1800
1819 1866 1823
1777 1923 1891
1718 2002 1983
1660 2080 2075
1528 2287 2319
1397 2493 2564
1317 2674 2809
1343 2806 3054
1368 2937 3299
1406 3006 3457
1451 3043 3571
1495 3080 3684
1703 1669 1601
1840 1809 1740
1977 1948 1878
2066 2045 1976
2058 2055 1992
2050 2066 2008
2016 2108 2058
1970 2167 2126
1923 2225 2193
1811 2384 2379
1699 2543 2565
1608 2702 2769
1560 2860 3008
1513 3019 3247
1533 3110 3419
1587 3169 3559
1641 3228 3698
1947 1903 1812
2076 2035 1946
2206 2166 2080
2290 2255 2173
2285 2261 2183
2281 2266 2193
2256 2293 2225
2221 2331 2268
2186 2369 2311
2094 2481 2439
2001 2594 2567
1898 2730 2729
1778 2915 2962
1658 3100 3194
1660 3215 3382
1723 3295 3547
1787 3375 3712
2188 2126 2032
2304 2246 2156
2420 2366 2280
2497 2447 2365
2495 2450 2371
2492 2452 2378
2474 2471 2399
2449 2496 2427
2423 2522 2455
2348 2604 2546
2272 2686 2636
2178 2796 2762
2046 2964 2958
1913 3131 3155
1880 3254 3335
1896 3355 3508
1912 3456 3681
2428 2344 2257
2528 2451 2368
2628 2558 2478
2695 2629 2553
2694 2631 2558
2694 2632 2562
2682 2645 2576
2664 2662 2594
2646 2679 2612
2587 2739 2676
2529 2798 2740
2452 2881 2831
2338 3009 2976
2224 3138 3122
2146 3261 3285
2087 3383 3456
2028 3504 3627
2668 2562 2482
2752 2656 2579
2836 2749 2677
2892 2812 2742
2894 2812 2744
2895 2812 2746
2889 2818 2752
2879 2827 2761
2869 2836 2770
2827 2874 2807
2786 2911 2844
2726 2966 2900
2630 3055 2995
2535 3144 3089
2413 3268 3234
2278 3410 3404
2144 3552 3574
420 46 84
378 90 153
336 133 222
313 171 321
330 197 483
346 224 644
376 257 854
412 294 1089
448 330 1323
479 384 1567
509 437 1811
536 497 2042
557 571 2246
578 644 2450
594 729 2613
607 820 2757
620 911 2900
397 127 124
413 195 224
428 263 324
441 318 449
449 346 627
456 374 804
476 410 1020
501 450 1255
527 491 1490
550 550 1726
572 609 1963
594 675 2186
612 753 2381
631 832 2576
648 922 2734
664 1018 2871
