Assets/1__3DArt/KimSe/artstation_asset/LUTs_subway_asset/3DL/Underground 04.3dl
# LUT by SparkleStock. Enhanced with VOXCOLOR algorithms.
0 128 256 384 512 640 768 896 1023
48 16 16
46 36 255
52 67 579
65 115 977
86 185 1432
118 291 1894
155 417 2311
195 561 2672
240 721 2962
168 168 193
104 300 394
86 404 760
95 489 1205
115 563 1644
149 649 2060
186 752 2436
226 870 2764
268 1004 3035
328 368 424
270 488 556
194 690 897
147 900 1370
177 1045 1897
219 1133 2299
265 1215 2643
312 1300 2930
358 1395 3166
543 628 714
514 686 776
403 922 1036
291 1235 1476
258 1525 2079
323 1662 2533
389 1749 2877
453 1808 3136
512 1861 3333
825 954 1067
812 979 1091
742 1100 1219
593 1383 1525
344 1893 2081
454 2157 2683
557 2296 3085
651 2353 3345
733 2373 3517
1219 1367 1481
1215 1381 1491
1169 1446 1557
1060 1608 1727
863 1912 2049
668 2365 2623
719 2650 3102
879 2795 3456
1011 2832 3652
1671 1806 1896
1672 1815 1902
1646 1846 1930
1571 1928 2013
1425 2093 2180
1154 2470 2585
1029 2816 3035
1065 3075 3441
1276 3190 3714
2151 2245 2290
2156 2254 2298
2145 2267 2309
2099 2303 2341
2003 2381 2414
1780 2583 2622
1509 2894 2961
1358 3209 3345
1498 3422 3688
2626 2658 2642
2637 2672 2657
2637 2679 2662
2616 2691 2668
2566 2718 2689
2414 2815 2784
2179 2983 2958
1909 3215 3214
1649 3507 3555
297 36 53
201 142 218
210 199 534
269 240 955
324 296 1436
372 385 1912
417 493 2333
461 619 2691
503 760 2975
235 175 206
350 406 466
397 521 843
413 581 1288
435 650 1751
465 744 2184
501 855 2567
542 979 2894
590 1118 3161
335 373 429
559 659 727
578 861 1073
524 1006 1492
529 1118 2005
554 1205 2415
588 1295 2763
631 1392 3055
682 1501 3294
549 634 719
824 935 1020
821 1182 1285
705 1399 1628
638 1609 2162
668 1718 2603
710 1796 2944
759 1860 3207
815 1926 3414
830 959 1071
1143 1271 1368
1199 1444 1541
1062 1642 1759
796 2030 2187
840 2233 2746
897 2339 3130
960 2385 3387
1024 2407 3564
1223 1372 1484
1545 1672 1759
1625 1806 1885
1540 1913 1998
1365 2130 2232
1132 2492 2715
1123 2720 3150
1223 2836 3490
1315 2860 3683
1676 1812 1901
1980 2084 2143
2068 2189 2237
2019 2239 2287
1912 2347 2399
1649 2641 2717
1492 2922 3106
1468 3134 3476
1609 3223 3740
2157 2254 2297
2421 2484 2503
2504 2567 2575
2479 2587 2593
2421 2632 2636
2246 2779 2787
1988 3030 3063
1811 3292 3397
1879 3472 3719
2637 2672 2653
2840 2849 2818
2908 2913 2876
2900 2923 2882
2875 2938 2894
2777 3002 2958
2600 3129 3090
2366 3320 3302
2095 3578 3604
669 69 91
535 205 286
437 323 521
428 421 859
559 498 1359
667 577 1868
755 668 2316
825 770 2692
878 885 2985
539 230 219
747 461 513
743 644 842
696 772 1237
778 837 1727
839 915 2188
891 1007 2590
938 1112 2928
982 1231 3199
480 408 436
822 727 788
927 986 1130
928 1166 1521
956 1245 2022
984 1320 2446
1016 1405 2806
1053 1500 3106
1096 1607 3351
558 642 727
933 1024 1106
1132 1329 1415
1184 1553 1751
1119 1693 2215
1127 1785 2643
1150 1862 2984
1185 1935 3255
1232 2013 3471
837 966 1078
1258 1372 1463
1501 1651 1729
1527 1886 1970
1297 2157 2275
1294 2300 2784
1312 2379 3146
1348 2421 3400
1398 2451 3585
1228 1377 1488
1657 1771 1849
1908 2024 2082
1973 2194 2247
1841 2336 2403
1613 2610 2795
1564 2783 3183
1609 2871 3503
1666 2888 3694
1679 1815 1903
2083 2175 2224
2321 2397 2424
2401 2520 2538
2333 2583 2605
2109 2802 2844
1945 3019 3171
1881 3186 3502
1958 3252 3753
2159 2257 2298
2509 2563 2572
2715 2748 2739
2794 2839 2822
2765 2862 2844
2640 2960 2948
2417 3156 3164
2238 3368 3446
2245 3513 3744
2641 2677 2652
2909 2914 2874
3068 3058 3011
3135 3126 3076
3126 3134 3082
3069 3173 3121
2944 3265 3217
2753 3418 3387
2497 3641 3649
1142 113 128
1013 243 392
803 425 583
664 607 822
745 738 1228
947 841 1768
1114 931 2253
1243 1015 2663
1330 1102 2980
1015 300 223
1256 488 539
1181 736 844
1038 965 1188
1077 1091 1617
1213 1166 2108
1316 1238 2538
1390 1313 2899
1441 1399 3184
814 482 441
1184 758 782
1347 1058 1129
1380 1311 1512
1362 1447 1956
1438 1513 2402
1494 1583 2784
1538 1659 3102
1574 1746 3358
702 695 741
1089 1055 1099
1452 1392 1448
1667 1666 1812
1607 1832 2211
1629 1906 2637
1652 1976 2986
1680 2047 3269
1715 2124 3496
846 974 1085
1264 1378 1467
1650 1744 1811
1877 2050 2107
1818 2273 2347
1794 2365 2801
1792 2426 3143
1810 2471 3399
1845 2515 3595
1235 1382 1493
1660 1774 1851
2039 2122 2169
2277 2386 2415
2280 2527 2560
2094 2719 2864
2027 2842 3202
2031 2906 3503
2060 2924 3694
1682 1818 1904
2084 2176 2225
2432 2489 2507
2656 2711 2711
2691 2801 2798
2525 2950 2964
2377 3108 3229
2294 3232 3519
2319 3279 3757
2160 2257 2296
2509 2565 2572
2805 2829 2813
3000 3010 2981
3044 3070 3037
2967 3129 3101
2793 3274 3263
2631 3437 3493
2593 3548 3762
2639 2676 2646
2910 2918 2876
3138 3125 3075
3290 3266 3212
3330 3310 3254
3302 3330 3274
3222 3391 3340
3076 3509 3471
2853 3697 3690
1692 166 161
1600 276 473
1377 492 760
1096 744 975
831 963 1074
1159 1150 1615
1441 1274 2133
1667 1357 2589
1823 1420 2946
1603 356 208
1837 509 549
1770 759 939
1534 1063 1278
1262 1379 1466
1529 1498 1977
1732 1576 2442
1875 1630 2840
1963 1676 3153
1386 606 442
1770 817 749
1943 1068 1136
1904 1375 1519
1653 1749 1815
1841 1820 2294
1968 1868 2709
2047 1908 3057
2089 1951 3332
1113 839 768
1535 1131 1061
1901 1403 1408
2096 1704 1774
2006 2080 2126
2103 2127 2568
2162 2167 2938
2196 2207 3241
2215 2256 3483
855 982 1090
1268 1383 1472
1650 1745 1812
2002 2074 2120
2326 2376 2403
2323 2433 2804
2325 2488 3131
2335 2544 3396
2358 2605 3608
1242 1389 1498
1663 1777 1853
2037 2120 2166
2370 2425 2447
2670 2701 2702
2554 2821 2923
2496 2900 3213
2479 2947 3495
2490 2970 3689
1686 1821 1907
2085 2177 2224
2429 2486 2504
2727 2757 2751
2989 2997 2974
2890 3086 3075
2778 3190 3282
2696 3275 3530
2687 3307 3754
2161 2256 2295
2508 2564 2569
2803 2827 2811
3053 3055 3023
3269 3255 3212
3233 3284 3245
3113 3384 3357
2983 3500 3538
2920 3578 3776
2637 2671 2641
2908 2917 2872
3137 3126 3075
3331 3307 3253
3499 3465 3409
3488 3472 3417
3443 3510 3457
3340 3595 3553
3162 3747 3727
2226 217 189
2175 302 525
2009 511 871
1757 805 1180
1450 1148 1406
1363 1365 1603
1594 1577 2002
1945 1746 2468
2216 1832 2867
2180 389 187
2376 523 552
2339 750 986
2149 1067 1405
1883 1472 1721
1783 1730 1947
1955 1911 2321
2220 2022 2736
2401 2069 3084
2021 666 382
2341 827 685
2491 1045 1110
2463 1347 1571
2252 1761 1983
2141 2052 2244
2256 2208 2599
2444 2276 2969
2553 2299 3273
1775 980 725
2150 1185 966
2460 1402 1323
2623 1672 1749
2562 2033 2197
2445 2342 2498
2506 2479 2841
2627 2518 3171
2684 2533 3438
1469 1264 1169
1883 1566 1438
2243 1828 1708
2553 2067 2008
2816 2303 2365
2701 2612 2716
2716 2736 3049
2778 2763 3344
2803 2781 3578
1397 1462 1518
1816 1823 1844
2182 2138 2138
2501 2417 2413
2783 2671 2683
2858 2898 2918
2892 3001 3199
2903 3035 3471
2914 3058 3677
1689 1825 1907
2084 2177 2223
2424 2482 2499
2718 2748 2743
2976 2984 2962
3111 3154 3129
3111 3261 3324
3062 3320 3535
3047 3348 3750
2162 2258 2295
2507 2562 2567
2799 2823 2806
3046 3048 3016
3259 3245 3203
3382 3377 3331
3355 3478 3440
3268 3553 3575
3208 3606 3782
2637 2670 2640
2908 2915 2870
3136 3124 3072
3329 3304 3250
3494 3462 3407
3595 3565 3507
3604 3617 3562
3536 3674 3627
3404 3789 3758
2675 259 216
2657 324 569
2553 515 957
2366 820 1335
2099 1225 1658
1855 1561 1811
1869 1825 2047
2091 2036 2368
2474 2214 2779
2661 409 174
2819 531 559
2812 732 1022
2683 1039 1492
2472 1478 1898
2251 1875 2103
2248 2149 2347
2415 2329 2644
2700 2446 3003
2564 693 319
2814 817 626
2936 1011 1085
2926 1302 1602
2777 1715 2088
2583 2148 2349
2565 2427 2607
2681 2584 2884
2884 2654 3200
2384 1058 637
2684 1188 851
2922 1371 1234
3050 1623 1716
3020 1961 2232
2859 2395 2553
2829 2667 2830
2898 2808 3094
3035 2845 3375
2118 1447 1115
2471 1651 1314
2767 1829 1555
3009 2014 1882
3203 2237 2334
3088 2629 2721
3049 2882 3021
3076 3010 3276
3159 3028 3527
1871 1680 1561
2248 1966 1818
2569 2211 2063
2843 2429 2317
3078 2639 2603
3196 2884 2898
3217 3081 3171
3214 3203 3419
3262 3221 3642
1896 1941 1945
2272 2258 2225
2592 2528 2472
2865 2761 2696
3102 2967 2908
3293 3151 3124
3353 3308 3324
3352 3410 3522
3360 3429 3732
2163 2262 2295
2505 2561 2566
2794 2819 2802
3039 3041 3009
3249 3235 3193
3422 3398 3351
3500 3521 3476
3507 3601 3607
3471 3635 3783
2638 2674 2641
2908 2914 2869
3134 3121 3070
3326 3301 3246
3489 3458 3403
3626 3591 3533
3701 3679 3622
3700 3749 3696
3609 3825 3786
3030 293 243
3034 343 611
2987 511 1028
2878 804 1452
2695 1226 1844
2458 1691 2090
2278 2018 2225
2284 2270 2382
2607 2505 2694
3035 417 170
3163 535 572
3181 712 1052
3112 993 1553
2979 1427 2017
2782 1929 2316
2623 2299 2485
2614 2562 2647
2866 2746 2924
2995 693 262
3181 793 579
3279 974 1066
3287 1250 1624
3204 1635 2151
3047 2141 2501
2910 2536 2706
2889 2809 2877
3079 2950 3128
2893 1080 529
3112 1153 735
3282 1319 1151
3378 1565 1685
3376 1877 2249
3261 2345 2649
3147 2741 2891
3117 3017 3077
3254 3125 3308
2714 1540 981
2978 1655 1143
3194 1771 1385
3365 1930 1759
3498 2178 2315
3431 2557 2763
3343 2926 3045
3308 3196 3250
3399 3278 3466
2473 1912 1551
2778 2104 1734
3032 2265 1932
3243 2418 2175
3419 2586 2490
3508 2820 2872
3490 3110 3160
3458 3346 3389
3509 3414 3593
2290 2139 1980
2618 2391 2205
2894 2601 2409
3126 2781 2608
3325 2943 2815
3481 3113 3078
3557 3317 3307
3587 3485 3510
3601 3549 3698
2300 2352 2325
2621 2625 2576
2890 2859 2795
3118 3061 2988
3314 3236 3161
3476 3385 3318
3618 3522 3472
3701 3630 3623
3688 3692 3773
2640 2681 2642
2908 2915 2869
3133 3119 3069
3323 3297 3244
3485 3454 3399
3620 3585 3529
3742 3704 3645
3809 3797 3741
3781 3853 3809
3282 320 272
3296 361 657
3291 507 1093
3249 774 1546
3155 1183 1980
2995 1703 2292
2833 2161 2495
2699 2494 2602
2626 2642 2626
3294 418 175
3404 539 593
3440 695 1084
3417 946 1602
3354 1349 2099
3228 1885 2459
3091 2369 2698
2973 2731 2828
2903 2904 2864
3291 671 220
3436 762 550
3518 939 1061
3541 1201 1645
3510 1546 2191
3415 2062 2594
3303 2548 2868
3201 2927 3023
3136 3123 3071
3255 1055 428
3411 1094 638
3534 1259 1088
3610 1509 1666
3626 1798 2260
3564 2251 2702
3477 2710 3008
3391 3090 3188
3331 3307 3252
3169 1550 821
3350 1599 968
3497 1675 1229
3614 1835 1658
3706 2132 2312
3681 2470 2785
3621 2867 3121
3552 3230 3327
3496 3464 3409
3012 2031 1410
3224 2135 1552
3401 2227 1739
3547 2338 2002
3669 2496 2372
3736 2749 2845
3727 3055 3201
3679 3356 3433
3628 3592 3536
2850 2389 1974
3088 2548 2136
3288 2678 2297
3457 2793 2475
3602 2907 2687
3718 3074 3008
3778 3272 3296
3786 3487 3519
3744 3706 3646
2715 2613 2418
2973 2817 2611
3189 2988 2781
3372 3134 2937
3532 3260 3085
3665 3375 3244
3779 3494 3433
3847 3631 3612
3842 3801 3743
2642 2690 2642
2909 2918 2869
3132 3118 3069
3320 3294 3244
3481 3449 3398
3615 3580 3526
3735 3697 3639
3838 3797 3740
3923 3875 3827
