Assets/1__3DArt/KimSe/artstation_asset/LUTs_subway_asset/3DL/Underground 04.3dl
# LUT by SparkleStock. Enhanced with VOXCOLOR algorithms.
0 64 128 192 256 320 384 448 512 576 640 704 768 832 896 960 1023
48 16 16
47 26 135
46 36 255
47 48 395
52 67 579
56 85 764
65 115 977
76 150 1204
86 185 1432
102 238 1663
118 291 1894
135 350 2114
155 417 2311
174 485 2509
195 561 2672
217 641 2817
240 721 2962
108 92 104
92 130 214
75 168 324
65 203 465
69 235 670
72 267 874
80 302 1091
90 338 1315
101 374 1538
117 422 1758
133 470 1977
151 523 2186
170 585 2374
190 646 2562
211 716 2718
232 789 2858
254 862 2998
168 168 193
136 233 293
104 300 394
84 359 536
86 404 760
87 449 984
95 489 1205
105 526 1425
115 563 1644
132 606 1852
149 649 2060
166 696 2258
186 752 2436
206 807 2615
226 870 2764
247 937 2899
268 1004 3035
238 256 295
199 334 382
160 413 469
131 489 605
121 560 839
111 631 1073
115 685 1304
127 732 1532
138 778 1760
156 819 1961
174 860 2161
193 903 2351
214 951 2519
234 999 2687
256 1054 2829
277 1113 2957
298 1172 3086
328 368 424
299 428 490
270 488 556
236 568 674
194 690 897
152 811 1121
147 900 1370
162 973 1633
177 1045 1897
198 1089 2098
219 1133 2299
241 1175 2486
265 1215 2643
289 1255 2800
312 1300 2930
335 1347 3048
358 1395 3166
419 481 553
399 522 598
379 564 642
341 648 743
266 820 955
192 991 1168
179 1114 1437
198 1214 1735
216 1313 2033
240 1359 2235
265 1406 2437
290 1447 2620
316 1479 2766
343 1510 2912
368 1545 3032
393 1581 3139
418 1617 3245
543 628 714
529 657 745
514 686 776
480 760 856
403 922 1036
327 1085 1215
291 1235 1476
274 1380 1777
258 1525 2079
291 1593 2306
323 1662 2533
356 1718 2732
389 1749 2877
422 1780 3022
453 1808 3136
482 1835 3234
512 1861 3333
684 791 890
674 812 912
663 832 933
636 888 993
573 1011 1127
510 1135 1262
442 1309 1500
371 1509 1790
301 1709 2080
345 1809 2344
388 1909 2608
432 1988 2833
473 2022 2981
515 2057 3129
552 2080 3240
587 2099 3333
622 2117 3425
825 954 1067
819 966 1079
812 979 1091
791 1015 1129
742 1100 1219
693 1185 1309
593 1383 1525
469 1638 1803
344 1893 2081
399 2025 2382
454 2157 2683
507 2258 2934
557 2296 3085
607 2333 3237
651 2353 3345
692 2363 3431
733 2373 3517
1022 1161 1274
1018 1170 1283
1013 1180 1291
997 1208 1320
956 1273 1388
915 1338 1456
827 1495 1626
715 1699 1845
604 1902 2065
582 2082 2359
561 2261 2653
569 2403 2910
638 2473 3094
707 2542 3278
765 2574 3401
819 2588 3493
872 2602 3584
1219 1367 1481
1217 1374 1486
1215 1381 1491
1202 1400 1511
1169 1446 1557
1137 1491 1604
1060 1608 1727
962 1760 1888
863 1912 2049
765 2138 2336
668 2365 2623
632 2549 2886
719 2650 3102
806 2750 3319
879 2795 3456
945 2814 3554
1011 2832 3652
1431 1580 1688
1430 1585 1691
1430 1590 1694
1421 1603 1706
1396 1632 1735
1370 1662 1764
1305 1744 1849
1219 1853 1961
1133 1962 2073
988 2202 2336
843 2443 2598
769 2647 2852
837 2780 3090
905 2912 3327
983 2976 3480
1065 3006 3591
1147 3036 3701
1671 1806 1896
1672 1811 1899
1672 1815 1902
1666 1825 1910
1646 1846 1930
1627 1867 1951
1571 1928 2013
1498 2011 2097
1425 2093 2180
1290 2281 2383
1154 2470 2585
1054 2651 2799
1029 2816 3035
1004 2981 3271
1065 3075 3441
1171 3132 3578
1276 3190 3714
1912 2033 2104
1913 2036 2106
1915 2040 2109
1911 2046 2115
1897 2059 2126
1883 2071 2137
1838 2113 2177
1778 2169 2232
1718 2224 2287
1591 2361 2429
1465 2497 2572
1340 2654 2746
1221 2852 2981
1102 3051 3215
1148 3174 3402
1276 3258 3565
1405 3343 3728
2151 2245 2290
2153 2250 2294
2156 2254 2298
2155 2259 2303
2145 2267 2309
2134 2275 2315
2099 2303 2341
2051 2342 2377
2003 2381 2414
1891 2482 2518
1780 2583 2622
1656 2712 2759
1509 2894 2961
1361 3077 3164
1358 3209 3345
1428 3315 3517
1498 3422 3688
2388 2452 2466
2392 2457 2472
2397 2463 2477
2397 2468 2482
2391 2473 2485
2384 2478 2488
2357 2497 2505
2321 2523 2528
2284 2549 2551
2191 2624 2627
2097 2699 2703
1987 2797 2805
1844 2939 2960
1701 3080 3114
1633 3212 3280
1604 3338 3450
1574 3465 3621
2626 2658 2642
2632 2665 2650
2637 2672 2657
2640 2677 2662
2637 2679 2662
2633 2681 2661
2616 2691 2668
2591 2704 2679
2566 2718 2689
2490 2767 2737
2414 2815 2784
2318 2882 2851
2179 2983 2958
2041 3084 3065
1909 3215 3214
1779 3361 3384
1649 3507 3555
173 26 34
148 57 135
123 89 236
113 115 367
131 133 557
148 150 746
167 177 966
186 209 1200
205 240 1434
225 289 1669
245 338 1903
266 392 2125
286 455 2322
306 519 2520
328 590 2681
350 665 2825
372 740 2968
187 99 117
181 160 225
175 221 333
175 271 474
186 298 679
197 325 885
211 356 1106
225 390 1336
240 424 1566
258 471 1789
276 518 2013
295 569 2224
315 629 2412
335 690 2600
356 757 2755
378 829 2894
400 901 3033
202 171 199
215 262 315
227 353 430
237 426 581
242 462 802
246 499 1023
254 535 1247
265 571 1472
275 607 1698
291 652 1910
307 697 2122
324 746 2323
343 803 2502
363 860 2680
384 925 2829
407 993 2964
429 1061 3098
241 257 297
271 366 414
300 474 531
316 566 684
305 623 909
295 681 1134
296 729 1363
304 773 1595
312 817 1827
327 861 2031
342 905 2235
359 951 2428
379 1003 2597
398 1055 2765
420 1114 2907
443 1176 3035
466 1237 3163
332 371 427
373 472 534
414 574 641
428 675 781
386 776 985
344 877 1190
336 953 1431
344 1017 1691
353 1082 1951
370 1125 2154
387 1169 2357
405 1212 2545
427 1255 2703
448 1298 2861
471 1346 2993
496 1397 3111
520 1448 3230
422 485 556
475 579 653
528 673 751
539 784 877
466 928 1062
393 1073 1246
375 1177 1499
384 1262 1787
394 1347 2075
412 1390 2276
431 1433 2478
451 1473 2662
474 1507 2809
498 1541 2956
523 1578 3078
548 1618 3187
573 1658 3296
546 631 716
608 721 807
669 811 898
686 916 1009
612 1052 1160
539 1188 1312
498 1317 1552
473 1442 1836
448 1567 2120
472 1628 2344
496 1690 2568
521 1741 2765
550 1772 2910
578 1804 3056
606 1834 3171
635 1864 3273
663 1894 3374
687 794 893
755 881 978
823 968 1064
850 1060 1158
791 1162 1270
733 1264 1382
663 1415 1597
586 1590 1862
509 1764 2127
540 1853 2384
571 1942 2641
604 2013 2862
638 2045 3009
673 2077 3157
706 2101 3269
738 2122 3363
771 2142 3457
827 957 1069
902 1041 1149
978 1125 1229
1013 1204 1307
971 1272 1380
928 1340 1453
827 1513 1642
699 1737 1888
570 1962 2134
608 2078 2424
647 2195 2714
686 2284 2958
727 2317 3108
768 2351 3258
805 2369 3366
842 2379 3453
879 2390 3540
1024 1163 1276
1102 1244 1351
1179 1326 1427
1219 1397 1496
1184 1449 1551
1149 1501 1605
1064 1636 1752
953 1814 1945
842 1991 2137
808 2151 2414
773 2312 2691
769 2439 2936
824 2501 3117
879 2563 3298
928 2592 3419
974 2605 3512
1021 2618 3604
1221 1370 1483
1301 1448 1554
1380 1526 1625
1424 1590 1685
1397 1626 1721
1371 1662 1758
1300 1760 1863
1207 1891 2002
1114 2021 2140
1007 2225 2405
900 2428 2669
852 2594 2915
921 2685 3126
991 2775 3338
1051 2816 3473
1107 2831 3570
1163 2846 3667
1433 1583 1690
1512 1658 1757
1592 1732 1823
1638 1790 1875
1619 1812 1897
1600 1835 1919
1542 1903 1990
1465 1994 2085
1389 2085 2179
1238 2302 2416
1088 2519 2653
1005 2703 2887
1054 2823 3117
1104 2943 3347
1166 2999 3496
1235 3025 3605
1304 3050 3714
1674 1809 1898
1750 1879 1960
1826 1949 2022
1872 2001 2069
1857 2017 2084
1842 2033 2099
1795 2084 2150
1732 2152 2220
1669 2220 2289
1535 2388 2470
1401 2556 2651
1299 2718 2847
1260 2869 3071
1221 3020 3294
1267 3105 3459
1355 3155 3593
1443 3206 3727
1914 2036 2107
1987 2101 2164
2060 2166 2221
2106 2213 2262
2095 2222 2271
2085 2232 2279
2049 2265 2311
1999 2310 2355
1949 2354 2399
1832 2474 2525
1714 2593 2650
1594 2733 2806
1466 2915 3024
1338 3098 3242
1367 3210 3421
1474 3286 3581
1581 3363 3740
2154 2250 2294
2221 2309 2347
2288 2369 2400
2331 2411 2437
2324 2417 2442
2317 2423 2446
2289 2445 2467
2250 2476 2496
2212 2506 2525
2112 2594 2615
2013 2681 2705
1897 2795 2827
1749 2962 3012
1600 3129 3198
1585 3250 3371
1637 3349 3537
1688 3447 3704
2393 2457 2471
2453 2511 2520
2513 2565 2569
2552 2602 2602
2548 2607 2605
2544 2611 2608
2523 2626 2621
2495 2647 2640
2466 2667 2658
2385 2731 2723
2304 2795 2788
2205 2880 2878
2069 3009 3018
1933 3138 3158
1861 3259 3314
1821 3377 3478
1780 3495 3642
2632 2665 2647
2685 2713 2692
2738 2760 2737
2774 2793 2768
2772 2796 2769
2771 2799 2769
2758 2807 2775
2739 2817 2783
2720 2828 2791
2658 2868 2831
2596 2909 2871
2513 2966 2929
2390 3056 3024
2267 3146 3119
2137 3268 3258
2004 3405 3419
1872 3543 3580
297 36 53
249 89 135
201 142 218
179 183 338
210 199 534
240 216 729
269 240 955
296 268 1196
324 296 1436
348 341 1674
372 385 1912
396 434 2136
417 493 2333
439 552 2530
461 619 2691
482 689 2833
503 760 2975
266 106 129
271 190 236
276 274 342
285 338 482
304 360 689
322 382 895
341 411 1122
360 442 1358
379 473 1594
399 519 1821
419 565 2048
439 615 2262
459 674 2450
479 733 2638
501 799 2792
524 869 2930
546 939 3068
235 175 206
293 291 336
350 406 466
391 493 626
397 521 843
404 549 1061
413 581 1288
424 616 1520
435 650 1751
450 697 1967
465 744 2184
482 796 2388
501 855 2567
520 914 2746
542 979 2894
566 1049 3028
590 1118 3161
245 259 300
342 397 446
440 536 593
501 642 763
489 686 978
478 730 1194
477 773 1422
482 814 1658
486 856 1893
499 903 2101
511 950 2310
525 999 2505
544 1055 2674
562 1111 2844
585 1173 2985
610 1238 3113
634 1303 3241
335 373 429
447 516 578
559 659 727
619 781 888
578 861 1073
536 942 1259
524 1006 1492
526 1062 1748
529 1118 2005
541 1162 2210
554 1205 2415
569 1249 2604
588 1295 2763
608 1341 2922
631 1392 3055
656 1447 3174
682 1501 3294
426 488 559
552 635 709
678 782 860
738 919 1012
666 1037 1168
594 1154 1324
571 1240 1561
571 1310 1839
571 1381 2117
584 1421 2318
597 1461 2520
612 1500 2704
633 1535 2852
653 1571 3001
677 1612 3124
703 1656 3235
729 1699 3347
549 634 719
686 785 870
824 935 1020
892 1072 1162
821 1182 1285
751 1292 1408
705 1399 1628
671 1504 1895
638 1609 2162
653 1663 2382
668 1718 2603
686 1765 2798
710 1796 2944
733 1828 3090
759 1860 3207
787 1893 3311
815 1926 3414
689 797 895
836 950 1044
983 1103 1194
1064 1232 1323
1010 1313 1413
957 1394 1503
884 1521 1693
800 1670 1934
717 1819 2174
735 1897 2424
754 1975 2674
776 2037 2890
803 2068 3037
831 2098 3184
860 2122 3297
889 2144 3393
919 2166 3489
830 959 1071
986 1115 1219
1143 1271 1368
1235 1392 1485
1199 1444 1541
1163 1496 1597
1062 1642 1759
929 1836 1973
796 2030 2187
818 2132 2466
840 2233 2746
866 2310 2982
897 2339 3130
928 2368 3278
960 2385 3387
992 2396 3475
1024 2407 3564
1026 1166 1277
1185 1318 1420
1344 1471 1563
1440 1586 1672
1412 1625 1713
1384 1664 1754
1301 1778 1878
1191 1929 2044
1080 2080 2209
1033 2221 2470
986 2363 2730
969 2475 2963
1010 2530 3140
1051 2584 3318
1091 2610 3438
1130 2622 3531
1169 2633 3623
1223 1372 1484
1384 1522 1621
1545 1672 1759
1645 1780 1859
1625 1806 1885
1605 1832 1912
1540 1913 1998
1452 2021 2115
1365 2130 2232
1248 2311 2473
1132 2492 2715
1072 2640 2944
1123 2720 3150
1175 2801 3357
1223 2836 3490
1269 2848 3586
1315 2860 3683
1435 1585 1692
1594 1730 1822
1754 1875 1953
1856 1977 2044
1842 1992 2059
1829 2008 2074
1779 2062 2131
1711 2136 2208
1644 2209 2285
1489 2402 2496
1334 2594 2707
1241 2758 2922
1272 2866 3144
1303 2974 3367
1350 3023 3512
1405 3043 3620
1461 3064 3727
1676 1812 1901
1828 1948 2022
1980 2084 2143
2078 2178 2227
2068 2189 2237
2058 2200 2247
2019 2239 2287
1966 2293 2343
1912 2347 2399
1781 2494 2558
1649 2641 2717
1544 2785 2894
1492 2922 3106
1439 3059 3318
1468 3134 3476
1539 3179 3608
1609 3223 3740
1916 2039 2109
2061 2166 2222
2206 2293 2334
2300 2379 2410
2294 2386 2415
2288 2392 2420
2259 2417 2444
2220 2451 2478
2180 2485 2512
2072 2587 2620
1964 2688 2727
1847 2812 2866
1711 2978 3068
1575 3145 3269
1587 3246 3440
1672 3314 3597
1757 3383 3753
2157 2254 2297
2289 2369 2400
2421 2484 2503
2507 2562 2572
2504 2567 2575
2500 2571 2578
2479 2587 2593
2450 2610 2614
2421 2632 2636
2334 2705 2712
2246 2779 2787
2138 2878 2894
1988 3030 3063
1839 3182 3233
1811 3292 3397
1845 3382 3558
1879 3472 3719
2397 2463 2475
2514 2565 2568
2630 2667 2660
2707 2736 2723
2706 2740 2725
2704 2744 2728
2689 2755 2738
2669 2770 2751
2648 2785 2765
2580 2838 2819
2512 2890 2872
2423 2964 2950
2294 3079 3077
2165 3195 3203
2089 3306 3349
2038 3416 3505
1987 3525 3662
2637 2672 2653
2739 2761 2735
2840 2849 2818
2907 2910 2873
2908 2913 2876
2908 2917 2878
2900 2923 2882
2887 2930 2888
2875 2938 2894
2826 2970 2926
2777 3002 2958
2708 3050 3006
2600 3129 3090
2492 3208 3173
2366 3320 3302
2230 3449 3453
2095 3578 3604
452 50 72
388 117 149
323 184 226
287 238 338
306 263 519
326 289 701
360 317 925
401 346 1172
442 374 1418
476 415 1662
509 457 1906
541 502 2135
568 556 2334
594 610 2534
618 671 2696
640 736 2838
663 801 2980
390 120 142
404 218 251
417 315 361
428 391 498
434 422 692
440 453 885
462 484 1111
492 515 1353
522 547 1595
548 590 1828
574 634 2061
599 681 2279
622 737 2470
646 793 2660
669 855 2816
692 922 2953
