Assets/1__3DArt/KimSe/artstation_asset/LUTs_subway_asset/3DL/Underground 04.3dl
# LUT by SparkleStock. Enhanced with VOXCOLOR algorithms.
0 256 512 768 1023
48 16 16
52 67 579
86 185 1432
155 417 2311
240 721 2962
328 368 424
194 690 897
177 1045 1897
265 1215 2643
358 1395 3166
825 954 1067
742 1100 1219
344 1893 2081
557 2296 3085
733 2373 3517
1671 1806 1896
1646 1846 1930
1425 2093 2180
1029 2816 3035
1276 3190 3714
2626 2658 2642
2637 2679 2662
2566 2718 2689
2179 2983 2958
1649 3507 3555
669 69 91
437 323 521
559 498 1359
755 668 2316
878 885 2985
480 408 436
927 986 1130
956 1245 2022
1016 1405 2806
1096 1607 3351
837 966 1078
1501 1651 1729
1297 2157 2275
1312 2379 3146
1398 2451 3585
1679 1815 1903
2321 2397 2424
2333 2583 2605
1945 3019 3171
1958 3252 3753
2641 2677 2652
3068 3058 3011
3126 3134 3082
2944 3265 3217
2497 3641 3649
1692 166 161
1377 492 760
831 963 1074
1441 1274 2133
1823 1420 2946
1386 606 442
1943 1068 1136
1653 1749 1815
1968 1868 2709
2089 1951 3332
855 982 1090
1650 1745 1812
2326 2376 2403
2325 2488 3131
2358 2605 3608
1686 1821 1907
2429 2486 2504
2989 2997 2974
2778 3190 3282
2687 3307 3754
2637 2671 2641
3137 3126 3075
3499 3465 3409
3443 3510 3457
3162 3747 3727
2675 259 216
2553 515 957
2099 1225 1658
1869 1825 2047
2474 2214 2779
2564 693 319
2936 1011 1085
2777 1715 2088
2565 2427 2607
2884 2654 3200
2118 1447 1115
2767 1829 1555
3203 2237 2334
3049 2882 3021
3159 3028 3527
1896 1941 1945
2592 2528 2472
3102 2967 2908
3353 3308 3324
3360 3429 3732
2638 2674 2641
3134 3121 3070
3489 3458 3403
3701 3679 3622
3609 3825 3786
3282 320 272
3291 507 1093
3155 1183 1980
2833 2161 2495
2626 2642 2626
3291 671 220
3518 939 1061
3510 1546 2191
3303 2548 2868
3136 3123 3071
3169 1550 821
3497 1675 1229
3706 2132 2312
3621 2867 3121
3496 3464 3409
2850 2389 1974
3288 2678 2297
3602 2907 2687
3778 3272 3296
3744 3706 3646
2642 2690 2642
3132 3118 3069
3481 3449 3398
3735 3697 3639
3923 3875 3827
