Assets/1__3DArt/KimSe/artstation_asset/LUTs_subway_asset/3DL/Underground 01.3dl
# LUT by SparkleStock. Enhanced with VOXCOLOR algorithms.
0 128 256 384 512 640 768 896 1023
192 240 176
201 262 409
211 286 656
223 312 921
236 341 1210
252 372 1527
271 407 1856
294 443 2192
320 480 2530
350 418 373
273 516 525
248 576 780
252 611 1081
261 633 1370
276 648 1665
292 667 1966
312 690 2271
333 716 2579
526 609 580
454 695 668
366 816 886
302 928 1196
305 987 1558
318 1003 1864
333 1012 2157
351 1019 2440
369 1029 2717
727 818 804
696 859 846
573 1005 999
438 1188 1275
369 1342 1689
378 1396 2062
392 1417 2382
409 1419 2663
428 1415 2919
958 1052 1051
947 1069 1069
880 1143 1145
726 1318 1330
453 1636 1677
454 1788 2196
466 1859 2595
484 1877 2907
504 1867 3160
1238 1326 1333
1232 1333 1341
1192 1374 1381
1090 1477 1488
898 1673 1697
646 1984 2138
564 2194 2618
573 2311 3054
592 2346 3364
1542 1618 1630
1539 1621 1632
1517 1640 1650
1453 1696 1706
1323 1809 1822
1036 2087 2133
813 2370 2568
687 2609 3044
688 2757 3475
1860 1921 1930
1858 1922 1930
1847 1930 1937
1810 1957 1963
1729 2016 2022
1513 2184 2201
1200 2461 2522
922 2772 2951
810 3045 3459
2178 2226 2226
2178 2226 2226
2175 2228 2228
2157 2240 2239
2115 2267 2265
1966 2364 2363
1712 2541 2553
1375 2802 2853
977 3154 3282
486 259 247
389 386 402
390 432 638
431 435 926
452 435 1234
460 442 1562
468 455 1894
477 474 2226
488 499 2553
431 428 396
516 617 596
543 686 858
539 694 1158
530 699 1470
523 706 1797
521 718 2129
523 736 2462
531 757 2793
536 615 587
704 827 804
700 953 1032
628 1018 1307
595 1045 1664
578 1050 1993
571 1053 2314
571 1058 2630
578 1067 2940
735 824 811
934 1039 1031
908 1200 1199
780 1321 1417
678 1418 1785
649 1445 2156
635 1451 2486
634 1446 2788
643 1441 3072
963 1057 1057
1186 1279 1281
1215 1396 1400
1080 1519 1534
810 1762 1804
757 1864 2292
731 1904 2681
725 1905 2996
735 1888 3265
1241 1329 1337
1474 1556 1562
1528 1652 1659
1448 1720 1732
1279 1862 1886
1000 2110 2265
880 2273 2712
853 2358 3135
855 2373 3443
1544 1620 1631
1779 1845 1854
1846 1929 1937
1803 1963 1973
1704 2039 2052
1425 2260 2302
1179 2491 2687
1018 2686 3128
992 2800 3542
1861 1923 1930
2091 2140 2148
2164 2217 2224
2142 2232 2238
2090 2268 2274
1910 2393 2409
1602 2622 2675
1307 2885 3054
1164 3115 3530
2181 2226 2226
2400 2432 2436
2473 2503 2507
2465 2510 2512
2441 2525 2527
2334 2592 2595
2122 2730 2743
1806 2949 2995
1385 3261 3374
837 287 310
714 441 486
624 553 661
600 616 885
676 623 1207
711 611 1558
732 599 1910
741 591 2256
743 591 2589
718 474 422
882 669 666
863 804 897
799 872 1156
828 865 1484
827 849 1834
820 837 2186
809 831 2534
800 832 2873
674 647 600
939 886 871
1006 1068 1109
978 1170 1372
957 1167 1714
930 1155 2056
907 1145 2395
889 1140 2729
879 1142 3056
745 834 822
1023 1109 1101
1164 1326 1324
1181 1469 1558
1084 1517 1872
1032 1523 2231
995 1520 2567
974 1515 2885
967 1512 3190
970 1064 1065
1272 1356 1358
1448 1562 1566
1451 1728 1741
1230 1900 1934
1142 1949 2369
1087 1960 2734
1060 1949 3046
1054 1931 3326
1245 1333 1342
1558 1633 1640
1750 1833 1839
1796 1965 1975
1670 2059 2080
1406 2246 2391
1264 2359 2791
1205 2410 3186
1189 2410 3487
1546 1622 1634
1861 1922 1930
2057 2116 2122
2128 2225 2232
2063 2270 2282
1823 2438 2473
1582 2617 2803
1404 2767 3198
1352 2847 3586
1861 1923 1931
2170 2214 2221
2363 2400 2406
2444 2495 2500
2416 2514 2519
2280 2602 2615
2005 2786 2829
1721 3003 3156
1556 3187 3590
2181 2226 2226
2476 2502 2506
2660 2677 2683
2741 2762 2767
2731 2770 2773
2661 2814 2816
2498 2918 2927
2222 3099 3134
1815 3374 3463
1240 321 366
1136 458 604
956 635 743
823 787 889
863 850 1144
960 850 1512
1023 830 1888
1057 800 2258
1068 772 2612
1140 530 440
1332 695 727
1252 892 947
1105 1050 1164
1096 1097 1440
1143 1076 1803
1161 1044 2168
1159 1010 2528
1144 981 2876
969 708 613
1258 922 897
1373 1148 1158
1371 1318 1420
1311 1365 1710
1313 1342 2059
1300 1315 2411
1277 1290 2757
1253 1273 3094
868 880 839
1159 1143 1112
1439 1400 1388
1593 1595 1661
1507 1674 1927
1465 1661 2274
1425 1646 2613
1392 1632 2943
1368 1624 3261
980 1074 1075
1281 1365 1368
1573 1646 1649
1744 1883 1891
1684 2044 2065
1592 2048 2437
1526 2038 2773
1483 2023 3082
1463 2011 3371
1250 1338 1348
1563 1638 1645
1861 1922 1928
2055 2145 2152
2056 2259 2273
1842 2388 2516
1701 2454 2860
1621 2475 3221
1588 2465 3512
1548 1624 1637
1863 1924 1932
2159 2205 2211
2361 2415 2421
2397 2500 2508
2217 2619 2645
2005 2747 2915
1829 2852 3258
1755 2901 3615
1861 1923 1932
2171 2215 2222
2457 2487 2492
2656 2684 2689
2708 2752 2757
2620 2809 2819
2398 2952 2983
2147 3122 3255
1973 3261 3641
2179 2226 2226
2478 2503 2506
2747 2759 2765
2933 2942 2948
2988 3002 3005
2951 3027 3029
2836 3102 3108
2613 3249 3271
2251 3487 3550
1689 362 417
1617 469 697
1428 662 904
1190 880 1029
966 1062 1061
1162 1133 1422
1304 1140 1812
1397 1107 2210
1444 1056 2594
1624 573 440
1827 719 768
1753 911 1060
1528 1132 1272
1278 1362 1364
1427 1384 1728
1517 1359 2107
1559 1307 2489
1564 1245 2856
1445 802 620
1761 985 911
1887 1179 1216
1826 1396 1480
1577 1649 1652
1668 1632 2010
1706 1590 2374
1706 1533 2735
1682 1477 3082
1213 992 866
1541 1220 1118
1830 1436 1404
1973 1663 1686
1864 1923 1926
1887 1889 2269
1878 1848 2612
1848 1805 2949
1810 1771 3273
991 1087 1087
1291 1376 1379
1580 1653 1657
1862 1921 1925
2140 2186 2190
2087 2165 2503
2037 2150 2818
1992 2141 3129
1960 2141 3432
1257 1346 1355
1568 1643 1650
1864 1924 1931
2146 2194 2200
2421 2457 2461
2286 2535 2638
2173 2562 2926
2091 2559 3250
2048 2548 3534
1550 1628 1640
1865 1925 1934
2158 2204 2211
2435 2469 2475
2700 2724 2729
2592 2798 2815
2431 2879 3025
2279 2943 3313
2193 2965 3635
1861 1924 1933
2171 2215 2222
2455 2485 2491
2719 2739 2744
2968 2981 2986
2925 3012 3020
2767 3116 3137
2568 3240 3354
2401 3334 3686
2178 2226 2226
2477 2503 2506
2747 2759 2763
2992 2997 3002
3219 3221 3228
3206 3233 3237
3136 3283 3287
2972 3396 3409
2676 3597 3636
2159 412 463
2118 490 765
1963 664 1019
1725 902 1209
1438 1168 1319
1340 1310 1425
1454 1414 1713
1644 1463 2100
1774 1442 2499
2128 606 434
2324 746 798
2275 918 1135
2066 1138 1410
1783 1426 1589
1655 1590 1722
1730 1674 2014
1875 1686 2390
1956 1638 2773
1984 860 584
2285 1022 893
2408 1194 1240
2347 1403 1570
2098 1674 1829
1946 1858 1995
1981 1924 2292
2079 1908 2654
2119 1848 3016
1754 1111 847
2083 1295 1083
2354 1483 1391
2481 1687 1725
2380 1923 2039
2214 2120 2247
2210 2172 2549
2263 2140 2893
2268 2082 3230
1467 1299 1161
1800 1546 1404
2105 1771 1648
2380 1981 1913
2624 2184 2218
2458 2381 2478
2419 2426 2784
2431 2393 3106
2414 2353 3418
1381 1406 1379
1699 1689 1660
1995 1954 1929
2273 2206 2194
2534 2448 2462
2605 2655 2688
2603 2714 2970
2568 2701 3272
2539 2689 3558
1555 1633 1645
1867 1928 1936
2157 2204 2210
2429 2464 2470
2689 2714 2720
2845 2909 2918
2823 3009 3128
2726 3047 3371
2658 3058 3667
1863 1925 1935
2170 2215 2221
2452 2483 2488
2713 2734 2739
2959 2972 2978
3119 3147 3154
3081 3269 3283
2946 3352 3447
2814 3410 3727
2178 2226 2226
2476 2502 2505
2744 2757 2762
2988 2993 2999
3214 3216 3223
3367 3374 3382
3380 3454 3461
3270 3536 3545
3050 3696 3717
2609 467 508
2592 522 827
2476 672 1118
2269 905 1360
1976 1208 1537
1726 1449 1601
1678 1618 1751
1787 1730 2007
2006 1804 2386
2601 639 434
2786 781 829
2762 931 1200
2587 1134 1522
2318 1437 1770
2058 1714 1874
1989 1890 2044
2066 1986 2300
2244 2023 2667
2498 903 545
2773 1052 873
2887 1211 1260
2836 1407 1644
2617 1667 1966
2362 1964 2121
2274 2144 2313
2317 2227 2571
2453 2234 2923
2300 1199 799
2607 1342 1028
2845 1514 1368
2952 1706 1754
2868 1913 2125
2636 2207 2341
2535 2384 2561
2544 2458 2821
2638 2444 3156
2010 1466 1154
2338 1662 1363
2627 1839 1596
2871 2011 1881
3065 2192 2247
2878 2450 2535
2773 2615 2789
2749 2685 3052
2806 2660 3367
1751 1581 1441
2071 1833 1688
2364 2061 1930
2630 2275 2180
2871 2480 2452
2992 2698 2725
2976 2851 2983
2927 2927 3248
2952 2913 3541
1713 1724 1688
2026 2005 1962
2314 2262 2218
2582 2502 2463
2834 2728 2703
3062 2943 2950
3120 3106 3170
3096 3196 3400
3076 3195 3679
1865 1928 1936
2170 2215 2221
2449 2480 2485
2707 2728 2733
2949 2963 2969
3174 3183 3190
3281 3351 3360
3286 3456 3534
3208 3491 3768
2178 2226 2226
2474 2502 2504
2741 2755 2759
2983 2990 2995
3208 3211 3218
3414 3416 3424
3531 3557 3565
3529 3668 3676
3380 3784 3793
3029 527 555
3027 568 889
2950 693 1207
2788 906 1490
2530 1209 1723
2227 1538 1846
2010 1768 1908
1955 1938 2018
2141 2084 2285
3035 674 443
3205 824 863
3204 955 1260
3070 1133 1618
2842 1422 1917
2551 1770 2088
2330 2029 2181
2259 2212 2304
2419 2333 2569
2968 935 511
3214 1078 859
3317 1232 1281
3279 1416 1710
3104 1647 2076
2839 1990 2300
2622 2269 2428
2537 2466 2569
2668 2562 2831
2816 1257 736
3090 1368 969
3288 1534 1344
3374 1722 1781
3311 1903 2198
3089 2211 2480
2887 2494 2650
2792 2701 2814
2889 2775 3073
2563 1588 1096
2865 1733 1285
3117 1869 1522
3316 2020 1842
3456 2208 2283
3301 2442 2629
3127 2711 2850
3026 2920 3042
3089 2977 3298
2254 1790 1483
2566 1998 1693
2844 2180 1908
3087 2350 2148
3296 2518 2433
3389 2701 2757
3321 2936 3012
3231 3125 3243
3257 3173 3494
2027 1892 1754
2337 2145 1999
2619 2371 2228
2876 2576 2452
3113 2767 2682
3312 2953 2950
3398 3162 3191
3415 3326 3423
3406 3378 3665
1972 2002 1978
2274 2279 2252
2548 2532 2504
2801 2766 2739
3038 2987 2964
3256 3191 3179
3458 3385 3388
3576 3534 3593
3542 3603 3793
2178 2226 2226
2473 2501 2503
2738 2753 2756
2978 2987 2991
3202 3207 3212
3407 3410 3417
3598 3601 3609
3709 3758 3765
3671 3860 3862
3410 592 608
3412 628 956
3367 732 1294
3253 918 1608
3048 1201 1881
2754 1562 2056
2483 1883 2164
2277 2119 2216
2178 2226 2226
3417 712 464
3572 874 904
3587 995 1323
3492 1148 1707
3317 1407 2044
3047 1770 2267
2788 2109 2410
2582 2371 2485
2475 2504 2506
3377 958 490
3595 1103 856
3685 1262 1311
3660 1438 1777
3534 1635 2174
3299 1975 2446
3059 2317 2627
2858 2599 2729
2745 2761 2765
3269 1288 676
3508 1378 918
3669 1548 1330
3736 1742 1813
3693 1904 2270
3509 2191 2594
3299 2515 2817
3109 2808 2950
2991 2999 3005
3071 1663 1015
3336 1764 1196
3547 1871 1448
3699 2017 1813
3790 2232 2332
3678 2429 2711
3511 2711 2982
3341 3001 3151
3218 3222 3228
2779 1952 1449
3064 2109 1633
3308 2245 1837
3511 2379 2087
3677 2528 2406
3740 2703 2792
3671 2932 3103
3541 3183 3321
3421 3423 3431
2502 2130 1826
2798 2341 2035
3060 2522 2235
3293 2682 2437
3503 2830 2657
3665 2990 2953
3732 3168 3231
3711 3372 3462
3607 3608 3617
2287 2215 2101
2585 2469 2345
2852 2693 2565
3096 2893 2769
3324 3076 2965
3527 3241 3169
3703 3397 3391
3802 3568 3605
3775 3775 3782
2178 2226 2226
2472 2501 2502
2735 2752 2754
2974 2984 2988
3196 3203 3208
3400 3407 3413
3590 3597 3604
3766 3770 3776
3923 3923 3923
