Assets/1__3DArt/KimSe/artstation_asset/LUTs_subway_asset/3DL/Underground 04_S.3dl
# LUT by SparkleStock. Enhanced with VOXCOLOR algorithms.
0 64 128 192 256 320 384 448 512 576 640 704 768 832 896 960 1023
48 16 16
47 26 135
46 36 255
47 48 395
52 67 579
56 85 764
65 115 977
76 150 1204
86 185 1432
102 238 1663
118 291 1894
135 350 2114
155 417 2311
174 485 2509
195 561 2672
217 641 2817
240 721 2962
108 92 104
92 130 214
75 168 324
65 203 465
69 235 669
72 267 873
80 301 1090
90 337 1314
101 373 1538
117 422 1757
133 470 1977
151 523 2186
170 584 2374
190 646 2562
211 715 2719
232 789 2859
254 862 3000
168 168 193
136 233 293
104 300 394
84 359 535
86 404 759
87 449 983
95 488 1204
105 525 1424
115 561 1644
132 605 1852
148 648 2060
166 696 2258
186 751 2437
206 806 2615
226 869 2766
247 937 2902
268 1004 3038
238 256 295
199 334 382
160 413 469
131 489 605
121 559 838
111 630 1072
115 684 1302
127 730 1531
138 776 1759
155 817 1960
173 858 2161
192 901 2351
213 950 2520
234 998 2688
255 1053 2831
276 1113 2960
297 1172 3090
328 369 423
299 429 489
269 489 555
235 569 674
193 690 897
152 811 1120
147 899 1369
162 971 1632
176 1043 1895
197 1087 2096
218 1130 2298
240 1173 2485
264 1213 2643
288 1253 2801
311 1298 2933
333 1345 3052
355 1393 3172
418 483 551
398 524 596
378 565 642
340 649 743
266 820 955
192 991 1167
179 1114 1436
197 1212 1733
214 1310 2030
239 1356 2232
263 1403 2435
288 1444 2619
315 1476 2766
341 1507 2914
366 1542 3035
390 1578 3144
414 1613 3253
540 631 710
526 659 742
512 688 775
478 762 856
402 924 1035
326 1086 1214
289 1235 1475
273 1379 1776
256 1523 2076
288 1590 2303
321 1658 2530
354 1714 2730
387 1745 2876
420 1776 3022
449 1804 3138
478 1831 3240
506 1857 3341
679 795 885
669 815 908
659 836 931
632 890 991
569 1014 1126
507 1137 1261
439 1311 1499
369 1509 1789
299 1708 2079
342 1807 2342
385 1906 2605
428 1983 2830
469 2018 2980
511 2052 3129
547 2076 3242
581 2094 3337
615 2112 3433
817 959 1059
812 971 1073
806 983 1087
786 1019 1126
737 1104 1217
688 1189 1308
589 1386 1524
465 1640 1802
342 1893 2081
396 2023 2380
450 2153 2679
502 2253 2930
552 2291 3083
601 2328 3236
645 2347 3346
685 2357 3435
725 2367 3524
1011 1167 1262
1008 1177 1273
1005 1186 1284
989 1213 1315
948 1279 1384
906 1344 1454
819 1500 1624
708 1703 1844
598 1905 2064
577 2082 2358
556 2259 2651
564 2400 2907
632 2469 3092
700 2537 3277
758 2569 3401
811 2583 3496
863 2597 3590
1206 1376 1465
1204 1382 1473
1203 1388 1482
1191 1407 1504
1158 1453 1552
1125 1499 1600
1049 1615 1724
951 1766 1886
854 1917 2048
757 2141 2335
661 2365 2622
626 2548 2885
712 2647 3101
798 2747 3317
871 2792 3456
936 2809 3556
1002 2827 3657
1414 1591 1669
1415 1595 1675
1415 1599 1682
1407 1611 1697
1381 1641 1728
1356 1671 1759
1291 1753 1845
1206 1861 1959
1121 1969 2072
977 2207 2335
834 2446 2598
761 2648 2852
829 2779 3089
897 2910 3326
974 2973 3480
1055 3002 3592
1137 3032 3705
1653 1818 1875
1654 1821 1881
1655 1824 1888
1649 1834 1899
1629 1855 1922
1610 1876 1944
1555 1938 2008
1482 2020 2093
1410 2102 2177
1276 2289 2381
1142 2475 2584
1044 2654 2798
1019 2817 3034
994 2981 3270
1056 3073 3441
1161 3130 3579
1267 3187 3716
1891 2044 2080
1893 2047 2087
1895 2050 2093
1892 2056 2102
1878 2069 2115
1863 2082 2129
1819 2123 2171
1759 2179 2227
1699 2235 2283
1574 2370 2427
1449 2505 2570
1326 2660 2744
1209 2856 2980
1091 3051 3215
1138 3173 3402
1267 3257 3565
1396 3341 3728
2134 2255 2272
2137 2258 2279
2141 2262 2286
2140 2267 2293
2129 2275 2300
2119 2283 2308
2084 2312 2336
2036 2350 2373
1988 2389 2411
1878 2489 2515
1767 2590 2620
1645 2717 2758
1499 2897 2961
1353 3077 3164
1351 3209 3345
1421 3315 3517
1491 3422 3688
2380 2456 2457
2385 2461 2464
2389 2467 2471
2390 2472 2477
2383 2477 2481
2376 2482 2485
2350 2501 2502
2314 2527 2526
2277 2553 2550
2184 2628 2626
2091 2703 2702
1981 2799 2805
1839 2940 2959
1697 3081 3114
1630 3212 3280
1600 3338 3450
1570 3464 3621
2626 2658 2642
2632 2665 2650
2637 2672 2657
2640 2677 2662
2637 2679 2662
2633 2681 2661
2616 2691 2668
2591 2704 2679
2566 2718 2689
2490 2767 2737
2414 2815 2784
2318 2882 2851
2179 2983 2958
2041 3084 3065
1909 3215 3214
1779 3361 3384
1649 3507 3555
174 26 34
152 55 138
130 85 241
121 110 373
137 129 562
153 147 751
170 175 969
188 207 1203
206 240 1436
226 289 1670
246 338 1904
266 392 2125
286 455 2323
306 519 2520
328 590 2681
350 665 2825
372 740 2968
198 107 110
189 162 219
181 217 328
179 262 469
189 290 674
199 318 879
212 351 1101
226 385 1332
240 420 1562
258 468 1787
276 515 2011
295 568 2223
315 628 2411
335 689 2600
356 757 2756
378 829 2895
400 900 3035
222 189 186
227 269 300
232 349 415
236 415 565
241 452 786
245 489 1008
254 526 1233
264 563 1461
275 600 1689
291 647 1903
307 693 2117
324 743 2320
343 801 2500
363 859 2680
384 924 2830
406 992 2965
428 1060 3101
266 280 280
284 375 394
301 470 508
310 553 660
301 611 886
292 668 1112
294 718 1344
303 763 1579
311 808 1814
326 854 2021
341 899 2229
358 947 2424
378 1000 2595
398 1053 2765
420 1112 2908
442 1174 3038
465 1236 3167
352 392 409
381 482 512
410 572 615
416 665 753
378 765 961
340 865 1168
333 941 1412
342 1007 1674
351 1072 1937
368 1117 2143
385 1163 2349
404 1207 2540
425 1251 2700
447 1295 2861
470 1343 2994
494 1394 3115
517 1445 3235
438 505 539
478 589 630
518 673 722
522 776 846
455 918 1035
387 1061 1224
371 1165 1480
381 1251 1770
391 1336 2059
410 1381 2264
428 1426 2469
449 1468 2656
473 1502 2806
496 1537 2956
521 1575 3080
545 1614 3192
570 1654 3303
557 649 699
606 731 784
655 812 869
665 911 977
598 1045 1134
530 1179 1290
492 1307 1533
468 1432 1820
445 1557 2106
469 1619 2332
493 1682 2558
518 1735 2759
547 1767 2907
575 1799 3055
603 1830 3173
631 1859 3277
659 1888 3381
692 810 875
750 890 955
807 970 1035
827 1057 1127
773 1158 1244
720 1259 1361
652 1409 1579
579 1582 1846
505 1755 2114
536 1845 2373
568 1935 2632
600 2005 2854
634 2039 3004
669 2072 3155
701 2096 3270
733 2116 3367
765 2136 3464
828 971 1052
893 1050 1127
959 1128 1202
989 1203 1277
949 1271 1355
909 1339 1432
813 1510 1624
689 1732 1873
565 1954 2123
604 2071 2414
642 2187 2705
682 2276 2950
722 2311 3102
762 2345 3255
800 2363 3366
836 2374 3456
872 2384 3547
1020 1177 1256
1089 1254 1329
1159 1331 1401
1194 1399 1469
1162 1451 1527
1129 1503 1586
1047 1637 1736
940 1813 1932
832 1988 2127
800 2147 2405
767 2306 2684
763 2433 2930
818 2496 3112
873 2558 3295
921 2587 3419
967 2600 3514
1013 2612 3609
1213 1383 1461
1286 1458 1531
1359 1533 1600
1399 1595 1660
1374 1630 1700
1349 1666 1740
1281 1764 1848
1190 1893 1990
1099 2022 2131
995 2224 2397
891 2426 2663
845 2590 2910
914 2681 3122
983 2771 3335
1043 2811 3472
1099 2826 3572
1155 2841 3672
1420 1596 1667
1495 1668 1733
1570 1740 1800
1614 1796 1852
1596 1819 1878
1577 1841 1903
1521 1909 1977
1446 2000 2074
1370 2090 2171
1224 2305 2410
1078 2519 2648
996 2701 2884
1046 2820 3114
1095 2939 3344
1158 2996 3495
1226 3020 3606
1295 3045 3717
1658 1822 1875
1731 1890 1938
1805 1958 2000
1849 2008 2048
1834 2025 2066
1820 2041 2084
1774 2091 2138
1712 2159 2210
1649 2227 2282
1518 2393 2464
1387 2559 2647
1287 2719 2843
1249 2869 3068
1212 3019 3293
1258 3102 3458
1346 3153 3593
1434 3203 3729
1896 2048 2082
1967 2112 2142
2039 2175 2201
2083 2221 2244
2073 2230 2255
2063 2240 2265
2027 2273 2300
1977 2318 2346
1928 2363 2392
1813 2481 2519
1697 2599 2646
1578 2737 2803
1453 2918 3022
1328 3098 3241
1358 3209 3421
1465 3285 3581
1573 3361 3741
2139 2259 2276
2206 2317 2330
2272 2376 2385
2314 2417 2424
2308 2423 2430
2301 2430 2437
2273 2452 2459
2234 2483 2490
2196 2513 2520
2098 2600 2611
1999 2686 2702
1885 2799 2824
1738 2964 3011
1591 3130 3198
1577 3250 3371
1630 3348 3537
1682 3446 3704
2385 2462 2461
2445 2515 2511
2505 2568 2561
2544 2605 2596
2540 2610 2599
2536 2614 2603
2515 2630 2617
2487 2650 2636
2458 2671 2656
2378 2734 2721
2297 2798 2786
2199 2882 2877
2064 3010 3017
1929 3138 3158
1857 3259 3314
1817 3377 3478
1777 3494 3642
2632 2665 2647
2685 2713 2692
2738 2760 2737
2774 2793 2768
2772 2796 2769
2771 2799 2769
2758 2807 2775
2739 2817 2783
2720 2828 2791
2658 2868 2831
2596 2909 2871
2513 2966 2929
2390 3056 3024
2267 3146 3119
2137 3268 3258
2004 3405 3419
1872 3543 3580
299 36 52
257 85 140
215 134 228
196 173 351
223 191 545
250 209 738
276 235 962
301 265 1201
326 295 1440
349 339 1677
373 384 1914
396 434 2137
417 493 2334
439 552 2530
461 619 2691
482 689 2833
503 760 2975
287 123 115
287 194 224
287 266 332
292 322 473
309 346 679
327 369 885
344 400 1112
362 433 1350
380 467 1587
400 514 1816
419 561 2044
439 612 2260
459 672 2449
479 732 2637
501 798 2793
523 868 2931
546 938 3069
275 210 179
317 304 307
359 398 436
389 471 594
396 500 813
403 529 1032
413 564 1262
424 602 1498
435 639 1734
450 688 1954
465 738 2175
482 791 2382
501 851 2563
520 911 2745
542 978 2895
565 1047 3029
588 1116 3164
295 304 265
369 416 406
442 528 548
489 617 715
481 662 933
473 707 1152
473 751 1386
479 796 1627
485 841 1868
497 891 2083
510 941 2297
525 993 2497
543 1050 2670
562 1108 2842
584 1170 2986
608 1236 3115
632 1301 3245
377 415 395
463 535 535
550 654 675
597 760 832
562 839 1024
528 918 1217
519 984 1455
522 1043 1717
526 1102 1979
539 1148 2189
552 1195 2400
567 1242 2595
587 1289 2758
607 1337 2920
630 1389 3056
655 1443 3177
679 1498 3299
459 526 526
558 653 664
658 781 802
704 903 950
643 1017 1116
583 1130 1281
564 1216 1524
566 1289 1807
568 1362 2089
581 1406 2296
594 1449 2504
610 1491 2693
631 1528 2846
652 1566 2999
676 1607 3125
701 1651 3239
726 1694 3353
574 668 688
686 802 825
798 935 963
853 1060 1099
793 1167 1233
734 1273 1366
694 1379 1592
664 1485 1863
633 1591 2135
649 1648 2361
665 1706 2586
683 1755 2787
707 1789 2937
731 1822 3087
757 1855 3208
784 1887 3314
811 1920 3421
706 826 866
830 965 1003
955 1105 1140
1022 1224 1264
977 1303 1363
932 1382 1461
866 1507 1658
788 1655 1904
711 1803 2150
730 1883 2404
750 1963 2658
772 2028 2878
799 2060 3029
827 2092 3180
856 2117 3297
885 2139 3396
915 2160 3495
838 984 1044
974 1129 1180
1111 1274 1316
1192 1388 1429
1161 1439 1493
1131 1490 1557
1038 1634 1725
913 1825 1944
788 2015 2164
812 2118 2447
835 2221 2730
861 2300 2969
892 2331 3122
923 2361 3274
954 2379 3386
987 2390 3478
1019 2401 3570
1029 1187 1251
1171 1331 1384
1313 1476 1517
1400 1585 1622
1376 1623 1670
1352 1662 1719
1275 1774 1848
1171 1923 2019
1067 2071 2189
1023 2213 2453
978 2354 2717
963 2466 2953
1004 2522 3133
1045 2578 3313
1085 2605 3437
1124 2616 3533
1163 2628 3628
1220 1391 1458
1367 1534 1588
1515 1678 1718
1608 1782 1816
1591 1808 1848
1573 1833 1880
1512 1913 1972
1429 2020 2093
1345 2128 2215
1233 2307 2459
1122 2487 2703
1064 2633 2936
1116 2714 3144
1168 2795 3352
1216 2830 3488
1262 2842 3587
1308 2854 3687
1426 1601 1666
1576 1742 1792
1726 1882 1917
1822 1981 2008
1810 1997 2028
1798 2012 2047
1751 2066 2108
1686 2139 2189
1620 2212 2270
1471 2402 2484
1321 2592 2698
1232 2754 2915
1263 2862 3139
1294 2969 3362
1342 3018 3510
1398 3039 3620
1453 3059 3730
1663 1827 1875
1809 1959 1994
1954 2091 2113
2048 2183 2197
2039 2194 2211
2030 2205 2225
1993 2245 2269
1941 2298 2327
1889 2351 2386
1761 2497 2548
1633 2642 2710
1531 2785 2888
1480 2921 3102
1429 3056 3315
1460 3131 3475
1530 3176 3608
1601 3220 3742
1901 2052 2084
2041 2176 2196
2182 2300 2308
2274 2385 2386
2268 2392 2394
2263 2398 2402
2235 2423 2429
2196 2457 2466
2157 2491 2502
2051 2592 2611
1945 2693 2721
1830 2815 2861
1697 2979 3064
1564 3144 3267
1577 3244 3439
1663 3312 3596
1750 3381 3754
2144 2264 2279
2274 2377 2382
2404 2490 2485
2489 2567 2555
2486 2572 2560
2482 2576 2565
2461 2593 2583
2432 2615 2606
2403 2638 2629
2317 2710 2706
2231 2783 2783
2125 2881 2891
1977 3031 3061
1830 3182 3232
1804 3291 3396
1838 3381 3558
1873 3470 3719
2391 2468 2466
2506 2569 2558
2622 2670 2651
2698 2738 2714
2697 2743 2718
2695 2747 2722
2681 2758 2732
2660 2773 2747
2639 2788 2761
2572 2840 2816
2504 2892 2870
2416 2966 2949
2289 3080 3075
2161 3195 3202
2085 3306 3349
2034 3415 3505
1984 3524 3662
2637 2672 2653
2739 2761 2735
2840 2849 2818
2907 2910 2873
2908 2913 2876
2908 2917 2878
2900 2923 2882
2887 2930 2888
2875 2938 2894
2826 2970 2926
2777 3002 2958
2708 3050 3006
2600 3129 3090
2492 3208 3173
2366 3320 3302
2230 3449 3453
2095 3578 3604
455 49 70
400 110 155
344 171 239
312 222 355
328 249 536
344 277 716
374 307 939
411 339 1182
448 371 1425
480 413 1667
511 455 1909
541 501 2136
568 555 2335
594 609 2535
618 671 2696
641 736 2838
663 801 2980
420 143 122
426 224 235
431 304 348
438 368 487
445 399 682
452 429 876
472 463 1103
499 499 1345
525 534 1588
550 581 1823
575 627 2057
599 677 2277
623 734 2468
646 791 2660
669 854 2816
692 920 2954
