Assets/1__3DArt/KimSe/artstation_asset/LUTs_subway_asset/3DL/Underground 02.3dl
# LUT by SparkleStock. Enhanced with VOXCOLOR algorithms.
0 128 256 384 512 640 768 896 1023
128 176 208
145 206 382
163 243 579
182 286 800
203 333 1043
229 385 1308
259 443 1582
300 506 1862
352 576 2146
252 343 400
204 445 539
197 518 752
214 572 999
238 616 1239
271 658 1483
308 706 1735
353 761 1992
408 825 2256
398 532 615
350 622 704
294 751 896
261 879 1161
287 965 1464
327 1013 1717
373 1055 1958
425 1096 2193
482 1143 2427
574 750 857
553 796 898
467 945 1040
377 1137 1286
343 1314 1638
389 1403 1948
444 1459 2209
504 1493 2437
565 1521 2645
787 1004 1127
781 1026 1143
731 1103 1210
614 1277 1373
403 1593 1677
449 1781 2117
510 1887 2447
578 1934 2696
647 1949 2893
1069 1302 1422
1067 1315 1428
1037 1358 1462
957 1461 1553
803 1655 1732
592 1970 2103
561 2195 2504
625 2331 2862
697 2379 3105
1399 1615 1716
1399 1622 1717
1383 1643 1731
1331 1699 1777
1223 1811 1873
966 2084 2133
766 2366 2494
671 2604 2885
727 2743 3234
1770 1927 1998
1775 1933 1997
1768 1943 2001
1735 1970 2021
1664 2029 2069
1466 2195 2217
1146 2463 2480
859 2758 2832
760 3003 3250
2178 2226 2258
2189 2233 2258
2189 2240 2259
2171 2252 2266
2128 2279 2286
1985 2377 2368
1724 2550 2526
1336 2798 2773
817 3122 3122
390 181 250
293 313 408
294 373 614
340 397 853
377 423 1111
411 457 1386
447 500 1664
487 551 1944
537 610 2223
323 351 414
410 548 626
455 635 860
481 669 1111
510 704 1374
544 744 1648
584 789 1922
630 839 2195
683 896 2461
405 542 623
582 765 848
607 905 1060
579 992 1297
594 1054 1599
628 1095 1871
671 1132 2134
721 1171 2387
778 1213 2631
580 760 865
797 990 1086
803 1158 1248
720 1292 1441
673 1418 1756
698 1484 2063
738 1525 2331
789 1552 2571
848 1575 2792
792 1012 1134
1046 1247 1347
1097 1368 1459
994 1495 1579
786 1743 1819
788 1885 2231
816 1960 2548
863 1989 2797
922 1993 3000
1073 1308 1426
1354 1541 1629
1429 1640 1715
1365 1711 1780
1228 1855 1915
998 2116 2241
922 2298 2614
938 2402 2957
980 2428 3194
1402 1619 1717
1699 1844 1907
1789 1929 1977
1751 1964 2008
1666 2041 2077
1416 2264 2294
1190 2501 2620
1046 2699 2985
1039 2805 3316
1775 1932 1997
2074 2146 2173
2170 2221 2234
2150 2237 2246
2100 2274 2277
1927 2400 2395
1614 2626 2624
1302 2880 2945
1132 3087 3338
2187 2233 2257
2471 2436 2419
2566 2506 2473
2558 2513 2478
2532 2529 2491
2420 2596 2552
2188 2732 2684
1819 2941 2904
1292 3232 3229
726 192 301
585 355 499
491 482 673
472 566 874
557 602 1152
625 623 1447
686 645 1740
743 673 2028
800 709 2308
604 387 429
760 589 696
748 745 924
705 843 1158
773 869 1441
827 890 1733
879 915 2023
929 944 2304
982 980 2572
542 570 629
811 821 915
897 1021 1151
905 1149 1389
943 1183 1684
984 1210 1970
1029 1237 2247
1078 1267 2514
1132 1301 2767
589 772 875
887 1064 1158
1058 1292 1374
1118 1450 1588
1084 1529 1862
1104 1576 2164
1139 1611 2439
1185 1638 2692
1241 1663 2925
798 1022 1142
1140 1327 1422
1351 1541 1617
1389 1713 1778
1214 1893 1954
1198 1985 2324
1211 2033 2624
1247 2051 2871
1299 2055 3081
1077 1314 1430
1453 1619 1699
1685 1823 1879
1756 1958 2001
1651 2056 2097
1436 2260 2371
1343 2397 2707
1330 2471 3029
1355 2483 3259
1405 1623 1719
1800 1920 1972
2041 2113 2139
2130 2223 2237
2072 2270 2282
1854 2443 2454
1634 2633 2740
1472 2791 3071
1427 2867 3381
1777 1934 1997
2174 2218 2232
2410 2400 2389
2503 2494 2474
2474 2513 2492
2340 2603 2579
2060 2788 2771
1757 2999 3055
1554 3167 3417
2188 2236 2255
2566 2505 2473
2782 2676 2622
2867 2760 2701
2855 2767 2707
2779 2810 2749
2593 2912 2852
2269 3085 3039
1775 3341 3333
1133 210 357
994 360 616
802 554 777
669 728 930
708 818 1161
834 854 1478
945 871 1791
1041 879 2094
1124 887 2382
1031 427 437
1217 596 752
1128 816 992
982 1008 1209
996 1088 1453
1100 1104 1760
1186 1110 2061
1258 1113 2352
1321 1120 2627
840 621 632
1141 843 936
1264 1088 1206
1282 1286 1460
1264 1370 1718
1341 1386 2015
1407 1398 2305
1466 1410 2584
1520 1426 2845
714 815 888
1030 1093 1165
1340 1360 1435
1532 1572 1693
1493 1682 1934
1535 1710 2233
1580 1733 2516
1628 1754 2781
1679 1775 3026
806 1031 1151
1149 1337 1432
1485 1627 1695
1696 1871 1918
1667 2038 2079
1660 2086 2404
1676 2114 2687
1710 2130 2936
1757 2141 3158
1082 1321 1436
1457 1625 1704
1810 1913 1959
2044 2139 2162
2061 2256 2274
1888 2402 2493
1804 2496 2789
1784 2542 3087
1802 2549 3314
1407 1626 1721
1802 1922 1973
2157 2202 2218
2395 2411 2406
2438 2496 2488
2271 2620 2615
2083 2762 2854
1930 2880 3148
1871 2931 3436
1777 1935 1997
2175 2219 2232
2515 2486 2467
2739 2680 2645
2791 2747 2710
2701 2805 2768
2474 2949 2921
2209 3117 3163
2007 3246 3489
2186 2236 2253
2567 2506 2473
2871 2758 2700
3065 2938 2872
3112 2994 2931
3071 3018 2954
2939 3090 3028
2679 3228 3179
2250 3450 3434
1605 232 414
1496 357 722
1277 574 949
1020 817 1090
794 1021 1138
1006 1125 1465
1192 1168 1797
1353 1171 2121
1489 1155 2425
1540 447 432
1743 595 797
1651 816 1108
1406 1075 1330
1147 1336 1429
1342 1391 1748
1499 1402 2065
1624 1387 2372
1721 1360 2660
1335 700 630
1673 882 943
1811 1094 1261
1750 1341 1531
1490 1632 1698
1646 1650 2010
1765 1645 2315
1853 1626 2607
1919 1604 2879
1068 921 906
1430 1153 1157
1757 1376 1446
1927 1619 1726
1817 1911 1951
1918 1914 2253
1994 1909 2544
2052 1903 2821
2098 1900 3077
817 1041 1159
1159 1345 1441
1492 1634 1702
1814 1909 1949
2125 2176 2191
2156 2191 2477
2190 2210 2751
2230 2233 3011
2274 2259 3253
1088 1327 1441
1463 1630 1709
1813 1916 1962
2140 2187 2205
2446 2450 2444
2339 2541 2609
2287 2596 2865
2278 2622 3141
2297 2630 3370
1409 1629 1724
1804 1924 1975
2157 2201 2218
2474 2465 2456
2761 2718 2691
2657 2795 2774
2521 2889 2965
2402 2969 3218
2348 3001 3486
1776 1935 1997
2174 2218 2231
2513 2483 2465
2803 2734 2698
3056 2974 2930
3011 3004 2962
2849 3108 3073
2643 3233 3269
2470 3325 3556
2184 2235 2251
2565 2505 2472
2869 2757 2698
3115 2992 2928
3321 3212 3157
3305 3222 3165
3227 3268 3211
3040 3373 3325
2699 3558 3534
2120 254 465
2048 354 802
1862 558 1078
1596 829 1281
1284 1128 1401
1179 1296 1503
1324 1428 1757
1579 1506 2083
1805 1513 2399
2085 447 422
2284 593 831
2222 796 1191
1993 1060 1475
1692 1388 1651
1565 1581 1771
1686 1692 2021
1909 1733 2332
2087 1715 2633
1916 725 579
2242 884 915
2379 1077 1285
2321 1322 1626
2059 1638 1875
1914 1853 2019
2003 1947 2272
2183 1961 2572
2311 1931 2859
1650 1016 868
2018 1195 1101
2328 1389 1423
2481 1615 1767
2382 1889 2071
2228 2116 2249
2280 2198 2508
2411 2196 2799
2496 2169 3074
1322 1249 1218
1709 1496 1439
2061 1723 1668
2377 1938 1927
2654 2151 2238
2504 2378 2463
2520 2453 2732
2603 2447 3011
2655 2434 3271
1218 1383 1459
1603 1670 1711
1955 1937 1954
2277 2190 2196
2570 2436 2449
2653 2651 2657
2699 2731 2914
2728 2741 3182
2758 2748 3425
1413 1633 1726
1805 1925 1976
2155 2199 2216
2467 2458 2450
2750 2708 2682
2908 2903 2872
2907 3011 3069
2843 3062 3289
2815 3085 3547
1777 1937 1998
2174 2218 2230
2509 2480 2461
2796 2728 2691
3047 2965 2922
3197 3138 3097
3152 3259 3222
3018 3343 3372
2897 3403 3621
2184 2236 2252
2564 2505 2470
2867 2754 2695
3111 2988 2925
3316 3207 3153
3444 3363 3318
3446 3441 3397
3324 3514 3475
3077 3660 3632
2610 277 513
2573 355 872
2434 539 1185
2200 812 1437
1878 1155 1616
1604 1427 1681
1557 1620 1819
1708 1753 2038
2028 1846 2345
2596 444 418
2784 592 863
2754 776 1262
2567 1028 1593
2284 1379 1830
2011 1689 1924
1954 1891 2069
2080 2007 2282
2354 2063 2576
2471 729 525
2768 873 886
2896 1057 1305
2851 1296 1708
2628 1607 2017
2367 1939 2149
2299 2144 2309
2392 2248 2521
2611 2276 2808
2242 1066 792
2585 1200 1024
2855 1382 1389
2985 1602 1800
2908 1855 2171
2674 2183 2354
2597 2384 2537
2652 2479 2754
2814 2487 3035
1915 1389 1178
2297 1577 1363
2626 1753 1589
2901 1933 1887
3122 2138 2287
2936 2428 2539
2853 2616 2755
2870 2706 2977
2980 2701 3252
1628 1546 1497
2017 1794 1709
2359 2021 1927
2660 2237 2166
2925 2451 2440
3052 2682 2711
3058 2850 2944
3044 2941 3175
3113 2944 3436
1588 1719 1759
1983 1994 1987
2329 2248 2210
2632 2486 2433
2902 2713 2662
3130 2932 2912
3195 3100 3121
3187 3199 3331
3201 3208 3586
1778 1939 2000
2173 2218 2230
2506 2477 2458
2790 2721 2685
3036 2954 2912
3249 3173 3133
3343 3340 3303
3346 3445 3471
3284 3482 3687
2182 2237 2254
2562 2504 2470
2864 2752 2693
3106 2984 2920
3309 3201 3148
3485 3405 3364
3583 3544 3511
3568 3650 3621
3404 3755 3727
3054 299 565
3044 363 941
2956 524 1281
2780 780 1571
2503 1131 1796
2175 1499 1911
1937 1757 1969
1893 1944 2063
2153 2101 2286
3051 439 425
3225 595 899
3225 763 1329
3092 992 1697
2864 1335 1982
2567 1725 2128
2338 2012 2202
2285 2214 2299
2516 2345 2513
2971 719 477
3230 856 864
3345 1039 1329
3318 1273 1784
3152 1560 2141
2893 1945 2329
2677 2251 2426
2612 2464 2533
2802 2572 2745
2799 1082 701
3097 1181 944
3317 1363 1358
3421 1589 1834
3370 1821 2264
3159 2169 2507
2963 2477 2639
2885 2698 2763
3028 2784 2979
2524 1470 1075
2866 1603 1247
3145 1740 1492
3362 1908 1846
3520 2137 2344
3373 2407 2658
3205 2696 2838
3117 2917 2987
3211 2984 3209
2192 1731 1497
2564 1929 1669
2878 2108 1869
3141 2282 2114
3361 2466 2423
3459 2675 2770
3392 2923 3001
3309 3121 3191
3358 3177 3414
1948 1874 1796
2335 2119 1991
2663 2340 2192
2943 2543 2404
3186 2737 2635
3382 2935 2925
3461 3151 3163
3478 3320 3376
3485 3375 3594
1907 2008 2029
2295 2276 2247
2618 2524 2464
2889 2755 2682
3123 2973 2901
3327 3178 3122
3512 3374 3343
3621 3524 3550
3594 3592 3733
2180 2240 2256
2561 2505 2470
2861 2750 2691
3102 2980 2916
3302 3196 3141
3477 3397 3357
3643 3587 3560
3735 3743 3721
3685 3839 3815
3427 320 624
3435 379 1016
3394 520 1378
3285 752 1694
3085 1086 1953
2790 1493 2104
2509 1848 2193
2289 2107 2234
2178 2226 2242
3429 438 447
3589 603 944
3613 759 1401
3531 966 1799
3374 1285 2120
3123 1698 2305
2873 2072 2411
2671 2357 2458
2562 2500 2464
3385 704 446
3609 839 857
3710 1029 1364
3699 1259 1865
3591 1517 2259
3383 1907 2489
3164 2283 2623
2977 2585 2684
2867 2754 2692
3276 1073 615
3524 1148 877
3695 1340 1340
3774 1580 1876
3744 1798 2359
3584 2132 2647
3396 2486 2822
3224 2794 2906
3112 2990 2924
3079 1502 948
3361 1591 1124
3580 1703 1402
3738 1876 1819
3839 2148 2412
3738 2383 2773
3587 2689 3001
3431 2990 3120
3315 3210 3154
2787 1852 1403
3107 2000 1558
3364 2137 1764
3567 2281 2040
3729 2455 2405
3796 2670 2833
3732 2920 3129
3605 3176 3304
3485 3410 3368
2508 2083 1810
2859 2286 1971
3142 2464 2153
3372 2626 2362
3569 2783 2606
3722 2965 2946
3784 3160 3239
3757 3368 3455
3645 3595 3565
2289 2210 2114
2662 2453 2298
2959 2672 2489
3201 2870 2687
3408 3053 2892
3589 3222 3117
3750 3386 3368
3835 3562 3593
3792 3762 3739
2178 2242 2258
2560 2505 2471
2859 2749 2690
3098 2976 2913
3295 3191 3136
3468 3391 3350
3634 3580 3552
3787 3753 3733
3923 3907 3891
