Assets/1__3DArt/KimSe/artstation_asset/LUTs_subway_asset/3DL/Underground 01.3dl
# LUT by SparkleStock. Enhanced with VOXCOLOR algorithms.
0 256 512 768 1023
192 240 176
211 286 656
236 341 1210
271 407 1856
320 480 2530
526 609 580
366 816 886
305 987 1558
333 1012 2157
369 1029 2717
958 1052 1051
880 1143 1145
453 1636 1677
466 1859 2595
504 1867 3160
1542 1618 1630
1517 1640 1650
1323 1809 1822
813 2370 2568
688 2757 3475
2178 2226 2226
2175 2228 2228
2115 2267 2265
1712 2541 2553
977 3154 3282
837 287 310
624 553 661
676 623 1207
732 599 1910
743 591 2589
674 647 600
1006 1068 1109
957 1167 1714
907 1145 2395
879 1142 3056
970 1064 1065
1448 1562 1566
1230 1900 1934
1087 1960 2734
1054 1931 3326
1546 1622 1634
2057 2116 2122
2063 2270 2282
1582 2617 2803
1352 2847 3586
2181 2226 2226
2660 2677 2683
2731 2770 2773
2498 2918 2927
1815 3374 3463
1689 362 417
1428 662 904
966 1062 1061
1304 1140 1812
1444 1056 2594
1445 802 620
1887 1179 1216
1577 1649 1652
1706 1590 2374
1682 1477 3082
991 1087 1087
1580 1653 1657
2140 2186 2190
2037 2150 2818
1960 2141 3432
1550 1628 1640
2158 2204 2211
2700 2724 2729
2431 2879 3025
2193 2965 3635
2178 2226 2226
2747 2759 2763
3219 3221 3228
3136 3283 3287
2676 3597 3636
2609 467 508
2476 672 1118
1976 1208 1537
1678 1618 1751
2006 1804 2386
2498 903 545
2887 1211 1260
2617 1667 1966
2274 2144 2313
2453 2234 2923
2010 1466 1154
2627 1839 1596
3065 2192 2247
2773 2615 2789
2806 2660 3367
1713 1724 1688
2314 2262 2218
2834 2728 2703
3120 3106 3170
3076 3195 3679
2178 2226 2226
2741 2755 2759
3208 3211 3218
3531 3557 3565
3380 3784 3793
3410 592 608
3367 732 1294
3048 1201 1881
2483 1883 2164
2178 2226 2226
3377 958 490
3685 1262 1311
3534 1635 2174
3059 2317 2627
2745 2761 2765
3071 1663 1015
3547 1871 1448
3790 2232 2332
3511 2711 2982
3218 3222 3228
2502 2130 1826
3060 2522 2235
3503 2830 2657
3732 3168 3231
3607 3608 3617
2178 2226 2226
2735 2752 2754
3196 3203 3208
3590 3597 3604
3923 3923 3923
