Assets/1__3DArt/KimSe/artstation_asset/LUTs_subway_asset/3DL/Underground 01_S.3dl
# LUT by SparkleStock. Enhanced with VOXCOLOR algorithms.
0 128 256 384 512 640 768 896 1023
192 240 176
201 262 409
211 286 656
223 312 921
236 341 1210
252 372 1527
271 407 1856
294 443 2192
320 480 2530
350 418 373
273 516 525
247 576 780
250 611 1081
260 633 1371
275 648 1666
292 667 1968
311 690 2275
331 716 2585
525 609 579
453 695 667
365 816 886
301 928 1196
303 987 1559
316 1003 1866
331 1012 2160
348 1019 2446
365 1029 2728
723 820 801
692 860 845
571 1006 999
437 1190 1276
366 1343 1690
374 1397 2064
388 1418 2385
405 1419 2670
420 1415 2934
951 1058 1045
941 1074 1067
875 1148 1145
722 1322 1332
452 1638 1678
450 1790 2198
461 1860 2598
478 1877 2913
497 1867 3175
1226 1337 1321
1222 1343 1335
1183 1383 1379
1081 1486 1489
891 1681 1699
641 1988 2141
559 2196 2621
567 2313 3060
585 2346 3375
1527 1634 1613
1525 1634 1622
1504 1653 1645
1440 1709 1706
1311 1821 1824
1027 2095 2136
807 2375 2572
682 2612 3049
682 2757 3483
1847 1934 1917
1846 1933 1921
1836 1940 1932
1798 1968 1962
1718 2027 2024
1504 2193 2204
1194 2467 2525
919 2775 2955
807 3045 3464
2178 2226 2226
2178 2226 2226
2175 2228 2228
2157 2240 2239
2115 2267 2265
1966 2364 2363
1712 2541 2553
1375 2802 2853
977 3154 3282
487 258 246
402 376 413
402 421 650
437 429 933
455 432 1238
462 441 1563
469 455 1894
477 474 2226
488 499 2553
464 457 361
529 616 584
549 678 859
544 689 1164
534 696 1476
525 705 1802
522 718 2132
523 735 2465
532 757 2796
570 652 546
705 836 777
695 952 1021
630 1015 1309
598 1043 1669
580 1049 1997
571 1053 2319
571 1058 2635
579 1068 2948
755 856 777
921 1057 998
892 1208 1181
776 1323 1414
678 1418 1788
649 1445 2159
635 1451 2490
633 1447 2794
641 1442 3084
971 1081 1031
1168 1299 1251
1192 1411 1379
1065 1529 1526
807 1764 1805
755 1865 2294
729 1905 2684
723 1906 3002
731 1889 3277
1238 1350 1314
1455 1573 1537
1506 1668 1641
1430 1734 1724
1267 1871 1885
995 2114 2267
876 2275 2715
849 2360 3140
850 2373 3453
1535 1640 1611
1762 1861 1834
1827 1944 1922
1785 1978 1965
1688 2051 2050
1415 2268 2303
1173 2496 2691
1014 2689 3132
988 2801 3549
1852 1936 1916
2079 2151 2136
2151 2227 2214
2130 2242 2233
2077 2278 2273
1900 2401 2410
1596 2627 2677
1304 2888 3058
1161 3115 3534
2181 2226 2226
2400 2432 2436
2473 2503 2507
2465 2510 2512
2441 2525 2527
2334 2592 2595
2122 2730 2743
1806 2949 2995
1385 3261 3374
841 283 306
742 413 497
659 521 684
628 591 911
689 611 1220
717 605 1564
733 597 1912
741 591 2256
743 591 2589
780 510 359
902 659 636
889 766 905
839 826 1189
850 839 1509
838 835 1849
824 831 2193
811 829 2537
802 831 2876
764 719 507
979 918 797
1028 1058 1079
997 1135 1382
970 1148 1729
938 1144 2067
910 1140 2402
891 1139 2734
881 1142 3063
829 921 727
1073 1175 1001
1175 1351 1258
1168 1459 1537
1084 1509 1872
1033 1519 2235
997 1518 2572
976 1514 2891
968 1513 3200
1016 1128 997
1286 1419 1269
1429 1601 1494
1417 1739 1703
1221 1897 1928
1140 1947 2369
1087 1959 2737
1060 1949 3052
1053 1931 3336
1265 1377 1295
1556 1680 1574
1726 1867 1783
1760 1982 1941
1648 2068 2067
1396 2249 2389
1261 2360 2792
1203 2411 3191
1187 2410 3496
1549 1652 1603
1852 1953 1887
2035 2141 2083
2099 2241 2207
2040 2284 2269
1809 2446 2470
1575 2621 2804
1400 2769 3202
1349 2847 3593
1858 1939 1915
2162 2231 2200
2350 2413 2386
2427 2505 2486
2400 2524 2512
2268 2610 2612
1998 2791 2829
1718 3005 3158
1554 3187 3593
2181 2226 2226
2476 2502 2505
2660 2677 2681
2741 2762 2766
2731 2770 2772
2661 2814 2816
2498 2918 2927
2222 3099 3134
1815 3374 3463
1248 314 359
1178 414 607
1014 578 769
879 736 930
894 821 1174
973 836 1526
1027 825 1893
1058 800 2260
1068 772 2612
1221 562 361
1354 674 679
1295 821 954
1182 956 1216
1152 1030 1495
1170 1039 1834
1172 1028 2183
1161 1005 2534
1145 980 2879
1106 797 476
1336 966 779
1420 1122 1102
1409 1242 1430
1354 1300 1749
1336 1305 2086
1309 1298 2426
1280 1285 2765
1255 1272 3100
1023 1010 680
1288 1251 942
1491 1439 1267
1584 1567 1612
1519 1631 1932
1474 1637 2285
1430 1634 2623
1394 1628 2950
1370 1623 3270
1088 1191 950
1374 1489 1200
1611 1728 1501
1730 1907 1799
1665 2024 2041
1585 2037 2431
1525 2033 2775
1484 2021 3087
1464 2011 3381
1305 1414 1268
1606 1728 1524
1865 1991 1812
2023 2178 2070
2018 2264 2237
1825 2386 2503
1695 2452 2859
1620 2474 3224
1588 2465 3520
1568 1669 1591
1875 1981 1856
2148 2253 2134
2329 2445 2361
2360 2514 2476
2196 2625 2631
1995 2749 2912
1826 2853 3261
1754 2901 3621
1864 1943 1912
2171 2242 2186
2447 2511 2454
2637 2701 2658
2686 2763 2738
2604 2817 2809
2388 2956 2980
2143 3123 3257
1972 3261 3644
2179 2226 2226
2479 2506 2503
2747 2762 2760
2933 2944 2944
2988 3003 3004
2951 3027 3029
2836 3102 3108
2613 3249 3271
2251 3487 3550
1700 352 406
1663 419 691
1501 585 917
1271 798 1066
1026 1006 1116
1189 1106 1447
1313 1131 1821
1398 1106 2212
1444 1056 2594
1706 599 360
1845 689 710
1793 825 1039
1618 1008 1302
1388 1237 1456
1482 1316 1781
1538 1329 2133
1564 1297 2497
1565 1243 2859
1599 874 465
1836 1009 778
1924 1135 1133
1870 1287 1470
1683 1501 1734
1723 1549 2064
1729 1550 2404
1712 1520 2747
1683 1474 3088
1414 1117 664
1703 1321 912
1908 1474 1242
1993 1619 1607
1920 1799 1958
1918 1818 2299
1891 1813 2633
1852 1794 2960
1812 1768 3281
1189 1265 895
1510 1566 1126
1760 1802 1411
1953 1987 1749
2107 2136 2135
2072 2137 2486
2032 2136 2818
1992 2137 3135
1962 2141 3441
1362 1460 1234
1683 1784 1466
1948 2051 1734
2169 2270 2040
2360 2452 2385
2258 2523 2609
2163 2552 2920
2089 2555 3254
2049 2548 3542
1595 1690 1574
1913 2014 1818
2187 2293 2077
2427 2532 2357
2642 2737 2663
2560 2801 2785
2417 2878 3015
2274 2942 3314
2193 2965 3640
1872 1948 1907
2183 2256 2167
2459 2531 2423
2707 2776 2681
2934 2994 2950
2901 3021 2999
2754 3120 3129
2563 3241 3353
2401 3334 3689
2178 2226 2226
2479 2509 2498
2748 2769 2750
2991 3006 2990
3217 3223 3226
3204 3233 3236
3135 3283 3287
2972 3396 3409
2676 3597 3636
2170 401 452
2156 446 755
2023 597 1021
1798 824 1228
1508 1098 1354
1382 1270 1456
1472 1397 1730
1647 1461 2103
1774 1442 2499
2195 626 370
2339 714 741
2305 837 1100
2140 1022 1409
1886 1293 1633
1732 1497 1778
1770 1624 2052
1884 1671 2402
1957 1635 2776
2110 914 457
2346 1034 777
2435 1146 1153
2383 1294 1529
2193 1519 1853
2030 1734 2055
2030 1852 2339
2093 1883 2673
2120 1842 3022
1928 1201 669
2222 1368 900
2423 1499 1235
2501 1628 1624
2429 1790 2018
2279 1994 2288
2254 2092 2592
2276 2110 2914
2271 2076 3239
1665 1424 962
2013 1678 1146
2277 1870 1400
2468 2012 1728
2596 2121 2133
2479 2286 2478
2444 2356 2808
2439 2367 3123
2417 2350 3428
1527 1528 1233
1882 1850 1430
2171 2112 1669
2400 2322 1958
2574 2486 2304
2604 2625 2632
2595 2680 2961
2566 2688 3277
2540 2688 3566
1634 1715 1559
1977 2051 1775
2271 2340 2009
2517 2583 2269
2721 2782 2568
2825 2916 2849
2799 2998 3105
2719 3041 3369
2658 3058 3672
1884 1956 1903
2207 2275 2142
2492 2560 2376
2742 2811 2618
2961 3027 2880
3094 3166 3103
3060 3271 3263
2939 3350 3444
2814 3410 3729
2178 2226 2226
2481 2514 2489
2752 2780 2730
2996 3023 2960
3217 3240 3192
3365 3382 3371
3378 3456 3458
3269 3537 3544
3050 3696 3717
2617 459 500
2618 491 818
2517 625 1113
2319 848 1366
2029 1152 1554
1763 1412 1622
1698 1599 1766
1792 1726 2012
2006 1804 2386
2650 653 391
2801 751 780
2788 866 1160
2642 1042 1503
2397 1327 1780
2130 1624 1908
2034 1835 2074
2081 1965 2316
2245 2019 2670
2586 940 458
2823 1057 785
2917 1166 1180
2873 1310 1586
2696 1531 1950
2448 1836 2152
2334 2057 2352
2341 2189 2596
2455 2227 2929
2424 1257 671
2718 1395 889
2913 1516 1233
2988 1641 1645
2922 1788 2069
2716 2065 2353
2598 2278 2597
2571 2407 2852
2642 2434 3165
2160 1543 1000
2518 1752 1147
2784 1907 1380
2965 2023 1709
3069 2118 2140
2929 2328 2512
2823 2510 2810
2775 2629 3082
2810 2651 3377
1881 1671 1310
2263 1961 1458
2570 2194 1658
2804 2376 1921
2968 2513 2262
3025 2652 2641
2989 2788 2969
2940 2884 3264
2955 2908 3549
1796 1794 1602
2169 2126 1778
2485 2408 1974
2744 2641 2206
2946 2824 2491
3094 2964 2832
3121 3088 3126
3094 3172 3400
3077 3193 3685
1898 1963 1900
2241 2295 2115
2545 2593 2325
2807 2852 2545
3027 3070 2795
3205 3238 3081
3282 3365 3310
3277 3449 3525
3208 3491 3771
2178 2226 2226
2485 2520 2479
2764 2795 2705
3012 3045 2921
3232 3267 3145
3425 3448 3382
3533 3571 3547
3528 3670 3673
3380 3784 3793
3033 523 551
3040 553 883
2969 670 1202
2812 878 1489
2555 1181 1727
2248 1515 1853
2023 1755 1915
1961 1934 2022
2141 2084 2285
3061 682 422
3221 800 827
3227 911 1225
3109 1074 1593
2893 1350 1909
2602 1702 2095
2367 1981 2195
2277 2190 2317
2421 2330 2571
3015 955 468
3256 1079 802
3355 1196 1216
3325 1340 1648
3174 1545 2040
2915 1882 2295
2682 2185 2445
2569 2420 2591
2670 2555 2836
2881 1287 671
3173 1404 879
3363 1530 1237
3439 1662 1675
3385 1795 2123
3180 2080 2453
2964 2382 2663
2836 2633 2843
2894 2765 3081
2644 1625 1012
3000 1790 1130
3260 1918 1355
3431 2025 1695
3515 2128 2160
3387 2320 2569
3208 2590 2849
3078 2838 3072
3095 2964 3308
2334 1832 1399
2731 2076 1496
3047 2269 1658
3282 2418 1902
3436 2531 2243
3470 2646 2650
3379 2851 2982
3273 3053 3260
3263 3162 3503
2090 1934 1689
2487 2240 1815
2823 2497 1968
3094 2705 2168
3296 2865 2436
3417 2982 2791
3452 3137 3122
3438 3283 3418
3410 3372 3671
2006 2032 1945
2373 2363 2126
2698 2658 2301
2977 2914 2494
3204 3123 2724
3365 3275 3012
3506 3412 3304
3581 3523 3574
3543 3601 3796
2178 2226 2226
2493 2527 2468
2782 2810 2679
3042 3069 2879
3267 3297 3092
3450 3476 3330
3619 3635 3564
3713 3766 3754
3671 3860 3862
3410 592 608
3412 628 956
3367 732 1294
3253 918 1608
3048 1201 1881
2754 1562 2056
2483 1883 2164
2277 2119 2216
2178 2226 2226
3420 714 463
3588 862 886
3611 973 1301
3521 1120 1688
3349 1373 2031
3077 1737 2262
2810 2083 2410
2594 2356 2488
2476 2503 2507
3384 962 485
3632 1103 829
3739 1238 1264
3724 1387 1722
3605 1567 2132
3369 1901 2425
3116 2252 2623
2892 2557 2734
2747 2757 2768
3281 1295 668
3571 1400 871
3762 1544 1251
3841 1695 1719
3802 1817 2187
3620 2085 2547
3393 2413 2802
3169 2737 2955
2996 2991 3010
3086 1670 1002
3436 1797 1101
3690 1909 1328
3851 2023 1691
3924 2156 2200
3817 2318 2628
3635 2590 2947
3423 2908 3152
3226 3208 3236
2796 1959 1431
3192 2155 1490
3505 2309 1633
3733 2434 1875
3874 2539 2232
3892 2648 2670
3794 2842 3040
3626 3102 3308
3431 3407 3440
2520 2138 1805
2931 2396 1874
3276 2608 1984
3550 2776 2156
3748 2905 2412
3847 3003 2781
3861 3134 3137
3785 3323 3433
3615 3595 3624
2300 2222 2083
2689 2522 2211
3034 2786 2339
3327 3010 2492
3561 3189 2696
3709 3313 2978
3820 3421 3282
3856 3558 3565
3780 3768 3786
2178 2226 2226
2505 2534 2458
2811 2826 2654
3086 3094 2839
3325 3328 3040
3504 3507 3278
3656 3660 3519
3793 3796 3742
3923 3923 3923
