Assets/1__3DArt/KimSe/artstation_asset/LUTs_subway_asset/3DL/Underground 02.3dl
# LUT by SparkleStock. Enhanced with VOXCOLOR algorithms.
0 256 512 768 1023
128 176 208
163 243 579
203 333 1043
259 443 1582
352 576 2146
398 532 615
294 751 896
287 965 1464
373 1055 1958
482 1143 2427
787 1004 1127
731 1103 1210
403 1593 1677
510 1887 2447
647 1949 2893
1399 1615 1716
1383 1643 1731
1223 1811 1873
766 2366 2494
727 2743 3234
2178 2226 2258
2189 2240 2259
2128 2279 2286
1724 2550 2526
817 3122 3122
726 192 301
491 482 673
557 602 1152
686 645 1740
800 709 2308
542 570 629
897 1021 1151
943 1183 1684
1029 1237 2247
1132 1301 2767
798 1022 1142
1351 1541 1617
1214 1893 1954
1211 2033 2624
1299 2055 3081
1405 1623 1719
2041 2113 2139
2072 2270 2282
1634 2633 2740
1427 2867 3381
2188 2236 2255
2782 2676 2622
2855 2767 2707
2593 2912 2852
1775 3341 3333
1605 232 414
1277 574 949
794 1021 1138
1192 1168 1797
1489 1155 2425
1335 700 630
1811 1094 1261
1490 1632 1698
1765 1645 2315
1919 1604 2879
817 1041 1159
1492 1634 1702
2125 2176 2191
2190 2210 2751
2274 2259 3253
1409 1629 1724
2157 2201 2218
2761 2718 2691
2521 2889 2965
2348 3001 3486
2184 2235 2251
2869 2757 2698
3321 3212 3157
3227 3268 3211
2699 3558 3534
2610 277 513
2434 539 1185
1878 1155 1616
1557 1620 1819
2028 1846 2345
2471 729 525
2896 1057 1305
2628 1607 2017
2299 2144 2309
2611 2276 2808
1915 1389 1178
2626 1753 1589
3122 2138 2287
2853 2616 2755
2980 2701 3252
1588 1719 1759
2329 2248 2210
2902 2713 2662
3195 3100 3121
3201 3208 3586
2182 2237 2254
2864 2752 2693
3309 3201 3148
3583 3544 3511
3404 3755 3727
3427 320 624
3394 520 1378
3085 1086 1953
2509 1848 2193
2178 2226 2242
3385 704 446
3710 1029 1364
3591 1517 2259
3164 2283 2623
2867 2754 2692
3079 1502 948
3580 1703 1402
3839 2148 2412
3587 2689 3001
3315 3210 3154
2508 2083 1810
3142 2464 2153
3569 2783 2606
3784 3160 3239
3645 3595 3565
2178 2242 2258
2859 2749 2690
3295 3191 3136
3634 3580 3552
3923 3907 3891
