Assets/1__3DArt/KimSe/artstation_asset/LUTs_subway_asset/3DL/Underground 02_S.3dl
# LUT by SparkleStock. Enhanced with VOXCOLOR algorithms.
0 64 128 192 256 320 384 448 512 576 640 704 768 832 896 960 1023
128 176 208
137 191 295
145 206 382
154 223 475
163 243 579
172 263 684
182 286 800
192 309 921
203 333 1043
216 359 1176
229 385 1308
243 413 1443
259 443 1582
276 472 1721
300 506 1862
326 541 2004
352 576 2146
190 259 304
182 292 382
175 325 460
172 356 551
180 381 666
188 406 781
198 429 900
209 452 1020
220 474 1141
235 498 1269
249 522 1396
265 547 1526
283 574 1659
302 602 1792
326 633 1928
353 667 2066
379 701 2203
252 343 400
228 394 469
204 445 539
190 488 627
197 518 752
204 548 877
214 572 999
226 594 1119
238 616 1239
254 637 1361
270 658 1484
287 681 1608
307 706 1736
327 732 1864
352 761 1995
379 793 2127
407 825 2260
319 432 502
287 490 560
255 549 619
233 602 701
230 645 831
227 689 961
234 721 1090
246 747 1217
258 774 1344
276 795 1465
294 815 1586
313 836 1708
335 859 1831
357 882 1954
383 909 2079
410 938 2206
438 967 2333
397 533 614
373 577 659
350 622 703
324 677 774
293 752 897
263 826 1020
261 880 1162
273 923 1313
285 966 1465
304 990 1592
324 1013 1718
346 1035 1842
370 1055 1961
395 1075 2080
422 1096 2199
450 1120 2318
479 1143 2437
475 633 727
460 665 758
445 696 788
415 752 847
357 858 962
299 963 1078
288 1039 1234
299 1098 1410
311 1158 1586
333 1185 1718
355 1211 1850
378 1235 1976
406 1251 2091
433 1267 2206
461 1284 2319
490 1302 2430
519 1319 2541
571 753 853
561 775 875
551 798 897
525 846 944
466 947 1040
406 1047 1137
375 1139 1287
358 1227 1463
340 1315 1639
363 1359 1795
385 1404 1950
409 1440 2094
439 1459 2214
469 1478 2333
499 1493 2445
529 1507 2552
559 1521 2659
675 881 986
669 898 1002
663 914 1018
644 950 1053
596 1027 1125
549 1103 1197
493 1210 1331
432 1333 1495
371 1455 1659
393 1524 1847
414 1593 2035
439 1648 2203
472 1673 2332
504 1698 2461
536 1714 2574
568 1724 2678
600 1735 2782
780 1010 1119
778 1020 1129
775 1030 1139
762 1054 1162
727 1107 1210
692 1159 1257
610 1281 1374
506 1438 1526
402 1595 1678
423 1689 1899
444 1783 2119
470 1856 2312
504 1887 2451
539 1919 2589
573 1934 2703
607 1941 2804
641 1949 2906
918 1162 1263
917 1170 1272
916 1177 1280
906 1196 1298
878 1237 1334
849 1278 1371
779 1376 1464
689 1502 1585
599 1629 1706
557 1754 1909
515 1879 2112
498 1982 2305
530 2042 2479
562 2102 2653
596 2133 2785
631 2148 2898
667 2164 3011
1057 1314 1408
1057 1320 1414
1057 1325 1421
1050 1338 1434
1028 1367 1459
1006 1396 1485
948 1470 1553
872 1567 1644
796 1663 1733
691 1819 1919
587 1975 2105
527 2108 2299
556 2197 2508
585 2286 2716
619 2332 2868
655 2355 2992
692 2379 3115
1207 1470 1552
1209 1473 1557
1210 1476 1562
1205 1485 1571
1189 1504 1588
1173 1524 1605
1125 1578 1654
1061 1649 1718
998 1720 1783
857 1886 1946
715 2052 2109
621 2202 2293
620 2318 2519
618 2435 2745
642 2500 2915
677 2539 3057
712 2577 3199
1382 1631 1698
1384 1633 1702
1386 1635 1706
1383 1642 1713
1371 1656 1726
1358 1670 1738
1318 1712 1776
1264 1768 1825
1211 1823 1874
1084 1958 2005
958 2093 2135
844 2230 2290
759 2372 2497
673 2514 2704
665 2606 2890
694 2675 3066
723 2743 3241
1557 1791 1843
1560 1793 1846
1562 1795 1849
1561 1799 1854
1552 1808 1863
1543 1817 1871
1511 1846 1897
1467 1887 1932
1424 1927 1966
1312 2030 2063
1200 2134 2160
1068 2259 2287
898 2426 2475
729 2592 2663
687 2713 2865
710 2811 3074
734 2909 3283
1756 1940 1983
1759 1942 1985
1763 1944 1987
1763 1948 1991
1757 1954 1996
1750 1960 2001
1724 1981 2020
1689 2011 2045
1653 2041 2069
1555 2123 2144
1457 2205 2219
1328 2312 2322
1140 2470 2482
951 2628 2643
855 2761 2836
806 2882 3045
757 3003 3253
1967 2083 2120
1972 2086 2122
1976 2089 2123
1978 2092 2124
1973 2097 2127
1968 2101 2130
1947 2117 2143
1919 2138 2160
1891 2160 2178
1806 2225 2235
1721 2291 2293
1606 2378 2375
1432 2510 2504
1257 2641 2634
1096 2780 2805
941 2921 2996
787 3063 3188
2178 2226 2258
2184 2230 2258
2189 2233 2258
2192 2237 2258
2189 2240 2259
2186 2242 2259
2171 2252 2266
2149 2266 2276
2128 2279 2286
2057 2328 2327
1985 2377 2368
1884 2444 2428
1724 2550 2526
1563 2655 2624
1336 2798 2773
1077 2960 2948
817 3122 3122
260 178 229
243 216 315
226 254 401
220 286 494
235 303 602
251 320 710
265 339 830
278 358 954
291 377 1079
306 399 1214
320 421 1348
336 444 1484
353 471 1623
371 498 1763
393 528 1903
419 561 2044
444 593 2185
284 271 309
278 323 398
273 376 487
273 417 585
285 438 702
297 458 820
309 478 942
321 498 1068
334 517 1194
349 539 1326
364 561 1458
381 583 1591
400 609 1727
418 635 1863
442 664 2000
468 695 2137
495 727 2274
308 364 390
314 430 481
320 497 573
326 549 676
334 573 803
343 596 929
353 618 1055
365 638 1182
376 658 1308
392 679 1438
408 700 1567
426 722 1698
446 747 1831
466 772 1963
491 800 2096
518 830 2229
545 860 2363
348 458 482
365 533 572
381 608 663
392 670 766
389 704 894
387 739 1023
393 767 1154
403 791 1288
414 816 1422
431 837 1551
448 858 1679
466 880 1808
488 903 1937
510 926 2066
535 952 2194
563 979 2323
591 1006 2451
422 558 597
448 629 678
473 700 759
481 767 852
455 828 969
428 890 1086
425 935 1227
433 972 1380
442 1009 1533
460 1031 1664
477 1053 1796
497 1074 1925
521 1093 2049
544 1112 2173
571 1134 2296
599 1156 2417
627 1178 2539
497 657 712
531 724 784
565 791 855
571 865 938
520 953 1043
468 1040 1149
456 1103 1299
463 1152 1471
470 1201 1644
488 1225 1778
507 1248 1913
528 1269 2042
553 1284 2162
579 1299 2281
606 1315 2397
635 1332 2512
664 1349 2627
589 774 841
631 838 906
673 903 972
684 974 1045
632 1057 1131
580 1140 1218
549 1217 1360
529 1292 1529
508 1367 1697
525 1405 1853
541 1443 2008
561 1474 2152
588 1491 2274
614 1508 2397
643 1522 2511
673 1535 2622
702 1548 2732
691 899 976
740 962 1037
789 1025 1099
809 1089 1161
768 1151 1226
728 1214 1291
673 1306 1415
612 1412 1569
551 1519 1722
565 1579 1907
578 1639 2091
596 1686 2258
623 1707 2388
650 1729 2518
680 1742 2632
710 1751 2739
741 1759 2846
792 1024 1111
849 1086 1169
905 1148 1226
933 1203 1278
904 1245 1321
875 1287 1363
798 1394 1470
696 1533 1609
594 1671 1747
605 1753 1961
615 1834 2175
631 1898 2364
659 1924 2501
686 1950 2638
717 1961 2753
748 1966 2856
780 1971 2960
929 1173 1258
990 1234 1313
1052 1295 1368
1085 1346 1416
1062 1378 1449
1038 1411 1481
973 1496 1566
887 1607 1675
801 1718 1785
752 1829 1980
703 1941 2174
677 2033 2361
698 2086 2532
719 2139 2702
746 2164 2834
777 2176 2947
807 2187 3059
1065 1322 1404
1132 1382 1457
1198 1441 1511
1237 1488 1554
1219 1511 1577
1202 1534 1600
1149 1597 1661
1078 1681 1742
1007 1764 1823
898 1906 1998
790 2048 2173
723 2169 2358
737 2249 2562
752 2329 2766
776 2367 2915
805 2385 3037
834 2403 3159
1214 1475 1550
1285 1533 1602
1355 1591 1653
1398 1635 1693
1386 1650 1707
1373 1665 1722
1331 1710 1765
1273 1771 1822
1216 1831 1880
1074 1983 2031
932 2135 2183
832 2272 2358
815 2378 2577
799 2484 2796
810 2540 2962
835 2572 3101
859 2604 3240
1388 1635 1696
1461 1691 1746
1535 1748 1796
1580 1789 1832
1571 1800 1843
1561 1810 1855
1526 1845 1887
1478 1892 1931
1431 1939 1974
1306 2061 2094
1182 2183 2214
1067 2308 2361
971 2439 2560
876 2570 2760
853 2654 2940
866 2714 3111
879 2774 3282
1563 1794 1842
1638 1849 1890
1714 1904 1938
1762 1943 1972
1755 1949 1979
1749 1956 1987
1721 1980 2009
1684 2013 2039
1646 2046 2069
1539 2138 2157
1432 2231 2245
1302 2345 2364
1127 2501 2544
953 2657 2723
896 2768 2918
898 2856 3121
900 2944 3324
1761 1943 1982
1837 1997 2028
1913 2051 2074
1962 2088 2105
1957 2093 2110
1952 2097 2115
1931 2115 2130
1901 2138 2151
1871 2162 2172
1779 2235 2240
1687 2307 2307
1563 2404 2403
1373 2551 2555
1184 2698 2707
1077 2822 2893
1010 2933 3095
943 3045 3297
1972 2086 2120
2047 2139 2163
2121 2193 2206
2170 2229 2236
2167 2233 2238
2164 2236 2240
2147 2249 2251
2124 2266 2266
2100 2283 2280
2023 2340 2332
1945 2397 2383
1836 2475 2458
1665 2596 2580
1494 2717 2702
1327 2846 2866
1163 2978 3051
999 3111 3236
2182 2229 2257
2256 2282 2298
2330 2335 2339
2379 2371 2366
2377 2373 2366
2376 2375 2366
2364 2383 2372
2347 2393 2380
2330 2404 2388
2266 2445 2424
2203 2486 2460
2109 2546 2514
1956 2641 2605
1803 2736 2696
1577 2870 2839
1316 3023 3007
1054 3177 3176
391 181 250
349 242 335
307 303 420
286 348 513
308 363 625
329 377 737
347 391 859
364 406 987
380 421 1115
396 439 1251
412 456 1388
429 476 1525
447 499 1665
465 523 1804
487 551 1944
512 581 2084
537 610 2223
377 283 315
374 354 414
371 426 514
374 479 620
390 495 739
405 511 858
420 527 985
434 544 1116
448 560 1246
464 580 1383
480 599 1519
497 620 1657
516 644 1795
535 668 1933
559 695 2071
584 724 2208
610 753 2344
364 385 380
400 467 494
435 549 608
463 610 726
472 627 853
481 645 980
492 663 1111
504 682 1244
515 700 1378
531 721 1514
547 742 1651
564 764 1788
585 788 1925
605 813 2062
630 839 2197
656 867 2331
683 896 2466
378 485 462
443 577 584
508 668 706
551 737 830
549 763 957
547 789 1084
552 813 1219
561 835 1359
570 858 1499
586 879 1636
601 901 1773
619 923 1909
641 946 2043
663 970 2178
688 994 2310
715 1020 2440
743 1046 2570
448 583 579
523 680 697
597 777 814
639 858 930
616 905 1041
592 953 1152
588 990 1292
594 1020 1446
599 1051 1600
615 1072 1737
630 1093 1874
648 1113 2009
671 1132 2138
694 1150 2267
720 1171 2392
748 1192 2517
776 1213 2641
518 681 697
602 784 809
686 886 922
727 978 1029
682 1048 1124
638 1118 1220
624 1167 1364
626 1206 1533
628 1245 1702
644 1264 1839
659 1284 1976
677 1302 2109
701 1317 2232
725 1331 2355
752 1347 2475
781 1363 2594
810 1379 2712
607 795 828
701 901 937
796 1008 1047
843 1101 1146
799 1167 1222
754 1233 1299
723 1296 1433
699 1357 1594
675 1419 1756
686 1451 1911
698 1483 2065
713 1509 2210
736 1524 2335
760 1539 2461
787 1552 2578
816 1563 2692
845 1575 2805
706 916 966
811 1027 1073
915 1137 1180
974 1227 1270
940 1276 1327
906 1324 1384
854 1401 1499
792 1492 1643
731 1583 1786
736 1634 1967
742 1685 2148
753 1724 2313
775 1742 2443
797 1760 2574
824 1770 2691
853 1777 2800
882 1784 2909
805 1038 1104
920 1152 1208
1035 1266 1313
1104 1352 1395
1081 1384 1432
1058 1415 1470
985 1506 1566
886 1627 1691
787 1747 1817
786 1817 2024
786 1886 2231
793 1940 2415
813 1960 2551
834 1981 2688
860 1989 2803
889 1991 2908
919 1993 3013
939 1184 1252
1063 1298 1354
1187 1412 1457
1263 1496 1535
1246 1520 1563
1228 1544 1592
1167 1616 1667
1085 1711 1766
1002 1806 1864
946 1905 2050
890 2004 2236
856 2085 2416
866 2130 2584
877 2176 2752
897 2196 2883
922 2203 2996
947 2210 3108
1074 1330 1400
1206 1444 1501
1339 1558 1601
1423 1639 1675
1410 1656 1694
1398 1672 1714
1349 1725 1769
1284 1795 1840
1218 1866 1912
1106 1993 2077
993 2121 2242
919 2230 2418
919 2300 2617
919 2371 2816
933 2403 2963
955 2415 3083
976 2428 3203
1221 1481 1548
1361 1594 1646
1501 1706 1744
1591 1785 1814
1583 1796 1827
1574 1806 1839
1537 1843 1877
1485 1892 1927
1434 1942 1976
1291 2080 2117
1148 2218 2257
1043 2342 2422
1011 2437 2635
980 2532 2848
979 2581 3009
992 2606 3145
1006 2630 3281
1395 1639 1694
1539 1749 1790
1683 1860 1885
1777 1936 1952
1771 1943 1961
1764 1951 1971
1734 1978 1999
1692 2016 2036
1651 2054 2074
1528 2163 2184
1406 2273 2294
1289 2386 2431
1184 2506 2623
1078 2627 2815
1041 2702 2990
1039 2753 3156
1036 2805 3322
1568 1797 1841
1717 1905 1934
1865 2013 2026
1963 2086 2090
1959 2091 2096
1954 2095 2102
1932 2114 2121
1900 2140 2146
1867 2165 2171
1766 2246 2251
1664 2328 2331
1536 2430 2441
1356 2576 2612
1177 2722 2783
1104 2823 2971
1085 2901 3167
1066 2980 3364
1766 1946 1982
1914 2052 2071
2062 2157 2160
2160 2229 2220
2157 2232 2224
2155 2235 2228
2138 2248 2241
2113 2266 2258
2088 2284 2275
2002 2346 2335
1917 2409 2395
1797 2496 2483
1607 2632 2627
1418 2769 2771
1299 2883 2949
1214 2985 3145
1130 3087 3341
1977 2089 2119
2122 2193 2204
2267 2297 2289
2363 2366 2347
2362 2369 2349
2360 2371 2351
2348 2380 2359
2329 2393 2371
2310 2406 2383
2239 2454 2428
2168 2503 2474
2065 2571 2542
1898 2682 2656
1730 2793 2769
1559 2912 2927
1385 3036 3106
1211 3160 3285
2187 2233 2257
2329 2334 2338
2471 2436 2419
2566 2504 2473
2566 2506 2473
2566 2507 2473
2558 2513 2478
2545 2521 2484
2532 2529 2491
2476 2563 2522
2420 2596 2552
2334 2647 2601
2188 2732 2684
2043 2816 2768
1819 2941 2904
1555 3087 3067
1292 3232 3229
542 184 273
484 259 362
426 334 451
391 391 546
400 415 653
410 438 760
428 456 883
450 470 1014
472 485 1145
493 500 1285
513 514 1424
533 531 1564
554 550 1705
575 569 1846
598 593 1986
623 618 2125
648 644 2264
507 296 322
506 378 433
505 460 544
507 522 657
511 545 774
515 569 891
528 587 1020
546 604 1154
564 621 1289
583 638 1429
601 655 1570
621 674 1711
642 694 1852
662 715 1992
686 739 2131
712 764 2267
