Assets/1__3DArt/KimSe/artstation_asset/LUTs_subway_asset/3DL/Underground 05.3dl
# LUT by SparkleStock. Enhanced with VOXCOLOR algorithms.
0 64 128 192 256 320 384 448 512 576 640 704 768 832 896 960 1023
80 16 48
83 23 150
86 30 251
92 41 375
103 61 544
113 82 712
128 116 916
144 157 1137
161 198 1359
178 261 1592
195 325 1824
212 395 2046
226 480 2246
240 565 2446
252 661 2609
262 763 2754
272 865 2898
128 71 114
118 101 209
108 130 304
105 162 431
115 196 623
124 230 815
138 270 1025
154 312 1245
169 355 1465
186 415 1687
203 475 1909
219 542 2120
234 621 2311
249 701 2501
261 791 2657
272 887 2795
283 983 2933
177 126 179
154 179 268
131 231 356
119 282 487
127 330 702
135 378 917
148 423 1135
163 468 1353
177 512 1571
194 569 1783
211 626 1994
227 688 2195
242 763 2376
257 837 2556
270 922 2705
281 1011 2836
293 1100 2968
238 193 255
209 257 333
179 320 410
159 386 538
157 457 766
156 528 994
165 589 1224
180 645 1454
196 700 1684
213 756 1890
231 812 2095
248 872 2289
265 941 2460
281 1010 2631
295 1088 2770
308 1169 2895
321 1250 3019
324 285 351
302 334 410
280 383 469
255 454 581
224 570 800
194 685 1019
197 780 1272
216 865 1541
235 950 1810
255 1011 2019
276 1072 2228
296 1133 2421
316 1195 2582
336 1256 2743
353 1324 2873
369 1395 2987
385 1465 3101
411 376 446
395 412 486
380 447 527
350 523 624
292 682 834
233 842 1044
229 971 1320
251 1085 1628
273 1200 1937
297 1265 2149
321 1331 2361
345 1393 2553
367 1448 2705
390 1502 2856
411 1560 2976
430 1620 3080
450 1679 3184
537 504 572
525 530 600
514 555 629
486 623 707
424 774 886
363 926 1064
337 1081 1335
328 1239 1651
320 1397 1967
353 1488 2209
386 1578 2450
417 1657 2662
447 1713 2813
476 1768 2965
502 1819 3080
527 1869 3177
551 1920 3274
681 650 712
673 669 732
665 687 752
643 738 811
590 856 947
537 973 1083
482 1151 1333
427 1359 1641
371 1568 1950
415 1694 2233
460 1820 2517
502 1924 2758
540 1983 2915
578 2042 3072
611 2090 3185
642 2131 3277
672 2172 3369
826 796 852
822 807 864
817 819 875
799 854 914
756 937 1008
712 1020 1101
628 1221 1332
525 1480 1632
422 1739 1932
478 1901 2258
534 2062 2583
586 2191 2854
633 2254 3017
680 2317 3179
720 2360 3291
756 2392 3377
793 2425 3464
1033 997 1035
1030 1005 1043
1027 1013 1052
1013 1040 1081
976 1105 1153
939 1170 1225
864 1332 1409
770 1541 1649
675 1751 1889
662 1957 2213
649 2163 2538
662 2332 2820
727 2427 3019
792 2523 3218
845 2578 3347
893 2613 3440
940 2648 3534
1239 1197 1218
1238 1203 1223
1237 1208 1228
1226 1227 1249
1197 1274 1299
1167 1320 1350
1100 1443 1487
1014 1603 1667
928 1763 1846
847 2013 2169
765 2263 2492
738 2472 2786
822 2601 3022
905 2729 3257
971 2797 3403
1029 2834 3503
1087 2871 3603
1460 1410 1411
1460 1413 1413
1460 1416 1416
1453 1428 1429
1429 1460 1462
1406 1491 1495
1347 1581 1593
1271 1699 1722
1195 1817 1852
1070 2078 2152
945 2339 2452
884 2567 2740
950 2728 3002
1017 2889 3263
1086 2974 3427
1158 3020 3541
1229 3067 3655
1707 1647 1623
1708 1649 1624
1710 1650 1626
1705 1659 1635
1686 1682 1659
1668 1704 1683
1619 1772 1756
1555 1863 1854
1490 1953 1952
1372 2160 2187
1254 2368 2422
1168 2570 2668
1148 2763 2936
1127 2955 3203
1180 3067 3387
1270 3139 3529
1360 3211 3672
1955 1884 1834
1957 1884 1835
1959 1885 1836
1956 1890 1841
1944 1904 1855
1931 1917 1870
1891 1964 1919
1838 2027 1986
1785 2090 2053
1674 2243 2223
1563 2396 2392
1453 2573 2597
1345 2797 2870
1236 3022 3143
1273 3161 3348
1382 3257 3518
1491 3354 3688
2192 2113 2049
2196 2113 2050
2200 2113 2050
2199 2116 2053
2190 2124 2062
2182 2133 2071
2151 2166 2105
2109 2210 2152
2066 2255 2198
1969 2370 2323
1872 2486 2448
1763 2632 2611
1629 2837 2848
1496 3042 3086
1486 3190 3288
1539 3309 3471
1592 3428 3655
2425 2337 2266
2430 2337 2266
2436 2337 2266
2437 2339 2268
2432 2345 2274
2427 2350 2279
2404 2372 2302
2373 2403 2333
2342 2434 2364
2262 2520 2456
2181 2607 2547
2085 2718 2668
1958 2879 2849
1830 3040 3030
1760 3187 3217
1718 3327 3407
1676 3468 3597
2658 2562 2482
2665 2562 2482
2672 2562 2482
2675 2563 2483
2674 2565 2485
2672 2567 2487
2658 2579 2499
2637 2596 2515
2617 2613 2531
2554 2670 2588
2490 2727 2645
2408 2804 2725
2286 2921 2849
2165 3038 2974
2033 3185 3147
1897 3346 3343
1761 3507 3539
181 25 61
163 46 145
146 68 229
141 89 342
163 109 515
185 130 688
207 161 897
230 199 1126
252 237 1354
273 296 1590
294 356 1826
313 423 2050
328 504 2250
344 585 2451
356 677 2613
367 776 2756
378 875 2899
192 77 123
193 127 214
195 176 306
201 219 431
215 248 623
230 277 815
247 314 1030
265 355 1257
283 396 1483
302 456 1710
320 516 1936
337 582 2150
352 662 2341
368 742 2532
382 834 2688
394 930 2825
407 1027 2962
203 130 185
223 207 284
244 284 383
260 348 520
268 386 731
276 424 943
287 467 1163
301 511 1388
314 555 1613
330 615 1829
346 675 2046
361 742 2251
377 821 2432
392 900 2614
407 990 2762
422 1084 2894
436 1179 3026
239 195 258
276 290 360
313 385 462
335 467 602
329 524 821
323 581 1039
328 636 1269
339 689 1503
349 743 1738
364 804 1948
378 865 2159
393 930 2357
409 1006 2529
425 1082 2701
442 1167 2841
458 1256 2966
475 1345 3091
327 287 353
374 379 448
421 470 543
441 563 673
408 659 874
375 755 1075
371 838 1320
381 914 1587
392 990 1854
408 1051 2066
424 1113 2278
440 1177 2473
458 1244 2636
476 1311 2798
495 1386 2929
514 1463 3045
533 1541 3160
414 379 449
471 468 537
529 556 625
547 660 744
486 795 928
426 929 1111
413 1040 1372
424 1138 1671
435 1236 1971
452 1299 2184
469 1362 2397
487 1424 2589
507 1482 2742
527 1541 2895
548 1605 3017
569 1671 3123
591 1737 3230
540 507 574
604 594 658
669 681 742
692 781 849
630 909 1001
568 1036 1153
535 1169 1403
516 1306 1703
497 1442 2003
519 1526 2242
542 1609 2480
565 1684 2690
589 1740 2843
614 1797 2996
639 1852 3113
664 1908 3212
688 1963 3311
684 653 713
755 738 795
826 824 877
857 914 970
807 1011 1084
756 1109 1198
697 1263 1425
632 1445 1709
568 1628 1993
598 1742 2270
628 1855 2547
658 1950 2783
688 2008 2940
718 2066 3097
748 2115 3212
777 2159 3305
806 2204 3398
829 798 853
906 883 933
983 968 1012
1022 1047 1091
983 1114 1167
944 1181 1243
858 1356 1447
748 1585 1715
639 1814 1982
676 1958 2297
714 2102 2613
751 2217 2877
787 2276 3038
823 2335 3198
857 2377 3311
890 2411 3398
924 2445 3486
1035 999 1036
1113 1082 1114
1191 1164 1191
1233 1237 1263
1201 1288 1321
1170 1340 1379
1095 1479 1540
999 1662 1751
904 1846 1963
876 2030 2269
849 2215 2576
847 2367 2846
897 2455 3041
947 2543 3237
991 2595 3365
1031 2629 3459
1072 2664 3552
1242 1200 1218
1321 1280 1295
1399 1361 1371
1443 1427 1435
1419 1463 1475
1395 1499 1515
1332 1602 1632
1250 1740 1788
1168 1877 1943
1076 2102 2241
984 2328 2539
944 2517 2815
1007 2634 3045
1071 2752 3276
1124 2814 3419
1172 2848 3519
1220 2882 3619
1462 1413 1411
1540 1490 1485
1617 1567 1559
1663 1626 1616
1645 1650 1642
1627 1673 1667
1575 1747 1748
1506 1846 1857
1438 1945 1967
1307 2180 2238
1177 2416 2510
1105 2621 2776
1151 2768 3029
1196 2915 3283
1250 2992 3443
1308 3034 3556
1365 3076 3669
1710 1649 1623
1783 1721 1693
1855 1793 1764
1899 1847 1817
1886 1863 1835
1872 1880 1853
1830 1935 1913
1774 2010 1994
1717 2085 2076
1601 2269 2286
1484 2454 2496
1394 2635 2720
1359 2812 2973
1324 2988 3226
1360 3090 3404
1432 3156 3544
1504 3221 3684
1958 1886 1834
2025 1953 1901
2093 2019 1968
2135 2067 2017
2126 2077 2027
2118 2086 2038
2085 2123 2077
2041 2174 2131
1997 2225 2185
1894 2358 2333
1791 2492 2481
1684 2649 2664
1567 2855 2916
1451 3061 3169
1470 3189 3365
1556 3277 3532
1643 3366 3700
2196 2114 2049
2257 2175 2111
2318 2235 2172
2357 2277 2216
2351 2283 2222
2345 2289 2229
2321 2314 2256
2287 2349 2292
2253 2385 2329
2166 2484 2436
2079 2583 2543
1977 2712 2687
1842 2899 2904
1708 3087 3121
1686 3223 3312
1720 3333 3490
1755 3443 3668
2429 2338 2266
2483 2392 2321
2536 2445 2376
2570 2482 2414
2567 2486 2418
2564 2489 2423
2547 2507 2441
2523 2531 2465
2498 2555 2490
2428 2628 2567
2359 2701 2644
2272 2798 2750
2150 2944 2913
2029 3089 3076
1955 3225 3251
1904 3355 3432
1853 3486 3612
2663 2562 2482
2708 2609 2531
2754 2656 2579
2784 2687 2612
2784 2689 2615
2784 2690 2617
2773 2699 2626
2758 2712 2638
2743 2725 2650
2690 2772 2697
2638 2819 2744
2567 2885 2812
2458 2988 2922
2350 3091 3032
2223 3226 3190
2088 3378 3373
1952 3529 3556
282 33 74
243 70 140
205 107 206
190 138 309
223 158 486
256 177 663
286 206 879
315 241 1114
344 275 1348
368 331 1588
392 387 1828
414 450 2054
430 527 2255
447 605 2455
460 694 2617
472 789 2758
483 885 2900
255 83 133
268 153 220
281 222 308
296 276 431
316 300 623
336 324 815
357 358 1035
377 397 1268
398 436 1501
417 496 1732
436 556 1963
454 623 2180
471 703 2372
487 784 2563
502 876 2718
517 973 2855
532 1071 2991
229 133 191
293 235 301
357 337 410
402 414 552
409 443 760
417 471 968
427 510 1191
439 554 1423
451 597 1654
466 661 1876
480 725 2098
495 795 2306
511 879 2489
527 963 2672
544 1057 2820
562 1157 2951
580 1257 3083
241 197 261
343 323 387
446 449 513
511 548 667
501 590 876
491 633 1085
492 682 1314
497 734 1553
502 786 1792
514 851 2007
525 917 2223
538 988 2424
553 1071 2598
569 1153 2771
588 1246 2912
609 1343 3037
629 1440 3162
329 289 356
445 424 487
562 558 618
628 672 766
591 749 949
555 825 1131
544 895 1369
547 962 1633
549 1029 1898
560 1092 2113
571 1155 2327
584 1221 2525
600 1294 2689
617 1366 2853
637 1447 2985
659 1532 3102
681 1618 3219
417 382 452
547 524 587
678 666 722
744 797 865
681 907 1021
618 1017 1178
597 1108 1424
597 1190 1714
597 1272 2005
607 1333 2218
617 1393 2432
630 1454 2626
647 1517 2780
664 1579 2935
686 1649 3059
709 1722 3167
732 1795 3275
543 509 576
684 658 716
825 806 855
898 939 990
836 1043 1116
774 1146 1241
733 1258 1472
703 1372 1755
673 1487 2039
685 1564 2275
698 1640 2511
713 1710 2719
732 1768 2873
752 1825 3026
775 1885 3145
800 1946 3246
825 2007 3348
687 655 715
837 808 859
987 962 1002
1071 1090 1129
1023 1167 1221
975 1244 1314
911 1375 1517
837 1531 1776
764 1688 2036
780 1789 2306
796 1891 2577
814 1977 2809
836 2033 2966
859 2089 3122
885 2140 3238
912 2188 3333
940 2236 3428
832 800 854
991 959 1002
1150 1118 1149
1245 1240 1267
1211 1291 1327
1177 1342 1386
1088 1492 1562
972 1690 1797
855 1889 2033
875 2015 2337
894 2141 2642
915 2244 2899
940 2298 3059
966 2352 3218
995 2394 3330
1024 2430 3419
1054 2465 3508
1038 1001 1036
1197 1159 1184
1356 1316 1331
1452 1433 1444
1426 1471 1489
1400 1510 1533
1326 1627 1670
1229 1783 1853
1132 1940 2036
1090 2103 2325
1049 2267 2614
1032 2403 2871
1067 2483 3064
1101 2563 3256
1136 2612 3383
1170 2646 3477
1204 2680 3571
1245 1202 1219
1403 1358 1366
1561 1514 1513
1660 1626 1621
1642 1651 1650
1623 1677 1680
1564 1762 1777
1486 1877 1908
1408 1991 2040
1306 2192 2313
1203 2392 2586
1150 2561 2844
1193 2668 3069
1237 2774 3294
1277 2831 3436
1315 2862 3535
1354 2894 3635
1465 1415 1411
1619 1567 1556
1774 1718 1701
1873 1824 1804
1860 1840 1821
1847 1855 1839
1803 1914 1904
1742 1993 1993
1681 2073 2081
1545 2282 2325
1408 2492 2568
1326 2676 2812
1351 2809 3057
1376 2941 3302
1413 3010 3458
1458 3048 3570
1502 3085 3682
1713 1652 1623
1857 1794 1762
2001 1936 1901
2093 2034 1998
2085 2045 2010
2076 2055 2022
2041 2098 2070
1993 2157 2134
1944 2216 2199
1829 2378 2384
1713 2539 2569
1620 2700 2771
1570 2861 3010
1521 3021 3249
1540 3114 3420
1594 3173 3559
1648 3232 3697
1961 1888 1834
2094 2021 1968
2227 2154 2101
2314 2245 2192
2309 2250 2199
2304 2256 2206
2279 2283 2236
2244 2321 2276
2208 2360 2317
2113 2473 2443
2018 2587 2569
1914 2725 2731
1790 2913 2963
1667 3100 3195
1668 3217 3382
1731 3297 3547
1794 3378 3712
2200 2116 2049
2318 2236 2172
2436 2357 2295
2514 2439 2378
2511 2442 2383
2509 2445 2387
2491 2463 2406
2465 2489 2433
2439 2515 2460
2363 2597 2549
2286 2680 2638
2190 2791 2763
2055 2961 2959
1920 3131 3155
1886 3255 3336
1902 3357 3508
1918 3458 3681
2434 2339 2266
2535 2446 2376
2636 2553 2486
2703 2625 2560
2703 2627 2563
2702 2629 2567
2690 2641 2579
2672 2658 2597
2654 2676 2615
2595 2735 2678
2536 2795 2741
2458 2879 2831
2343 3008 2977
2227 3138 3122
2149 3262 3285
2090 3383 3456
2031 3505 3627
2668 2562 2482
2752 2656 2579
2836 2749 2677
2892 2812 2742
2894 2812 2744
2895 2812 2746
2889 2818 2752
2879 2827 2761
2869 2836 2770
2827 2874 2807
2786 2911 2844
2726 2966 2900
2630 3055 2995
2535 3144 3089
2413 3268 3234
2278 3410 3404
2144 3552 3574
420 48 84
367 95 143
314 142 202
285 181 296
306 206 460
326 231 625
360 263 839
401 298 1078
442 333 1316
474 385 1562
506 438 1808
535 498 2040
556 571 2245
578 644 2450
594 729 2613
607 820 2757
620 911 2900
367 98 139
390 179 227
412 260 315
429 324 434
435 353 613
441 382 793
462 418 1011
491 456 1250
520 495 1488
545 553 1725
569 611 1963
592 676 2186
611 755 2381
631 833 2576
648 924 2733
664 1019 2871
