Assets/1__3DArt/KimSe/artstation_asset/LUTs_subway_asset/3DL/Underground 02_S.3dl
# LUT by SparkleStock. Enhanced with VOXCOLOR algorithms.
0 128 256 384 512 640 768 896 1023
128 176 208
145 206 382
163 243 579
182 286 800
203 333 1043
229 385 1308
259 443 1582
300 506 1862
352 576 2146
252 343 400
204 445 539
197 518 752
214 572 999
238 616 1239
270 658 1484
307 706 1736
352 761 1995
407 825 2260
397 533 614
350 622 703
293 752 897
261 880 1162
285 966 1465
324 1013 1718
370 1055 1961
422 1096 2199
479 1143 2437
571 753 853
551 798 897
466 947 1040
375 1139 1287
340 1315 1639
385 1404 1950
439 1459 2214
499 1493 2445
559 1521 2659
780 1010 1119
775 1030 1139
727 1107 1210
610 1281 1374
402 1595 1678
444 1783 2119
504 1887 2451
573 1934 2703
641 1949 2906
1057 1314 1408
1057 1325 1421
1028 1367 1459
948 1470 1553
796 1663 1733
587 1975 2105
556 2197 2508
619 2332 2868
692 2379 3115
1382 1631 1698
1386 1635 1706
1371 1656 1726
1318 1712 1776
1211 1823 1874
958 2093 2135
759 2372 2497
665 2606 2890
723 2743 3241
1756 1940 1983
1763 1944 1987
1757 1954 1996
1724 1981 2020
1653 2041 2069
1457 2205 2219
1140 2470 2482
855 2761 2836
757 3003 3253
2178 2226 2258
2189 2233 2258
2189 2240 2259
2171 2252 2266
2128 2279 2286
1985 2377 2368
1724 2550 2526
1336 2798 2773
817 3122 3122
391 181 250
307 303 420
308 363 625
347 391 859
380 421 1115
412 456 1388
447 499 1665
487 551 1944
537 610 2223
364 385 380
435 549 608
472 627 853
492 663 1111
515 700 1378
547 742 1651
585 788 1925
630 839 2197
683 896 2466
448 583 579
597 777 814
616 905 1041
588 990 1292
599 1051 1600
630 1093 1874
671 1132 2138
720 1171 2392
776 1213 2641
607 795 828
796 1008 1047
799 1167 1222
723 1296 1433
675 1419 1756
698 1483 2065
736 1524 2335
787 1552 2578
845 1575 2805
805 1038 1104
1035 1266 1313
1081 1384 1432
985 1506 1566
787 1747 1817
786 1886 2231
813 1960 2551
860 1989 2803
919 1993 3013
1074 1330 1400
1339 1558 1601
1410 1656 1694
1349 1725 1769
1218 1866 1912
993 2121 2242
919 2300 2617
933 2403 2963
976 2428 3203
1395 1639 1694
1683 1860 1885
1771 1943 1961
1734 1978 1999
1651 2054 2074
1406 2273 2294
1184 2506 2623
1041 2702 2990
1036 2805 3322
1766 1946 1982
2062 2157 2160
2157 2232 2224
2138 2248 2241
2088 2284 2275
1917 2409 2395
1607 2632 2627
1299 2883 2949
1130 3087 3341
2187 2233 2257
2471 2436 2419
2566 2506 2473
2558 2513 2478
2532 2529 2491
2420 2596 2552
2188 2732 2684
1819 2941 2904
1292 3232 3229
732 192 299
621 330 507
533 451 693
505 542 897
572 591 1164
631 618 1452
688 644 1742
743 673 2029
800 709 2308
680 433 366
801 590 654
795 713 918
762 798 1179
802 842 1459
841 876 1745
884 908 2029
930 942 2307
982 979 2577
650 652 532
879 863 826
947 1016 1103
945 1114 1384
964 1160 1691
994 1197 1978
1032 1231 2254
1078 1265 2520
1131 1301 2776
692 866 774
966 1134 1042
1096 1319 1293
1123 1440 1554
1090 1519 1854
1106 1569 2165
1139 1607 2444
1185 1637 2699
1240 1663 2937
856 1089 1067
1172 1391 1322
1347 1580 1534
1366 1724 1731
1214 1890 1941
1197 1982 2322
1210 2031 2627
1246 2051 2878
1297 2055 3094
1104 1360 1379
1461 1666 1627
1668 1857 1817
1726 1975 1963
1634 2066 2080
1428 2264 2366
1339 2398 2709
1327 2471 3035
1353 2483 3269
1411 1653 1685
1795 1951 1926
2021 2138 2098
2102 2239 2210
2050 2284 2268
1841 2451 2450
1627 2637 2741
1468 2792 3076
1425 2867 3388
1774 1950 1979
2166 2234 2210
2396 2414 2370
2486 2505 2461
2458 2524 2484
2327 2612 2577
2052 2794 2773
1754 3002 3059
1553 3167 3420
2188 2236 2255
2566 2506 2472
2781 2677 2621
2867 2760 2701
2855 2767 2707
2779 2811 2749
2593 2912 2852
2269 3085 3039
1775 3341 3333
1144 208 351
1049 324 615
875 502 797
736 679 966
746 791 1188
851 842 1490
950 867 1795
1041 878 2095
1124 887 2382
1129 473 358
1261 597 689
1198 761 978
1086 918 1241
1069 1020 1496
1135 1067 1785
1199 1093 2074
1261 1108 2357
1321 1119 2630
1005 727 491
1253 908 799
1346 1077 1125
1349 1214 1447
1325 1302 1742
1371 1347 2035
1418 1379 2318
1468 1404 2592
1520 1425 2853
899 959 720
1199 1212 974
1427 1407 1292
1547 1547 1625
1520 1635 1926
1548 1682 2238
1584 1719 2525
1628 1750 2790
1678 1775 3037
937 1157 1015
1274 1464 1246
1549 1710 1530
1700 1894 1813
1662 2017 2046
1656 2072 2395
1673 2107 2690
1707 2128 2944
1755 2141 3171
1150 1401 1348
1517 1717 1572
1828 1982 1834
2019 2172 2073
2028 2261 2233
1873 2400 2478
1798 2492 2788
1780 2541 3093
1800 2549 3323
1433 1671 1670
1822 1979 1892
2152 2250 2138
2365 2441 2345
2402 2511 2455
2250 2627 2601
2072 2765 2852
1926 2880 3152
1869 2931 3443
1781 1955 1974
2175 2245 2195
2505 2510 2429
2719 2698 2615
2768 2758 2693
2684 2813 2760
2464 2954 2920
2205 3119 3165
2005 3246 3492
2186 2236 2253
2567 2509 2469
2871 2761 2695
3064 2940 2869
3112 2995 2930
3071 3019 2954
2939 3091 3028
2679 3228 3179
2250 3450 3434
1621 228 404
1555 318 710
1369 508 954
1121 743 1118
868 969 1186
1038 1101 1488
1202 1160 1805
1355 1170 2123
1489 1155 2425
1637 494 353
1775 600 722
1713 759 1063
1525 965 1337
1287 1212 1503
1411 1323 1792
1526 1371 2087
1629 1377 2381
1721 1358 2664
1517 796 472
1776 943 791
1872 1083 1150
1819 1252 1492
1630 1483 1760
1717 1565 2053
1792 1604 2340
1858 1612 2619
1919 1601 2886
1306 1065 694
1633 1279 933
1866 1439 1259
1967 1592 1620
1901 1786 1965
1958 1840 2274
2008 1873 2563
2053 1890 2833
2097 1898 3088
1050 1234 953
1423 1544 1165
1711 1785 1433
1934 1973 1755
2107 2121 2127
2142 2158 2456
2181 2194 2752
2225 2228 3020
2272 2259 3265
1214 1449 1309
1603 1775 1510
1918 2043 1751
2174 2263 2037
2387 2444 2367
2310 2528 2579
2274 2585 2859
2271 2619 3147
2295 2630 3379
1464 1695 1652
1862 2014 1852
2192 2290 2079
2467 2528 2337
2699 2732 2629
2622 2797 2745
2504 2888 2957
2395 2968 3221
2347 3001 3493
1790 1960 1969
2188 2260 2175
2516 2530 2397
2788 2772 2637
3019 2987 2897
2985 3012 2944
2833 3112 3067
2637 3233 3270
2469 3325 3560
2184 2235 2251
2566 2511 2464
2870 2767 2686
3115 3001 2917
3320 3214 3155
3305 3222 3164
3227 3268 3211
3040 3373 3325
2699 3558 3534
2135 251 454
2097 322 786
1939 502 1070
1687 760 1290
1370 1064 1427
1229 1259 1528
1346 1412 1771
1583 1503 2085
1805 1513 2399
2161 490 359
2304 600 758
2262 752 1132
2083 966 1450
1815 1264 1677
1657 1490 1816
1734 1643 2054
1920 1718 2343
2087 1712 2636
2061 806 452
2315 943 785
2413 1075 1172
2362 1246 1555
2168 1496 1876
2013 1731 2066
2060 1874 2313
2196 1936 2589
2312 1926 2866
1852 1129 684
2181 1307 909
2405 1447 1246
2498 1590 1638
2432 1771 2027
2301 1993 2279
2327 2117 2548
2423 2166 2820
2496 2163 3083
1552 1389 1007
1953 1648 1169
2253 1843 1409
2466 1990 1729
2611 2104 2133
2521 2286 2458
2541 2381 2756
2607 2420 3030
2655 2431 3282
1389 1516 1301
1811 1839 1467
2147 2102 1683
2406 2312 1954
2600 2478 2288
2644 2620 2603
2683 2694 2909
2719 2728 3191
2756 2747 3434
1505 1719 1634
1929 2051 1807
2274 2337 2010
2552 2578 2250
2772 2776 2535
2878 2909 2809
2875 3000 3052
2830 3057 3290
2813 3085 3553
1803 1969 1964
2212 2279 2149
2546 2559 2350
2818 2807 2575
3039 3021 2829
3165 3157 3052
3126 3262 3207
3007 3341 3371
2896 3403 3624
2185 2236 2252
2568 2516 2455
2873 2778 2666
3117 3018 2887
3317 3232 3124
3443 3371 3309
3445 3442 3396
3323 3515 3473
3077 3660 3632
2621 275 506
2605 334 858
2485 501 1174
2262 762 1435
1943 1104 1626
1649 1392 1697
1581 1603 1830
1715 1749 2041
2028 1846 2345
2647 479 376
2798 600 801
2780 747 1202
2626 960 1554
2371 1281 1825
2090 1603 1948
2004 1837 2095
2098 1987 2296
2354 2060 2579
2568 791 439
2818 926 788
2919 1062 1203
2879 1237 1621
2704 1491 1980
2456 1817 2167
2362 2058 2342
2416 2210 2545
2612 2269 2815
2382 1147 663
2702 1296 882
2915 1435 1239
3002 1582 1663
2945 1754 2088
2748 2050 2353
2657 2280 2570
2677 2428 2784
2817 2478 3044
2086 1482 1018
2488 1694 1145
2781 1856 1374
2977 1983 1707
3093 2091 2151
2968 2316 2504
2893 2512 2774
2890 2649 3010
2982 2692 3263
1778 1645 1358
2221 1936 1474
2565 2170 1655
2820 2356 1910
2996 2498 2249
3060 2642 2624
3054 2788 2931
3048 2899 3196
3114 2939 3445
1686 1794 1667
2135 2120 1799
2497 2400 1967
2780 2632 2183
2991 2816 2460
3139 2956 2800
3178 3084 3083
3176 3175 3337
3200 3206 3592
1819 1976 1960
2246 2299 2122
2595 2591 2300
2876 2848 2504
3096 3063 2748
3263 3230 3034
3332 3355 3260
3330 3439 3467
3283 3482 3690
2185 2237 2254
2572 2523 2446
2883 2792 2642
3130 3039 2850
3328 3258 3079
3494 3438 3325
3585 3558 3495
3567 3653 3618
3404 3755 3727
3059 298 561
3059 353 933
2979 506 1273
2808 757 1566
2533 1105 1796
2201 1478 1915
1953 1744 1974
1900 1939 2066
2153 2101 2286
3076 461 405
3237 599 854
3244 745 1279
3126 952 1657
2913 1274 1962
2618 1662 2127
2377 1966 2213
2305 2191 2311
2516 2342 2515
3018 757 436
3267 896 802
3373 1044 1246
3349 1229 1696
3208 1475 2083
2960 1845 2312
2734 2169 2439
2644 2418 2554
2804 2565 2751
2869 1128 636
3177 1255 857
3378 1405 1241
3462 1569 1703
3419 1737 2159
3230 2049 2464
3029 2368 2646
2926 2630 2792
3032 2773 2988
2613 1519 991
2998 1690 1101
3273 1830 1334
3450 1956 1693
3543 2085 2185
3430 2297 2578
3268 2578 2830
3161 2834 3019
3217 2972 3219
2284 1780 1410
2727 2023 1479
3066 2220 1633
3308 2378 1882
3464 2503 2235
3505 2631 2650
3426 2841 2965
3340 3048 3212
3362 3167 3424
2024 1920 1727
2485 2220 1811
2853 2476 1943
3135 2686 2137
3336 2849 2407
3455 2971 2771
3491 3129 3096
3488 3277 3375
3487 3370 3602
1952 2040 1993
2394 2362 2122
2757 2653 2269
3045 2906 2449
3265 3114 2679
3413 3266 2969
3543 3402 3266
3617 3513 3533
3594 3590 3738
2188 2240 2256
2581 2530 2437
2901 2808 2617
3157 3063 2810
3359 3288 3028
3516 3465 3275
3663 3623 3517
3740 3752 3711
3685 3839 3815
3427 320 624
3435 379 1016
3394 520 1378
3285 752 1694
3085 1086 1953
2790 1493 2104
2509 1848 2193
2289 2107 2234
2178 2226 2242
3432 441 446
3604 600 922
3634 748 1370
3555 946 1770
3401 1255 2100
3147 1666 2295
2893 2046 2409
2682 2342 2459
2562 2499 2465
3393 709 442
3643 856 829
3757 1025 1305
3753 1223 1789
3652 1457 2199
3443 1836 2456
3213 2218 2613
3007 2543 2686
2869 2750 2695
3289 1080 607
3583 1189 836
3777 1362 1256
3864 1555 1761
3836 1725 2246
3678 2031 2580
3478 2386 2796
3276 2724 2908
3117 2981 2929
3095 1509 935
3454 1643 1042
3708 1771 1293
3869 1912 1692
3949 2087 2241
3855 2279 2660
3694 2570 2950
3504 2898 3116
3324 3196 3163
2808 1860 1385
3226 2058 1430
3541 2222 1581
3761 2363 1846
3897 2490 2231
3922 2622 2687
3835 2830 3046
3679 3094 3284
3496 3395 3380
2535 2093 1790
2984 2348 1824
3337 2563 1927
3601 2738 2109
3784 2875 2382
3877 2986 2772
3891 3125 3133
3819 3316 3417
3653 3583 3575
2316 2217 2097
2762 2510 2174
3124 2771 2281
3408 2994 2434
3619 3175 2647
3749 3301 2942
3849 3412 3260
3878 3549 3546
3796 3756 3745
2194 2242 2258
2594 2537 2428
2928 2822 2593
3200 3087 2772
3415 3319 2977
3567 3495 3223
3697 3646 3472
3813 3780 3702
3923 3907 3891
