Assets/1__3DArt/KimSe/artstation_asset/LUTs_subway_asset/3DL/Underground 03.3dl
# LUT by SparkleStock. Enhanced with VOXCOLOR algorithms.
0 128 256 384 512 640 768 896 1023
208 96 144
218 98 391
224 114 714
227 146 1097
224 193 1519
215 257 1933
207 330 2310
203 411 2644
208 496 2930
335 237 304
284 361 499
262 443 854
255 499 1282
249 541 1695
243 589 2077
238 649 2424
236 719 2731
241 800 2995
499 426 510
451 542 634
385 726 950
332 906 1390
323 1012 1889
320 1063 2271
318 1111 2600
319 1162 2880
324 1222 3115
713 673 763
692 730 822
604 956 1049
503 1245 1443
444 1494 2006
445 1596 2450
449 1655 2795
455 1692 3062
462 1726 3274
991 988 1065
983 1012 1088
930 1128 1200
813 1395 1467
610 1875 1954
619 2104 2549
631 2219 2964
643 2261 3249
655 2274 3451
1361 1389 1420
1358 1398 1429
1325 1460 1487
1244 1613 1637
1097 1899 1922
913 2323 2458
870 2589 2951
894 2726 3345
914 2762 3587
1769 1810 1786
1770 1811 1788
1752 1839 1813
1700 1917 1888
1600 2073 2040
1389 2432 2416
1240 2765 2871
1170 3019 3313
1201 3140 3651
2193 2222 2145
2199 2220 2145
2191 2229 2154
2162 2264 2187
2099 2339 2258
1945 2537 2460
1725 2842 2800
1545 3158 3210
1506 3386 3625
2610 2594 2482
2624 2594 2482
2625 2597 2484
2611 2610 2496
2578 2640 2524
2478 2741 2624
2311 2915 2811
2089 3160 3096
1825 3475 3491
456 101 160
370 205 333
377 245 645
422 257 1050
447 278 1500
447 322 1936
440 378 2328
430 447 2670
423 525 2956
404 245 317
518 465 550
557 552 906
557 576 1332
550 609 1772
537 664 2184
523 734 2551
512 818 2872
508 913 3143
509 435 521
722 707 778
748 887 1091
692 999 1483
663 1071 1975
641 1122 2376
624 1181 2722
613 1249 3017
610 1330 3266
722 681 772
977 969 1034
994 1202 1264
898 1396 1575
818 1567 2080
788 1644 2519
767 1696 2870
756 1739 3149
752 1789 3374
996 994 1071
1280 1289 1334
1341 1451 1487
1242 1638 1678
1050 2002 2057
1006 2173 2620
978 2257 3023
963 2290 3309
957 2305 3517
1364 1393 1423
1651 1671 1675
1728 1795 1790
1669 1895 1891
1545 2100 2100
1353 2439 2561
1271 2653 3017
1250 2761 3399
1243 2785 3636
1772 1812 1787
2043 2060 2019
2124 2155 2108
2091 2202 2155
2018 2304 2257
1828 2587 2560
1669 2861 2961
1569 3072 3369
1557 3166 3694
2198 2223 2145
2435 2432 2351
2511 2505 2422
2495 2523 2440
2456 2567 2483
2336 2713 2635
2139 2964 2918
1959 3232 3280
1887 3425 3669
2619 2594 2482
2807 2761 2655
2870 2817 2714
2866 2825 2720
2849 2842 2736
2782 2911 2805
2653 3047 2952
2464 3253 3191
2218 3535 3542
801 120 161
684 254 364
598 365 604
586 444 931
687 479 1396
740 503 1870
768 536 2297
776 580 2668
772 638 2972
689 287 308
883 504 570
884 672 880
836 775 1258
886 795 1722
898 825 2168
895 872 2564
883 935 2907
869 1016 3193
647 465 521
965 766 824
1070 1008 1130
1068 1160 1496
1065 1192 1975
1050 1228 2395
1031 1279 2761
1013 1345 3074
999 1429 3336
733 692 783
1081 1056 1112
1273 1344 1381
1326 1544 1688
1258 1645 2127
1219 1702 2559
1189 1753 2913
1168 1808 3204
1157 1873 3442
1004 1002 1079
1385 1385 1420
1610 1648 1660
1655 1868 1876
1498 2123 2149
1430 2234 2664
1383 2291 3047
1354 2319 3331
1339 2342 3547
1368 1398 1428
1752 1764 1759
1980 2000 1976
2051 2158 2129
1960 2292 2271
1784 2550 2653
1685 2710 3064
1636 2790 3425
1611 2806 3658
1774 1814 1789
2134 2144 2097
2350 2348 2290
2430 2463 2401
2384 2523 2464
2227 2736 2697
2073 2950 3041
1959 3117 3410
1918 3189 3717
2199 2223 2146
2514 2503 2419
2703 2674 2588
2780 2759 2672
2760 2781 2695
2673 2881 2802
2507 3082 3031
2338 3303 3344
2243 3461 3703
2620 2594 2482
2869 2818 2714
3021 2956 2856
3087 3021 2924
3081 3029 2931
3040 3073 2976
2944 3175 3086
2789 3345 3284
2567 3594 3592
1228 152 155
1121 271 422
940 455 624
818 634 863
889 736 1242
1034 779 1744
1134 804 2211
1194 825 2623
1216 854 2962
1125 338 278
1344 507 564
1287 754 855
1165 974 1185
1189 1065 1591
1272 1084 2064
1315 1102 2492
1328 1130 2866
1318 1175 3176
955 527 506
1293 783 803
1448 1071 1117
1480 1307 1473
1453 1406 1895
1485 1424 2336
1493 1453 2726
1483 1496 3064
1465 1558 3345
868 742 792
1225 1083 1102
1556 1401 1412
1750 1651 1743
1697 1786 2119
1685 1820 2547
1666 1860 2912
1647 1910 3218
1630 1974 3471
1013 1012 1088
1394 1393 1427
1743 1738 1738
1960 2026 2009
1940 2235 2228
1880 2292 2686
1835 2329 3048
1804 2359 3333
1786 2396 3560
1373 1403 1434
1755 1767 1762
2097 2092 2060
2318 2339 2293
2339 2473 2431
2199 2653 2732
2104 2763 3093
2044 2817 3430
2011 2832 3660
1776 1817 1792
2136 2145 2097
2451 2434 2371
2660 2643 2573
2701 2728 2659
2584 2877 2826
2452 3034 3111
2339 3158 3438
2281 3209 3725
2197 2224 2146
2514 2503 2419
2787 2749 2663
2971 2922 2834
3017 2979 2893
2962 3042 2962
2831 3195 3140
2682 3369 3403
2576 3493 3728
2616 2594 2482
2869 2820 2714
3089 3020 2922
3239 3159 3067
3281 3203 3112
3260 3227 3137
3194 3300 3216
3071 3436 3375
2877 3651 3641
1719 190 148
1643 284 452
1455 495 742
1219 754 967
998 995 1076
1272 1126 1567
1484 1182 2060
1634 1193 2519
1719 1191 2907
1649 374 228
1863 509 540
1813 748 911
1616 1054 1240
1390 1389 1425
1603 1450 1906
1744 1466 2364
1824 1461 2778
1851 1460 3125
1473 628 473
1821 821 747
1980 1058 1103
1954 1357 1462
1745 1739 1740
1886 1752 2204
1963 1749 2628
1990 1745 2999
1981 1756 3309
1247 871 794
1629 1144 1052
1958 1397 1364
2136 1683 1700
2067 2052 2027
2131 2049 2465
2153 2049 2851
2146 2060 3183
2121 2091 3458
1023 1022 1098
1402 1401 1433
1748 1741 1739
2066 2049 2023
2362 2336 2291
2345 2352 2691
2323 2381 3038
2302 2422 3331
2285 2477 3574
1379 1410 1440
1759 1771 1765
2097 2091 2059
2400 2377 2327
2679 2640 2575
2592 2749 2798
2522 2814 3109
2469 2849 3422
2438 2868 3653
1778 1820 1795
2136 2146 2098
2448 2431 2369
2724 2686 2615
2973 2918 2840
2901 3008 2945
2802 3111 3172
2706 3196 3453
2645 3229 3721
2196 2225 2148
2512 2503 2419
2785 2747 2661
3023 2964 2878
3236 3163 3078
3208 3194 3116
3114 3303 3244
2994 3431 3456
2889 3522 3744
2612 2594 2482
2867 2820 2714
3088 3021 2922
3282 3200 3109
3456 3367 3282
3448 3374 3292
3407 3420 3343
3315 3525 3465
3153 3706 3686
2203 227 152
2161 293 471
2020 488 811
1806 782 1121
1547 1142 1348
1479 1363 1532
1666 1536 1908
1941 1639 2362
2138 1654 2785
2167 393 187
2356 505 522
2332 714 933
2168 1026 1335
1940 1442 1641
1855 1700 1854
1988 1843 2217
2190 1897 2635
2311 1887 3014
2043 673 397
2343 813 671
2484 1013 1065
2464 1303 1498
2279 1716 1888
2179 2002 2135
2263 2123 2489
2400 2142 2875
2463 2123 3214
1844 994 734
2189 1180 951
2472 1379 1278
2621 1632 1673
2568 1980 2092
2460 2279 2379
2498 2385 2728
2580 2386 3083
2600 2372 3386
1583 1285 1148
1961 1568 1393
2289 1811 1642
2571 2032 1922
2809 2252 2257
2702 2543 2592
2702 2640 2937
2736 2640 3261
2732 2641 3532
1523 1479 1456
1900 1814 1755
2230 2107 2031
2521 2368 2294
2780 2608 2557
2862 2829 2791
2885 2914 3090
2874 2930 3393
2857 2944 3637
1781 1824 1798
2136 2146 2097
2445 2428 2365
2717 2678 2606
2960 2904 2828
3100 3076 3003
3104 3180 3217
3046 3235 3458
3002 3261 3714
2197 2226 2149
2511 2502 2418
2781 2743 2657
3016 2957 2872
3226 3152 3069
3355 3290 3211
3341 3400 3335
3258 3485 3496
3175 3546 3747
2612 2594 2482
2865 2819 2713
3086 3019 2921
3279 3198 3108
3452 3362 3279
3564 3476 3398
3578 3537 3465
3514 3609 3549
3388 3752 3720
2622 259 163
2608 299 497
2519 470 873
2357 765 1244
2126 1178 1561
1920 1541 1709
1929 1800 1930
2111 1976 2240
2419 2087 2655
2609 402 162
2773 497 515
2776 675 954
2661 967 1405
2473 1409 1797
2280 1826 1989
2272 2094 2222
2403 2243 2516
2631 2304 2891
2540 688 327
2787 787 606
2908 959 1034
2902 1231 1523
2765 1636 1985
2589 2081 2228
2564 2350 2478
2650 2480 2761
2811 2506 3101
2401 1059 643
2686 1168 838
2912 1330 1191
3034 1562 1642
3002 1882 2130
2851 2318 2430
2813 2579 2701
2859 2696 2977
2965 2701 3288
2178 1455 1093
2508 1638 1278
2784 1798 1503
3008 1965 1808
3187 2170 2231
3073 2550 2598
3026 2789 2896
3037 2899 3168
3097 2894 3454
1955 1685 1495
2299 1947 1735
2596 2172 1967
2850 2374 2211
3070 2570 2486
3185 2808 2775
3198 2995 3054
3182 3104 3324
3212 3107 3586
1972 1933 1834
2311 2222 2102
2604 2471 2342
2859 2690 2565
3084 2887 2779
3274 3071 3001
3335 3228 3214
3329 3327 3436
3322 3339 3688
2202 2227 2150
2511 2501 2415
2777 2739 2652
3009 2950 2864
3215 3142 3059
3394 3312 3234
3482 3445 3375
3493 3534 3530
3444 3573 3747
2616 2594 2482
2865 2818 2712
3083 3016 2919
3276 3194 3105
3448 3356 3275
3598 3504 3430
3683 3605 3535
3688 3691 3628
3598 3791 3745
2964 285 183
2970 304 531
2930 444 934
2833 717 1349
2669 1137 1731
2457 1626 1965
2298 1978 2092
2300 2231 2242
2569 2423 2546
2964 402 151
3109 486 520
3137 633 976
3074 894 1460
2948 1321 1910
2764 1839 2192
2618 2227 2349
2603 2491 2505
2813 2640 2783
2944 677 270
3144 748 557
3250 900 1012
3262 1153 1541
3179 1524 2049
3023 2039 2379
2890 2445 2569
2862 2718 2736
3021 2831 2996
2877 1069 544
3097 1119 730
3271 1260 1113
3369 1482 1613
3361 1772 2151
3239 2239 2530
3122 2641 2758
3084 2917 2941
3198 3003 3187
2735 1536 978
2993 1629 1126
3202 1725 1349
3369 1864 1695
3496 2091 2214
3417 2456 2647
3320 2825 2918
3275 3094 3124
3350 3161 3363
2511 1901 1493
2800 2072 1668
3043 2214 1856
3248 2352 2086
3420 2508 2385
3503 2731 2754
3476 3019 3039
3433 3252 3278
3472 3311 3512
2336 2115 1876
2637 2345 2092
2895 2537 2292
3118 2705 2488
3314 2860 2695
3471 3027 2958
3547 3234 3193
3572 3404 3414
3576 3464 3640
2333 2305 2185
2621 2558 2430
2871 2776 2648
3090 2969 2845
3285 3142 3028
3455 3298 3201
3607 3446 3370
3695 3565 3544
3675 3630 3729
2625 2594 2482
2868 2817 2711
3082 3014 2916
3271 3190 3100
3442 3351 3269
3591 3496 3423
3728 3632 3563
3807 3745 3680
3782 3821 3765
3218 304 208
3234 308 575
3232 417 1001
3196 656 1447
3109 1051 1873
2954 1587 2171
2795 2070 2360
2664 2430 2458
2594 2594 2482
3217 396 155
3358 472 535
3406 593 1005
3386 818 1512
3323 1208 1998
3191 1752 2343
3049 2254 2565
2928 2636 2684
2860 2823 2715
3231 645 232
3405 698 526
3505 842 1003
3535 1077 1561
3499 1404 2096
3391 1923 2483
3266 2421 2739
3155 2816 2881
3088 3025 2924
3229 1031 456
3399 1042 640
3539 1177 1051
3626 1398 1592
3637 1665 2166
3558 2115 2593
3452 2581 2884
3351 2974 3052
3286 3204 3111
3178 1531 845
3366 1557 973
3519 1611 1207
3641 1747 1600
3738 2018 2208
3694 2344 2676
3612 2744 3005
3524 3118 3203
3459 3366 3281
3028 2002 1389
3242 2088 1519
3422 2164 1689
3572 2258 1931
3699 2402 2276
3761 2642 2731
3735 2946 3084
3668 3254 3322
3605 3508 3430
2858 2338 1897
3089 2484 2051
3289 2602 2205
3462 2708 2375
3615 2816 2577
3737 2979 2891
3794 3178 3183
3792 3401 3419
3736 3636 3564
2714 2537 2288
2952 2732 2478
3161 2896 2648
3347 3037 2805
3517 3163 2958
3664 3285 3128
3789 3413 3329
3861 3563 3525
3848 3748 3681
2642 2594 2482
2875 2817 2709
3081 3012 2912
3266 3186 3094
3434 3345 3261
3583 3490 3413
3721 3624 3554
3841 3743 3677
3939 3843 3779
