Assets/1__3DArt/KimSe/artstation_asset/LUTs_subway_asset/3DL/Underground 04_S.3dl
# LUT by SparkleStock. Enhanced with VOXCOLOR algorithms.
0 256 512 768 1023
48 16 16
52 67 579
86 185 1432
155 417 2311
240 721 2962
328 369 423
193 690 897
176 1043 1895
264 1213 2643
355 1393 3172
817 959 1059
737 1104 1217
342 1893 2081
552 2291 3083
725 2367 3524
1653 1818 1875
1629 1855 1922
1410 2102 2177
1019 2817 3034
1267 3187 3716
2626 2658 2642
2637 2679 2662
2566 2718 2689
2179 2983 2958
1649 3507 3555
672 68 89
473 300 544
573 489 1372
757 666 2318
878 885 2985
579 494 361
916 942 1040
948 1192 1975
1012 1390 2795
1094 1602 3356
888 1032 1012
1442 1642 1597
1266 2108 2211
1302 2361 3127
1394 2445 3591
1679 1840 1867
2277 2401 2360
2292 2578 2570
1928 3012 3159
1952 3249 3755
2641 2677 2652
3068 3059 3010
3126 3134 3082
2944 3265 3217
2497 3641 3649
1696 160 157
1434 437 779
896 925 1123
1451 1267 2141
1823 1420 2946
1517 702 330
1872 1019 1030
1696 1531 1793
1965 1804 2700
2085 1943 3337
1068 1172 911
1744 1789 1438
2172 2193 2199
2277 2426 3074
2352 2597 3615
1731 1879 1835
2404 2518 2303
2865 2948 2843
2734 3156 3241
2682 3303 3757
2637 2671 2641
3135 3133 3059
3498 3466 3408
3442 3511 3457
3162 3747 3727
2677 255 214
2575 481 961
2141 1181 1671
1888 1811 2058
2474 2214 2779
2617 752 271
2895 996 1017
2774 1539 1996
2586 2301 2600
2882 2643 3205
2240 1529 983
2815 1848 1310
3085 2076 2106
3021 2689 2957
3156 3013 3535
1975 2002 1854
2675 2586 2131
3086 2942 2566
3279 3216 3209
3356 3422 3736
2635 2669 2638
3144 3149 3000
3494 3497 3309
3700 3689 3601
3609 3825 3786
3282 320 272
3291 507 1093
3155 1183 1980
2833 2161 2495
2626 2642 2626
3297 676 218
3589 929 1004
3586 1451 2105
3349 2447 2836
3138 3119 3074
3179 1555 813
3639 1707 1111
3860 1997 2081
3730 2662 3017
3503 3448 3418
2854 2385 1947
3453 2706 1995
3803 2903 2361
3892 3153 3124
3750 3691 3656
2626 2658 2626
3182 3173 2938
3565 3541 3176
3777 3747 3531
3923 3875 3827
