Assets/1__3DArt/KimSe/artstation_asset/LUTs_subway_asset/3DL/Underground 03.3dl
# LUT by SparkleStock. Enhanced with VOXCOLOR algorithms.
0 256 512 768 1023
208 96 144
224 114 714
224 193 1519
207 330 2310
208 496 2930
499 426 510
385 726 950
323 1012 1889
318 1111 2600
324 1222 3115
991 988 1065
930 1128 1200
610 1875 1954
631 2219 2964
655 2274 3451
1769 1810 1786
1752 1839 1813
1600 2073 2040
1240 2765 2871
1201 3140 3651
2610 2594 2482
2625 2597 2484
2578 2640 2524
2311 2915 2811
1825 3475 3491
801 120 161
598 365 604
687 479 1396
768 536 2297
772 638 2972
647 465 521
1070 1008 1130
1065 1192 1975
1031 1279 2761
999 1429 3336
1004 1002 1079
1610 1648 1660
1498 2123 2149
1383 2291 3047
1339 2342 3547
1774 1814 1789
2350 2348 2290
2384 2523 2464
2073 2950 3041
1918 3189 3717
2620 2594 2482
3021 2956 2856
3081 3029 2931
2944 3175 3086
2567 3594 3592
1719 190 148
1455 495 742
998 995 1076
1484 1182 2060
1719 1191 2907
1473 628 473
1980 1058 1103
1745 1739 1740
1963 1749 2628
1981 1756 3309
1023 1022 1098
1748 1741 1739
2362 2336 2291
2323 2381 3038
2285 2477 3574
1778 1820 1795
2448 2431 2369
2973 2918 2840
2802 3111 3172
2645 3229 3721
2612 2594 2482
3088 3021 2922
3456 3367 3282
3407 3420 3343
3153 3706 3686
2622 259 163
2519 470 873
2126 1178 1561
1929 1800 1930
2419 2087 2655
2540 688 327
2908 959 1034
2765 1636 1985
2564 2350 2478
2811 2506 3101
2178 1455 1093
2784 1798 1503
3187 2170 2231
3026 2789 2896
3097 2894 3454
1972 1933 1834
2604 2471 2342
3084 2887 2779
3335 3228 3214
3322 3339 3688
2616 2594 2482
3083 3016 2919
3448 3356 3275
3683 3605 3535
3598 3791 3745
3218 304 208
3232 417 1001
3109 1051 1873
2795 2070 2360
2594 2594 2482
3231 645 232
3505 842 1003
3499 1404 2096
3266 2421 2739
3088 3025 2924
3178 1531 845
3519 1611 1207
3738 2018 2208
3612 2744 3005
3459 3366 3281
2858 2338 1897
3289 2602 2205
3615 2816 2577
3794 3178 3183
3736 3636 3564
2642 2594 2482
3081 3012 2912
3434 3345 3261
3721 3624 3554
3939 3843 3779
