Assets/1__3DArt/KimSe/artstation_asset/LUTs_subway_asset/3DL/Underground 04_S.3dl
# LUT by SparkleStock. Enhanced with VOXCOLOR algorithms.
0 128 256 384 512 640 768 896 1023
48 16 16
46 36 255
52 67 579
65 115 977
86 185 1432
118 291 1894
155 417 2311
195 561 2672
240 721 2962
168 168 193
104 300 394
86 404 759
95 488 1204
115 561 1644
148 648 2060
186 751 2437
226 869 2766
268 1004 3038
328 369 423
269 489 555
193 690 897
147 899 1369
176 1043 1895
218 1130 2298
264 1213 2643
311 1298 2933
355 1393 3172
540 631 710
512 688 775
402 924 1035
289 1235 1475
256 1523 2076
321 1658 2530
387 1745 2876
449 1804 3138
506 1857 3341
817 959 1059
806 983 1087
737 1104 1217
589 1386 1524
342 1893 2081
450 2153 2679
552 2291 3083
645 2347 3346
725 2367 3524
1206 1376 1465
1203 1388 1482
1158 1453 1552
1049 1615 1724
854 1917 2048
661 2365 2622
712 2647 3101
871 2792 3456
1002 2827 3657
1653 1818 1875
1655 1824 1888
1629 1855 1922
1555 1938 2008
1410 2102 2177
1142 2475 2584
1019 2817 3034
1056 3073 3441
1267 3187 3716
2134 2255 2272
2141 2262 2286
2129 2275 2300
2084 2312 2336
1988 2389 2411
1767 2590 2620
1499 2897 2961
1351 3209 3345
1491 3422 3688
2626 2658 2642
2637 2672 2657
2637 2679 2662
2616 2691 2668
2566 2718 2689
2414 2815 2784
2179 2983 2958
1909 3215 3214
1649 3507 3555
299 36 52
215 134 228
223 191 545
276 235 962
326 295 1440
373 384 1914
417 493 2334
461 619 2691
503 760 2975
275 210 179
359 398 436
396 500 813
413 564 1262
435 639 1734
465 738 2175
501 851 2563
542 978 2895
588 1116 3164
377 415 395
550 654 675
562 839 1024
519 984 1455
526 1102 1979
552 1195 2400
587 1289 2758
630 1389 3056
679 1498 3299
574 668 688
798 935 963
793 1167 1233
694 1379 1592
633 1591 2135
665 1706 2586
707 1789 2937
757 1855 3208
811 1920 3421
838 984 1044
1111 1274 1316
1161 1439 1493
1038 1634 1725
788 2015 2164
835 2221 2730
892 2331 3122
954 2379 3386
1019 2401 3570
1220 1391 1458
1515 1678 1718
1591 1808 1848
1512 1913 1972
1345 2128 2215
1122 2487 2703
1116 2714 3144
1216 2830 3488
1308 2854 3687
1663 1827 1875
1954 2091 2113
2039 2194 2211
1993 2245 2269
1889 2351 2386
1633 2642 2710
1480 2921 3102
1460 3131 3475
1601 3220 3742
2144 2264 2279
2404 2490 2485
2486 2572 2560
2461 2593 2583
2403 2638 2629
2231 2783 2783
1977 3031 3061
1804 3291 3396
1873 3470 3719
2637 2672 2653
2840 2849 2818
2908 2913 2876
2900 2923 2882
2875 2938 2894
2777 3002 2958
2600 3129 3090
2366 3320 3302
2095 3578 3604
672 68 89
563 186 298
473 300 544
458 403 883
573 489 1372
672 574 1874
757 666 2318
826 769 2693
878 885 2985
604 278 175
744 454 475
746 596 816
722 708 1222
788 797 1713
843 893 2180
892 996 2587
937 1108 2928
980 1229 3201
579 494 361
837 745 687
916 942 1040
919 1089 1457
948 1192 1975
978 1290 2419
1012 1390 2795
1050 1493 3106
1094 1602 3356
654 737 642
964 1061 964
1107 1303 1280
1133 1488 1652
1093 1641 2145
1111 1752 2602
1141 1845 2966
1180 1927 3253
1228 2007 3477
888 1032 1012
1249 1404 1334
1442 1642 1597
1452 1845 1868
1266 2108 2211
1275 2268 2744
1302 2361 3127
1343 2412 3397
1394 2445 3591
1249 1418 1439
1636 1794 1754
1852 2024 1983
1904 2174 2168
1796 2314 2351
1589 2589 2763
1551 2768 3166
1602 2863 3499
1661 2883 3698
1679 1840 1867
2060 2191 2162
2277 2401 2360
2349 2514 2487
2292 2578 2570
2082 2794 2822
1928 3012 3159
1871 3180 3498
1952 3249 3755
2152 2269 2277
2493 2572 2541
2691 2752 2709
2767 2840 2799
2740 2864 2828
2620 2962 2937
2403 3156 3158
2229 3365 3444
2240 3511 3744
2641 2677 2652
2909 2914 2873
3068 3059 3010
3135 3127 3076
3126 3134 3082
3069 3173 3121
2944 3265 3217
2753 3418 3387
2497 3641 3649
1146 109 125
1047 214 403
858 384 611
720 569 860
778 717 1256
962 832 1781
1119 928 2257
1244 1014 2664
1330 1102 2980
1087 351 172
1231 487 506
1178 668 829
1086 854 1186
1113 1004 1622
1227 1117 2108
1318 1215 2537
1389 1306 2900
1440 1396 3186
953 593 335
1214 800 655
1329 1001 1018
1357 1182 1432
1363 1330 1906
1433 1445 2371
1488 1549 2770
1533 1647 3100
1572 1740 3362
869 840 603
1184 1131 889
1435 1367 1242
1575 1557 1652
1561 1713 2106
1600 1833 2575
1636 1938 2959
1672 2032 3265
1711 2117 3503
964 1098 966
1326 1457 1244
1621 1748 1567
1782 1981 1904
1739 2169 2223
1748 2299 2726
1769 2391 3108
1800 2457 3392
1840 2508 3601
1294 1457 1411
1675 1828 1686
1989 2131 1982
2180 2351 2253
2189 2472 2454
2042 2671 2799
2001 2812 3171
2020 2893 3495
2055 2918 3698
1701 1857 1852
2075 2209 2119
2385 2500 2386
2583 2700 2604
2618 2778 2725
2478 2926 2918
2351 3090 3206
2281 3222 3512
2314 3275 3759
2159 2273 2270
2497 2580 2522
2779 2837 2756
2962 3011 2931
3005 3066 3003
2937 3125 3078
2773 3269 3250
2620 3432 3488
2589 3546 3763
2639 2676 2646
2910 2920 2871
3138 3127 3070
3289 3268 3208
3330 3310 3254
3302 3330 3274
3221 3392 3340
3076 3509 3471
2853 3697 3690
1696 160 157
1628 242 479
1434 437 779
1171 684 1010
896 925 1123
1188 1131 1639
1451 1267 2141
1668 1355 2590
1823 1420 2946
1659 404 163
1789 514 525
1735 692 913
1565 933 1261
1346 1230 1500
1564 1413 1992
1741 1536 2446
1875 1616 2841
1962 1672 3155
1517 702 330
1767 857 642
1872 1019 1030
1844 1229 1434
1696 1531 1793
1852 1690 2277
1965 1804 2700
2042 1885 3056
2085 1943 3337
1307 982 598
1631 1212 845
1867 1393 1187
1987 1584 1589
1965 1846 2021
2068 1984 2503
2139 2093 2907
2183 2180 3236
2210 2248 3490
1068 1172 911
1451 1519 1150
1744 1789 1438
1975 2005 1785
2172 2193 2199
2230 2317 2681
2277 2426 3074
2317 2520 3383
2352 2597 3615
1354 1503 1378
1741 1869 1608
2047 2161 1868
2295 2396 2167
2509 2596 2517
2459 2732 2812
2447 2846 3160
2461 2926 3481
2486 2964 3695
1731 1879 1835
2104 2231 2066
2404 2518 2303
2652 2752 2558
2865 2948 2843
2811 3038 2995
2734 3156 3241
2677 3258 3517
2682 3303 3757
2169 2277 2263
2505 2588 2493
2779 2847 2710
3008 3062 2926
3206 3242 3149
3187 3272 3204
3083 3372 3334
2969 3490 3529
2916 3577 3777
2637 2671 2641
2908 2921 2862
3135 3133 3059
3328 3314 3238
3498 3466 3408
3487 3473 3416
3442 3511 3457
3340 3595 3553
3162 3747 3727
2229 211 185
2194 274 528
2048 463 882
1814 747 1200
1513 1094 1435
1404 1336 1629
1613 1565 2016
1948 1744 2471
2216 1832 2867
2216 432 158
2332 532 535
2300 699 960
2156 955 1372
1935 1322 1712
1831 1618 1962
1980 1849 2335
2223 2001 2740
2400 2063 3085
2109 746 301
2324 872 614
2416 1014 1025
2390 1223 1477
2253 1550 1912
2165 1875 2227
2271 2101 2601
2442 2236 2972
2551 2289 3278
1918 1088 587
2208 1258 805
2409 1399 1145
2506 1565 1572
2483 1810 2051
2420 2130 2436
2497 2342 2820
2616 2465 3169
2679 2521 3445
1653 1395 988
2023 1655 1149
2295 1846 1386
2492 1996 1714
2639 2129 2145
2610 2406 2596
2672 2591 2998
2757 2706 3333
2798 2770 3586
1543 1584 1375
1946 1929 1553
2257 2196 1766
2494 2405 2034
2679 2575 2376
2745 2756 2746
2813 2895 3121
2872 2993 3450
2909 3050 3683
1768 1900 1817
2157 2255 2007
2465 2540 2204
2707 2766 2427
2901 2948 2698
3007 3080 2978
3033 3197 3252
3028 3289 3512
3042 3343 3753
2181 2283 2257
2522 2598 2458
2798 2859 2644
3021 3074 2835
3204 3249 3049
3316 3358 3244
3305 3453 3396
3244 3535 3558
3205 3604 3783
2636 2670 2640
2909 2922 2849
3137 3140 3032
3327 3325 3199
3489 3479 3367
3593 3570 3496
3603 3618 3561
3536 3675 3627
3404 3789 3758
2677 255 214
2667 304 570
2575 481 961
2400 777 1343
2141 1181 1671
1888 1533 1827
1888 1811 2058
2097 2032 2372
2474 2214 2779
2683 442 158
2795 541 545
2790 699 995
2685 957 1453
2503 1356 1867
2290 1768 2100
2275 2080 2354
2423 2302 2650
2699 2441 3004
2617 752 271
2808 861 585
2895 996 1017
2882 1205 1507
2774 1539 1996
2608 1970 2310
2586 2301 2600
2686 2528 2890
2882 2643 3205
2472 1132 547
2727 1256 748
2900 1378 1098
2982 1535 1553
2965 1767 2072
2851 2170 2466
2832 2497 2799
2896 2725 3096
3032 2830 3382
2240 1529 983
2575 1714 1095
2815 1848 1310
2978 1960 1641
3085 2076 2106
3030 2396 2577
3021 2689 2957
3062 2910 3269
3156 3013 3535
1989 1765 1436
2376 2044 1542
2668 2254 1702
2883 2415 1938
3036 2545 2274
3114 2718 2690
3149 2930 3071
3183 3116 3397
3258 3211 3649
1975 2002 1854
2368 2329 1986
2675 2586 2131
2910 2787 2315
3086 2942 2566
3220 3070 2900
3279 3216 3209
3309 3346 3489
3356 3422 3736
2192 2287 2250
2548 2609 2420
2834 2875 2572
3061 3090 2733
3239 3261 2929
3380 3389 3174
3449 3489 3382
3470 3568 3578
3468 3632 3785
2635 2669 2638
2912 2925 2836
3144 3149 3000
3336 3340 3151
3494 3497 3309
3627 3614 3481
3700 3689 3601
3699 3750 3695
3609 3825 3786
3030 291 243
3038 333 611
2996 494 1028
2891 783 1454
2711 1204 1847
2474 1673 2095
2290 2008 2230
2290 2267 2386
2607 2505 2694
3047 437 163
3166 542 557
3187 693 1024
3126 942 1515
3002 1346 1982
2808 1846 2296
2644 2238 2481
2625 2533 2652
2866 2742 2925
3020 727 242
3201 829 557
3291 967 1009
3298 1178 1531
3229 1503 2057
3079 1989 2440
2937 2414 2683
2904 2742 2881
3079 2941 3132
2933 1121 490
3160 1210 681
3317 1331 1050
3398 1496 1537
3393 1718 2087
3291 2140 2536
3174 2564 2841
3133 2912 3076
3255 3110 3315
2769 1581 917
3062 1702 1003
3273 1799 1215
3413 1901 1571
3497 2033 2085
3447 2335 2592
3361 2714 2961
3319 3060 3239
3400 3261 3475
2534 1948 1471
2884 2143 1512
3149 2288 1631
3339 2402 1851
3466 2503 2196
3512 2656 2649
3483 2930 3040
3456 3214 3360
3509 3400 3601
2340 2168 1910
2717 2437 1975
3013 2646 2067
3236 2806 2216
3396 2928 2452
3495 3034 2807
3542 3204 3154
3566 3389 3463
3601 3539 3704
2327 2366 2281
2686 2670 2406
2978 2921 2516
3208 3122 2641
3382 3277 2814
3503 3388 3063
3608 3487 3328
3677 3585 3575
3687 3687 3776
2632 2666 2634
2918 2930 2822
3159 3160 2968
3358 3357 3099
3518 3518 3241
3640 3634 3416
3751 3729 3588
3812 3803 3728
3781 3853 3809
3282 320 272
3296 361 657
3291 507 1093
3249 774 1546
3155 1183 1980
2995 1703 2292
2833 2161 2495
2699 2494 2602
2626 2642 2626
3296 421 175
3431 540 574
3475 684 1055
3452 918 1568
3387 1305 2068
3253 1837 2439
3108 2329 2688
2982 2709 2826
2904 2904 2864
3297 676 218
3485 780 532
3589 929 1004
3620 1146 1555
3586 1451 2105
3479 1949 2535
3349 2447 2836
3226 2864 3014
3138 3119 3074
3264 1061 424
3481 1127 609
3642 1263 1003
3734 1450 1528
3746 1666 2105
3669 2081 2588
3557 2547 2944
3437 2981 3168
3336 3298 3258
3179 1555 813
3442 1627 884
3639 1707 1111
3777 1821 1506
3860 1997 2081
3820 2273 2608
3730 2662 3017
3616 3081 3291
3503 3448 3418
3020 2033 1393
3327 2155 1398
3566 2252 1509
3742 2343 1745
3857 2444 2126
3887 2604 2625
3842 2873 3056
3750 3211 3377
3636 3575 3547
2854 2385 1947
3186 2566 1944
3453 2706 1995
3658 2815 2125
3803 2903 2361
3876 3001 2745
3892 3153 3124
3850 3378 3446
3750 3691 3656
2713 2599 2388
3043 2835 2441
3319 3027 2495
3539 3179 2580
3704 3296 2730
3803 3380 2981
3873 3459 3267
3893 3581 3538
3845 3792 3748
2626 2658 2626
2925 2933 2808
3182 3173 2938
3395 3376 3049
3565 3541 3176
3681 3656 3350
3777 3747 3531
3855 3818 3697
3923 3875 3827
