Assets/1__3DArt/KimSe/artstation_asset/LUTs_subway_asset/3DL/Underground 01_S.3dl
# LUT by SparkleStock. Enhanced with VOXCOLOR algorithms.
0 64 128 192 256 320 384 448 512 576 640 704 768 832 896 960 1023
192 240 176
197 251 293
201 262 409
206 273 529
211 286 656
216 298 783
223 312 921
229 326 1066
236 341 1210
244 357 1369
252 372 1527
260 389 1689
271 407 1856
282 425 2023
294 443 2192
307 462 2361
320 480 2530
271 329 275
254 359 371
237 389 467
226 414 578
229 431 718
232 448 858
236 462 1001
242 474 1146
248 487 1291
256 499 1444
263 511 1597
272 523 1752
281 537 1912
291 551 2072
302 566 2233
314 582 2395
326 598 2557
350 418 373
311 467 449
273 516 525
247 555 627
247 576 780
247 597 934
250 611 1081
255 622 1226
260 633 1371
267 641 1519
275 648 1666
283 657 1815
292 667 1968
301 677 2120
311 690 2275
321 703 2430
331 716 2585
433 511 474
385 567 532
336 624 589
299 673 680
285 709 838
272 744 995
270 766 1150
273 780 1304
277 794 1459
284 800 1605
291 806 1751
298 812 1897
307 819 2044
315 825 2190
324 834 2338
333 844 2486
343 854 2634
525 609 579
489 652 623
453 695 667
413 746 744
365 816 886
316 886 1028
301 928 1196
302 958 1378
303 987 1559
309 995 1713
316 1003 1866
323 1009 2016
331 1012 2160
340 1015 2304
348 1019 2446
357 1024 2587
365 1029 2728
616 708 685
593 737 715
570 765 745
527 819 807
444 923 934
360 1027 1061
331 1091 1242
330 1136 1451
328 1180 1660
335 1190 1821
341 1200 1981
348 1207 2135
356 1206 2276
364 1204 2417
372 1204 2553
380 1205 2687
387 1205 2822
723 820 801
708 840 823
692 860 845
654 907 894
571 1006 999
488 1106 1103
437 1190 1276
401 1266 1483
366 1343 1690
370 1370 1877
374 1397 2064
380 1415 2238
388 1418 2385
396 1420 2533
405 1419 2670
413 1417 2802
420 1415 2934
837 939 923
827 953 939
817 967 956
788 1001 993
723 1077 1072
658 1153 1151
579 1256 1304
494 1373 1494
409 1490 1684
410 1542 1907
412 1593 2131
416 1630 2333
424 1639 2492
433 1648 2651
441 1648 2792
450 1645 2923
459 1641 3054
951 1058 1045
946 1066 1056
941 1074 1067
922 1096 1092
875 1148 1145
828 1200 1198
722 1322 1332
587 1480 1505
452 1638 1678
451 1714 1938
450 1790 2198
452 1845 2428
461 1860 2598
469 1876 2769
478 1877 2913
488 1872 3044
497 1867 3175
1088 1198 1183
1085 1203 1192
1082 1208 1201
1067 1225 1221
1029 1266 1262
991 1306 1304
902 1404 1410
787 1532 1549
671 1659 1688
608 1774 1929
545 1889 2169
505 1981 2400
510 2028 2610
515 2076 2820
523 2095 2987
532 2101 3131
541 2106 3275
1226 1337 1321
1224 1340 1328
1222 1343 1335
1211 1355 1349
1183 1383 1379
1154 1412 1409
1081 1486 1489
986 1583 1594
891 1681 1699
766 1834 1920
641 1988 2141
558 2117 2371
559 2196 2621
561 2275 2872
567 2313 3060
576 2329 3218
585 2346 3375
1369 1481 1463
1369 1482 1468
1368 1483 1474
1361 1490 1484
1340 1509 1504
1320 1528 1525
1261 1583 1583
1183 1655 1659
1105 1726 1736
945 1895 1930
785 2064 2125
671 2214 2345
646 2325 2615
622 2435 2885
618 2496 3094
624 2532 3273
631 2568 3452
1527 1634 1613
1526 1634 1618
1525 1634 1622
1520 1639 1630
1504 1653 1645
1488 1667 1661
1440 1709 1706
1376 1765 1765
1311 1821 1824
1169 1958 1981
1027 2095 2136
901 2234 2323
807 2375 2572
713 2516 2821
682 2612 3049
682 2684 3266
682 2757 3483
1684 1786 1764
1683 1786 1767
1683 1785 1771
1679 1788 1776
1668 1797 1786
1657 1805 1797
1619 1835 1829
1568 1875 1871
1517 1916 1913
1393 2021 2031
1269 2126 2148
1132 2253 2302
968 2425 2530
804 2597 2758
745 2727 3004
739 2837 3259
733 2946 3514
1847 1934 1917
1846 1934 1919
1846 1933 1921
1843 1935 1925
1836 1940 1932
1828 1946 1939
1798 1968 1962
1758 1997 1993
1718 2027 2024
1611 2110 2114
1504 2193 2204
1373 2303 2330
1194 2467 2525
1015 2630 2720
919 2775 2955
863 2910 3209
807 3045 3464
2012 2080 2071
2012 2080 2073
2012 2080 2074
2010 2081 2076
2005 2084 2080
2000 2088 2085
1978 2104 2101
1947 2125 2123
1916 2147 2144
1825 2213 2214
1735 2278 2284
1619 2367 2383
1453 2504 2539
1287 2640 2695
1147 2789 2904
1019 2944 3138
892 3100 3373
2178 2226 2226
2178 2226 2226
2178 2226 2226
2177 2227 2227
2175 2228 2228
2172 2230 2230
2157 2240 2239
2136 2254 2252
2115 2267 2265
2040 2315 2314
1966 2364 2363
1865 2432 2435
1712 2541 2553
1558 2649 2671
1375 2802 2853
1176 2978 3068
977 3154 3282
340 249 211
321 284 311
302 319 411
293 345 522
307 353 653
320 362 785
330 370 927
338 378 1076
346 387 1224
351 397 1385
357 407 1545
363 418 1708
370 431 1875
377 444 2042
385 459 2209
395 474 2375
404 489 2542
373 343 289
362 393 386
351 442 483
346 479 595
352 490 736
359 501 878
364 510 1025
367 518 1174
371 525 1324
375 534 1482
378 542 1640
383 551 1799
388 562 1963
394 573 2126
401 586 2289
409 599 2453
418 613 2616
407 438 367
404 502 461
401 566 554
398 613 668
398 627 820
397 641 971
397 650 1123
397 657 1273
397 664 1424
399 670 1579
400 677 1734
402 684 1890
407 693 2050
411 701 2210
417 712 2370
424 724 2530
432 737 2691
459 533 455
465 605 544
470 677 632
469 734 742
454 759 895
439 785 1047
431 800 1204
427 811 1363
423 821 1521
423 826 1676
423 831 1830
424 837 1985
427 843 2141
430 849 2297
436 857 2453
442 867 2609
449 876 2765
547 631 563
563 698 642
579 765 722
575 829 820
530 884 954
485 939 1087
465 972 1252
458 993 1433
450 1015 1614
449 1021 1773
448 1026 1932
448 1030 2088
451 1032 2239
455 1034 2390
460 1038 2540
466 1044 2689
472 1049 2838
636 728 670
662 791 741
688 853 812
681 923 898
606 1008 1013
531 1093 1127
499 1143 1301
488 1176 1504
477 1209 1707
475 1215 1870
473 1221 2033
473 1224 2190
476 1222 2337
479 1220 2484
484 1220 2628
489 1220 2770
495 1221 2912
739 838 789
773 898 855
807 959 921
805 1026 997
732 1107 1090
659 1188 1183
606 1257 1345
564 1319 1542
522 1380 1739
517 1401 1925
512 1421 2111
509 1434 2286
512 1434 2438
514 1434 2590
519 1433 2732
525 1431 2870
531 1428 3009
850 954 913
890 1013 977
931 1072 1040
939 1132 1106
883 1193 1176
827 1254 1246
750 1341 1387
663 1441 1564
576 1541 1740
566 1582 1959
557 1624 2179
551 1654 2379
553 1659 2540
555 1664 2701
560 1662 2845
566 1658 2981
572 1653 3117
961 1070 1038
1008 1128 1098
1055 1186 1159
1073 1239 1215
1034 1279 1262
995 1320 1309
893 1425 1429
761 1563 1585
629 1701 1741
616 1764 1994
602 1827 2246
594 1873 2471
595 1883 2641
596 1893 2812
601 1892 2958
607 1885 3092
614 1878 3226
1097 1207 1178
1147 1264 1238
1197 1322 1297
1220 1371 1349
1189 1402 1386
1158 1434 1422
1075 1518 1518
964 1628 1642
854 1738 1767
782 1839 1996
710 1939 2225
661 2019 2447
656 2059 2655
652 2099 2863
654 2114 3029
660 2116 3175
666 2119 3320
1232 1344 1318
1285 1401 1377
1339 1458 1436
1367 1504 1484
1344 1526 1510
1322 1547 1536
1256 1610 1606
1167 1693 1699
1079 1776 1792
948 1914 1998
818 2051 2204
728 2166 2423
718 2236 2668
708 2305 2914
708 2336 3100
713 2348 3257
717 2359 3414
1374 1485 1461
1430 1542 1520
1486 1599 1578
1518 1641 1623
1502 1655 1640
1487 1669 1658
1436 1714 1708
1366 1774 1775
1296 1835 1841
1134 1987 2019
972 2140 2198
853 2275 2404
817 2374 2666
781 2473 2928
770 2526 3133
771 2555 3310
773 2585 3487
1531 1637 1612
1587 1692 1670
1643 1748 1728
1677 1788 1771
1666 1799 1784
1654 1809 1797
1613 1843 1835
1556 1890 1886
1500 1936 1937
1360 2059 2079
1221 2181 2220
1094 2306 2393
990 2435 2631
886 2565 2869
848 2650 3091
841 2715 3303
835 2779 3516
1687 1788 1763
1744 1843 1820
1801 1897 1878
1836 1935 1919
1829 1942 1927
1821 1948 1936
1790 1972 1962
1746 2005 1998
1703 2038 2034
1586 2130 2138
1469 2223 2242
1335 2338 2383
1163 2497 2597
992 2656 2811
925 2775 3048
911 2874 3297
897 2973 3546
1849 1935 1917
1906 1989 1973
1963 2042 2029
1999 2079 2068
1993 2084 2073
1988 2088 2079
1964 2105 2097
1931 2129 2123
1898 2153 2148
1800 2225 2228
1702 2297 2307
1576 2396 2420
1395 2547 2601
1214 2698 2782
1111 2831 3006
1047 2956 3252
984 3080 3499
2014 2081 2071
2070 2133 2126
2126 2186 2180
2162 2222 2217
2159 2225 2220
2155 2228 2224
2138 2240 2237
2113 2257 2254
2088 2274 2272
2007 2331 2333
1926 2388 2393
1818 2467 2481
1656 2591 2624
1494 2715 2768
1351 2854 2965
1217 2999 3189
1082 3144 3413
2179 2226 2226
2234 2277 2279
2289 2329 2331
2325 2364 2367
2324 2366 2368
2322 2367 2369
2311 2375 2376
2294 2385 2386
2278 2396 2396
2214 2437 2437
2150 2478 2479
2059 2538 2542
1917 2635 2648
1774 2733 2754
1590 2876 2924
1386 3042 3126
1181 3208 3328
487 258 246
445 317 329
402 376 413
381 417 514
402 421 650
424 426 786
437 429 933
446 431 1086
455 432 1238
458 437 1401
462 441 1563
465 447 1728
469 455 1894
472 463 2061
477 474 2226
482 487 2389
488 499 2553
476 358 303
471 427 401
465 496 499
465 544 611
476 549 755
486 555 898
491 559 1048
493 561 1203
495 564 1357
494 568 1520
494 573 1683
494 578 1847
495 586 2013
497 594 2180
500 605 2345
505 616 2510
510 628 2675
464 457 361
496 537 472
529 616 584
550 671 708
549 678 859
548 684 1009
544 689 1164
539 692 1320
534 696 1476
530 700 1639
525 705 1802
522 710 1966
522 718 2132
521 725 2299
523 735 2465
528 746 2631
532 757 2796
485 556 436
544 643 555
604 731 675
639 795 804
622 810 952
605 826 1099
592 835 1258
581 842 1421
570 848 1584
562 852 1747
555 857 1910
549 861 2074
547 867 2238
545 873 2403
547 881 2567
551 890 2731
555 899 2895
570 652 546
637 744 661
705 836 777
736 911 896
695 952 1021
654 992 1147
630 1015 1309
614 1029 1489
598 1043 1669
589 1046 1833
580 1049 1997
574 1051 2160
571 1053 2319
569 1054 2477
571 1058 2635
575 1063 2792
579 1068 2948
655 749 656
730 845 768
805 941 880
834 1027 988
768 1093 1091
702 1159 1194
667 1195 1360
646 1217 1557
625 1238 1754
615 1240 1919
605 1241 2085
598 1241 2246
596 1238 2399
593 1235 2552
595 1235 2703
599 1235 2852
603 1236 3002
755 856 777
838 956 887
921 1057 998
956 1145 1099
892 1208 1181
829 1271 1262
776 1323 1414
727 1371 1601
678 1418 1788
663 1432 1973
649 1445 2159
638 1453 2334
635 1451 2490
632 1449 2646
633 1447 2794
637 1444 2939
641 1442 3084
863 969 904
954 1073 1014
1045 1178 1125
1089 1263 1218
1042 1309 1280
995 1356 1341
920 1426 1470
831 1509 1633
742 1591 1796
722 1623 2011
702 1655 2226
687 1677 2424
682 1678 2587
677 1680 2750
678 1676 2898
682 1671 3039
686 1665 3180
971 1081 1031
1070 1190 1141
1168 1299 1251
1223 1381 1338
1192 1411 1379
1161 1440 1419
1065 1529 1526
936 1646 1665
807 1764 1805
781 1814 2049
755 1865 2294
736 1900 2514
729 1905 2684
722 1910 2854
723 1906 3002
727 1897 3140
731 1889 3277
1105 1216 1172
1208 1326 1283
1312 1436 1394
1373 1517 1478
1349 1539 1510
1326 1562 1541
1248 1631 1625
1142 1724 1735
1037 1817 1845
956 1904 2063
875 1990 2281
816 2058 2494
803 2090 2700
789 2123 2905
786 2133 3071
788 2132 3218
791 2131 3365
1238 1350 1314
1347 1462 1426
1455 1573 1537
1522 1653 1619
1506 1668 1641
1490 1683 1662
1430 1734 1724
1349 1802 1805
1267 1871 1885
1131 1993 2076
995 2114 2267
897 2216 2475
876 2275 2715
856 2335 2956
849 2360 3140
850 2367 3297
850 2373 3453
1379 1490 1459
1492 1602 1571
1604 1714 1683
1675 1792 1762
1665 1801 1776
1655 1811 1791
1610 1846 1833
1549 1894 1890
1487 1943 1947
1323 2079 2108
1160 2215 2270
1035 2335 2462
987 2423 2717
940 2511 2972
922 2555 3173
918 2578 3347
915 2601 3521
1535 1640 1611
1648 1751 1722
1762 1861 1834
1835 1937 1912
1827 1944 1922
1820 1951 1933
1785 1978 1965
1737 2014 2007
1688 2051 2050
1552 2159 2177
1415 2268 2303
1286 2379 2464
1173 2496 2691
1060 2613 2918
1014 2689 3132
1001 2745 3341
988 2801 3549
1691 1790 1763
1805 1899 1874
1919 2009 1985
1994 2083 2061
1990 2087 2068
1985 2091 2074
1960 2109 2096
1925 2135 2125
1889 2160 2154
1780 2240 2245
1670 2320 2337
1537 2422 2465
1359 2568 2664
1180 2715 2864
1106 2822 3092
1084 2911 3335
1062 3000 3578
1852 1936 1916
1966 2044 2026
2079 2151 2136
2154 2224 2210
2151 2227 2214
2148 2230 2218
2130 2242 2233
2104 2260 2253
2077 2278 2273
1989 2340 2341
1900 2401 2410
1779 2489 2511
1596 2627 2677
1413 2766 2843
1304 2888 3058
1232 3001 3296
1161 3115 3534
2017 2081 2071
2128 2186 2179
2240 2292 2286
2314 2362 2358
2312 2365 2360
2311 2367 2362
2297 2376 2372
2278 2389 2386
2259 2402 2400
2188 2449 2451
2117 2497 2502
2017 2566 2580
1859 2679 2710
1701 2791 2840
1555 2918 3026
1414 3053 3240
1273 3188 3454
2181 2226 2226
2291 2329 2331
2400 2432 2436
2473 2501 2507
2473 2503 2507
2473 2504 2507
2465 2510 2512
2453 2517 2519
2441 2525 2527
2387 2559 2561
2334 2592 2595
2254 2644 2649
2122 2730 2743
1990 2817 2837
1806 2949 2995
1596 3105 3184
1385 3261 3374
650 269 278
594 341 357
537 414 435
503 467 530
514 480 657
525 493 785
538 498 931
553 499 1086
568 500 1240
573 500 1407
578 499 1573
582 500 1740
584 503 1908
586 505 2077
589 511 2242
591 519 2405
594 527 2568
611 374 318
611 454 421
612 533 523
612 590 637
612 602 774
612 615 910
615 620 1061
620 622 1218
625 624 1375
623 624 1543
622 625 1710
621 627 1878
619 631 2048
618 634 2219
619 641 2386
620 648 2552
