Assets/1__3DArt/KimSe/artstation_asset/LUTs_subway_asset/3DL/Underground 01.3dl
# LUT by SparkleStock. Enhanced with VOXCOLOR algorithms.
0 64 128 192 256 320 384 448 512 576 640 704 768 832 896 960 1023
192 240 176
197 251 293
201 262 409
206 273 529
211 286 656
216 298 783
223 312 921
229 326 1066
236 341 1210
244 357 1369
252 372 1527
260 389 1689
271 407 1856
282 425 2023
294 443 2192
307 462 2361
320 480 2530
271 329 275
254 359 371
237 389 467
226 414 578
229 431 718
232 448 858
237 462 1001
243 474 1146
249 487 1290
256 499 1443
264 511 1596
272 523 1751
282 537 1911
291 551 2071
303 566 2232
315 582 2393
326 598 2554
350 418 373
311 467 449
273 516 525
247 555 627
248 576 780
248 597 934
252 611 1081
257 622 1226
261 633 1370
269 641 1518
276 648 1665
283 657 1814
292 667 1966
301 677 2118
312 690 2271
322 703 2425
333 716 2579
434 511 474
385 567 532
336 624 590
299 673 680
286 709 838
274 744 995
272 765 1150
275 780 1304
279 794 1458
285 800 1604
292 806 1750
299 812 1896
308 819 2042
317 825 2187
326 834 2333
335 844 2479
345 854 2625
526 609 580
490 652 624
454 695 668
414 746 744
366 816 886
317 885 1028
302 928 1196
304 958 1377
305 987 1558
312 995 1711
318 1003 1864
325 1009 2014
333 1012 2157
342 1015 2300
351 1019 2440
360 1024 2578
369 1029 2717
619 707 687
596 736 716
572 765 745
529 819 807
445 923 934
361 1027 1061
332 1091 1242
332 1135 1451
332 1180 1659
338 1190 1819
344 1200 1979
350 1207 2133
359 1206 2273
367 1204 2412
376 1204 2546
385 1205 2677
394 1205 2809
727 818 804
711 838 825
696 859 846
657 905 894
573 1005 999
489 1104 1103
438 1188 1275
404 1265 1482
369 1342 1689
373 1369 1876
378 1396 2062
384 1415 2236
392 1417 2382
400 1420 2529
409 1419 2663
418 1417 2791
428 1415 2919
842 935 928
832 949 943
821 964 957
792 998 993
727 1074 1072
661 1149 1150
582 1253 1303
497 1371 1493
411 1489 1683
414 1541 1906
416 1592 2129
421 1630 2331
429 1638 2489
437 1647 2647
446 1648 2785
456 1644 2912
466 1641 3040
958 1052 1051
952 1060 1060
947 1069 1069
927 1091 1092
880 1143 1145
833 1195 1197
726 1318 1330
589 1477 1503
453 1636 1677
454 1712 1936
454 1788 2196
458 1844 2426
466 1859 2595
474 1875 2765
484 1877 2907
494 1872 3033
504 1867 3160
1098 1189 1192
1094 1195 1199
1089 1201 1205
1074 1218 1223
1036 1258 1263
998 1298 1303
908 1398 1409
792 1526 1548
676 1655 1687
613 1771 1927
550 1886 2167
510 1979 2397
515 2027 2607
520 2074 2817
528 2094 2980
538 2100 3121
548 2106 3262
1238 1326 1333
1235 1329 1337
1232 1333 1341
1221 1345 1354
1192 1374 1381
1164 1402 1409
1090 1477 1488
995 1575 1592
898 1673 1697
772 1829 1917
646 1984 2138
562 2114 2368
564 2194 2618
566 2274 2868
573 2311 3054
582 2328 3209
592 2346 3364
1384 1467 1478
1382 1469 1480
1380 1471 1482
1372 1479 1490
1352 1498 1508
1331 1517 1526
1272 1572 1582
1194 1644 1658
1116 1717 1733
954 1888 1927
791 2059 2122
675 2210 2342
651 2322 2611
627 2433 2881
624 2494 3089
631 2531 3266
638 2568 3443
1542 1618 1630
1541 1620 1631
1539 1621 1632
1533 1627 1637
1517 1640 1650
1501 1654 1663
1453 1696 1706
1388 1753 1764
1323 1809 1822
1180 1948 1977
1036 2087 2133
908 2227 2319
813 2370 2568
718 2512 2817
687 2609 3044
687 2683 3259
688 2757 3475
1701 1770 1781
1700 1770 1781
1698 1771 1781
1693 1774 1784
1682 1783 1792
1671 1791 1800
1634 1821 1830
1582 1861 1871
1531 1901 1911
1406 2008 2027
1281 2115 2144
1142 2244 2297
975 2418 2525
809 2592 2753
750 2724 2999
743 2835 3253
737 2946 3507
1860 1921 1930
1859 1922 1930
1858 1922 1930
1854 1924 1931
1847 1930 1937
1839 1935 1942
1810 1957 1963
1769 1986 1993
1729 2016 2022
1621 2100 2112
1513 2184 2201
1381 2295 2326
1200 2461 2522
1019 2626 2717
922 2772 2951
866 2909 3205
810 3045 3459
2019 2074 2078
2018 2074 2078
2018 2074 2078
2016 2075 2079
2011 2079 2083
2005 2083 2086
1983 2098 2101
1953 2120 2122
1922 2141 2144
1831 2208 2213
1739 2274 2282
1623 2364 2381
1456 2501 2537
1289 2637 2694
1148 2787 2902
1021 2943 3136
893 3100 3370
2178 2226 2226
2178 2226 2226
2178 2226 2226
2177 2227 2227
2175 2228 2228
2172 2230 2230
2157 2240 2239
2136 2254 2252
2115 2267 2265
2040 2315 2314
1966 2364 2363
1865 2432 2435
1712 2541 2553
1558 2649 2671
1375 2802 2853
1176 2978 3068
977 3154 3282
339 250 212
317 287 309
295 324 406
285 351 515
300 359 647
316 366 780
327 373 923
335 381 1073
344 388 1222
350 398 1383
356 407 1545
363 418 1708
370 431 1875
377 444 2042
385 459 2209
395 474 2375
404 489 2542
365 336 298
355 391 391
345 445 483
340 485 592
348 495 733
356 505 875
361 513 1022
366 520 1171
370 527 1321
374 535 1480
378 542 1638
382 551 1798
388 562 1961
394 573 2125
401 586 2288
410 599 2451
418 613 2614
391 423 384
393 495 472
394 566 560
396 618 669
396 631 819
395 644 970
396 653 1120
396 659 1270
396 666 1420
398 671 1576
399 677 1731
402 684 1888
406 693 2048
411 702 2207
417 713 2367
424 725 2526
432 737 2686
439 514 477
452 595 560
466 675 643
469 738 748
454 763 897
438 787 1047
430 802 1202
426 812 1360
422 823 1517
422 827 1672
422 832 1827
424 837 1982
427 843 2138
431 849 2294
436 857 2448
443 867 2603
449 876 2757
531 612 584
555 686 660
579 761 736
580 829 829
533 884 959
486 940 1088
465 973 1251
458 994 1431
450 1016 1611
449 1021 1770
448 1026 1929
449 1031 2085
452 1033 2236
455 1035 2387
461 1038 2535
467 1043 2682
474 1048 2829
623 711 690
658 778 759
693 846 828
690 919 911
612 1006 1020
533 1093 1130
500 1143 1301
489 1176 1503
478 1209 1705
476 1215 1868
474 1221 2030
474 1224 2187
477 1222 2334
480 1220 2480
486 1220 2621
492 1220 2760
499 1221 2900
731 821 808
773 885 873
815 949 938
817 1019 1011
740 1102 1099
664 1185 1187
609 1255 1346
566 1317 1542
523 1380 1737
518 1400 1923
513 1421 2109
511 1434 2283
513 1434 2434
516 1434 2585
521 1433 2725
528 1430 2861
535 1428 2996
846 938 931
893 1000 994
941 1061 1057
953 1124 1120
894 1186 1186
835 1248 1251
756 1337 1389
667 1438 1564
577 1539 1739
568 1581 1958
560 1623 2176
554 1653 2376
556 1658 2536
558 1663 2696
563 1662 2838
570 1657 2971
577 1653 3104
961 1054 1054
1014 1114 1115
1066 1174 1175
1088 1228 1230
1047 1269 1272
1007 1311 1315
903 1418 1432
767 1559 1586
632 1699 1740
619 1762 1992
606 1826 2244
597 1872 2468
598 1882 2638
599 1892 2808
605 1891 2951
612 1884 3082
619 1877 3212
1100 1191 1194
1155 1250 1254
1210 1309 1314
1236 1359 1364
1204 1391 1396
1172 1423 1429
1086 1508 1521
973 1621 1643
860 1733 1766
787 1835 1994
714 1937 2223
664 2018 2444
660 2058 2652
656 2098 2859
659 2113 3023
665 2116 3166
671 2118 3308
1239 1327 1335
1296 1386 1393
1353 1444 1452
1383 1491 1498
1360 1513 1520
1337 1535 1543
1269 1599 1610
1179 1683 1701
1089 1768 1791
956 1908 1997
823 2047 2202
731 2164 2420
722 2234 2665
713 2303 2910
713 2335 3095
718 2347 3249
723 2359 3404
1385 1468 1479
1443 1526 1536
1501 1584 1594
1535 1628 1637
1519 1642 1651
1503 1656 1665
1450 1701 1712
1380 1763 1776
1309 1824 1841
1144 1979 2018
979 2134 2195
857 2271 2401
821 2371 2662
786 2471 2924
775 2524 3128
777 2554 3303
778 2584 3478
1543 1619 1630
1601 1676 1687
1659 1733 1743
1694 1775 1784
1682 1785 1794
1670 1795 1804
1628 1830 1839
1571 1877 1888
1514 1924 1937
1372 2049 2077
1230 2173 2217
1101 2300 2390
996 2430 2628
891 2561 2866
852 2648 3086
846 2713 3297
840 2779 3509
1702 1770 1782
1759 1826 1837
1817 1882 1892
1853 1922 1931
1845 1928 1937
1837 1934 1942
1805 1958 1967
1762 1991 2000
1718 2024 2033
1600 2118 2136
1482 2212 2240
1345 2329 2380
1171 2490 2593
997 2651 2807
930 2772 3043
916 2872 3291
901 2973 3540
1861 1922 1930
1918 1977 1985
1974 2031 2039
2011 2069 2077
2005 2073 2080
2000 2077 2084
1976 2094 2101
1943 2118 2124
1909 2142 2148
1810 2215 2227
1712 2289 2305
1585 2388 2417
1401 2541 2598
1218 2694 2779
1114 2829 3003
1051 2954 3249
987 3080 3494
2020 2074 2078
2076 2127 2132
2132 2180 2185
2168 2216 2222
2165 2219 2224
2161 2222 2226
2143 2235 2238
2119 2252 2255
2094 2269 2272
2012 2326 2332
1931 2383 2392
1822 2463 2480
1659 2588 2623
1496 2713 2766
1352 2852 2963
1218 2998 3187
1084 3144 3411
2179 2226 2226
2234 2277 2279
2289 2329 2331
2325 2364 2367
2324 2366 2368
2322 2367 2369
2311 2375 2376
2294 2385 2386
2278 2396 2396
2214 2437 2437
2150 2478 2479
2059 2538 2542
1917 2635 2648
1774 2733 2754
1590 2876 2924
1386 3042 3126
1181 3208 3328
486 259 247
437 323 325
389 386 402
365 430 500
390 432 638
415 434 777
431 435 926
441 435 1080
452 435 1234
456 439 1398
460 442 1562
465 447 1727
468 455 1894
472 464 2061
477 474 2226
482 487 2389
488 499 2553
459 344 321
456 423 410
452 502 499
455 556 606
467 559 748
479 562 891
485 564 1042
488 566 1197
491 567 1352
492 571 1516
492 574 1680
493 579 1845
494 587 2012
496 595 2179
500 605 2344
505 616 2508
509 628 2673
431 428 396
474 522 496
516 617 596
544 682 711
543 686 858
542 691 1005
539 694 1158
535 696 1314
530 699 1470
527 702 1634
523 706 1797
521 711 1962
521 718 2129
520 726 2296
523 736 2462
527 746 2627
531 757 2793
443 517 481
519 622 588
595 727 696
640 802 815
621 816 957
602 831 1099
588 839 1254
577 845 1416
566 851 1577
559 854 1741
553 858 1905
548 862 2069
546 868 2234
545 874 2400
546 881 2563
550 890 2726
553 899 2889
536 615 587
620 721 695
704 827 804
746 911 915
700 953 1032
654 995 1149
628 1018 1307
611 1031 1485
595 1045 1664
587 1047 1828
578 1050 1993
572 1052 2156
571 1053 2314
569 1054 2473
571 1058 2630
575 1063 2785
578 1067 2940
628 714 694
721 820 803
814 926 911
851 1020 1015
779 1089 1107
706 1159 1199
667 1196 1360
646 1217 1555
624 1239 1750
614 1240 1916
604 1241 2081
597 1241 2242
595 1238 2395
593 1235 2547
595 1235 2696
599 1235 2844
604 1236 2991
735 824 811
834 932 921
934 1039 1031
977 1133 1128
908 1200 1199
838 1267 1270
780 1321 1417
729 1370 1601
678 1418 1785
663 1431 1970
649 1445 2156
638 1453 2331
635 1451 2486
632 1449 2641
634 1446 2788
638 1444 2930
643 1441 3072
849 940 934
954 1050 1045
1060 1159 1156
1113 1249 1247
1061 1298 1300
1009 1347 1352
930 1420 1476
837 1505 1635
744 1590 1795
723 1622 2009
703 1654 2224
688 1676 2421
683 1678 2583
678 1679 2746
680 1676 2892
684 1670 3030
689 1664 3169
963 1057 1057
1075 1168 1169
1186 1279 1281
1249 1364 1367
1215 1396 1400
1181 1427 1433
1080 1519 1534
945 1640 1669
810 1762 1804
783 1813 2048
757 1864 2292
737 1899 2511
731 1904 2681
724 1909 2850
725 1905 2996
730 1897 3131
735 1888 3265
1102 1193 1197
1216 1305 1309
1330 1418 1422
1397 1500 1505
1371 1524 1530
1345 1547 1554
1264 1619 1633
1154 1716 1739
1045 1812 1845
962 1899 2062
879 1987 2279
819 2056 2491
805 2089 2696
792 2121 2901
789 2132 3066
792 2131 3210
795 2130 3354
1241 1329 1337
1357 1442 1449
1474 1556 1562
1546 1636 1643
1528 1652 1659
1510 1668 1676
1448 1720 1732
1364 1791 1809
1279 1862 1886
1140 1986 2076
1000 2110 2265
900 2213 2472
880 2273 2712
859 2333 2952
853 2358 3135
854 2365 3289
855 2373 3443
1386 1470 1480
1504 1583 1593
1622 1697 1705
1697 1776 1784
1686 1785 1793
1674 1795 1803
1629 1831 1842
1566 1881 1895
1503 1931 1948
1335 2070 2108
1167 2209 2268
1039 2332 2459
992 2420 2714
944 2508 2968
926 2553 3168
923 2577 3340
919 2601 3512
1544 1620 1631
1661 1733 1743
1779 1845 1854
1854 1923 1931
1846 1929 1937
1838 1936 1944
1803 1963 1973
1753 2001 2012
1704 2039 2052
1565 2149 2177
1425 2260 2302
1294 2373 2461
1179 2491 2687
1065 2609 2914
1018 2686 3128
1005 2743 3335
992 2800 3542
1702 1771 1782
1819 1883 1892
1936 1994 2003
2012 2069 2078
2007 2073 2081
2002 2077 2085
1977 2096 2103
1941 2121 2129
1906 2147 2155
1794 2228 2245
1683 2310 2335
1548 2414 2462
1367 2562 2661
1185 2710 2860
1110 2819 3088
1088 2909 3330
1066 3000 3572
1861 1923 1930
1976 2032 2039
2091 2140 2148
2167 2214 2222
2164 2217 2224
2161 2219 2225
2142 2232 2238
2116 2250 2256
2090 2268 2274
2000 2331 2341
1910 2393 2409
1788 2482 2509
1602 2622 2675
1417 2762 2841
1307 2885 3054
1235 3000 3292
1164 3115 3530
2021 2074 2078
2133 2180 2185
2246 2286 2292
2320 2357 2364
2318 2360 2365
2317 2362 2367
2304 2371 2375
2285 2384 2388
2266 2397 2400
2194 2445 2451
2122 2493 2502
2021 2563 2579
1862 2676 2709
1704 2789 2839
1557 2917 3024
1416 3053 3238
1274 3188 3452
2181 2226 2226
2291 2329 2331
2400 2432 2436
2473 2501 2507
2473 2503 2507
2473 2504 2508
2465 2510 2512
2453 2517 2520
2441 2525 2527
2387 2559 2561
2334 2592 2595
2254 2644 2649
2122 2730 2743
1990 2817 2837
1806 2949 2995
1596 3105 3184
1385 3261 3374
647 271 281
582 351 351
517 431 422
478 488 511
493 499 640
508 509 768
525 511 916
544 509 1075
562 506 1233
569 504 1401
575 502 1570
581 501 1738
583 503 1907
586 506 2076
589 511 2242
591 519 2405
594 527 2568
585 356 344
589 450 435
593 543 526
595 610 631
595 621 764
595 632 896
601 635 1047
609 633 1206
617 631 1366
618 630 1535
618 629 1705
618 629 1875
618 632 2046
617 635 2217
618 641 2385
619 649 2551
