Assets/1__3DArt/KimSe/artstation_asset/LUTs_subway_asset/3DL/Underground 03_S.3dl
# LUT by SparkleStock. Enhanced with VOXCOLOR algorithms.
0 256 512 768 1023
208 96 144
224 114 714
224 193 1519
207 330 2310
208 496 2930
498 427 509
384 726 949
321 1010 1888
316 1109 2601
322 1220 3122
982 994 1056
923 1132 1198
607 1877 1955
624 2215 2964
650 2269 3459
1747 1821 1765
1735 1848 1805
1582 2082 2040
1227 2769 2873
1197 3138 3654
2610 2594 2482
2625 2597 2484
2578 2640 2524
2311 2915 2811
1825 3475 3491
803 119 161
631 341 629
698 469 1408
769 535 2299
772 638 2972
730 551 439
1043 974 1070
1049 1151 1952
1026 1267 2756
997 1425 3341
1044 1068 1011
1544 1649 1554
1451 2085 2110
1371 2276 3036
1337 2336 3554
1772 1840 1754
2307 2358 2237
2342 2523 2440
2054 2946 3035
1913 3185 3719
2620 2594 2482
3021 2956 2855
3081 3029 2931
2944 3175 3086
2567 3594 3592
1722 187 148
1514 441 771
1056 953 1127
1493 1175 2069
1719 1191 2907
1598 733 354
1927 1033 1039
1773 1535 1762
1961 1693 2633
1979 1750 3314
1206 1212 908
1817 1806 1422
2212 2183 2156
2278 2332 3004
2280 2469 3580
1813 1880 1724
2423 2478 2197
2858 2886 2741
2757 3085 3144
2640 3225 3724
2612 2594 2482
3086 3029 2907
3455 3368 3280
3406 3421 3342
3153 3706 3686
2622 257 163
2547 439 886
2171 1136 1581
1947 1786 1942
2419 2087 2655
2604 755 274
2890 976 1002
2778 1497 1942
2586 2238 2491
2811 2497 3106
2297 1544 960
2839 1850 1302
3096 2064 2086
3009 2627 2874
3097 2881 3463
2039 2000 1744
2687 2555 2048
3083 2902 2504
3273 3161 3137
3319 3334 3693
2611 2594 2482
3096 3050 2856
3455 3403 3193
3681 3617 3516
3598 3791 3745
3218 304 208
3232 417 1001
3109 1051 1873
2795 2070 2360
2594 2594 2482
3237 651 231
3564 854 968
3569 1343 2039
3313 2342 2722
3090 3020 2927
3189 1539 838
3646 1674 1123
3868 1947 2057
3716 2590 2943
3466 3351 3291
2870 2351 1878
3454 2661 1949
3807 2866 2329
3899 3107 3072
3742 3622 3575
2610 2594 2482
3134 3072 2794
3533 3451 3069
3773 3680 3458
3939 3843 3779
