Assets/1__3DArt/KimSe/artstation_asset/LUTs_subway_asset/3DL/Underground 02_S.3dl
# LUT by SparkleStock. Enhanced with VOXCOLOR algorithms.
0 256 512 768 1023
128 176 208
163 243 579
203 333 1043
259 443 1582
352 576 2146
397 533 614
293 752 897
285 966 1465
370 1055 1961
479 1143 2437
780 1010 1119
727 1107 1210
402 1595 1678
504 1887 2451
641 1949 2906
1382 1631 1698
1371 1656 1726
1211 1823 1874
759 2372 2497
723 2743 3241
2178 2226 2258
2189 2240 2259
2128 2279 2286
1724 2550 2526
817 3122 3122
732 192 299
533 451 693
572 591 1164
688 644 1742
800 709 2308
650 652 532
947 1016 1103
964 1160 1691
1032 1231 2254
1131 1301 2776
856 1089 1067
1347 1580 1534
1214 1890 1941
1210 2031 2627
1297 2055 3094
1411 1653 1685
2021 2138 2098
2050 2284 2268
1627 2637 2741
1425 2867 3388
2188 2236 2255
2781 2677 2621
2855 2767 2707
2593 2912 2852
1775 3341 3333
1621 228 404
1369 508 954
868 969 1186
1202 1160 1805
1489 1155 2425
1517 796 472
1872 1083 1150
1630 1483 1760
1792 1604 2340
1919 1601 2886
1050 1234 953
1711 1785 1433
2107 2121 2127
2181 2194 2752
2272 2259 3265
1464 1695 1652
2192 2290 2079
2699 2732 2629
2504 2888 2957
2347 3001 3493
2184 2235 2251
2870 2767 2686
3320 3214 3155
3227 3268 3211
2699 3558 3534
2621 275 506
2485 501 1174
1943 1104 1626
1581 1603 1830
2028 1846 2345
2568 791 439
2919 1062 1203
2704 1491 1980
2362 2058 2342
2612 2269 2815
2086 1482 1018
2781 1856 1374
3093 2091 2151
2893 2512 2774
2982 2692 3263
1686 1794 1667
2497 2400 1967
2991 2816 2460
3178 3084 3083
3200 3206 3592
2185 2237 2254
2883 2792 2642
3328 3258 3079
3585 3558 3495
3404 3755 3727
3427 320 624
3394 520 1378
3085 1086 1953
2509 1848 2193
2178 2226 2242
3393 709 442
3757 1025 1305
3652 1457 2199
3213 2218 2613
2869 2750 2695
3095 1509 935
3708 1771 1293
3949 2087 2241
3694 2570 2950
3324 3196 3163
2535 2093 1790
3337 2563 1927
3784 2875 2382
3891 3125 3133
3653 3583 3575
2194 2242 2258
2928 2822 2593
3415 3319 2977
3697 3646 3472
3923 3907 3891
