Assets/1__3DArt/KimSe/artstation_asset/LUTs_subway_asset/3DL/Underground 02.3dl
# LUT by SparkleStock. Enhanced with VOXCOLOR algorithms.
0 64 128 192 256 320 384 448 512 576 640 704 768 832 896 960 1023
128 176 208
137 191 295
145 206 382
154 223 475
163 243 579
172 263 684
182 286 800
192 309 921
203 333 1043
216 359 1176
229 385 1308
243 413 1443
259 443 1582
276 472 1721
300 506 1862
326 541 2004
352 576 2146
190 259 304
182 292 382
175 325 460
172 356 551
180 381 666
188 406 781
198 429 900
209 452 1020
221 474 1141
235 498 1268
250 522 1396
265 547 1525
284 574 1658
302 602 1791
326 633 1927
353 667 2064
380 701 2201
252 343 400
228 394 469
204 445 539
190 488 627
197 518 752
204 548 877
214 572 999
226 594 1119
238 616 1239
254 637 1361
271 658 1483
288 681 1607
308 706 1735
329 732 1862
353 761 1992
381 793 2124
408 825 2256
319 431 502
287 490 560
255 548 619
233 602 701
230 645 831
227 689 961
234 721 1089
247 747 1217
259 774 1344
277 794 1465
295 815 1585
315 836 1707
337 859 1829
359 882 1951
385 909 2075
413 938 2200
441 967 2326
398 532 615
374 576 660
350 622 704
324 676 774
294 751 896
263 826 1019
261 879 1161
274 922 1313
287 965 1464
307 989 1590
327 1013 1717
349 1035 1840
373 1055 1958
398 1075 2076
425 1096 2193
454 1120 2310
482 1143 2427
477 632 729
461 663 759
446 695 788
416 751 846
358 857 962
299 963 1077
288 1038 1233
301 1097 1409
314 1157 1585
336 1184 1716
359 1211 1848
383 1235 1973
410 1251 2087
437 1267 2201
465 1284 2311
495 1302 2420
524 1319 2528
574 750 857
564 773 878
553 796 898
527 845 944
467 945 1040
408 1045 1136
377 1137 1286
360 1226 1462
343 1314 1638
366 1359 1793
389 1403 1948
415 1439 2091
444 1459 2209
473 1478 2328
504 1493 2437
534 1507 2541
565 1521 2645
680 877 992
674 894 1006
667 911 1020
647 948 1054
599 1024 1125
552 1100 1196
495 1207 1330
434 1330 1494
373 1454 1658
396 1523 1845
419 1592 2033
445 1647 2200
477 1673 2328
508 1698 2456
541 1714 2566
573 1724 2668
606 1735 2769
787 1004 1127
784 1015 1135
781 1026 1143
767 1051 1163
731 1103 1210
696 1155 1257
614 1277 1373
508 1435 1525
403 1593 1677
426 1687 1897
449 1781 2117
475 1855 2310
510 1887 2447
544 1918 2584
578 1934 2696
612 1941 2794
647 1949 2893
928 1153 1274
926 1162 1280
924 1171 1285
913 1190 1301
884 1230 1336
856 1271 1371
785 1369 1463
694 1497 1584
603 1624 1704
562 1750 1907
520 1876 2110
503 1980 2303
535 2041 2476
568 2102 2648
602 2133 2779
637 2148 2889
672 2164 2999
1069 1302 1422
1068 1309 1425
1067 1315 1428
1059 1329 1438
1037 1358 1462
1015 1387 1486
957 1461 1553
880 1558 1643
803 1655 1732
698 1813 1918
592 1970 2103
531 2105 2297
561 2195 2504
591 2285 2712
625 2331 2862
661 2355 2984
697 2379 3105
1222 1455 1569
1222 1460 1570
1221 1464 1571
1216 1474 1577
1200 1493 1592
1184 1512 1607
1136 1567 1654
1072 1638 1718
1009 1710 1781
865 1878 1944
721 2046 2107
625 2197 2291
625 2315 2516
626 2433 2741
649 2499 2910
683 2538 3050
717 2577 3191
1399 1615 1716
1399 1618 1716
1399 1622 1717
1395 1629 1720
1383 1643 1731
1371 1657 1741
1331 1699 1777
1277 1755 1825
1223 1811 1873
1095 1947 2003
966 2084 2133
852 2223 2288
766 2366 2494
681 2510 2700
671 2604 2885
699 2673 3059
727 2743 3234
1575 1774 1862
1576 1777 1862
1577 1780 1862
1575 1785 1864
1566 1793 1869
1557 1802 1875
1525 1832 1899
1482 1872 1933
1438 1912 1966
1325 2017 2062
1212 2122 2159
1079 2249 2285
907 2417 2472
735 2586 2659
693 2709 2860
715 2809 3069
738 2909 3278
1770 1927 1998
1772 1930 1997
1775 1933 1997
1774 1936 1998
1768 1943 2001
1761 1949 2004
1735 1970 2021
1700 2000 2045
1664 2029 2069
1565 2112 2143
1466 2195 2217
1337 2304 2320
1146 2463 2480
956 2623 2640
859 2758 2832
810 2881 3041
760 3003 3250
1974 2076 2128
1978 2080 2128
1982 2083 2128
1983 2087 2128
1978 2091 2130
1974 2095 2132
1953 2111 2144
1925 2133 2161
1896 2154 2178
1811 2220 2235
1726 2286 2293
1611 2374 2374
1435 2506 2503
1259 2639 2632
1098 2778 2803
943 2920 2994
789 3063 3186
2178 2226 2258
2184 2230 2258
2189 2233 2258
2192 2237 2258
2189 2240 2259
2186 2242 2259
2171 2252 2266
2149 2266 2276
2128 2279 2286
2057 2328 2327
1985 2377 2368
1884 2444 2428
1724 2550 2526
1563 2655 2624
1336 2798 2773
1077 2960 2948
817 3122 3122
259 178 229
239 219 312
219 260 395
211 292 487
228 308 597
245 324 706
261 341 827
275 360 952
290 378 1077
305 400 1212
320 421 1347
335 445 1484
353 471 1623
371 498 1763
393 528 1903
419 561 2044
444 593 2185
273 262 318
268 320 403
263 378 489
264 423 584
277 442 701
291 462 818
304 481 941
318 500 1066
332 519 1192
348 540 1324
364 561 1456
380 584 1590
400 609 1726
419 635 1862
443 664 1998
469 695 2135
495 727 2271
287 347 407
297 421 495
307 496 582
317 554 682
326 577 806
336 600 930
348 621 1055
361 640 1181
374 660 1307
391 680 1436
407 701 1566
426 723 1696
446 748 1829
467 772 1961
492 800 2093
519 830 2226
546 860 2358
323 436 505
346 520 591
369 605 677
383 672 777
382 707 901
380 742 1026
388 769 1156
400 794 1288
412 818 1420
429 839 1549
447 859 1677
466 881 1806
488 903 1934
511 926 2063
537 952 2190
565 979 2317
592 1006 2444
402 537 619
434 615 698
466 693 776
478 766 866
450 828 978
423 890 1090
420 936 1229
430 973 1380
440 1010 1532
459 1032 1663
478 1054 1794
498 1075 1922
522 1094 2046
546 1113 2169
573 1134 2290
602 1156 2410
630 1178 2529
480 637 733
522 710 804
563 782 874
573 860 955
519 950 1055
465 1039 1155
453 1102 1302
461 1152 1472
469 1202 1643
489 1225 1777
508 1249 1910
530 1269 2039
556 1284 2157
581 1299 2276
609 1315 2390
639 1332 2502
668 1349 2614
577 755 861
626 824 927
675 893 992
690 967 1062
635 1051 1144
580 1136 1225
548 1215 1364
528 1290 1530
508 1366 1697
526 1405 1851
544 1443 2005
564 1475 2149
591 1492 2270
617 1508 2392
646 1522 2504
676 1535 2611
707 1548 2718
683 882 996
739 948 1057
795 1015 1118
817 1080 1179
775 1144 1239
732 1207 1299
676 1300 1420
614 1409 1571
551 1517 1723
566 1578 1906
581 1638 2090
600 1686 2255
627 1707 2384
654 1729 2513
683 1742 2625
715 1751 2729
746 1759 2832
789 1008 1130
852 1072 1188
914 1137 1245
945 1194 1296
914 1236 1334
884 1278 1373
804 1386 1476
699 1527 1612
595 1668 1748
606 1751 1961
618 1833 2174
635 1897 2361
663 1923 2498
690 1949 2634
721 1961 2746
753 1966 2846
785 1971 2947
930 1157 1277
996 1220 1332
1062 1282 1387
1098 1335 1433
1074 1367 1462
1049 1400 1490
982 1486 1571
894 1599 1679
805 1712 1786
756 1825 1979
707 1938 2173
681 2031 2359
702 2085 2528
724 2138 2698
751 2164 2828
781 2176 2938
812 2187 3048
1071 1305 1424
1141 1367 1476
1211 1428 1528
1251 1476 1570
1233 1499 1589
1215 1522 1608
1161 1586 1667
1088 1671 1745
1016 1755 1824
905 1899 1998
795 2043 2172
726 2166 2356
742 2247 2559
757 2327 2762
781 2367 2910
810 2385 3030
839 2403 3150
1224 1458 1570
1297 1517 1620
1369 1577 1670
1414 1622 1707
1401 1637 1719
1388 1652 1730
1345 1697 1771
1287 1759 1825
1228 1820 1880
1083 1974 2031
938 2128 2182
836 2267 2355
821 2374 2574
805 2482 2792
816 2539 2957
840 2571 3094
863 2604 3232
1400 1617 1716
1475 1675 1764
1549 1733 1812
1596 1775 1846
1586 1786 1854
1576 1797 1862
1541 1832 1892
1493 1879 1934
1445 1926 1975
1318 2050 2094
1191 2174 2213
1074 2301 2359
978 2434 2557
882 2566 2755
858 2652 2935
871 2713 3105
883 2774 3275
1577 1776 1862
1653 1833 1908
1729 1889 1954
1777 1929 1985
1771 1935 1989
1764 1942 1994
1737 1966 2014
1699 1999 2042
1661 2032 2070
1552 2126 2157
1444 2219 2245
1313 2335 2362
1136 2493 2540
959 2651 2718
901 2764 2913
902 2854 3116
903 2944 3318
1773 1929 1998
1848 1984 2041
1924 2039 2085
1973 2077 2115
1969 2082 2117
1964 2086 2120
1943 2104 2134
1913 2128 2153
1882 2152 2173
1790 2225 2240
1697 2298 2306
1571 2396 2401
1380 2545 2552
1189 2694 2703
1081 2819 2889
1013 2932 3091
946 3045 3294
1978 2079 2127
2052 2133 2170
2127 2187 2212
2176 2224 2240
2173 2227 2242
2170 2230 2243
2153 2243 2253
2130 2260 2267
2106 2278 2281
2028 2335 2332
1950 2392 2383
1840 2471 2458
1668 2593 2579
1496 2715 2700
1329 2844 2864
1165 2978 3049
1000 3111 3235
2182 2229 2257
2256 2282 2298
2330 2335 2339
2379 2371 2366
2377 2373 2366
2376 2375 2366
2364 2383 2372
2347 2393 2380
2330 2404 2388
2266 2445 2424
2203 2486 2460
2109 2546 2514
1956 2641 2605
1803 2736 2696
1577 2870 2839
1316 3023 3007
1054 3177 3176
390 181 250
341 247 329
293 313 408
269 362 499
294 373 614
319 385 729
340 397 853
358 410 982
377 423 1111
394 440 1249
411 457 1386
428 477 1524
447 500 1664
465 523 1804
487 551 1944
512 581 2084
537 610 2223
356 266 332
354 348 425
351 431 517
356 490 618
375 504 737
393 518 856
410 533 982
427 548 1113
443 564 1243
460 582 1380
478 601 1517
496 621 1654
515 644 1793
535 668 1932
559 695 2069
584 724 2206
610 753 2342
323 351 414
366 449 520
410 548 626
443 619 737
455 635 860
468 652 983
481 669 1111
495 687 1243
510 704 1374
527 724 1511
544 744 1648
563 765 1785
584 789 1922
605 813 2060
630 839 2195
657 867 2328
683 896 2461
327 441 508
404 551 622
482 661 736
534 743 852
534 769 971
533 795 1091
541 818 1222
552 840 1359
564 862 1496
581 883 1633
599 903 1769
618 925 1905
640 947 2040
663 970 2175
689 994 2305
716 1020 2434
744 1046 2563
405 542 623
493 654 735
582 765 848
632 856 958
607 905 1060
582 955 1162
579 992 1297
587 1023 1448
594 1054 1599
611 1074 1735
628 1095 1871
648 1114 2005
671 1132 2134
694 1151 2263
721 1171 2387
749 1192 2509
778 1213 2631
484 643 738
582 756 849
681 869 961
730 969 1063
680 1042 1148
630 1116 1233
617 1167 1371
621 1206 1536
625 1246 1701
641 1266 1837
658 1286 1973
677 1304 2105
701 1318 2228
725 1332 2351
753 1347 2469
783 1363 2584
812 1379 2700
580 760 865
689 875 975
797 990 1086
853 1089 1181
803 1158 1248
753 1227 1314
720 1292 1441
697 1355 1599
673 1418 1756
685 1451 1910
698 1484 2063
714 1510 2207
738 1525 2331
761 1539 2456
789 1552 2571
819 1563 2682
848 1575 2792
686 886 1000
804 1002 1108
922 1118 1217
988 1213 1305
950 1263 1353
912 1314 1401
857 1393 1510
793 1487 1649
730 1581 1788
736 1633 1967
743 1684 2147
755 1725 2310
777 1742 2440
799 1760 2570
826 1770 2684
856 1777 2790
885 1784 2896
792 1012 1134
919 1130 1241
1046 1247 1347
1123 1336 1429
1097 1368 1459
1071 1401 1489
994 1495 1579
890 1619 1699
786 1743 1819
787 1814 2025
788 1885 2231
795 1939 2413
816 1960 2548
837 1981 2684
863 1989 2797
893 1991 2899
922 1993 3000
932 1160 1280
1066 1277 1384
1200 1394 1488
1283 1480 1565
1263 1504 1587
1243 1529 1609
1179 1603 1679
1093 1701 1773
1007 1799 1867
950 1900 2052
893 2001 2236
858 2083 2414
869 2129 2581
880 2175 2748
900 2195 2877
926 2203 2987
951 2210 3097
1073 1308 1426
1214 1425 1527
1354 1541 1629
1443 1624 1701
1429 1640 1715
1415 1657 1730
1365 1711 1780
1296 1783 1848
1228 1855 1915
1113 1986 2078
998 2116 2241
922 2227 2415
922 2298 2614
923 2370 2812
938 2402 2957
959 2415 3076
980 2428 3194
1226 1460 1572
1372 1575 1670
1517 1690 1768
1612 1770 1837
1602 1780 1845
1593 1791 1853
1554 1828 1887
1501 1879 1933
1448 1930 1980
1301 2070 2118
1155 2211 2257
1047 2336 2420
1016 2433 2632
985 2530 2844
983 2580 3004
996 2605 3139
1009 2630 3273
1402 1619 1717
1551 1732 1812
1699 1844 1907
1796 1921 1972
1789 1929 1977
1782 1936 1983
1751 1964 2008
1708 2002 2042
1666 2041 2077
1541 2152 2185
1416 2264 2294
1297 2379 2429
1190 2501 2620
1084 2623 2811
1046 2699 2985
1042 2752 3150
1039 2805 3316
1579 1778 1862
1730 1888 1954
1881 1998 2045
1980 2073 2107
1976 2077 2110
1971 2081 2112
1948 2100 2128
1916 2126 2151
1884 2152 2174
1780 2234 2252
1676 2316 2330
1547 2421 2439
1365 2568 2608
1183 2716 2778
1109 2819 2965
1089 2900 3162
1069 2980 3359
1775 1932 1997
1924 2039 2085
2074 2146 2173
2173 2218 2232
2170 2221 2234
2167 2224 2235
2150 2237 2246
2125 2256 2262
2100 2274 2277
2014 2337 2336
1927 2400 2395
1806 2488 2482
1614 2626 2624
1422 2764 2767
1302 2880 2945
1217 2983 3141
1132 3087 3338
1981 2082 2127
2127 2187 2212
2272 2291 2296
2369 2361 2353
2368 2363 2353
2367 2366 2354
2354 2375 2362
2335 2388 2373
2316 2401 2384
2245 2450 2429
2173 2498 2474
2070 2567 2541
1901 2679 2654
1733 2790 2767
1560 2911 2925
1386 3035 3104
1212 3160 3283
2187 2233 2257
2329 2334 2338
2471 2436 2419
2566 2504 2473
2566 2506 2473
2566 2507 2473
2558 2513 2478
2545 2521 2484
2532 2529 2491
2476 2563 2522
2420 2596 2552
2334 2647 2601
2188 2732 2684
2043 2816 2768
1819 2941 2904
1555 3087 3067
1292 3232 3229
539 185 273
471 268 355
403 351 437
362 413 528
376 433 637
390 453 746
412 467 871
439 479 1005
466 490 1138
488 504 1279
510 517 1420
532 532 1562
553 551 1704
575 569 1846
598 593 1986
623 618 2125
648 644 2264
475 273 347
475 370 449
476 467 551
478 540 657
484 563 770
491 585 883
508 602 1011
531 615 1146
554 629 1282
576 644 1424
597 659 1565
618 676 1707
640 696 1849
662 716 1991
686 739 2129
712 764 2266
