Assets/1__3DArt/KimSe/artstation_asset/LUTs_subway_asset/3DL/Underground 03.3dl
# LUT by SparkleStock. Enhanced with VOXCOLOR algorithms.
0 64 128 192 256 320 384 448 512 576 640 704 768 832 896 960 1023
208 96 144
213 97 267
218 98 391
222 102 533
224 114 714
227 127 896
227 146 1097
225 170 1308
224 193 1519
220 225 1726
215 257 1933
211 292 2131
207 330 2310
202 369 2489
203 411 2644
205 453 2787
208 496 2930
271 167 224
261 198 335
251 229 445
244 257 585
243 279 784
243 301 984
241 323 1189
239 345 1398
237 367 1607
233 395 1806
229 423 2005
225 454 2195
222 490 2367
219 525 2539
219 565 2688
222 606 2825
224 648 2962
335 237 304
310 299 402
284 361 499
266 412 636
262 443 854
258 475 1072
255 499 1282
252 520 1489
249 541 1695
246 565 1886
243 589 2077
240 616 2259
238 649 2424
235 682 2589
236 719 2731
238 760 2863
241 800 2995
408 320 396
375 396 478
343 472 560
316 541 689
302 596 913
288 651 1137
281 689 1355
278 717 1571
274 746 1788
272 768 1975
270 791 2162
267 815 2339
266 844 2497
264 873 2654
265 907 2790
268 944 2916
270 981 3041
499 426 510
475 484 572
451 542 634
422 617 744
385 726 950
347 834 1155
332 906 1390
327 959 1639
323 1012 1889
321 1037 2080
320 1063 2271
319 1088 2449
318 1111 2600
318 1134 2751
319 1162 2880
322 1192 2998
324 1222 3115
590 533 624
575 573 666
559 613 708
529 693 799
467 855 986
406 1017 1173
382 1123 1424
377 1201 1707
372 1278 1989
371 1307 2185
370 1335 2380
370 1360 2559
371 1378 2704
372 1396 2848
374 1417 2970
376 1440 3080
379 1463 3190
713 673 763
703 702 792
692 730 822
665 801 894
604 956 1049
543 1111 1204
503 1245 1443
473 1370 1725
444 1494 2006
444 1545 2228
445 1596 2450
447 1636 2647
449 1655 2795
451 1674 2942
455 1692 3062
458 1709 3168
462 1726 3274
852 831 914
845 851 935
838 871 955
816 924 1008
767 1042 1124
718 1159 1241
658 1320 1455
592 1502 1717
527 1684 1980
529 1767 2240
532 1850 2499
535 1913 2724
540 1937 2880
544 1961 3035
549 1976 3156
554 1988 3259
558 2000 3362
991 988 1065
987 1000 1077
983 1012 1088
968 1047 1122
930 1128 1200
893 1208 1278
813 1395 1467
711 1635 1710
610 1875 1954
614 1990 2251
619 2104 2549
624 2190 2801
631 2219 2964
637 2248 3128
643 2261 3249
649 2268 3350
655 2274 3451
1176 1188 1242
1173 1197 1251
1170 1205 1259
1158 1232 1284
1127 1294 1344
1097 1356 1403
1028 1504 1552
941 1696 1745
853 1887 1938
810 2050 2221
766 2214 2503
740 2343 2758
750 2404 2958
760 2465 3157
769 2494 3297
777 2506 3408
785 2518 3519
1361 1389 1420
1359 1393 1425
1358 1398 1429
1349 1416 1446
1325 1460 1487
1301 1503 1528
1244 1613 1637
1170 1756 1779
1097 1899 1922
1005 2111 2190
913 2323 2458
857 2495 2715
870 2589 2951
883 2683 3186
894 2726 3345
904 2744 3466
914 2762 3587
1555 1594 1600
1555 1596 1602
1554 1598 1604
1548 1609 1615
1530 1638 1641
1513 1666 1667
1466 1744 1742
1405 1846 1843
1344 1948 1943
1225 2176 2184
1106 2404 2425
1025 2599 2671
1022 2726 2927
1019 2853 3184
1026 2916 3361
1038 2947 3499
1051 2979 3637
1769 1810 1786
1769 1811 1787
1770 1811 1788
1765 1819 1795
1752 1839 1813
1738 1859 1832
1700 1917 1888
1650 1995 1964
1600 2073 2040
1494 2252 2228
1389 2432 2416
1299 2605 2624
1240 2765 2871
1180 2926 3118
1170 3019 3313
1186 3080 3482
1201 3140 3651
1983 2026 1971
1984 2025 1971
1985 2025 1972
1983 2028 1976
1973 2040 1986
1964 2052 1997
1934 2091 2035
1894 2144 2086
1855 2197 2137
1764 2328 2272
1672 2459 2408
1573 2611 2578
1457 2805 2815
1342 2998 3052
1315 3123 3265
1333 3212 3465
1350 3302 3665
2193 2222 2145
2196 2221 2145
2199 2220 2145
2198 2222 2147
2191 2229 2154
2185 2237 2161
2162 2264 2187
2131 2302 2222
2099 2339 2258
2022 2438 2359
1945 2537 2460
1851 2662 2595
1725 2842 2800
1599 3022 3004
1545 3158 3210
1525 3272 3418
1506 3386 3625
2401 2408 2314
2406 2408 2314
2411 2407 2314
2413 2408 2315
2408 2413 2319
2404 2418 2324
2386 2437 2341
2363 2463 2366
2339 2490 2391
2275 2564 2466
2211 2639 2542
2131 2736 2645
2018 2878 2805
1905 3021 2965
1817 3159 3153
1741 3295 3356
1666 3430 3558
2610 2594 2482
2617 2594 2482
2624 2594 2482
2627 2595 2483
2625 2597 2484
2623 2599 2486
2611 2610 2496
2594 2625 2510
2578 2640 2524
2528 2690 2574
2478 2741 2624
2412 2809 2695
2311 2915 2811
2210 3020 2927
2089 3160 3096
1957 3318 3294
1825 3475 3491
332 98 152
313 125 257
294 151 362
286 172 494
301 180 680
316 188 866
324 202 1073
330 219 1291
335 236 1510
333 263 1722
331 290 1935
328 319 2137
323 354 2319
318 389 2501
316 429 2657
316 470 2800
316 511 2943
351 170 231
349 226 337
347 282 443
349 324 580
355 339 780
362 353 980
365 370 1190
366 388 1406
368 405 1622
364 432 1827
361 458 2032
357 487 2228
352 523 2403
347 558 2579
345 599 2729
345 641 2868
345 684 3006
370 241 311
385 327 418
401 413 525
411 477 667
410 498 880
408 518 1093
406 538 1307
403 556 1520
400 575 1734
395 601 1932
390 626 2130
385 656 2319
380 691 2488
375 727 2656
374 769 2802
374 813 2935
375 857 3069
413 324 402
443 428 506
474 531 611
490 614 751
476 654 965
462 695 1179
453 725 1398
446 751 1618
439 776 1839
433 802 2033
427 827 2228
422 855 2411
417 889 2573
413 923 2735
411 963 2874
412 1005 3003
412 1048 3131
504 430 516
545 528 611
586 625 706
602 719 832
566 806 1020
530 894 1208
512 953 1436
502 997 1684
493 1041 1932
487 1067 2128
480 1093 2323
475 1119 2506
471 1146 2661
467 1173 2816
466 1205 2949
467 1241 3070
467 1276 3191
595 537 629
647 627 716
699 718 802
714 823 913
656 958 1076
599 1093 1238
571 1180 1475
559 1243 1750
546 1306 2024
540 1332 2222
533 1358 2419
528 1382 2600
525 1402 2749
522 1422 2897
521 1448 3023
521 1476 3137
522 1504 3251
718 677 767
776 763 848
835 849 928
855 950 1025
799 1079 1156
742 1208 1287
700 1321 1509
665 1426 1776
631 1531 2043
624 1575 2264
616 1620 2485
611 1656 2682
608 1675 2832
605 1695 2982
605 1715 3105
606 1736 3215
607 1757 3324
856 834 918
919 917 994
983 1000 1070
1011 1087 1153
967 1184 1250
923 1281 1347
864 1419 1541
797 1577 1782
730 1735 2024
722 1807 2279
714 1879 2534
708 1935 2757
706 1957 2913
704 1979 3069
704 1995 3192
705 2009 3298
706 2024 3404
994 991 1068
1063 1071 1140
1132 1150 1211
1167 1225 1280
1136 1289 1343
1104 1354 1407
1027 1516 1572
929 1727 1789
830 1938 2005
821 2039 2295
812 2139 2584
806 2214 2832
804 2238 2994
802 2263 3156
803 2276 3279
804 2283 3381
806 2290 3484
1178 1191 1245
1248 1267 1313
1318 1342 1382
1356 1409 1443
1331 1459 1491
1306 1508 1539
1242 1635 1668
1159 1802 1838
1075 1969 2008
1024 2114 2278
973 2260 2547
938 2375 2792
937 2430 2989
936 2484 3186
938 2510 3325
940 2521 3437
942 2532 3548
1363 1391 1422
1433 1463 1487
1504 1535 1552
1545 1594 1607
1527 1628 1639
1508 1661 1671
1456 1754 1764
1389 1877 1888
1321 2000 2011
1227 2190 2260
1133 2381 2510
1071 2536 2753
1070 2621 2984
1070 2706 3215
1072 2744 3372
1076 2759 3492
1079 2774 3612
1557 1596 1601
1627 1663 1663
1698 1731 1726
1741 1783 1774
1727 1804 1793
1714 1826 1813
1673 1890 1876
1620 1976 1962
1566 2062 2047
1449 2268 2266
1332 2474 2486
1249 2649 2715
1233 2765 2964
1217 2880 3214
1214 2936 3388
1218 2963 3523
1222 2989 3659
1771 1811 1786
1838 1873 1845
1906 1936 1904
1948 1982 1947
1938 1997 1961
1928 2012 1975
1896 2060 2022
1852 2124 2085
1809 2189 2149
1709 2349 2318
1609 2510 2488
1520 2666 2680
1454 2813 2916
1388 2960 3152
1370 3046 3341
1374 3099 3507
1379 3153 3672
1985 2027 1971
2049 2084 2026
2114 2141 2082
2155 2181 2121
2149 2190 2129
2142 2198 2136
2118 2229 2167
2085 2272 2209
2052 2315 2250
1968 2430 2370
1885 2546 2491
1791 2682 2645
1675 2861 2867
1560 3041 3090
1525 3155 3294
1531 3236 3490
1536 3317 3686
2196 2222 2145
2256 2274 2197
2317 2326 2248
2356 2362 2284
2351 2367 2288
2347 2372 2293
2328 2394 2313
2303 2424 2342
2278 2453 2371
2209 2539 2459
2140 2625 2547
2054 2737 2669
1932 2903 2859
1811 3069 3048
1752 3195 3245
1724 3300 3446
1697 3405 3647
2405 2408 2314
2460 2455 2361
2516 2502 2408
2552 2534 2441
2549 2537 2444
2547 2541 2447
2533 2556 2461
2515 2576 2480
2496 2597 2500
2440 2661 2566
2385 2725 2631
2313 2811 2723
2207 2942 2870
2101 3072 3017
2014 3201 3195
1937 3328 3388
1859 3455 3582
2614 2594 2482
2665 2636 2525
2715 2677 2569
2748 2706 2598
2748 2707 2599
2747 2709 2601
2738 2717 2608
2726 2729 2619
2714 2741 2630
2672 2783 2672
2630 2826 2715
2572 2886 2777
2482 2981 2881
2392 3076 2985
2277 3207 3144
2149 3356 3330
2022 3505 3516
456 101 160
413 153 247
370 205 333
350 241 455
377 245 645
404 249 836
422 257 1050
434 268 1275
447 278 1500
447 300 1718
447 322 1936
446 347 2143
440 378 2328
434 410 2513
430 447 2670
427 486 2813
423 525 2956
430 173 239
437 254 340
444 335 442
453 392 576
467 399 776
481 406 976
489 417 1191
494 430 1413
499 444 1636
495 468 1848
492 493 2060
488 521 2261
481 556 2440
475 591 2618
471 632 2771
468 676 2910
466 719 3050
404 245 317
461 355 434
518 465 550
556 542 697
557 552 906
558 562 1115
557 576 1332
554 593 1552
550 609 1772
543 636 1978
537 664 2184
530 695 2378
523 734 2551
516 773 2724
512 818 2872
510 866 3008
508 913 3143
418 328 408
512 460 535
606 591 661
664 687 814
650 713 1018
636 738 1222
624 762 1440
614 785 1665
604 807 1891
595 836 2092
585 864 2294
576 896 2483
569 935 2650
561 973 2816
558 1018 2959
556 1066 3090
555 1114 3221
509 435 521
615 571 650
722 707 778
781 820 921
748 887 1091
714 953 1262
692 999 1483
678 1035 1729
663 1071 1975
652 1097 2176
641 1122 2376
631 1150 2563
624 1181 2722
617 1211 2881
613 1249 3017
611 1289 3142
610 1330 3266
600 541 635
719 682 765
838 823 895
899 953 1027
845 1061 1165
792 1168 1302
761 1237 1526
741 1286 1793
721 1335 2059
709 1358 2259
696 1381 2458
686 1404 2642
679 1427 2794
672 1449 2946
668 1479 3076
667 1512 3194
665 1545 3312
722 681 772
850 825 903
977 969 1034
1045 1099 1157
994 1202 1264
942 1305 1371
898 1396 1575
858 1482 1827
818 1567 2080
803 1605 2300
788 1644 2519
775 1676 2717
767 1696 2870
760 1716 3022
756 1739 3149
754 1764 3261
752 1789 3374
859 837 922
994 983 1053
1129 1129 1184
1206 1251 1297
1167 1327 1375
1129 1403 1453
1070 1517 1627
1002 1651 1847
934 1785 2068
915 1846 2319
897 1908 2570
881 1956 2789
873 1977 2946
864 1997 3104
859 2015 3229
857 2031 3337
855 2047 3446
996 994 1071
1138 1141 1202
1280 1289 1334
1367 1403 1438
1341 1451 1487
1315 1500 1536
1242 1638 1678
1146 1820 1868
1050 2002 2057
1028 2087 2338
1006 2173 2620
988 2237 2862
978 2257 3023
968 2278 3185
963 2290 3309
960 2298 3413
957 2305 3517
1180 1193 1247
1323 1337 1376
1466 1480 1505
1554 1587 1602
1535 1623 1639
1515 1660 1675
1456 1766 1785
1376 1909 1932
1297 2051 2079
1238 2178 2335
1179 2306 2591
1136 2407 2826
1124 2455 3020
1113 2503 3215
1106 2526 3354
1103 2535 3465
1100 2545 3577
1364 1393 1423
1508 1532 1549
1651 1671 1675
1742 1771 1767
1728 1795 1790
1714 1819 1814
1669 1895 1891
1607 1998 1996
1545 2100 2100
1449 2270 2331
1353 2439 2561
1285 2578 2791
1271 2653 3017
1257 2728 3244
1250 2761 3399
1247 2773 3518
1243 2785 3636
1558 1597 1602
1700 1731 1725
1842 1864 1847
1933 1957 1933
1924 1971 1946
1915 1985 1959
1881 2036 2010
1834 2106 2080
1787 2176 2151
1673 2359 2348
1559 2543 2546
1473 2700 2759
1444 2804 3002
1414 2908 3244
1402 2957 3414
1398 2978 3547
1393 3000 3681
1772 1812 1787
1907 1936 1903
2043 2060 2019
2131 2146 2099
2124 2155 2108
2118 2165 2117
2091 2202 2155
2055 2253 2206
2018 2304 2257
1923 2446 2408
1828 2587 2560
1741 2726 2736
1669 2861 2961
1596 2995 3186
1569 3072 3369
1563 3119 3532
1557 3166 3694
1986 2027 1972
2115 2142 2082
2244 2257 2192
2328 2335 2266
2324 2339 2271
2320 2344 2276
2302 2367 2299
2275 2400 2331
2249 2433 2364
2173 2532 2468
2097 2632 2573
2009 2753 2712
1893 2918 2920
1778 3083 3128
1735 3187 3324
1729 3260 3516
1722 3333 3707
2198 2223 2145
2316 2327 2248
2435 2432 2351
2513 2502 2420
2511 2505 2422
2509 2507 2425
2495 2523 2440
2476 2545 2462
2456 2567 2483
2396 2640 2559
2336 2713 2635
2257 2812 2743
2139 2964 2918
2022 3117 3092
1959 3232 3280
1923 3328 3474
1887 3425 3669
2409 2408 2314
2515 2502 2408
2621 2596 2503
2691 2659 2567
2690 2661 2568
2690 2663 2570
2680 2674 2580
2667 2689 2595
2653 2705 2609
2606 2758 2665
2559 2812 2720
2495 2887 2801
2396 3006 2935
2298 3124 3068
2212 3243 3236
2132 3361 3421
2052 3480 3605
2619 2594 2482
2713 2677 2569
2807 2761 2655
2870 2816 2713
2870 2817 2714
2871 2819 2715
2866 2825 2720
2858 2833 2728
2849 2842 2736
2816 2877 2770
2782 2911 2805
2733 2963 2859
2653 3047 2952
2573 3131 3044
2464 3253 3191
2341 3394 3367
2218 3535 3542
604 107 164
545 175 245
486 244 327
453 294 440
471 308 618
488 321 796
511 332 1009
537 341 1239
562 350 1470
570 366 1695
578 383 1920
583 403 2134
580 430 2325
577 456 2515
573 489 2676
569 525 2821
564 561 2967
548 182 241
563 277 344
577 373 447
588 442 578
592 459 765
596 475 952
607 488 1167
621 500 1396
636 511 1624
638 532 1844
639 553 2063
639 577 2271
633 610 2455
628 642 2640
624 680 2796
619 722 2938
