Assets/1__3DArt/KimSe/artstation_asset/LUTs_subway_asset/3DL/Underground 05_S.3dl
# LUT by SparkleStock. Enhanced with VOXCOLOR algorithms.
0 256 512 768 1023
80 16 48
103 61 544
161 198 1359
226 480 2246
272 865 2898
323 286 349
224 570 800
234 948 1809
314 1193 2582
383 1463 3107
821 801 846
752 942 1007
422 1739 1932
627 2250 3015
785 2420 3470
1690 1660 1605
1672 1692 1654
1475 1962 1952
1140 2763 2935
1351 3207 3673
2658 2562 2482
2674 2565 2485
2617 2613 2531
2286 2921 2849
1761 3507 3539
635 71 88
470 239 475
567 421 1245
732 654 2209
820 972 2896
574 430 301
929 879 964
947 1118 1879
988 1380 2711
1061 1715 3270
894 888 809
1456 1533 1436
1305 2004 2088
1308 2316 3057
1384 2493 3528
1719 1684 1594
2282 2279 2176
2297 2463 2409
1964 2944 3069
1944 3239 3708
2671 2562 2482
3027 2959 2898
3076 3032 2977
2915 3179 3128
2484 3594 3605
1709 203 102
1457 394 619
908 769 922
1426 1140 1935
1740 1397 2823
1543 670 260
1904 1006 968
1716 1453 1682
1915 1722 2580
1998 1956 3230
1086 1052 736
1767 1738 1355
2182 2149 2133
2211 2358 2998
2266 2596 3533
1768 1731 1572
2408 2421 2162
2829 2862 2746
2690 3078 3159
2588 3252 3695
2667 2562 2482
3088 3030 2953
3394 3359 3315
3342 3408 3369
3057 3672 3664
2779 348 132
2656 510 758
2184 1078 1417
1921 1661 1798
2450 2116 2624
2704 783 204
2947 1033 956
2791 1507 1897
2574 2204 2461
2802 2561 3098
2312 1472 808
2857 1852 1250
3097 2079 2083
2980 2625 2884
3048 2931 3446
2022 1873 1607
2686 2518 2023
3066 2894 2518
3219 3149 3146
3237 3334 3668
2663 2562 2482
3098 3049 2902
3402 3396 3229
3584 3585 3521
3479 3741 3718
3362 432 192
3347 583 912
3172 1155 1802
2849 2072 2336
2658 2562 2482
3370 759 171
3612 1001 939
3564 1470 2034
3300 2384 2748
3090 3017 2974
3246 1587 697
3661 1761 1075
3840 2026 2073
3663 2624 2971
3407 3341 3330
2905 2338 1788
3452 2691 1935
3771 2893 2344
3822 3109 3092
3638 3589 3580
2658 2562 2482
3139 3073 2843
3485 3447 3106
3671 3650 3462
3795 3795 3763
