Assets/1__3DArt/KimSe/artstation_asset/LUTs_subway_asset/3DL/Underground 05_S.3dl
# LUT by SparkleStock. Enhanced with VOXCOLOR algorithms.
0 128 256 384 512 640 768 896 1023
80 16 48
86 30 251
103 61 544
128 116 916
161 198 1359
195 325 1824
226 480 2246
252 661 2609
272 865 2898
177 126 178
131 231 356
127 330 702
148 422 1135
177 512 1571
211 625 1994
242 763 2376
269 922 2706
292 1100 2971
323 286 349
279 384 468
224 570 800
197 779 1271
234 948 1809
275 1070 2227
314 1193 2582
351 1323 2875
383 1463 3107
534 507 568
512 558 627
423 776 885
336 1082 1334
319 1395 1965
383 1575 2448
443 1709 2812
498 1816 3082
546 1916 3281
821 801 846
813 824 872
752 942 1007
625 1224 1332
422 1739 1932
530 2058 2580
627 2250 3015
712 2355 3292
785 2420 3470
1227 1208 1206
1227 1216 1222
1187 1282 1297
1090 1451 1487
920 1768 1846
760 2263 2492
816 2598 3021
963 2792 3402
1078 2866 3606
1690 1660 1605
1694 1661 1615
1672 1692 1654
1604 1782 1754
1475 1962 1952
1244 2373 2422
1140 2763 2935
1173 3065 3387
1351 3207 3673
2177 2123 2033
2186 2121 2040
2177 2132 2056
2137 2174 2103
2052 2263 2197
1861 2492 2448
1623 2840 2848
1483 3190 3288
1586 3427 3655
2658 2562 2482
2672 2562 2482
2674 2565 2485
2658 2579 2499
2617 2613 2531
2490 2727 2645
2286 2921 2849
2033 3185 3147
1761 3507 3539
282 32 74
220 102 220
238 153 500
294 204 887
347 274 1351
393 387 1829
430 527 2255
460 694 2617
483 885 2900
271 176 169
368 347 405
412 441 757
431 508 1185
454 596 1648
482 724 2094
511 878 2488
544 1056 2821
579 1254 3085
373 342 329
557 574 596
579 750 934
543 892 1358
551 1026 1888
572 1152 2321
600 1291 2687
636 1444 2987
679 1613 3223
570 552 551
803 823 823
811 1047 1093
724 1255 1461
671 1482 2028
696 1635 2503
730 1763 2869
773 1881 3146
823 2002 3354
844 831 834
1121 1134 1116
1176 1300 1299
1066 1496 1546
849 1884 2025
889 2135 2634
936 2292 3054
990 2388 3331
1048 2459 3514
1244 1225 1199
1534 1527 1485
1610 1662 1627
1539 1770 1763
1391 1995 2033
1194 2391 2581
1187 2664 3065
1270 2825 3435
1347 2888 3638
1703 1669 1601
1977 1948 1878
2058 2055 1992
2016 2108 2058
1923 2225 2193
1699 2543 2565
1560 2860 3008
1533 3110 3419
1641 3228 3698
2188 2126 2032
2420 2366 2280
2495 2450 2371
2474 2471 2399
2423 2522 2455
2272 2686 2636
2046 2964 2958
1880 3254 3335
1912 3456 3681
2668 2562 2482
2836 2749 2677
2894 2812 2744
2889 2818 2752
2869 2836 2770
2786 2911 2844
2630 3055 2995
2413 3268 3234
2144 3552 3574
635 71 88
549 153 260
470 239 475
457 329 786
567 421 1245
659 527 1753
732 654 2209
785 802 2596
820 972 2896
590 251 158
745 419 437
753 543 754
727 641 1135
784 732 1606
828 852 2077
866 996 2491
902 1161 2838
937 1348 3109
574 430 301
844 689 622
929 879 964
931 1016 1369
947 1118 1879
965 1240 2329
988 1380 2711
1019 1539 3025
1061 1715 3270
653 633 518
974 974 850
1123 1218 1170
1151 1400 1546
1105 1551 2046
1108 1686 2518
1125 1817 2892
1157 1950 3182
1206 2090 3401
894 888 809
1262 1284 1158
1456 1533 1436
1473 1738 1721
1305 2004 2088
1297 2189 2652
1308 2316 3057
1337 2410 3336
1384 2493 3528
1273 1258 1184
1655 1660 1543
1866 1901 1797
1917 2057 1998
1819 2201 2195
1629 2500 2650
1582 2712 3088
1612 2844 3442
1657 2902 3645
1719 1684 1594
2079 2059 1947
2282 2279 2176
2349 2397 2318
2297 2463 2409
2110 2697 2694
1964 2944 3069
1896 3145 3439
1944 3239 3708
2196 2131 2030
2502 2453 2353
2679 2640 2551
2745 2729 2652
2722 2754 2685
2616 2863 2810
2420 3078 3062
2250 3313 3379
2225 3478 3699
2671 2562 2482
2894 2813 2743
3027 2959 2898
3083 3025 2968
3076 3032 2977
3027 3076 3021
2915 3179 3128
2735 3349 3317
2484 3594 3605
1117 129 96
1039 198 323
858 320 503
720 464 726
771 600 1086
940 730 1610
1080 858 2104
1185 992 2536
1250 1139 2874
1078 335 142
1237 471 455
1190 624 755
1095 776 1085
1107 909 1490
1201 1034 1976
1274 1165 2416
1329 1305 2790
1368 1461 3083
955 542 275
1228 768 600
1347 963 955
1370 1125 1352
1357 1252 1804
1403 1374 2268
1439 1508 2671
1472 1654 3006
1507 1813 3265
877 751 487
1201 1070 799
1454 1317 1165
1589 1504 1574
1561 1642 2017
1572 1765 2489
1588 1896 2876
1613 2033 3183
1653 2177 3416
974 964 775
1343 1359 1096
1638 1668 1446
1798 1908 1798
1759 2094 2123
1738 2225 2642
1735 2335 3034
1751 2435 3323
1791 2534 3529
1318 1303 1163
1696 1708 1494
2001 2031 1829
2184 2260 2122
2192 2380 2328
2050 2590 2698
1991 2749 3093
1986 2856 3432
2008 2915 3637
1739 1705 1584
2096 2084 1915
2386 2391 2227
2567 2599 2469
2599 2676 2595
2471 2835 2807
2343 3017 3120
2258 3171 3448
2260 3246 3705
2202 2136 2028
2508 2461 2339
2759 2729 2613
2920 2907 2809
2958 2959 2885
2897 3025 2967
2745 3184 3158
2591 3365 3419
2525 3496 3711
2669 2562 2482
2898 2814 2743
3087 3025 2962
3212 3166 3110
3249 3204 3157
3224 3227 3181
3149 3296 3253
3008 3427 3396
2787 3634 3635
1709 203 102
1653 254 362
1457 394 619
1186 581 823
908 769 922
1185 980 1415
1426 1140 1935
1616 1272 2424
1740 1397 2823
1681 413 121
1818 524 461
1764 673 820
1588 868 1137
1365 1118 1349
1554 1294 1825
1703 1435 2290
1810 1556 2707
1875 1673 3041
1543 670 260
1799 848 585
1904 1006 968
1871 1192 1354
1716 1453 1682
1834 1596 2153
1915 1722 2580
1967 1839 2946
1998 1956 3230
1333 905 479
1661 1172 764
1898 1370 1126
2013 1557 1530
1981 1792 1938
2042 1907 2411
2079 2022 2814
2103 2139 3144
2124 2259 3393
1086 1052 736
1473 1443 1028
1767 1738 1355
1994 1965 1721
2182 2149 2133
2198 2247 2609
2211 2358 2998
2231 2477 3305
2266 2596 3533
1380 1357 1138
1764 1764 1436
2063 2081 1743
2300 2329 2071
2499 2529 2429
2440 2662 2727
2402 2777 3083
2388 2869 3411
2399 2934 3625
1768 1731 1572
2125 2115 1874
2408 2421 2162
2636 2666 2447
2829 2862 2746
2777 2955 2901
2690 3078 3159
2613 3191 3448
2588 3252 3695
2210 2144 2024
2516 2472 2317
2762 2743 2576
2965 2963 2816
3139 3142 3052
3121 3173 3107
3022 3282 3247
2900 3413 3455
2814 3510 3717
2667 2562 2482
2897 2815 2738
3088 3030 2953
3250 3209 3141
3394 3359 3315
3387 3366 3326
3342 3408 3369
3239 3503 3474
3057 3672 3664
2297 281 114
2263 319 386
2107 456 691
1858 675 976
1543 959 1191
1430 1176 1370
1623 1412 1771
1930 1622 2266
2159 1760 2727
2282 471 108
2393 570 461
2351 709 854
2195 919 1233
1962 1230 1546
1848 1498 1774
1972 1726 2152
2181 1901 2582
2323 2010 2965
2173 745 230
2380 890 557
2463 1028 964
2427 1211 1398
2275 1495 1805
2172 1787 2094
2246 2002 2465
2381 2151 2847
2461 2245 3171
1977 1042 466
2260 1246 728
2453 1403 1094
2540 1563 1525
2501 1780 1986
2417 2066 2342
2458 2260 2718
2541 2389 3067
2582 2479 3346
1702 1299 805
2067 1604 1031
2332 1823 1314
2521 1983 1668
2654 2111 2103
2600 2357 2529
2623 2521 2919
2671 2633 3249
2696 2723 3497
1581 1450 1142
1978 1839 1394
2280 2136 1663
2507 2361 1966
2678 2532 2320
2730 2702 2679
2763 2826 3049
2785 2918 3376
2804 2992 3609
1806 1757 1561
2180 2147 1828
2471 2455 2081
2697 2696 2340
2874 2880 2627
2968 3008 2903
2974 3121 3177
2945 3211 3441
2929 3272 3687
2221 2151 2021
2533 2487 2287
2782 2762 2520
2982 2984 2739
3145 3160 2967
3243 3265 3160
3227 3364 3316
3155 3452 3485
3085 3524 3719
2666 2562 2482
2897 2819 2728
3090 3038 2931
3252 3222 3109
3392 3374 3281
3484 3463 3409
3491 3514 3476
3422 3579 3548
3282 3708 3693
2779 348 132
2763 379 416
2656 510 758
2461 742 1108
2184 1078 1417
1927 1392 1564
1921 1661 1798
2112 1898 2143
2450 2116 2624
2776 508 105
2872 604 464
2851 735 881
2730 949 1309
2530 1292 1701
2311 1663 1914
2283 1958 2164
2407 2186 2477
2644 2354 2879
2704 783 204
2876 905 528
2947 1033 956
2918 1217 1430
2791 1507 1897
2614 1896 2184
2574 2204 2461
2645 2426 2757
2802 2561 3098
2553 1122 435
2790 1273 679
2948 1405 1054
3014 1554 1516
2977 1757 2019
2847 2121 2384
2803 2419 2699
2835 2634 2990
2934 2750 3285
2312 1472 808
2631 1695 988
2857 1852 1250
3007 1971 1610
3097 2079 2083
3019 2364 2526
2980 2625 2884
2987 2826 3182
3048 2931 3446
2045 1662 1214
2417 1981 1398
2697 2219 1616
2898 2395 1890
3037 2526 2242
3096 2683 2645
3101 2870 3009
3101 3035 3322
3145 3125 3572
2022 1873 1607
2396 2235 1819
2686 2518 2023
2905 2734 2248
3066 2894 2518
3182 3014 2847
3219 3149 3146
3222 3267 3419
3237 3334 3668
2232 2156 2019
2559 2501 2255
2821 2784 2457
3027 3009 2650
3187 3183 2863
3312 3307 3107
3369 3406 3312
3373 3485 3507
3341 3544 3722
2663 2562 2482
2900 2823 2716
3098 3049 2902
3264 3240 3066
3402 3396 3229
3520 3510 3399
3584 3585 3521
3577 3651 3618
3479 3741 3718
3138 400 158
3137 431 455
3077 553 828
2951 784 1231
2753 1139 1615
2510 1565 1860
2327 1882 1994
2323 2144 2168
2616 2404 2535
3146 525 112
3241 625 472
3242 752 909
3163 963 1377
3018 1312 1830
2815 1767 2133
2650 2133 2309
2623 2420 2488
2834 2642 2801
3112 787 183
3266 895 500
3336 1024 946
3324 1212 1457
3231 1495 1969
3067 1937 2333
2919 2330 2559
2872 2641 2754
3015 2840 3027
3019 1147 394
3222 1254 620
3358 1379 1010
3419 1533 1504
3391 1728 2046
3269 2110 2472
3139 2498 2754
3079 2821 2975
3166 3008 3220
2849 1567 765
3119 1717 912
3311 1830 1168
3434 1931 1550
3497 2051 2074
3421 2319 2558
3316 2663 2900
3250 2977 3156
3295 3157 3387
2603 1889 1275
2929 2116 1389
3176 2282 1563
3350 2406 1818
3460 2505 2179
3485 2638 2622
3433 2883 2991
3379 3136 3289
3397 3296 3521
2395 2070 1690
2746 2369 1829
3022 2600 1978
3229 2773 2166
3375 2899 2422
3456 2996 2774
3483 3150 3105
3482 3313 3398
3482 3439 3634
2368 2249 2072
2697 2574 2258
2964 2841 2415
3174 3052 2573
3334 3212 2764
3440 3319 3013
3530 3415 3270
3579 3505 3511
3563 3594 3713
2660 2562 2482
2906 2828 2703
3114 3061 2872
3288 3259 3017
3432 3422 3168
3540 3535 3342
3638 3628 3514
3688 3706 3655
3649 3771 3742
3362 432 192
3369 468 507
3347 583 912
3285 804 1359
3172 1155 1802
3008 1634 2124
2849 2072 2336
2724 2404 2451
2658 2562 2482
3374 522 128
3483 632 487
3506 759 942
3464 963 1446
3375 1303 1948
3230 1790 2320
3084 2252 2569
2963 2616 2708
2893 2810 2750
3370 759 171
3530 861 475
3612 1001 939
3622 1198 1485
3564 1470 2034
3438 1923 2455
3300 2384 2748
3175 2774 2918
3090 3017 2974
3334 1121 351
3526 1195 557
3664 1328 964
3735 1502 1494
3723 1697 2071
3622 2071 2541
3494 2498 2879
3363 2897 3087
3259 3191 3165
3246 1587 697
3484 1675 815
3661 1761 1075
3779 1868 1490
3840 2026 2073
3775 2272 2585
3663 2624 2971
3532 3006 3222
3407 3341 3330
3082 2026 1244
3362 2169 1307
3581 2277 1461
3739 2369 1725
3836 2462 2119
3843 2598 2611
3776 2837 3022
3663 3140 3317
3531 3470 3464
2905 2338 1788
3206 2538 1842
3452 2691 1935
3640 2806 2094
3771 2893 2344
3826 2976 2726
3822 3109 3092
3760 3308 3393
3638 3589 3580
2752 2519 2232
3048 2766 2332
3297 2968 2422
3499 3127 2531
3652 3247 2693
3737 3325 2945
3791 3395 3224
3794 3505 3485
3727 3698 3679
2658 2562 2482
2915 2833 2691
3139 3073 2843
3329 3279 2970
3485 3447 3106
3590 3560 3282
3671 3650 3462
3737 3725 3629
3795 3795 3763
