Assets/1__3DArt/KimSe/artstation_asset/LUTs_subway_asset/3DL/Underground 03_S.3dl
# LUT by SparkleStock. Enhanced with VOXCOLOR algorithms.
0 128 256 384 512 640 768 896 1023
208 96 144
218 98 391
224 114 714
227 146 1097
224 193 1519
215 257 1933
207 330 2310
203 411 2644
208 496 2930
335 237 304
284 361 499
262 443 854
254 499 1281
249 540 1695
242 588 2077
237 648 2424
236 719 2733
240 800 2998
498 427 509
450 543 634
384 726 949
331 905 1389
321 1010 1888
318 1060 2270
316 1109 2601
317 1160 2883
322 1220 3122
710 676 759
689 732 821
601 957 1048
500 1245 1443
441 1491 2005
442 1592 2448
445 1651 2795
450 1688 3066
458 1722 3283
982 994 1056
975 1017 1084
923 1132 1198
807 1399 1467
607 1877 1955
613 2101 2548
624 2215 2964
637 2257 3252
650 2269 3459
1344 1398 1404
1344 1407 1420
1312 1467 1483
1232 1620 1635
1086 1905 1923
904 2325 2460
861 2588 2952
886 2723 3347
909 2758 3592
1747 1821 1765
1752 1821 1775
1735 1848 1805
1683 1927 1885
1582 2082 2040
1375 2438 2418
1227 2769 2873
1160 3020 3316
1197 3138 3654
2175 2231 2127
2183 2228 2133
2177 2237 2146
2147 2273 2182
2084 2348 2256
1931 2543 2460
1713 2847 2802
1536 3161 3214
1504 3385 3627
2610 2594 2482
2624 2594 2482
2625 2597 2484
2611 2610 2496
2578 2640 2524
2478 2741 2624
2311 2915 2811
2089 3160 3096
1825 3475 3491
456 100 160
382 196 344
389 236 656
428 252 1056
449 276 1502
448 320 1937
440 378 2328
430 447 2670
423 525 2956
437 280 287
516 459 530
547 535 890
550 564 1318
547 602 1763
535 659 2179
522 732 2549
512 816 2873
507 912 3146
542 477 483
703 706 739
721 870 1060
677 984 1462
655 1059 1960
636 1115 2368
621 1176 2719
612 1246 3019
608 1326 3272
741 716 738
946 972 988
956 1192 1226
876 1383 1553
806 1554 2064
781 1634 2510
763 1690 2866
753 1735 3151
750 1784 3381
1002 1020 1043
1246 1295 1292
1300 1450 1450
1212 1633 1655
1034 1992 2044
995 2164 2610
971 2250 3019
959 2284 3310
955 2300 3524
1358 1412 1397
1620 1680 1641
1692 1800 1761
1638 1898 1873
1523 2100 2091
1339 2437 2555
1261 2649 3014
1244 2757 3399
1239 2780 3641
1758 1828 1762
2016 2070 1992
2095 2163 2087
2064 2209 2140
1994 2311 2250
1810 2591 2556
1655 2862 2960
1559 3070 3370
1553 3163 3696
2185 2233 2127
2418 2439 2334
2493 2512 2410
2477 2530 2432
2438 2575 2478
2320 2719 2633
2127 2968 2918
1950 3233 3281
1884 3424 3669
2619 2594 2482
2807 2761 2655
2870 2817 2714
2866 2825 2720
2849 2842 2736
2782 2911 2805
2653 3047 2952
2464 3253 3191
2218 3535 3542
803 119 161
709 234 379
631 341 629
613 424 956
698 469 1408
744 499 1876
769 535 2299
776 580 2668
772 638 2972
745 337 259
875 503 545
877 630 874
849 716 1261
890 760 1722
899 806 2167
895 863 2564
883 932 2908
868 1013 3196
730 551 439
966 792 740
1043 974 1070
1043 1095 1463
1049 1151 1952
1040 1204 2382
1026 1267 2756
1011 1340 3075
997 1425 3341
812 787 693
1094 1099 988
1232 1329 1278
1262 1492 1623
1222 1604 2085
1198 1677 2535
1179 1740 2903
1164 1801 3204
1155 1867 3448
1044 1068 1011
1367 1424 1309
1544 1649 1554
1574 1838 1802
1451 2085 2110
1404 2209 2639
1371 2276 3036
1349 2311 3330
1337 2336 3554
1383 1440 1378
1726 1792 1677
1922 2006 1896
1981 2147 2071
1911 2278 2237
1754 2534 2632
1668 2698 3054
1628 2783 3424
1607 2801 3662
1772 1840 1754
2109 2164 2043
2307 2358 2237
2379 2463 2362
2342 2523 2440
2197 2732 2683
2054 2946 3035
1948 3113 3409
1913 3185 3719
2190 2236 2125
2497 2514 2392
2679 2681 2562
2754 2763 2653
2736 2785 2683
2653 2885 2795
2492 3083 3028
2328 3301 3343
2239 3459 3704
2620 2594 2482
2869 2818 2713
3021 2956 2855
3087 3021 2923
3081 3029 2931
3040 3073 2976
2944 3175 3086
2789 3345 3284
2567 3594 3592
1231 149 155
1154 242 439
992 414 658
871 594 905
918 714 1271
1046 769 1757
1138 801 2215
1194 824 2623
1216 854 2962
1191 393 222
1325 517 546
1282 695 863
1199 870 1208
1215 984 1614
1282 1039 2075
1317 1082 2497
1328 1123 2868
1318 1172 3178
1077 640 391
1316 837 695
1422 1031 1043
1446 1195 1437
1443 1302 1880
1476 1365 2326
1487 1425 2723
1480 1486 3065
1463 1553 3349
1010 888 644
1296 1170 914
1524 1394 1250
1652 1564 1637
1641 1685 2060
1651 1761 2514
1649 1830 2898
1640 1898 3218
1627 1968 3477
1112 1135 963
1436 1482 1227
1702 1757 1536
1857 1976 1855
1848 2151 2149
1828 2239 2640
1810 2301 3027
1795 2347 3330
1783 2389 3567
1421 1479 1350
1759 1829 1616
2043 2114 1904
2222 2320 2167
2247 2432 2356
2142 2616 2689
2075 2738 3074
2033 2806 3427
2007 2826 3665
1789 1858 1740
2122 2183 2005
2405 2455 2270
2589 2642 2487
2630 2715 2605
2536 2860 2794
2423 3020 3097
2325 3151 3434
2276 3205 3728
2195 2240 2122
2500 2522 2376
2761 2763 2614
2936 2928 2793
2981 2979 2867
2933 3041 2946
2810 3193 3132
2670 3365 3400
2572 3492 3729
2616 2594 2482
2869 2822 2711
3088 3023 2917
3238 3162 3063
3280 3203 3111
3259 3227 3136
3193 3300 3216
3071 3436 3375
2877 3651 3641
1722 187 148
1674 252 467
1514 441 771
1291 694 1009
1056 953 1127
1298 1106 1591
1493 1175 2069
1636 1193 2521
1719 1191 2907
1708 431 180
1835 529 533
1795 699 915
1649 939 1255
1458 1243 1482
1631 1369 1935
1752 1429 2377
1825 1450 2783
1851 1457 3127
1598 733 354
1829 880 660
1927 1033 1039
1904 1237 1427
1773 1535 1762
1892 1635 2215
1961 1693 2633
1987 1725 3003
1979 1750 3314
1420 1018 615
1715 1241 858
1928 1412 1191
2037 1593 1578
2018 1843 1981
2095 1925 2439
2131 1987 2841
2136 2037 3184
2117 2083 3464
1206 1212 908
1552 1549 1140
1817 1806 1422
2028 2010 1760
2212 2183 2156
2255 2259 2615
2278 2332 3004
2285 2402 3325
2280 2469 3580
1473 1526 1316
1820 1874 1545
2097 2151 1804
2325 2373 2100
2526 2559 2442
2497 2680 2723
2472 2771 3076
2451 2832 3415
2433 2861 3658
1813 1880 1724
2149 2208 1957
2423 2478 2197
2653 2700 2456
2858 2886 2741
2824 2973 2888
2757 3085 3144
2686 3183 3445
2640 3225 3724
2201 2245 2117
2507 2531 2351
2763 2774 2575
2982 2981 2797
3178 3158 3029
3164 3189 3085
3084 3295 3228
2978 3424 3450
2885 3520 3744
2612 2594 2482
2867 2825 2705
3086 3029 2907
3280 3209 3095
3455 3368 3280
3447 3375 3291
3406 3421 3342
3315 3525 3465
3153 3706 3686
2205 224 152
2184 267 483
2064 443 833
1866 726 1150
1609 1089 1384
1517 1333 1560
1682 1523 1922
1943 1637 2365
2138 1654 2785
2212 443 155
2334 530 522
2314 686 936
2189 936 1337
1993 1306 1661
1899 1595 1887
2011 1784 2240
2194 1878 2643
2311 1883 3017
2137 761 310
2345 879 618
2436 1012 1020
2415 1213 1457
2289 1534 1867
2202 1842 2152
2277 2024 2510
2401 2107 2884
2462 2116 3219
1983 1111 589
2253 1274 808
2441 1408 1145
2531 1565 1561
2507 1797 2015
2440 2093 2364
2491 2262 2734
2573 2341 3089
2598 2362 3393
1751 1421 963
2090 1672 1131
2340 1857 1372
2523 1999 1698
2660 2121 2116
2624 2370 2531
2664 2516 2919
2720 2592 3261
2728 2632 3540
1650 1605 1308
2015 1934 1492
2299 2191 1713
2519 2391 1985
2693 2550 2323
2762 2717 2675
2815 2827 3045
2847 2896 3383
2853 2938 3643
1847 1902 1706
2200 2235 1904
2483 2506 2110
2710 2724 2342
2897 2898 2617
3008 3025 2892
3033 3131 3169
3016 3211 3445
2997 3258 3718
2211 2252 2112
2524 2544 2320
2782 2792 2517
2997 3000 2719
3179 3173 2942
3296 3284 3143
3295 3383 3304
3234 3471 3486
3172 3545 3748
2611 2594 2482
2867 2829 2695
3088 3038 2884
3280 3223 3063
3448 3382 3245
3561 3483 3386
3577 3539 3463
3513 3609 3549
3388 3752 3720
2622 257 163
2622 282 504
2547 439 886
2396 725 1261
2171 1136 1581
1952 1512 1728
1947 1786 1942
2116 1972 2244
2419 2087 2655
2641 441 143
2767 524 516
2772 664 953
2680 910 1397
2513 1307 1794
2321 1729 2005
2298 2029 2239
2412 2216 2526
2631 2299 2894
2604 755 274
2799 853 580
2890 976 1002
2881 1174 1476
2778 1497 1942
2619 1926 2225
2586 2238 2491
2658 2429 2774
2811 2497 3106
2495 1142 549
2740 1256 751
2909 1372 1097
2990 1521 1541
2971 1739 2037
2854 2129 2394
2821 2431 2701
2861 2623 2991
2965 2688 3295
2297 1544 960
2612 1720 1082
2839 1850 1302
2995 1956 1633
3096 2064 2086
3032 2364 2520
3009 2627 2874
3029 2813 3178
3097 2881 3463
2063 1777 1368
2421 2042 1487
2695 2245 1659
2899 2401 1904
3045 2526 2239
3120 2687 2636
3143 2874 2999
3158 3030 3320
3210 3098 3593
2039 2000 1744
2399 2307 1888
2687 2555 2048
2911 2750 2246
3083 2902 2504
3218 3024 2834
3273 3161 3137
3292 3276 3421
3319 3334 3693
2223 2258 2108
2549 2557 2286
2819 2812 2452
3039 3023 2628
3218 3194 2837
3365 3324 3090
3439 3428 3303
3459 3510 3512
3442 3572 3749
2611 2594 2482
2871 2834 2683
3096 3050 2856
3289 3240 3020
3455 3403 3193
3599 3533 3382
3681 3617 3516
3686 3692 3627
3598 3791 3745
2964 285 183
2977 297 533
2943 430 939
2850 699 1355
2688 1116 1739
2474 1608 1973
2310 1967 2098
2305 2227 2246
2569 2423 2546
2981 426 144
3119 507 517
3151 634 968
3097 865 1445
2979 1260 1895
2795 1770 2187
2640 2173 2353
2614 2463 2513
2814 2635 2785
2977 717 248
3172 802 547
3272 923 984
3284 1120 1490
3214 1431 1996
3063 1917 2350
2921 2341 2566
2878 2658 2748
3022 2822 3000
2924 1116 502
3152 1194 687
3313 1306 1047
3397 1461 1521
3390 1668 2051
3279 2081 2467
3156 2494 2740
3102 2825 2954
3200 2990 3195
2793 1583 912
3078 1695 1003
3284 1787 1217
3422 1884 1568
3504 2007 2067
3443 2293 2544
3347 2655 2879
3292 2978 3134
3353 3145 3373
2573 1944 1417
2907 2129 1471
3163 2270 1603
3349 2383 1830
3473 2480 2173
3516 2623 2608
3478 2881 2973
3437 3143 3275
3474 3297 3521
2383 2156 1810
2734 2408 1889
3017 2611 1998
3235 2770 2163
3395 2893 2407
3496 2995 2757
3540 3158 3091
3558 3328 3392
3577 3455 3647
2352 2333 2147
2684 2616 2280
2961 2858 2405
3187 3058 2549
3366 3218 2737
3493 3332 2995
3605 3435 3261
3675 3533 3514
3675 3627 3733
2611 2594 2482
2877 2838 2670
3111 3062 2825
3312 3259 2971
3482 3428 3132
3616 3554 3324
3740 3663 3511
3810 3752 3667
3782 3821 3765
3218 304 208
3234 308 575
3232 417 1001
3196 656 1447
3109 1051 1873
2954 1587 2171
2795 2070 2360
2664 2430 2458
2594 2594 2482
3219 399 155
3378 479 524
3434 593 986
3417 804 1489
3353 1177 1979
3216 1716 2330
3067 2222 2560
2938 2617 2684
2861 2822 2716
3237 651 231
3445 728 517
3564 854 968
3602 1052 1502
3569 1343 2039
3453 1840 2446
3313 2342 2722
3181 2763 2878
3090 3020 2927
3238 1039 453
3461 1089 621
3631 1211 996
3731 1384 1502
3743 1587 2062
3656 1994 2522
3530 2455 2849
3397 2884 3046
3290 3194 3117
3189 1539 838
3451 1600 904
3646 1674 1123
3783 1782 1504
3868 1947 2057
3819 2212 2563
3716 2590 2943
3588 2999 3189
3466 3351 3291
3041 2012 1376
3343 2126 1387
3580 2221 1502
3753 2312 1737
3866 2410 2109
3895 2560 2589
3841 2818 2998
3736 3143 3296
3613 3491 3443
2870 2351 1878
3191 2522 1885
3454 2661 1949
3659 2774 2089
3807 2866 2329
3884 2960 2705
3899 3107 3072
3852 3323 3379
3742 3622 3575
2714 2548 2271
3027 2767 2332
3297 2957 2400
3520 3114 2503
3694 3239 2667
3801 3328 2925
3879 3410 3211
3904 3533 3480
3851 3740 3688
2610 2594 2482
2886 2843 2657
3134 3072 2794
3351 3277 2921
3533 3451 3069
3665 3577 3261
3773 3680 3458
3862 3767 3639
3939 3843 3779
