Assets/1__3DArt/KimSe/artstation_asset/LUTs_subway_asset/3DL/Underground 01_S.3dl
# LUT by SparkleStock. Enhanced with VOXCOLOR algorithms.
0 256 512 768 1023
192 240 176
211 286 656
236 341 1210
271 407 1856
320 480 2530
525 609 579
365 816 886
303 987 1559
331 1012 2160
365 1029 2728
951 1058 1045
875 1148 1145
452 1638 1678
461 1860 2598
497 1867 3175
1527 1634 1613
1504 1653 1645
1311 1821 1824
807 2375 2572
682 2757 3483
2178 2226 2226
2175 2228 2228
2115 2267 2265
1712 2541 2553
977 3154 3282
841 283 306
659 521 684
689 611 1220
733 597 1912
743 591 2589
764 719 507
1028 1058 1079
970 1148 1729
910 1140 2402
881 1142 3063
1016 1128 997
1429 1601 1494
1221 1897 1928
1087 1959 2737
1053 1931 3336
1549 1652 1603
2035 2141 2083
2040 2284 2269
1575 2621 2804
1349 2847 3593
2181 2226 2226
2660 2677 2681
2731 2770 2772
2498 2918 2927
1815 3374 3463
1700 352 406
1501 585 917
1026 1006 1116
1313 1131 1821
1444 1056 2594
1599 874 465
1924 1135 1133
1683 1501 1734
1729 1550 2404
1683 1474 3088
1189 1265 895
1760 1802 1411
2107 2136 2135
2032 2136 2818
1962 2141 3441
1595 1690 1574
2187 2293 2077
2642 2737 2663
2417 2878 3015
2193 2965 3640
2178 2226 2226
2748 2769 2750
3217 3223 3226
3135 3283 3287
2676 3597 3636
2617 459 500
2517 625 1113
2029 1152 1554
1698 1599 1766
2006 1804 2386
2586 940 458
2917 1166 1180
2696 1531 1950
2334 2057 2352
2455 2227 2929
2160 1543 1000
2784 1907 1380
3069 2118 2140
2823 2510 2810
2810 2651 3377
1796 1794 1602
2485 2408 1974
2946 2824 2491
3121 3088 3126
3077 3193 3685
2178 2226 2226
2764 2795 2705
3232 3267 3145
3533 3571 3547
3380 3784 3793
3410 592 608
3367 732 1294
3048 1201 1881
2483 1883 2164
2178 2226 2226
3384 962 485
3739 1238 1264
3605 1567 2132
3116 2252 2623
2747 2757 2768
3086 1670 1002
3690 1909 1328
3924 2156 2200
3635 2590 2947
3226 3208 3236
2520 2138 1805
3276 2608 1984
3748 2905 2412
3861 3134 3137
3615 3595 3624
2178 2226 2226
2811 2826 2654
3325 3328 3040
3656 3660 3519
3923 3923 3923
