Assets/1__3DArt/KimSe/artstation_asset/LUTs_subway_asset/3DL/Underground 05.3dl
# LUT by SparkleStock. Enhanced with VOXCOLOR algorithms.
0 128 256 384 512 640 768 896 1023
80 16 48
86 30 251
103 61 544
128 116 916
161 198 1359
195 325 1824
226 480 2246
252 661 2609
272 865 2898
177 126 179
131 231 356
127 330 702
148 423 1135
177 512 1571
211 626 1994
242 763 2376
270 922 2705
293 1100 2968
324 285 351
280 383 469
224 570 800
197 780 1272
235 950 1810
276 1072 2228
316 1195 2582
353 1324 2873
385 1465 3101
537 504 572
514 555 629
424 774 886
337 1081 1335
320 1397 1967
386 1578 2450
447 1713 2813
502 1819 3080
551 1920 3274
826 796 852
817 819 875
756 937 1008
628 1221 1332
422 1739 1932
534 2062 2583
633 2254 3017
720 2360 3291
793 2425 3464
1239 1197 1218
1237 1208 1228
1197 1274 1299
1100 1443 1487
928 1763 1846
765 2263 2492
822 2601 3022
971 2797 3403
1087 2871 3603
1707 1647 1623
1710 1650 1626
1686 1682 1659
1619 1772 1756
1490 1953 1952
1254 2368 2422
1148 2763 2936
1180 3067 3387
1360 3211 3672
2192 2113 2049
2200 2113 2050
2190 2124 2062
2151 2166 2105
2066 2255 2198
1872 2486 2448
1629 2837 2848
1486 3190 3288
1592 3428 3655
2658 2562 2482
2672 2562 2482
2674 2565 2485
2658 2579 2499
2617 2613 2531
2490 2727 2645
2286 2921 2849
2033 3185 3147
1761 3507 3539
282 33 74
205 107 206
223 158 486
286 206 879
344 275 1348
392 387 1828
430 527 2255
460 694 2617
483 885 2900
229 133 191
357 337 410
409 443 760
427 510 1191
451 597 1654
480 725 2098
511 879 2489
544 1057 2820
580 1257 3083
329 289 356
562 558 618
591 749 949
544 895 1369
549 1029 1898
571 1155 2327
600 1294 2689
637 1447 2985
681 1618 3219
543 509 576
825 806 855
836 1043 1116
733 1258 1472
673 1487 2039
698 1640 2511
732 1768 2873
775 1885 3145
825 2007 3348
832 800 854
1150 1118 1149
1211 1291 1327
1088 1492 1562
855 1889 2033
894 2141 2642
940 2298 3059
995 2394 3330
1054 2465 3508
1245 1202 1219
1561 1514 1513
1642 1651 1650
1564 1762 1777
1408 1991 2040
1203 2392 2586
1193 2668 3069
1277 2831 3436
1354 2894 3635
1713 1652 1623
2001 1936 1901
2085 2045 2010
2041 2098 2070
1944 2216 2199
1713 2539 2569
1570 2861 3010
1540 3114 3420
1648 3232 3697
2200 2116 2049
2436 2357 2295
2511 2442 2383
2491 2463 2406
2439 2515 2460
2286 2680 2638
2055 2961 2959
1886 3255 3336
1918 3458 3681
2668 2562 2482
2836 2749 2677
2894 2812 2744
2889 2818 2752
2869 2836 2770
2786 2911 2844
2630 3055 2995
2413 3268 3234
2144 3552 3574
633 73 88
520 169 235
432 257 441
424 342 755
552 427 1230
653 530 1746
730 654 2207
785 802 2596
820 972 2896
520 188 192
747 399 430
746 559 727
694 674 1107
768 753 1595
821 864 2072
864 1002 2489
902 1164 2837
938 1350 3108
469 323 359
823 631 665
934 877 984
932 1050 1373
947 1141 1890
965 1255 2336
989 1389 2714
1020 1544 3024
1062 1720 3266
551 516 584
935 896 937
1141 1198 1238
1195 1424 1585
1124 1573 2076
1118 1702 2537
1130 1827 2901
1160 1956 3182
1208 2097 3395
839 806 859
1265 1221 1244
1509 1507 1519
1542 1748 1777
1334 2028 2114
1312 2205 2672
1315 2327 3067
1341 2418 3337
1388 2499 3522
1250 1207 1221
1672 1618 1610
1916 1880 1864
1980 2056 2046
1859 2206 2222
1651 2510 2667
1593 2722 3097
1619 2851 3445
1662 2907 3641
1717 1655 1624
2099 2032 1994
2322 2263 2222
2396 2390 2353
2334 2459 2431
2134 2699 2706
1979 2948 3076
1905 3149 3441
1949 3243 3706
2202 2117 2050
2517 2439 2378
2701 2630 2574
2771 2723 2670
2745 2748 2696
2634 2858 2816
2432 3077 3065
2257 3315 3380
2230 3481 3699
2671 2562 2482
2894 2812 2744
3028 2959 2898
3084 3025 2968
3076 3032 2977
3027 3076 3021
2915 3179 3128
2735 3349 3317
2484 3594 3605
1113 133 96
1003 225 292
800 355 451
658 494 671
734 616 1051
924 738 1594
1075 861 2099
1184 992 2535
1250 1139 2874
1002 268 181
1264 444 429
1191 654 694
1038 846 1019
1062 966 1443
1181 1066 1953
1268 1180 2406
1329 1311 2787
1369 1463 3081
808 401 357
1194 675 648
1360 959 965
1384 1194 1337
1344 1322 1791
1398 1416 2264
1439 1530 2670
1474 1664 3004
1510 1819 3261
700 571 595
1097 933 929
1464 1274 1268
1673 1548 1634
1594 1709 2051
1591 1808 2512
1598 1919 2887
1619 2044 3184
1657 2184 3410
847 813 866
1271 1227 1251
1656 1606 1605
1882 1922 1919
1829 2152 2180
1775 2262 2680
1752 2356 3054
1758 2446 3326
1794 2540 3522
1255 1212 1226
1675 1621 1613
2042 1983 1960
2270 2258 2231
2273 2404 2391
2095 2617 2735
2012 2768 3111
1995 2866 3437
2012 2920 3633
1719 1657 1626
2101 2034 1995
2425 2359 2316
2633 2590 2547
2664 2681 2644
2512 2846 2835
2366 3027 3134
2269 3177 3452
2264 3250 3702
2202 2118 2050
2519 2439 2379
2782 2712 2658
2953 2898 2848
2993 2956 2909
2923 3024 2982
2762 3186 3166
2600 3369 3422
2529 3498 3710
2669 2562 2482
2898 2811 2747
3088 3022 2967
3214 3164 3114
3249 3203 3158
3224 3227 3181
3149 3296 3253
3008 3427 3396
2787 3634 3635
1705 209 102
1625 288 327
1396 445 561
1104 632 755
835 802 858
1153 996 1385
1415 1146 1925
1613 1273 2423
1740 1397 2823
1625 351 154
1872 498 420
1799 706 754
1550 955 1062
1269 1225 1251
1511 1355 1775
1688 1464 2269
1807 1566 2701
1876 1677 3039
1408 541 345
1807 762 605
1977 998 954
1926 1273 1315
1659 1607 1610
1811 1687 2118
1910 1767 2566
1969 1856 2940
2001 1963 3226
1128 717 609
1564 1025 885
1930 1305 1220
2115 1600 1582
2007 1952 1937
2062 2004 2416
2092 2073 2818
2110 2160 3142
2128 2267 3387
857 821 877
1279 1235 1259
1660 1609 1610
2004 1949 1933
2317 2261 2234
2271 2318 2673
2247 2397 3029
2245 2493 3311
2270 2603 3526
1260 1217 1231
1677 1624 1617
2041 1982 1960
2359 2300 2267
2642 2585 2546
2522 2715 2794
2442 2811 3114
2402 2883 3419
2404 2941 3618
1720 1660 1628
2100 2034 1996
2423 2357 2314
2698 2636 2592
2938 2882 2838
2845 2981 2954
2728 3099 3185
2629 3202 3456
2593 3256 3692
2201 2119 2051
2517 2438 2379
2780 2710 2656
3002 2942 2893
3194 3143 3099
3161 3177 3137
3048 3288 3263
2913 3419 3461
2818 3512 3716
2667 2562 2482
2896 2810 2748
3088 3021 2969
3252 3200 3155
3396 3357 3316
3388 3365 3327
3343 3407 3370
3240 3503 3474
3057 3672 3664
2295 288 114
2249 351 358
2071 505 642
1800 729 918
1475 1005 1134
1384 1201 1331
1601 1423 1752
1926 1624 2262
2159 1760 2727
2250 422 130
2444 550 421
2396 738 796
2187 998 1177
1901 1343 1481
1791 1583 1713
1941 1775 2116
2176 1918 2572
2324 2014 2963
2087 645 291
2407 816 552
2545 1019 940
2497 1284 1373
2262 1647 1773
2136 1920 2043
2222 2085 2429
2379 2183 2835
2462 2254 3166
1832 899 571
2209 1126 804
2509 1349 1152
2652 1605 1570
2564 1931 2012
2427 2223 2327
2456 2366 2699
2544 2432 3059
2584 2490 3339
1510 1126 944
1926 1453 1228
2278 1732 1515
2572 1979 1831
2813 2211 2202
2671 2503 2568
2651 2629 2929
2684 2677 3248
2698 2733 3489
1426 1295 1253
1841 1680 1611
2194 2012 1935
2496 2302 2236
2757 2562 2529
2819 2792 2783
2823 2900 3091
2807 2948 3387
2807 2998 3602
1722 1662 1632
2100 2035 1997
2419 2354 2311
2691 2629 2585
2927 2870 2827
3050 3047 3009
3037 3162 3225
2970 3232 3456
2933 3276 3683
2201 2119 2051
2514 2437 2377
2775 2706 2653
2995 2936 2887
3185 3134 3090
3296 3268 3228
3268 3378 3348
3174 3465 3496
3087 3526 3718
2666 2562 2482
2894 2809 2747
3085 3018 2968
3249 3197 3154
3393 3353 3314
3487 3455 3419
3493 3512 3478
3422 3578 3549
3282 3708 3693
2777 354 132
2757 404 396
2638 547 725
2430 784 1068
2140 1117 1377
1891 1417 1532
1899 1673 1780
2106 1901 2138
2450 2116 2624
2760 475 117
2904 591 434
2879 758 843
2728 1012 1277
2494 1387 1669
2265 1748 1874
2252 2014 2134
2397 2209 2463
2644 2359 2877
2659 715 239
2892 847 512
2995 1025 937
2960 1279 1429
2784 1638 1900
2578 2036 2160
2545 2304 2434
2635 2473 2739
2803 2571 3093
2470 1027 502
2758 1178 716
2976 1362 1092
3078 1595 1567
3016 1893 2075
2838 2294 2396
2787 2555 2687
2830 2702 2973
2935 2763 3277
2191 1359 907
2534 1590 1131
2813 1783 1393
3033 1967 1734
3197 2175 2198
3053 2535 2587
2989 2775 2900
2991 2907 3171
3048 2944 3437
1925 1548 1310
2288 1861 1605
2592 2121 1881
2844 2347 2162
3055 2555 2467
3151 2790 2775
3146 2980 3062
3118 3102 3326
3146 3133 3564
1941 1792 1677
2296 2132 2008
2592 2416 2294
2842 2657 2547
3056 2865 2780
3228 3050 3011
3270 3208 3224
3251 3313 3436
3238 3339 3663
2200 2120 2053
2512 2436 2376
2770 2703 2648
2988 2929 2880
3175 3124 3080
3333 3289 3249
3403 3418 3383
3401 3506 3526
3343 3546 3720
2663 2562 2482
2891 2808 2745
3082 3016 2965
3245 3193 3151
3388 3348 3310
3515 3482 3446
3585 3573 3539
3579 3650 3620
3479 3741 3718
3138 404 158
3136 444 445
3072 573 813
2942 806 1213
2737 1160 1597
2493 1581 1845
2314 1891 1983
2317 2147 2163
2616 2404 2535
3139 507 116
3244 619 460
3240 768 898
3150 1005 1372
2992 1379 1827
2784 1836 2126
2625 2184 2296
2610 2446 2476
2834 2645 2799
3093 752 197
3254 855 487
3327 1021 949
3309 1263 1487
3197 1599 2004
3024 2060 2351
2882 2430 2555
2853 2697 2739
3014 2848 3023
2985 1099 423
3183 1189 632
3328 1350 1045
3394 1573 1575
3357 1847 2132
3220 2272 2527
3096 2642 2767
3055 2909 2960
3164 3022 3213
2800 1513 813
3044 1653 1001
3237 1776 1264
3381 1926 1652
3480 2147 2216
3380 2486 2660
3276 2830 2939
3226 3089 3147
3291 3173 3378
2545 1836 1334
2826 2053 1558
3056 2226 1788
3244 2379 2053
3395 2536 2384
3456 2746 2773
3415 3017 3062
3363 3240 3295
3393 3308 3512
2345 2023 1742
2645 2299 2014
2894 2521 2255
3102 2704 2479
3279 2864 2705
3414 3025 2979
3472 3221 3212
3483 3384 3423
3479 3446 3627
2337 2217 2102
2625 2510 2399
2864 2753 2651
3065 2957 2865
3239 3132 3053
3387 3282 3220
3517 3422 3381
3589 3533 3543
3561 3597 3709
2660 2562 2482
2888 2807 2742
3078 3013 2961
3240 3189 3146
3383 3343 3305
3509 3476 3439
3623 3597 3562
3684 3698 3666
3649 3771 3742
3362 432 192
3369 468 507
3347 583 912
3285 804 1359
3172 1155 1802
3008 1634 2124
2849 2072 2336
2724 2404 2451
2658 2562 2482
3371 519 128
3458 633 498
3472 769 962
3427 987 1470
3338 1341 1970
3200 1830 2334
3063 2285 2576
2953 2636 2709
2893 2810 2748
3364 753 173
3484 845 480
3541 1008 976
3538 1243 1552
3476 1548 2098
3362 2016 2499
3243 2468 2769
3144 2828 2922
3089 3021 2971
3325 1113 354
3458 1163 567
3557 1320 1017
3604 1545 1595
3586 1801 2190
3497 2209 2625
3396 2632 2923
3307 2990 3097
3254 3200 3159
3237 1579 704
3395 1647 873
3521 1724 1150
3612 1866 1591
3671 2125 2252
3610 2426 2718
3529 2790 3045
3451 3129 3242
3398 3356 3320
3075 2017 1258
3259 2142 1431
3411 2240 1641
3535 2342 1921
3634 2480 2303
3671 2699 2777
3636 2974 3126
3571 3254 3352
3520 3486 3453
2902 2328 1805
3106 2508 2002
3278 2645 2188
3424 2756 2383
3551 2861 2606
3645 3008 2932
3685 3186 3220
3676 3387 3441
3627 3602 3570
2751 2511 2247
2970 2733 2474
3154 2911 2667
3313 3056 2837
3455 3177 2993
3576 3287 3159
3678 3400 3353
3734 3534 3537
3719 3705 3673
2658 2562 2482
2884 2807 2738
3074 3012 2955
3236 3186 3139
3378 3338 3297
3503 3470 3432
3615 3592 3555
3714 3701 3665
3795 3795 3763
