Assets/1__3DArt/KimSe/artstation_asset/LUTs_subway_asset/3DL/Yellow Line 02_S.3dl
# LUT by SparkleStock. Enhanced with VOXCOLOR algorithms.
0 256 512 768 1023
304 272 224
315 285 363
319 313 526
325 351 746
352 400 1025
759 774 319
562 802 789
407 711 1048
450 806 1418
501 912 1830
1683 1616 534
1609 1973 1316
522 1212 1624
575 1360 2101
638 1519 2579
2492 2579 767
2502 2820 1400
1856 2785 2363
826 2076 2596
680 2079 2970
2882 3282 977
2925 3356 1401
2697 3463 2337
1723 3218 3084
656 2498 3122
1730 1123 501
997 591 511
800 498 587
671 439 713
598 408 896
1444 1114 400
1122 1112 943
940 1116 1324
886 1176 1612
883 1248 1951
2117 1856 585
1956 2033 1160
1011 1755 1938
993 1853 2345
1028 1975 2741
2749 2664 795
2786 2884 1325
2405 2964 2219
1256 2543 2795
1015 2534 3137
3094 3302 1000
3163 3444 1577
3111 3533 2251
2317 3452 3080
948 2937 3319
2851 1908 721
2288 1231 785
2072 1151 889
1684 953 901
1372 761 998
2469 1656 518
2216 1508 1104
2096 1585 1595
1807 1549 1703
1577 1474 1877
2319 1861 546
2227 2064 1142
2129 2211 2189
2082 2346 2645
2075 2458 2992
2968 2746 811
2957 2926 1348
2989 3089 2279
2225 2965 2999
2005 2981 3361
3264 3312 1020
3350 3486 1703
3436 3652 2668
3075 3645 3204
1858 3347 3542
3295 2315 826
3111 1942 938
3033 1875 1079
2957 1892 1191
2644 1642 1274
3159 2217 690
3100 1996 1220
3064 2032 1689
3028 2267 1919
2759 2173 2019
3090 2397 694
3096 2380 1255
3100 2387 2215
3106 2679 2738
2961 2767 2965
3178 2772 835
3214 2958 1353
3244 3093 2248
3202 3216 3135
3164 3332 3551
3411 3314 1045
3501 3501 1703
3583 3678 2654
3570 3780 3396
3084 3680 3760
3507 2546 913
3519 2560 1048
3513 2570 1189
3507 2568 1344
3523 2562 1521
3536 2738 938
3639 2660 1388
3667 2657 1754
3648 2806 2007
3635 2974 2210
3552 2935 969
3715 2847 1466
3833 2764 2303
3793 2959 2787
3733 3331 3078
3550 3130 1012
3715 3188 1516
3849 3231 2348
3847 3319 3154
3763 3624 3616
3555 3298 1073
3657 3510 1679
3761 3699 2575
3775 3815 3362
3731 3859 3859
