Assets/1__3DArt/KimSe/artstation_asset/LUTs_subway_asset/3DL/Yellow Line 02_S.3dl
# LUT by SparkleStock. Enhanced with VOXCOLOR algorithms.
0 64 128 192 256 320 384 448 512 576 640 704 768 832 896 960 1023
304 272 224
307 274 258
311 276 291
313 280 326
315 285 363
316 290 399
317 297 440
318 305 483
319 313 526
320 322 578
320 331 630
322 340 684
325 351 746
329 362 807
336 374 877
344 387 951
352 400 1025
380 375 239
362 373 301
343 371 363
331 371 418
331 374 457
332 377 496
334 384 543
336 394 594
338 403 645
341 415 706
344 428 768
348 441 833
354 456 904
360 470 976
369 486 1055
378 503 1138
388 520 1220
456 479 253
416 472 344
375 465 434
348 461 509
348 463 551
348 464 594
350 472 647
353 482 705
356 493 764
362 509 835
368 524 906
375 541 981
383 560 1063
392 579 1145
402 599 1233
413 619 1324
424 639 1416
570 605 277
526 611 397
481 618 517
441 615 612
410 592 658
379 569 704
371 569 763
375 581 829
378 593 894
386 612 975
395 631 1055
404 651 1139
414 674 1231
425 697 1323
437 720 1419
449 744 1518
461 767 1617
759 774 319
747 831 470
735 887 620
685 893 738
562 802 789
439 710 840
400 687 905
403 700 977
407 711 1048
416 734 1137
426 756 1226
437 780 1319
450 806 1418
462 833 1518
475 860 1621
488 886 1725
501 912 1830
948 944 361
968 1050 542
988 1155 724
929 1172 863
714 1012 920
498 851 976
428 806 1047
432 818 1124
435 830 1202
446 856 1300
458 881 1398
471 909 1499
485 939 1606
500 969 1713
513 999 1823
527 1028 1933
541 1058 2043
1179 1155 415
1216 1280 604
1252 1405 793
1201 1443 952
976 1304 1052
750 1166 1151
622 1079 1224
543 1017 1285
464 956 1346
475 984 1451
487 1012 1556
501 1043 1663
516 1077 1777
532 1112 1890
547 1145 2004
561 1177 2117
575 1209 2230
1431 1385 474
1477 1516 660
1522 1646 845
1487 1709 1023
1292 1638 1184
1097 1568 1345
897 1429 1420
695 1256 1452
493 1084 1485
504 1115 1596
515 1146 1707
528 1180 1820
545 1219 1939
563 1257 2058
578 1294 2174
592 1329 2289
607 1364 2405
1683 1616 534
1737 1751 716
1792 1887 898
1773 1976 1093
1609 1973 1316
1444 1969 1539
1172 1779 1616
847 1496 1620
522 1212 1624
532 1246 1741
543 1280 1858
556 1317 1977
575 1360 2101
593 1403 2226
609 1442 2345
623 1481 2462
638 1519 2579
1912 1866 595
1962 1985 760
2011 2103 926
2000 2188 1114
1865 2207 1350
1731 2226 1585
1484 2094 1717
1182 1885 1798
879 1677 1879
762 1583 1940
645 1490 2001
573 1444 2085
591 1491 2212
609 1538 2340
624 1582 2460
639 1624 2577
654 1667 2694
2141 2117 656
2186 2218 804
2231 2319 953
2226 2400 1135
2122 2442 1384
2018 2484 1632
1796 2408 1819
1516 2275 1977
1236 2141 2134
992 1921 2139
748 1700 2145
591 1570 2192
608 1621 2323
624 1673 2454
640 1721 2576
655 1768 2693
670 1814 2810
2343 2358 714
2383 2441 846
2422 2524 979
2422 2598 1152
2345 2654 1405
2268 2710 1657
2074 2680 1886
1822 2607 2102
1570 2534 2319
1244 2252 2311
918 1970 2303
693 1787 2335
670 1800 2447
648 1814 2558
650 1853 2673
665 1904 2791
680 1955 2908
2492 2579 767
2524 2642 883
2556 2706 1000
2559 2766 1158
2502 2820 1400
2445 2874 1642
2284 2865 1883
2070 2825 2123
1856 2785 2363
1539 2573 2428
1222 2361 2493
965 2184 2552
826 2076 2596
686 1968 2641
650 1968 2735
665 2024 2852
680 2079 2970
2641 2800 819
2665 2844 920
2690 2888 1021
2695 2934 1165
2658 2986 1396
2622 3038 1627
2493 3050 1880
2318 3042 2144
2143 3035 2407
1835 2893 2545
1527 2752 2683
1236 2581 2767
981 2351 2746
725 2121 2725
650 2084 2796
665 2144 2914
680 2204 3032
2738 2976 872
2760 3007 961
2781 3038 1050
2788 3074 1181
2764 3120 1396
2740 3166 1611
2638 3187 1863
2496 3196 2132
2353 3204 2401
2072 3109 2580
1791 3013 2759
1504 2871 2876
1205 2637 2868
906 2403 2860
773 2320 2911
724 2314 2990
674 2308 3070
2810 3129 925
2830 3151 1004
2851 3173 1083
2859 3201 1201
2845 3238 1398
2830 3276 1595
2750 3300 1838
2638 3317 2103
2525 3334 2369
2280 3271 2574
2035 3208 2779
1770 3107 2931
1464 2927 2976
1158 2748 3022
958 2617 3052
812 2510 3074
665 2403 3096
2882 3282 977
2901 3295 1046
2920 3308 1116
2931 3327 1222
2925 3356 1401
2919 3385 1579
2862 3412 1813
2780 3438 2075
2697 3463 2337
2488 3433 2568
2279 3404 2799
2036 3342 2986
1723 3218 3084
1410 3093 3183
1144 2914 3193
900 2706 3157
656 2498 3122
661 477 293
573 423 311
484 368 329
423 332 351
415 330 383
408 329 414
401 329 450
395 331 488
389 332 526
385 336 572
380 340 618
377 345 668
376 351 723
375 357 779
378 366 842
383 376 910
388 385 977
657 529 288
578 494 345
498 459 401
443 436 452
437 436 492
431 435 532
427 439 577
422 444 624
418 450 672
417 459 729
415 468 786
415 478 846
417 490 913
420 502 980
425 516 1054
433 530 1132
440 545 1210
654 582 283
583 566 378
513 550 473
464 539 553
460 541 601
455 542 649
452 549 703
450 558 761
447 568 818
449 582 886
450 596 953
453 612 1025
458 629 1103
464 647 1181
472 666 1266
482 685 1355
492 704 1443
717 676 295
659 684 421
602 692 547
553 692 651
521 677 711
489 662 771
477 665 835
476 677 901
475 688 967
479 707 1045
483 726 1122
488 746 1203
496 768 1291
505 791 1379
515 814 1474
527 837 1571
539 861 1668
912 855 340
877 895 482
843 936 624
780 941 745
661 874 823
543 807 902
503 792 976
501 804 1049
500 816 1121
505 837 1207
511 858 1293
518 881 1382
528 907 1477
538 933 1572
550 959 1672
562 985 1775
575 1011 1877
1108 1033 385
1095 1107 543
1083 1180 701
1006 1190 838
802 1071 935
597 952 1032
528 920 1117
526 932 1196
525 943 1275
532 967 1369
539 991 1463
548 1017 1560
560 1045 1663
571 1074 1765
584 1103 1871
598 1132 1978
611 1161 2086
1330 1239 438
1334 1329 598
1337 1419 759
1269 1446 910
1059 1348 1044
849 1250 1179
722 1182 1273
636 1129 1347
550 1077 1422
558 1103 1522
565 1129 1622
574 1157 1725
587 1189 1833
600 1221 1941
614 1253 2050
628 1285 2160
642 1316 2270
1566 1459 495
1582 1557 651
1599 1655 808
1551 1706 972
1375 1665 1152
1200 1624 1333
1000 1511 1436
788 1362 1500
577 1213 1564
583 1241 1670
589 1269 1776
598 1300 1884
612 1335 1996
626 1371 2108
641 1406 2220
655 1440 2331
669 1474 2442
1802 1679 552
1831 1785 704
1860 1891 857
1832 1966 1033
1691 1982 1260
1550 1998 1486
1278 1840 1598
940 1595 1652
603 1350 1706
608 1380 1818
614 1410 1929
623 1442 2042
638 1482 2159
653 1521 2276
667 1558 2390
682 1595 2502
696 1632 2614
2015 1916 610
2046 2014 751
2077 2111 893
2060 2186 1064
1947 2218 1295
1834 2249 1525
1592 2142 1682
1285 1964 1801
979 1787 1920
849 1702 1993
720 1617 2066
638 1574 2154
652 1617 2274
666 1660 2393
680 1700 2507
694 1740 2619
708 1780 2730
2227 2154 667
2261 2242 798
2294 2331 930
2288 2406 1095
2202 2453 1330
2117 2501 1564
1905 2443 1765
1630 2334 1950
1355 2225 2134
1090 2025 2169
826 1825 2203
654 1706 2267
666 1752 2389
679 1798 2510
693 1842 2625
707 1886 2735
721 1929 2846
2416 2383 723
2450 2462 844
2483 2540 965
2485 2610 1124
2424 2667 1356
2364 2723 1588
2183 2706 1821
1942 2651 2054
1701 2596 2288
1353 2341 2318
1005 2086 2349
763 1920 2405
732 1931 2511
702 1942 2617
701 1976 2725
714 2023 2835
728 2070 2944
2558 2597 774
2587 2661 887
2617 2726 999
2622 2786 1147
2579 2837 1365
2535 2889 1583
2387 2888 1822
2186 2861 2070
1986 2834 2319
1657 2645 2416
1329 2457 2513
1057 2297 2595
900 2196 2648
744 2095 2701
700 2094 2791
713 2145 2900
726 2195 3009
2699 2811 825
2725 2861 929
2751 2911 1033
2760 2961 1171
2733 3008 1374
2707 3055 1578
2591 3071 1822
2431 3071 2086
2271 3072 2351
1962 2949 2514
1652 2827 2677
1352 2675 2785
1069 2461 2785
786 2248 2785
699 2212 2857
711 2266 2965
723 2319 3073
2794 2984 878
2817 3024 977
2841 3063 1076
2851 3103 1204
2835 3143 1390
2819 3183 1577
2730 3206 1814
2602 3219 2078
2475 3233 2342
2199 3153 2540
1923 3073 2739
1631 2948 2876
1308 2732 2893
985 2517 2909
837 2440 2964
776 2432 3039
716 2423 3114
2866 3136 931
2887 3167 1026
2908 3198 1122
2919 3229 1242
2911 3261 1410
2902 3293 1577
2835 3316 1803
2737 3336 2058
2640 3356 2313
2404 3306 2532
2168 3256 2750
1904 3169 2918
1583 3006 2986
1263 2844 3053
1044 2722 3092
875 2620 3118
705 2517 3143
2939 3288 984
2957 3310 1076
2975 3332 1168
2987 3355 1280
2986 3378 1429
2986 3402 1578
2940 3427 1792
2872 3453 2038
2804 3478 2285
2608 3459 2523
2412 3439 2761
2176 3390 2960
1859 3280 3078
1541 3171 3197
1251 3004 3220
973 2808 3196
695 2611 3171
1018 682 361
838 571 364
657 460 366
532 384 377
516 375 403
500 367 430
486 361 460
473 356 493
459 351 525
450 350 566
440 349 607
432 349 651
427 351 701
422 353 750
421 358 808
422 364 869
424 371 930
935 683 337
794 615 388
654 547 439
556 501 487
544 497 527
531 494 567
520 493 610
509 495 655
499 497 699
492 503 752
486 509 804
481 516 860
480 525 922
479 534 984
482 545 1053
487 558 1127
492 570 1200
851 685 313
751 659 413
650 634 513
580 617 597
571 619 651
562 620 704
553 626 760
546 634 816
538 642 873
535 655 937
532 668 1001
531 682 1068
533 699 1143
536 715 1217
543 733 1299
551 751 1385
560 769 1471
863 748 313
793 757 445
723 765 578
666 769 691
632 762 764
598 755 837
583 760 906
578 772 973
572 784 1040
571 803 1114
571 821 1189
573 841 1266
578 863 1351
584 885 1436
593 908 1528
605 931 1624
616 954 1719
1065 935 361
1008 960 494
950 985 628
874 988 752
761 946 857
647 904 963
605 897 1047
599 909 1121
593 920 1195
594 940 1277
595 961 1359
599 983 1444
606 1007 1536
614 1032 1627
624 1058 1724
637 1083 1824
649 1109 1924
1268 1122 409
1223 1164 543
1177 1205 678
1083 1207 813
890 1130 951
696 1053 1088
627 1034 1188
621 1045 1269
615 1056 1349
617 1078 1439
620 1100 1529
625 1124 1622
634 1152 1720
643 1179 1818
655 1208 1920
668 1236 2024
682 1264 2128
1481 1323 461
1452 1378 593
1422 1433 724
1337 1450 868
1143 1392 1037
948 1334 1206
822 1285 1321
730 1241 1410
637 1198 1498
640 1221 1594
642 1245 1689
647 1271 1787
658 1301 1890
668 1331 1992
681 1362 2097
694 1392 2204
708 1423 2310
1701 1533 516
1688 1598 643
1675 1664 770
1614 1703 921
1458 1692 1121
1302 1680 1320
1103 1593 1451
882 1468 1547
661 1343 1643
662 1367 1744
663 1392 1845
668 1419 1947
679 1452 2053
690 1485 2159
703 1518 2266
717 1551 2373
731 1584 2480
1921 1742 571
1924 1818 693
1928 1895 815
1892 1957 974
1774 1992 1204
1656 2026 1434
1384 1900 1580
1034 1694 1685
684 1488 1789
684 1513 1894
685 1539 2000
689 1568 2107
701 1603 2216
713 1639 2326
726 1674 2434
740 1709 2542
754 1744 2650
2117 1966 625
2130 2042 743
2143 2119 860
2120 2184 1014
2028 2228 1240
1936 2272 1466
1699 2189 1646
1389 2044 1804
1079 1898 1962
937 1821 2046
794 1744 2131
703 1705 2224
713 1743 2335
723 1781 2446
736 1819 2554
749 1856 2660
763 1894 2766
2314 2191 679
2335 2267 792
2357 2343 906
2349 2411 1055
2283 2464 1276
2217 2517 1497
2014 2478 1712
1744 2393 1923
1474 2308 2135
1189 2129 2198
904 1949 2262
717 1843 2342
725 1883 2454
734 1924 2566
746 1964 2673
759 2004 2777
772 2044 2882
2489 2409 732
2517 2482 842
2544 2555 952
2548 2623 1095
2504 2680 1307
2459 2737 1519
2291 2731 1757
2061 2694 2006
1832 2657 2256
1462 2430 2326
1091 2203 2395
832 2054 2475
794 2062 2575
756 2069 2675
752 2100 2777
764 2143 2879
776 2186 2981
2623 2616 782
2651 2681 890
2678 2745 999
2686 2805 1136
2656 2855 1330
2625 2904 1524
2490 2911 1760
2303 2897 2018
2115 2883 2275
1775 2718 2404
1435 2552 2533
1150 2411 2639
975 2316 2700
801 2222 2760
750 2221 2847
761 2265 2948
771 2310 3048
2757 2822 831
2784 2879 939
2812 2935 1046
2825 2987 1177
2808 3029 1352
2792 3072 1528
2689 3092 1764
2544 3100 2029
2398 3109 2294
2088 3005 2482
1778 2902 2670
1467 2768 2803
1157 2571 2824
846 2375 2846
749 2341 2918
758 2388 3016
766 2435 3115
2850 2992 883
2875 3040 993
2900 3088 1102
2914 3132 1227
2906 3166 1384
2899 3200 1542
2821 3224 1766
2709 3243 2025
2597 3261 2283
2326 3197 2501
2055 3133 2718
1759 3024 2877
1412 2828 2917
1064 2632 2958
901 2559 3018
829 2549 3088
757 2539 3158
2923 3143 937
2944 3183 1049
2965 3222 1161
2978 3257 1282
2977 3283 1421
2975 3310 1559
2920 3333 1769
2837 3355 2013
2754 3378 2258
2527 3341 2489
2300 3304 2721
2037 3231 2905
1703 3085 2995
1368 2940 3084
1129 2827 3133
937 2729 3161
746 2632 3190
2995 3294 991
3013 3325 1106
3030 3356 1221
3043 3383 1338
3048 3401 1458
3052 3419 1577
3018 3442 1771
2965 3468 2001
2911 3494 2232
2728 3484 2478
2545 3474 2724
2316 3437 2934
1994 3343 3072
1673 3249 3210
1358 3094 3248
1046 2909 3234
734 2725 3221
1375 894 431
1133 737 423
891 580 415
719 470 418
687 452 440
655 434 463
628 420 488
604 409 514
579 397 540
561 390 576
542 383 611
526 376 649
513 373 693
501 370 737
494 369 788
490 371 843
485 373 897
1237 855 391
1055 757 438
872 660 486
742 591 532
714 581 572
687 570 613
664 564 653
644 561 692
623 557 731
608 558 777
593 559 824
580 561 873
572 566 929
564 570 985
561 577 1049
561 585 1117
