Assets/1__3DArt/KimSe/artstation_asset/LUTs_subway_asset/3DL/Yellow Line 05.3dl
# LUT by SparkleStock. Enhanced with VOXCOLOR algorithms.
0 128 256 384 512 640 768 896 1023
192 288 336
208 296 390
217 307 448
221 319 509
225 332 574
229 349 653
233 370 741
237 393 838
240 416 945
336 466 346
256 447 512
230 445 612
232 456 686
236 475 775
244 503 881
253 534 997
264 568 1121
274 604 1253
674 743 364
661 858 674
456 762 825
257 636 910
262 660 1018
276 702 1154
293 749 1298
312 798 1449
331 848 1602
1178 1126 390
1280 1392 807
948 1272 1064
511 1016 1207
299 877 1281
319 936 1444
346 1002 1617
375 1071 1793
405 1137 1965
1821 1618 426
1970 1917 844
1760 1992 1304
1211 1755 1604
339 1117 1541
368 1193 1727
406 1281 1925
448 1374 2125
491 1461 2314
2431 2183 473
2548 2409 828
2429 2523 1319
2039 2452 1792
1343 2125 2094
651 1632 2028
457 1548 2157
511 1666 2375
568 1781 2577
2881 2705 529
2955 2845 818
2898 2948 1288
2652 2959 1830
2161 2825 2335
1333 2340 2412
796 2027 2461
557 1923 2556
626 2064 2772
3163 3143 599
3198 3208 827
3179 3274 1243
3050 3309 1778
2757 3279 2364
2108 3038 2709
1349 2621 2770
770 2289 2763
661 2306 2904
3266 3459 689
3282 3479 869
3284 3510 1217
3235 3536 1699
3098 3545 2279
2672 3443 2752
2043 3228 3019
1334 2910 3090
672 2498 2978
1006 657 363
566 455 419
398 378 471
367 367 522
339 360 577
321 362 642
309 369 714
300 382 794
296 400 882
805 635 365
526 611 591
426 605 719
415 612 801
407 626 889
403 649 989
403 679 1098
406 712 1216
413 748 1340
1075 889 379
914 967 679
658 919 905
456 853 1068
451 877 1178
457 917 1307
467 963 1444
481 1013 1589
500 1064 1737
1597 1304 403
1532 1441 715
1159 1378 1051
729 1235 1326
491 1132 1457
500 1184 1607
519 1244 1766
544 1309 1930
574 1375 2094
2156 1763 432
2185 1947 728
1992 2037 1177
1477 1901 1579
541 1407 1736
553 1469 1901
578 1544 2077
613 1626 2256
654 1706 2431
2664 2274 471
2722 2450 751
2633 2567 1190
2303 2548 1680
1639 2315 2113
866 1902 2174
632 1829 2320
672 1925 2506
722 2023 2685
3043 2754 521
3097 2894 799
3068 2997 1200
2881 3027 1695
2460 2947 2253
1606 2551 2471
1010 2285 2589
716 2188 2695
768 2301 2874
3284 3166 585
3319 3259 876
3318 3327 1227
3232 3361 1672
3009 3355 2245
2417 3174 2679
1619 2825 2839
961 2536 2892
794 2535 3007
3379 3475 671
3393 3523 989
3402 3555 1292
3377 3576 1660
3291 3591 2176
2945 3526 2685
2363 3358 3021
1622 3088 3163
797 2718 3088
1876 1120 376
1264 763 450
945 593 519
797 528 579
699 489 627
619 462 681
552 443 740
499 434 806
457 435 879
1577 1001 380
1195 935 649
964 871 801
836 822 889
762 797 963
702 786 1044
653 786 1134
616 795 1232
591 812 1337
1587 1084 393
1371 1157 701
1093 1145 991
874 1110 1213
834 1113 1319
805 1130 1432
785 1157 1553
774 1190 1680
772 1230 1813
1885 1378 413
1783 1497 688
1480 1524 1097
1133 1488 1474
899 1422 1656
895 1465 1796
900 1516 1942
913 1573 2092
934 1632 2245
2448 1895 435
2426 2026 689
2273 2116 1128
1831 2049 1594
942 1710 1932
938 1762 2086
950 1825 2246
973 1894 2409
1007 1965 2569
2882 2377 469
2906 2516 723
2849 2623 1140
2593 2637 1638
2020 2496 2139
1241 2168 2317
994 2110 2487
1021 2189 2651
1062 2271 2811
3199 2819 513
3238 2944 790
3232 3042 1185
3105 3087 1667
2780 3053 2204
1970 2747 2532
1370 2531 2714
1054 2446 2838
1094 2536 2992
3400 3198 573
3432 3295 890
3446 3368 1274
3400 3412 1714
3251 3420 2200
2751 3292 2672
1975 3010 2905
1301 2767 3016
1104 2755 3120
3483 3487 652
3500 3550 1028
3514 3594 1419
3508 3622 1813
3464 3636 2200
3209 3598 2680
2708 3473 3041
1992 3251 3231
1090 2925 3202
2679 1608 377
2104 1171 473
1719 928 568
1476 809 652
1325 746 713
1158 678 762
1010 621 813
883 578 869
777 548 930
2424 1472 386
2042 1360 684
1724 1229 858
1490 1117 959
1359 1059 1035
1212 996 1098
1084 947 1166
976 913 1242
891 895 1325
2216 1392 399
2007 1460 727
1739 1460 1065
1513 1428 1330
1429 1405 1441
1333 1378 1534
1250 1363 1632
1184 1360 1735
1134 1368 1845
2234 1505 416
2154 1644 697
1946 1737 1161
1698 1773 1608
1497 1742 1837
1454 1758 1964
1421 1782 2092
1398 1815 2223
1388 1854 2357
2657 1946 436
2634 2083 686
2527 2180 1119
2201 2181 1634
1523 2028 2133
1507 2069 2283
1504 2120 2432
1513 2176 2580
1532 2235 2728
3064 2454 465
3076 2577 718
3042 2674 1130
2870 2715 1641
2471 2670 2190
1765 2434 2468
1533 2396 2661
1546 2459 2811
1575 2525 2955
3344 2884 506
3371 2991 784
3376 3081 1197
3306 3138 1691
3106 3147 2210
2414 2932 2608
1868 2770 2841
1562 2702 2988
1594 2773 3126
3511 3233 561
3538 3323 886
3559 3399 1326
3546 3454 1806
3472 3477 2246
3097 3398 2701
2411 3183 2981
1785 2989 3143
1586 2975 3247
3580 3498 636
3600 3567 1025
3618 3623 1523
3625 3663 2006
3614 3681 2350
3454 3663 2745
3066 3576 3087
2436 3403 3305
1552 3127 3325
3290 2055 370
2886 1627 482
2579 1359 596
2366 1215 711
2239 1159 824
1975 1040 874
1728 933 925
1505 841 976
1310 767 1031
3120 1952 376
2846 1825 695
2585 1662 890
2376 1527 1021
2256 1481 1145
2004 1359 1201
1773 1252 1258
1569 1164 1318
1396 1095 1384
2966 1879 389
2799 1913 745
2577 1882 1111
2372 1828 1404
2257 1793 1543
2051 1695 1615
1865 1613 1687
1703 1549 1764
1570 1505 1847
2838 1842 409
2763 1963 714
2594 2047 1204
2401 2090 1684
2256 2087 1960
2127 2041 2062
2013 2008 2163
1916 1988 2264
1840 1983 2370
2744 1851 435
2755 2045 682
2676 2184 1114
2512 2283 1682
2267 2356 2339
2242 2389 2491
2224 2427 2633
2214 2468 2770
2213 2515 2903
3192 2465 459
3208 2602 710
3177 2704 1124
3098 2781 1662
2973 2840 2284
2425 2702 2633
2236 2688 2845
2235 2737 2985
2248 2789 3117
3467 2929 498
3489 3031 776
3489 3113 1194
3467 3178 1712
3423 3233 2294
2925 3113 2714
2494 3009 2980
2236 2963 3149
2257 3018 3277
3613 3268 553
3636 3351 879
3653 3420 1327
3663 3480 1849
3662 3531 2398
3442 3496 2782
2918 3350 3077
2409 3212 3281
2237 3200 3389
3671 3511 623
3692 3579 1018
3711 3637 1529
3725 3687 2087
3735 3730 2629
3671 3725 2888
3426 3674 3173
2947 3552 3394
2184 3335 3463
3594 2350 368
3364 2024 480
3184 1807 602
3053 1678 731
2966 1617 862
2870 1575 971
2650 1462 1049
2373 1319 1110
2110 1191 1170
3496 2314 371
3341 2214 694
3188 2079 897
3060 1959 1039
2979 1909 1179
2892 1873 1295
2679 1761 1377
2413 1621 1441
2166 1497 1504
3405 2294 380
3309 2312 752
3178 2279 1129
3055 2226 1432
2977 2186 1584
2906 2163 1708
2720 2070 1797
2486 1950 1868
2273 1847 1938
3325 2290 394
3279 2371 730
3179 2428 1239
3062 2455 1731
2967 2444 2014
2920 2442 2151
2778 2381 2253
2598 2299 2337
2437 2232 2420
3259 2303 416
3262 2444 703
3212 2545 1168
3110 2620 1755
2958 2682 2412
2939 2705 2566
2859 2690 2689
2755 2662 2794
2664 2643 2896
3352 2504 443
3380 2656 704
3365 2770 1127
3310 2856 1671
3216 2923 2298
3009 2926 2737
2914 2941 2973
2882 2964 3103
2861 2991 3224
3531 2884 484
3560 3007 763
3565 3102 1182
3547 3176 1705
3506 3236 2293
3329 3245 2802
3092 3212 3111
2918 3191 3292
2926 3234 3415
3696 3278 540
3718 3362 868
3732 3430 1320
3738 3487 1849
3735 3536 2406
3668 3559 2864
3358 3487 3191
3030 3406 3405
2909 3403 3522
3751 3522 612
3771 3590 1009
3789 3646 1526
3802 3695 2094
3810 3737 2646
3795 3765 3021
3677 3749 3299
3388 3675 3487
2858 3526 3593
3781 2549 379
3675 2345 486
3590 2203 610
3525 2111 746
3480 2061 889
3456 2046 1028
3345 1985 1141
3156 1875 1233
2900 1712 1308
3732 2580 381
3661 2524 704
3590 2436 908
3529 2353 1054
3488 2313 1203
3470 2306 1346
3365 2251 1463
3183 2145 1556
2935 1987 1630
3687 2615 387
3642 2633 773
3581 2613 1152
3522 2578 1455
3483 2546 1611
3470 2549 1758
3379 2506 1877
3216 2415 1972
2989 2276 2046
3646 2653 398
3623 2708 762
3575 2749 1282
3518 2769 1773
3471 2762 2052
3462 2773 2202
3390 2747 2325
3259 2682 2424
3069 2575 2502
3609 2692 415
3610 2787 745
3584 2856 1237
3533 2909 1831
3455 2959 2466
3448 2978 2619
3404 2974 2748
3316 2943 2854
3179 2878 2941
3591 2757 439
3612 2879 738
3607 2971 1190
3577 3042 1749
3523 3100 2365
3463 3145 2811
3433 3175 3048
3401 3186 3172
3335 3173 3277
3663 2974 470
3688 3089 769
3696 3179 1206
3686 3248 1739
3659 3305 2326
3609 3355 2853
3515 3371 3183
3432 3378 3377
3414 3398 3493
3762 3259 519
3784 3351 851
3797 3424 1307
3802 3483 1841
3798 3533 2404
3781 3576 2891
3649 3574 3256
3500 3558 3499
3430 3563 3621
3826 3528 596
3843 3595 996
3858 3651 1518
3869 3698 2093
3875 3739 2653
3875 3778 3071
3835 3794 3367
3695 3767 3565
3395 3679 3692
3888 2675 400
3859 2594 508
3836 2530 633
3818 2483 773
3805 2453 923
3798 2442 1073
3789 2437 1214
3725 2391 1339
3552 2258 1438
3871 2764 406
3852 2760 730
3832 2727 934
3816 2687 1079
3807 2666 1232
3804 2662 1384
3802 2663 1528
3745 2623 1654
3575 2496 1751
3855 2847 414
3843 2877 811
3825 2882 1189
3808 2872 1485
3800 2857 1640
3801 2861 1791
3805 2870 1935
3755 2840 2060
3597 2726 2154
3840 2924 424
3834 2968 816
3819 3005 1339
3801 3028 1820
3788 3030 2086
3791 3041 2235
3799 3058 2377
3760 3040 2500
3622 2949 2592
3828 2997 438
3828 3058 811
3819 3105 1326
3801 3146 1916
3774 3188 2512
3777 3204 2658
3789 3227 2797
3763 3225 2917
3654 3164 3009
3820 3069 456
3826 3145 809
3825 3205 1302
3815 3255 1875
3796 3300 2469
3775 3340 2871
3779 3373 3092
3767 3385 3211
3699 3359 3310
3819 3151 476
3832 3240 816
3838 3309 1288
3835 3366 1841
3824 3415 2422
3801 3462 2912
3788 3502 3231
3776 3529 3424
3753 3538 3533
3838 3289 511
3855 3378 861
3866 3448 1338
3871 3505 1887
3867 3554 2455
3853 3598 2930
3832 3639 3303
3808 3671 3558
3785 3686 3681
3894 3528 573
3907 3596 976
3919 3650 1503
3929 3696 2084
3933 3736 2652
3931 3775 3076
3925 3811 3394
3882 3823 3616
3765 3791 3756
3955 2754 432
3958 2771 550
3961 2773 683
3963 2767 828
3964 2758 982
3964 2751 1135
3960 2747 1281
3952 2747 1421
3939 2754 1553
3954 2882 447
3955 2929 778
3957 2945 984
3958 2945 1130
3960 2942 1283
3962 2940 1435
3964 2941 1581
3964 2945 1722
3963 2954 1857
3951 2996 460
3953 3049 872
3951 3082 1247
3950 3098 1534
3951 3100 1684
3955 3105 1832
3961 3112 1975
3968 3121 2114
3975 3133 2248
3949 3098 474
3949 3148 895
3946 3193 1418
3942 3226 1882
3940 3239 2129
3944 3250 2270
3953 3263 2408
3966 3278 2541
3981 3296 2670
3947 3194 488
3946 3240 907
3944 3283 1442
3939 3324 2018
3931 3367 2559
3934 3380 2693
3944 3399 2823
3961 3421 2949
3983 3444 3071
3949 3284 505
3946 3329 915
3943 3371 1448
3939 3411 2032
3935 3453 2590
3931 3489 2931
3937 3517 3124
3954 3542 3242
3980 3572 3356
3951 3369 520
3949 3417 924
3948 3460 1454
3946 3500 2039
3944 3541 2607
3939 3584 3026
3938 3620 3291
3947 3651 3452
3972 3684 3559
3954 3450 534
3954 3504 935
3957 3551 1463
3959 3593 2049
3960 3633 2621
3956 3675 3049
3948 3714 3367
3946 3749 3580
3959 3780 3695
3955 3523 544
3963 3591 951
3971 3645 1481
3979 3689 2067
3984 3729 2642
3981 3768 3074
3973 3805 3396
3959 3836 3625
3939 3859 3779
