Assets/1__3DArt/KimSe/artstation_asset/LUTs_subway_asset/3DL/Yellow Line 04.3dl
# LUT by SparkleStock. Enhanced with VOXCOLOR algorithms.
0 128 256 384 512 640 768 896 1023
48 112 176
58 161 301
66 209 426
72 255 556
76 301 694
79 348 853
82 396 1026
87 446 1212
96 496 1409
219 354 235
120 389 477
87 422 644
87 461 783
90 510 944
94 567 1130
100 627 1327
108 688 1533
119 749 1745
587 688 327
537 834 685
317 785 899
114 702 1053
112 750 1228
118 819 1438
125 890 1657
136 962 1879
149 1031 2101
1111 1107 451
1159 1374 875
797 1301 1171
349 1107 1375
141 1010 1521
146 1089 1750
154 1173 1986
167 1258 2222
181 1335 2448
1749 1604 603
1840 1883 1001
1564 1977 1438
988 1803 1756
174 1279 1794
175 1365 2036
183 1464 2285
196 1564 2529
211 1653 2755
2330 2125 757
2402 2333 1077
2221 2457 1516
1772 2429 1953
1042 2180 2268
408 1778 2303
204 1726 2489
216 1843 2737
232 1951 2963
2765 2591 887
2809 2725 1134
2702 2839 1538
2392 2883 2014
1825 2806 2478
1007 2412 2618
479 2161 2735
229 2082 2881
246 2210 3107
3055 2984 992
3073 3057 1182
3019 3141 1532
2834 3204 1989
2459 3216 2506
1736 3034 2851
974 2690 2975
403 2411 3037
253 2425 3200
3202 3282 1073
3207 3326 1232
3183 3379 1525
3086 3431 1931
2878 3471 2434
2360 3409 2874
1655 3234 3157
905 2959 3282
256 2594 3250
952 612 336
487 384 365
303 314 443
262 325 552
226 340 670
200 362 807
181 390 956
169 422 1116
164 459 1287
757 600 323
429 569 551
301 582 720
277 618 866
259 660 1022
249 709 1194
243 762 1377
241 818 1570
244 874 1772
1030 874 400
820 945 693
526 929 949
296 906 1167
280 955 1344
275 1018 1540
275 1086 1745
279 1154 1956
287 1221 2171
1548 1303 527
1445 1422 812
1022 1392 1147
550 1302 1451
298 1242 1645
292 1311 1856
294 1387 2074
301 1464 2292
311 1538 2507
2087 1753 661
2086 1911 928
1836 2007 1329
1271 1923 1715
322 1537 1933
313 1609 2153
313 1692 2377
322 1778 2598
335 1859 2808
2562 2214 796
2598 2367 1040
2463 2486 1418
2072 2500 1852
1343 2337 2263
582 2011 2401
331 1967 2598
338 2063 2817
352 2155 3020
2921 2636 914
2963 2766 1147
2901 2873 1482
2657 2927 1904
2156 2897 2397
1267 2590 2650
658 2381 2823
349 2310 2977
363 2413 3174
3165 3002 1016
3195 3100 1251
3173 3178 1538
3043 3234 1910
2746 3266 2402
2060 3143 2814
1228 2865 3017
561 2627 3131
367 2629 3279
3295 3293 1103
3308 3361 1355
3302 3410 1601
3244 3451 1909
3101 3496 2347
2656 3471 2809
1978 3348 3146
1178 3124 3332
367 2800 3341
1851 1134 478
1243 773 478
919 602 527
759 539 607
643 506 701
549 488 813
470 480 938
407 481 1074
360 492 1220
1558 1022 447
1143 940 667
892 878 812
749 840 926
656 836 1054
582 844 1199
521 862 1356
473 887 1523
440 920 1701
1569 1113 478
1312 1161 751
993 1154 1025
739 1140 1262
673 1167 1428
627 1206 1604
592 1252 1787
567 1301 1977
552 1354 2174
1854 1401 566
1719 1492 811
1363 1522 1181
961 1514 1547
686 1490 1780
661 1551 1978
646 1617 2180
640 1685 2382
641 1752 2585
2382 1883 708
2338 1988 927
2145 2073 1296
1647 2041 1710
685 1794 2066
660 1856 2273
648 1927 2480
647 2000 2683
653 2072 2879
2779 2307 832
2790 2427 1048
2704 2530 1391
2396 2566 1812
1742 2483 2263
926 2235 2494
651 2205 2706
651 2282 2903
661 2359 3089
3075 2691 941
3107 2807 1168
3082 2908 1488
2915 2972 1885
2516 2976 2345
1634 2751 2681
994 2588 2902
652 2527 3069
663 2610 3246
3274 3023 1038
3304 3125 1291
3308 3211 1597
3234 3275 1955
3028 3312 2363
2429 3237 2795
1590 3020 3054
878 2826 3215
659 2820 3355
3383 3295 1126
3400 3376 1418
3408 3442 1727
3383 3493 2046
3301 3528 2369
2956 3527 2799
2352 3445 3150
1559 3268 3374
647 2985 3424
2643 1622 598
2107 1237 606
1737 1007 644
1491 883 705
1325 816 783
1140 745 871
977 688 971
838 645 1084
724 615 1207
2402 1508 575
2015 1400 796
1696 1268 916
1456 1156 996
1307 1107 1098
1140 1055 1208
994 1018 1331
873 995 1466
777 986 1612
2201 1439 567
1966 1485 845
1670 1471 1122
1416 1440 1354
1305 1434 1499
1184 1425 1644
1080 1427 1797
996 1438 1958
933 1459 2127
2210 1541 607
2099 1650 861
1848 1724 1253
1550 1761 1645
1299 1761 1895
1226 1796 2076
1168 1836 2256
1125 1881 2438
1095 1929 2622
2598 1940 730
2554 2050 950
2417 2134 1300
2039 2148 1733
1270 2052 2198
1222 2108 2400
1192 2168 2595
1175 2231 2784
1169 2292 2967
2964 2376 859
2963 2483 1072
2911 2574 1400
2702 2627 1815
2230 2620 2286
1446 2454 2589
1173 2440 2816
1163 2504 3000
1166 2568 3172
3218 2743 966
3238 2845 1192
3235 2940 1519
3142 3012 1913
2889 3048 2342
2101 2902 2724
1492 2786 2981
1148 2741 3164
1156 2806 3326
3380 3047 1059
3404 3142 1315
3421 3235 1662
3395 3312 2043
3289 3358 2403
2823 3322 2809
2053 3164 3098
1363 3014 3297
1139 3005 3435
3468 3293 1144
3486 3379 1447
3501 3464 1836
3501 3533 2219
3470 3570 2502
3245 3582 2851
2761 3532 3178
2041 3399 3419
1111 3163 3506
3228 2021 689
2865 1684 715
2586 1465 764
2389 1340 832
2267 1285 915
1991 1152 977
1733 1035 1053
1500 935 1141
1299 853 1241
3067 1942 679
2795 1844 906
2549 1709 1031
2353 1591 1112
2237 1546 1208
1969 1426 1283
1724 1323 1373
1507 1239 1476
1325 1175 1591
2919 1888 677
2738 1919 960
2508 1891 1238
2301 1840 1459
2186 1804 1572
1954 1720 1675
1746 1652 1789
1566 1600 1913
1419 1566 2048
2794 1864 686
2700 1963 949
2505 2030 1343
2288 2063 1728
2129 2058 1962
1962 2033 2108
1816 2017 2255
1695 2012 2404
1600 2018 2559
2702 1875 711
2688 2032 944
2577 2149 1303
2374 2237 1773
2082 2309 2335
2006 2362 2536
1950 2415 2722
1911 2467 2898
1888 2520 3071
3099 2390 867
3100 2508 1083
3050 2602 1412
2949 2681 1839
2797 2752 2349
2145 2669 2698
1907 2677 2934
1882 2730 3109
1874 2783 3271
3344 2780 986
3358 2876 1211
3348 2963 1536
3315 3042 1942
3258 3118 2410
2663 3048 2794
2157 2982 3070
1849 2955 3268
1853 3008 3420
3481 3071 1080
3501 3160 1337
3512 3245 1685
3516 3328 2094
3510 3410 2535
3228 3404 2870
2613 3303 3161
2024 3201 3387
1820 3194 3527
3549 3294 1162
3568 3380 1470
3583 3464 1866
3594 3547 2305
3602 3628 2743
3507 3640 2972
3189 3615 3242
2620 3526 3476
1773 3342 3598
3516 2256 748
3311 2014 791
3148 1854 852
3028 1758 928
2948 1713 1015
2853 1673 1106
2634 1557 1180
2361 1409 1252
2100 1275 1335
3419 2233 755
3263 2171 984
3119 2073 1115
3002 1982 1203
2926 1944 1301
2838 1914 1401
2623 1807 1483
2356 1671 1561
2109 1551 1652
3330 2225 766
3222 2255 1050
3086 2238 1327
2962 2201 1547
2888 2169 1659
2813 2154 1773
2618 2071 1871
2375 1962 1964
2155 1870 2069
3251 2231 782
3190 2308 1051
3072 2364 1442
2941 2393 1819
2842 2389 2044
2786 2393 2179
2627 2346 2299
2428 2279 2414
2253 2225 2536
3185 2252 805
3171 2374 1051
3100 2467 1416
2974 2539 1878
2797 2603 2414
2764 2633 2572
2659 2632 2721
2528 2619 2863
2416 2612 3003
3264 2425 875
3275 2558 1101
3243 2664 1434
3169 2750 1861
3052 2824 2363
2804 2848 2761
2676 2879 3007
2617 2914 3171
2576 2949 3322
3420 2744 983
3437 2857 1212
3432 2954 1538
3401 3038 1944
3346 3115 2410
3131 3151 2855
2841 3146 3157
2620 3144 3361
2613 3191 3510
3567 3078 1096
3584 3167 1353
3593 3249 1699
3594 3328 2106
3585 3404 2546
3496 3457 2937
3123 3420 3245
2730 3366 3471
2580 3368 3615
3623 3300 1182
3642 3382 1490
3657 3463 1885
3668 3542 2325
3673 3620 2764
3649 3679 3089
3495 3688 3346
3143 3634 3542
2527 3508 3687
3693 2412 799
3600 2270 857
3523 2173 928
3463 2114 1010
3421 2085 1101
3398 2081 1202
3291 2026 1290
3110 1920 1370
2865 1761 1446
3645 2444 825
3570 2422 1055
3502 2367 1190
3446 2312 1281
3407 2289 1380
3391 2291 1488
3287 2242 1581
3109 2143 1665
2868 1996 1743
3600 2482 850
3544 2518 1135
3478 2519 1408
3418 2502 1622
3381 2483 1732
3370 2492 1848
3276 2455 1951
3111 2374 2044
2884 2249 2129
3558 2525 876
3522 2586 1152
3462 2637 1536
3397 2667 1900
3348 2669 2113
3340 2685 2239
3263 2666 2355
3122 2612 2462
2924 2520 2560
3520 2569 904
3506 2660 1163
3467 2732 1531
3402 2793 1980
3313 2850 2480
3305 2871 2617
3251 2876 2750
3148 2857 2875
2995 2807 2989
3498 2632 941
3505 2745 1182
3486 2836 1526
3443 2913 1950
3374 2981 2432
3303 3038 2819
3258 3079 3049
3210 3100 3195
3128 3098 3327
3557 2816 1013
3571 2927 1250
3568 3020 1582
3548 3100 1986
3509 3173 2443
3447 3242 2891
3328 3278 3199
3219 3300 3405
3189 3329 3547
3642 3061 1105
3656 3157 1360
3664 3242 1704
3664 3321 2108
3653 3394 2545
3629 3465 2954
3468 3488 3287
3284 3494 3532
3193 3509 3679
3697 3304 1204
3714 3385 1507
3728 3462 1900
3738 3538 2336
3742 3612 2775
3739 3684 3130
3686 3726 3399
3514 3719 3600
3154 3644 3753
3796 2512 847
3774 2460 923
3751 2424 1004
3731 2403 1092
3716 2394 1185
3708 2396 1285
3701 2401 1386
3645 2366 1481
3488 2245 1561
3782 2592 894
3758 2612 1125
3738 2600 1263
3722 2581 1358
3711 2575 1457
3708 2581 1562
3706 2591 1668
3652 2559 1766
3493 2444 1846
3767 2672 935
3745 2719 1220
3722 2741 1486
3705 2747 1693
3696 2743 1801
3697 2754 1912
3701 2768 2024
3652 2745 2126
3497 2644 2209
3751 2750 973
3734 2804 1256
3710 2854 1630
3688 2890 1976
3675 2901 2174
3679 2917 2292
3687 2937 2411
3647 2926 2521
3505 2847 2611
3736 2823 1009
3724 2889 1281
3706 2946 1651
3681 3000 2081
3651 3054 2537
3655 3073 2663
3667 3100 2789
3638 3103 2908
3520 3054 3011
3723 2892 1043
3720 2972 1303
3709 3040 1660
3691 3102 2080
3666 3162 2532
3644 3214 2872
3647 3254 3075
3632 3272 3203
3554 3257 3321
3716 2967 1080
3720 3058 1333
3718 3137 1678
3708 3208 2085
3691 3274 2527
3663 3338 2936
3648 3391 3225
3632 3430 3422
3600 3452 3554
3728 3090 1136
3738 3185 1397
3743 3268 1746
3742 3343 2153
3734 3413 2586
3715 3480 2979
3690 3542 3314
3661 3592 3566
3627 3620 3711
3769 3304 1226
3783 3386 1522
3795 3462 1908
3803 3534 2340
3805 3603 2774
3801 3671 3128
3794 3735 3413
3743 3768 3633
3603 3747 3791
3859 2578 897
3872 2596 995
3874 2610 1090
3871 2621 1183
3866 2629 1277
3863 2635 1374
3861 2641 1472
3860 2648 1569
3859 2658 1665
3866 2696 965
3867 2753 1201
3868 2779 1345
3870 2789 1442
3868 2798 1540
3869 2806 1641
3871 2814 1742
3874 2822 1843
3876 2831 1944
3869 2807 1024
3863 2871 1311
3860 2915 1570
3860 2939 1768
3861 2948 1872
3865 2959 1977
3871 2971 2082
3878 2983 2187
3886 2995 2291
3868 2910 1075
3860 2967 1366
3852 3023 1728
3847 3066 2052
3848 3086 2234
3854 3100 2343
3863 3116 2453
3875 3133 2562
3889 3152 2671
3864 3005 1121
3855 3058 1408
3845 3109 1777
3838 3162 2184
3833 3217 2586
3839 3232 2702
3850 3253 2817
3867 3278 2933
3887 3304 3048
3859 3089 1158
3851 3143 1439
3842 3196 1808
3835 3249 2222
3829 3305 2638
3829 3352 2923
3838 3385 3098
3855 3414 3218
3879 3450 3339
3855 3166 1191
3849 3226 1468
3843 3283 1838
3838 3340 2256
3833 3397 2679
3830 3456 3026
3831 3503 3267
3842 3545 3433
3867 3585 3556
3850 3236 1220
3849 3306 1499
3848 3371 1870
3847 3433 2291
3844 3494 2718
3839 3555 3070
3834 3612 3357
3834 3664 3571
3850 3707 3705
3843 3298 1249
3849 3385 1535
3856 3461 1911
3861 3530 2334
3862 3595 2762
3857 3658 3114
3850 3717 3400
3840 3770 3625
3827 3811 3795
