Assets/1__3DArt/KimSe/artstation_asset/LUTs_subway_asset/3DL/Yellow Line 05.3dl
# LUT by SparkleStock. Enhanced with VOXCOLOR algorithms.
0 256 512 768 1023
192 288 336
217 307 448
225 332 574
233 370 741
240 416 945
674 743 364
456 762 825
262 660 1018
293 749 1298
331 848 1602
1821 1618 426
1760 1992 1304
339 1117 1541
406 1281 1925
491 1461 2314
2881 2705 529
2898 2948 1288
2161 2825 2335
796 2027 2461
626 2064 2772
3266 3459 689
3284 3510 1217
3098 3545 2279
2043 3228 3019
672 2498 2978
1876 1120 376
945 593 519
699 489 627
552 443 740
457 435 879
1587 1084 393
1093 1145 991
834 1113 1319
785 1157 1553
772 1230 1813
2448 1895 435
2273 2116 1128
942 1710 1932
950 1825 2246
1007 1965 2569
3199 2819 513
3232 3042 1185
2780 3053 2204
1370 2531 2714
1094 2536 2992
3483 3487 652
3514 3594 1419
3464 3636 2200
2708 3473 3041
1090 2925 3202
3290 2055 370
2579 1359 596
2239 1159 824
1728 933 925
1310 767 1031
2966 1879 389
2577 1882 1111
2257 1793 1543
1865 1613 1687
1570 1505 1847
2744 1851 435
2676 2184 1114
2267 2356 2339
2224 2427 2633
2213 2515 2903
3467 2929 498
3489 3113 1194
3423 3233 2294
2494 3009 2980
2257 3018 3277
3671 3511 623
3711 3637 1529
3735 3730 2629
3426 3674 3173
2184 3335 3463
3781 2549 379
3590 2203 610
3480 2061 889
3345 1985 1141
2900 1712 1308
3687 2615 387
3581 2613 1152
3483 2546 1611
3379 2506 1877
2989 2276 2046
3609 2692 415
3584 2856 1237
3455 2959 2466
3404 2974 2748
3179 2878 2941
3663 2974 470
3696 3179 1206
3659 3305 2326
3515 3371 3183
3414 3398 3493
3826 3528 596
3858 3651 1518
3875 3739 2653
3835 3794 3367
3395 3679 3692
3955 2754 432
3961 2773 683
3964 2758 982
3960 2747 1281
3939 2754 1553
3951 2996 460
3951 3082 1247
3951 3100 1684
3961 3112 1975
3975 3133 2248
3947 3194 488
3944 3283 1442
3931 3367 2559
3944 3399 2823
3983 3444 3071
3951 3369 520
3948 3460 1454
3944 3541 2607
3938 3620 3291
3972 3684 3559
3955 3523 544
3971 3645 1481
3984 3729 2642
3973 3805 3396
3939 3859 3779
