Assets/1__3DArt/KimSe/artstation_asset/LUTs_subway_asset/3DL/Yellow Line 01_S.3dl
# LUT by SparkleStock. Enhanced with VOXCOLOR algorithms.
0 64 128 192 256 320 384 448 512 576 640 704 768 832 896 960 1023
352 304 256
353 307 282
355 310 307
357 314 333
360 319 360
364 323 388
368 330 419
374 337 452
379 344 485
385 351 527
390 358 568
396 366 614
403 375 669
410 383 724
417 393 789
425 405 859
432 416 929
414 376 266
399 376 317
384 377 367
375 379 412
378 384 444
381 389 477
385 397 517
391 407 560
397 417 604
405 429 658
412 441 712
420 454 771
429 468 838
438 483 906
447 499 984
457 516 1066
467 533 1148
477 448 276
445 446 352
414 443 427
393 443 490
395 449 528
397 454 567
402 464 615
409 477 668
416 490 722
425 507 789
434 524 856
443 542 927
454 562 1008
465 583 1089
477 604 1178
489 627 1273
502 650 1367
577 543 290
546 555 394
515 568 498
485 570 581
456 554 625
427 538 669
422 543 726
429 559 789
436 575 853
447 598 932
457 621 1011
469 646 1095
482 673 1187
494 699 1279
508 728 1380
522 757 1484
537 786 1588
753 683 310
756 745 449
760 807 587
723 821 697
603 740 747
483 659 797
447 645 863
453 666 936
460 687 1009
472 718 1099
484 748 1189
497 780 1283
512 815 1385
526 850 1487
541 886 1594
556 922 1704
572 959 1814
928 823 330
967 935 504
1005 1047 677
960 1072 812
749 926 869
538 780 926
472 748 1000
478 773 1082
484 799 1165
497 837 1266
511 875 1368
525 915 1472
542 958 1583
558 1001 1695
574 1045 1809
590 1088 1924
606 1131 2039
1156 1010 357
1211 1142 542
1267 1275 728
1232 1323 887
1016 1204 993
800 1084 1099
673 1013 1179
591 967 1245
509 921 1311
522 967 1422
536 1013 1532
551 1061 1645
568 1113 1763
586 1166 1881
603 1217 1998
620 1268 2115
637 1318 2231
1409 1219 386
1473 1358 573
1538 1497 759
1521 1574 942
1343 1527 1119
1165 1479 1295
962 1359 1379
748 1204 1416
533 1048 1453
547 1102 1571
560 1156 1690
575 1213 1810
593 1275 1933
612 1336 2056
629 1396 2175
647 1454 2291
664 1512 2407
1662 1429 416
1735 1574 603
1808 1720 790
1810 1825 997
1670 1850 1245
1530 1875 1492
1252 1706 1579
905 1440 1587
558 1175 1594
571 1237 1721
584 1299 1848
599 1365 1975
619 1436 2103
638 1507 2231
656 1575 2351
674 1640 2467
692 1706 2583
1904 1664 450
1969 1793 624
2034 1921 797
2041 2023 1001
1931 2071 1266
1821 2119 1530
1579 2013 1678
1271 1831 1769
963 1648 1859
831 1583 1928
699 1518 1997
618 1501 2086
637 1581 2218
655 1660 2350
674 1735 2469
693 1807 2582
711 1880 2695
2147 1899 484
2204 2011 644
2261 2122 804
2272 2220 1005
2192 2292 1286
2112 2363 1568
1906 2320 1778
1637 2221 1951
1369 2121 2125
1092 1929 2136
815 1737 2146
636 1638 2198
655 1725 2333
673 1813 2468
692 1895 2587
712 1975 2697
731 2054 2808
2361 2124 520
2410 2217 666
2458 2310 813
2472 2401 1006
2417 2487 1296
2363 2573 1585
2193 2579 1840
1964 2546 2078
1736 2512 2316
1373 2261 2312
1011 2010 2308
760 1860 2344
732 1913 2460
704 1967 2575
708 2041 2686
728 2126 2794
749 2212 2903
2522 2327 561
2559 2400 692
2596 2473 823
2608 2548 1003
2571 2631 1282
2533 2713 1561
2397 2741 1829
2212 2741 2093
2027 2741 2356
1697 2566 2426
1368 2391 2496
1094 2253 2559
928 2187 2609
762 2121 2658
720 2159 2747
742 2248 2854
763 2337 2962
2683 2530 601
2708 2582 717
2734 2635 833
2745 2696 999
2724 2775 1268
2704 2853 1536
2602 2902 1818
2460 2935 2108
2317 2969 2397
2022 2871 2541
1726 2773 2684
1428 2646 2774
1124 2461 2758
820 2276 2742
733 2277 2808
755 2369 2914
776 2462 3021
2789 2685 653
2807 2724 757
2826 2763 861
2835 2813 1015
2824 2883 1266
2814 2954 1517
2738 3010 1797
2629 3059 2092
2520 3107 2388
2265 3057 2572
2010 3006 2757
1728 2909 2878
1391 2720 2873
1054 2532 2867
904 2490 2913
847 2522 2985
790 2555 3057
2867 2815 711
2881 2845 805
2896 2874 900
2903 2914 1039
2898 2974 1270
2893 3034 1501
2838 3091 1771
2758 3146 2062
2679 3201 2352
2468 3182 2563
2257 3164 2773
2011 3107 2927
1694 2972 2970
1378 2838 3013
1155 2752 3041
979 2691 3061
803 2630 3082
2946 2946 769
2955 2966 853
2965 2986 938
2971 3015 1064
2971 3065 1275
2972 3114 1485
2939 3172 1745
2888 3233 2031
2838 3294 2317
2671 3308 2553
2504 3323 2789
2294 3305 2976
1998 3224 3068
1701 3144 3160
1406 3014 3169
1111 2860 3137
817 2706 3106
681 474 295
597 429 315
513 384 335
455 354 356
448 354 379
442 355 401
439 356 428
436 359 456
434 362 485
435 365 522
435 369 559
436 373 600
439 378 650
442 384 699
447 392 758
452 401 821
457 410 885
670 507 294
598 481 348
526 455 401
476 438 448
472 441 480
467 443 513
466 449 551
465 456 591
465 463 631
468 473 682
471 482 732
474 493 786
480 506 850
486 518 913
493 534 986
501 550 1064
509 566 1141
660 540 293
599 533 380
539 526 467
498 522 540
495 527 582
492 532 625
493 541 674
494 552 726
496 564 778
501 580 841
506 596 904
512 613 972
521 633 1050
529 653 1127
539 675 1214
550 699 1306
561 722 1398
714 613 299
669 629 415
624 645 532
585 653 628
556 643 685
527 634 741
519 641 802
522 656 865
525 672 928
532 694 1003
539 717 1079
547 741 1159
558 768 1249
568 795 1338
581 824 1436
594 855 1539
607 885 1642
899 762 320
878 811 456
856 861 593
804 875 710
692 818 788
579 761 866
543 755 940
546 774 1013
548 794 1086
556 823 1171
565 852 1257
574 882 1347
587 917 1445
599 951 1543
613 988 1648
627 1025 1756
641 1062 1863
1085 912 341
1086 994 497
1088 1077 654
1023 1097 791
827 993 891
631 889 990
567 869 1078
570 893 1161
572 916 1243
581 951 1340
591 986 1436
602 1024 1536
616 1066 1642
630 1108 1749
645 1151 1859
660 1194 1972
675 1238 2085
1305 1095 367
1323 1194 530
1340 1293 692
1286 1332 848
1089 1253 990
892 1173 1133
769 1122 1234
682 1085 1313
596 1048 1392
606 1089 1497
616 1131 1602
627 1176 1709
642 1225 1821
657 1275 1933
673 1325 2046
689 1375 2160
705 1425 2273
1543 1295 396
1573 1402 557
1602 1509 718
1570 1574 891
1413 1555 1089
1256 1537 1286
1058 1444 1398
840 1314 1468
622 1184 1537
631 1233 1649
640 1281 1761
652 1333 1875
668 1390 1991
683 1447 2107
700 1504 2221
716 1560 2334
733 1616 2446
1781 1495 425
1823 1610 585
1864 1725 745
1853 1816 935
1737 1858 1187
1621 1900 1438
1348 1766 1562
998 1543 1622
647 1321 1682
656 1376 1802
665 1431 1921
676 1489 2040
693 1555 2161
709 1620 2281
726 1683 2396
744 1746 2507
761 1808 2619
2005 1718 458
2046 1823 610
2087 1929 762
2085 2019 949
1996 2077 1208
1907 2135 1467
1674 2056 1641
1370 1908 1773
1066 1760 1905
925 1703 1984
785 1645 2062
697 1631 2156
713 1702 2279
729 1774 2401
746 1843 2514
764 1911 2622
782 1979 2730
2229 1940 491
2270 2036 635
2310 2132 778
2317 2222 963
2254 2296 1230
2192 2371 1496
2000 2346 1721
1743 2272 1924
1485 2199 2127
1195 2029 2166
905 1860 2204
717 1772 2271
732 1850 2396
748 1928 2521
766 2003 2632
784 2076 2737
803 2149 2841
2429 2153 525
2467 2238 662
2505 2324 798
2517 2408 978
2477 2492 1245
2438 2575 1511
2283 2593 1771
2071 2578 2028
1859 2562 2284
1484 2342 2319
1109 2121 2353
848 1989 2412
815 2036 2520
782 2082 2628
783 2149 2732
802 2226 2834
822 2304 2935
2580 2348 564
2611 2419 694
2642 2490 824
2654 2563 995
2628 2640 1247
2602 2717 1498
2480 2751 1765
2311 2764 2039
2142 2777 2313
1811 2627 2414
1481 2478 2515
1201 2358 2601
1022 2296 2656
844 2234 2711
798 2267 2795
817 2346 2895
837 2426 2995
2730 2543 603
2755 2599 726
2780 2656 850
2792 2717 1012
2779 2788 1249
2766 2859 1486
2678 2909 1759
2552 2950 2050
2426 2991 2341
2139 2912 2509
1852 2834 2677
1554 2726 2790
1230 2556 2792
907 2387 2793
812 2385 2859
832 2467 2956
852 2549 3054
2831 2694 653
2851 2740 774
2870 2786 895
2881 2838 1049
2876 2900 1267
2870 2962 1485
2806 3017 1751
2712 3069 2041
2618 3121 2331
2377 3086 2534
2136 3051 2738
1858 2971 2879
1507 2800 2894
1157 2629 2908
997 2589 2958
932 2614 3024
867 2639 3090
2907 2822 709
2922 2861 829
2937 2899 950
2947 2942 1096
2945 2994 1293
2944 3045 1490
2899 3100 1742
2832 3155 2022
2766 3211 2301
2570 3204 2524
2375 3198 2747
2138 3154 2917
1819 3035 2978
1500 2916 3040
1266 2836 3074
1073 2775 3095
881 2713 3115
2983 2951 765
2994 2981 885
3004 3012 1004
3012 3045 1143
3015 3087 1319
3017 3129 1496
2992 3182 1734
2952 3241 2003
2913 3300 2272
2764 3323 2514
2614 3345 2757
2419 3338 2955
2131 3271 3063
1844 3204 3172
1535 3083 3191
1215 2935 3165
895 2787 3140
1010 643 335
841 550 349
671 458 363
552 395 379
536 390 397
520 386 414
509 383 436
499 381 461
489 379 485
484 379 518
480 379 550
476 380 587
476 382 630
475 385 674
477 390 727
479 397 784
481 403 841
927 638 322
797 585 379
667 533 435
577 498 484
565 498 516
554 498 549
546 501 585
539 505 622
533 509 659
531 516 705
529 524 752
529 532 802
532 543 861
534 554 920
539 568 988
545 584 1061
551 599 1135
842 633 309
753 621 408
664 608 508
602 601 589
595 606 637
587 610 684
583 618 733
580 628 783
577 638 833
578 653 893
579 668 953
582 685 1018
587 704 1091
593 724 1165
601 746 1250
611 771 1339
620 795 1428
851 682 308
793 702 437
734 722 566
685 735 675
656 732 744
626 730 813
616 738 878
615 753 940
613 768 1003
617 790 1075
620 812 1147
625 836 1224
634 863 1310
642 891 1397
653 921 1493
665 953 1595
677 985 1696
1046 841 330
999 878 464
952 914 598
886 928 723
781 896 828
676 864 934
639 865 1017
638 883 1090
636 900 1162
641 928 1244
646 955 1325
652 985 1411
662 1019 1505
672 1052 1600
684 1089 1701
697 1127 1807
711 1165 1913
1241 1000 352
1206 1053 491
1170 1107 630
1086 1121 770
906 1059 912
725 998 1055
663 991 1157
661 1012 1239
659 1033 1321
665 1065 1413
671 1098 1504
679 1134 1599
690 1174 1701
702 1214 1802
715 1257 1910
730 1301 2020
744 1344 2130
1455 1180 378
1434 1245 517
1413 1311 655
1339 1341 808
1161 1302 988
984 1263 1167
864 1231 1289
774 1203 1381
684 1174 1474
690 1212 1572
696 1250 1671
704 1291 1773
717 1338 1879
729 1384 1985
743 1433 2095
759 1482 2205
774 1531 2316
1678 1371 406
1672 1446 542
1667 1521 678
1618 1574 841
1483 1584 1058
1348 1594 1276
1155 1528 1417
932 1425 1520
710 1321 1622
715 1364 1728
721 1406 1833
729 1453 1939
742 1505 2049
755 1558 2159
770 1612 2268
786 1667 2376
802 1721 2485
1901 1562 434
1911 1646 567
1921 1731 700
1897 1807 874
1804 1866 1129
1712 1925 1385
1445 1825 1546
1090 1646 1658
736 1467 1771
741 1515 1883
746 1563 1994
754 1614 2106
767 1673 2219
781 1733 2332
797 1792 2441
813 1851 2548
830 1911 2655
2106 1771 466
2123 1854 596
2140 1937 726
2129 2015 897
2061 2083 1151
1992 2151 1405
1769 2099 1605
1469 1985 1777
1169 1872 1950
1020 1822 2039
870 1773 2128
775 1761 2225
789 1824 2339
802 1888 2452
818 1951 2559
835 2014 2662
852 2077 2765
2312 1980 497
2336 2061 625
2360 2143 752
2361 2223 921
2317 2300 1173
2273 2378 1425
2094 2372 1664
1848 2324 1896
1602 2277 2129
1298 2129 2195
995 1982 2262
797 1907 2345
810 1975 2459
823 2043 2573
839 2110 2677
856 2177 2776
874 2244 2875
2497 2182 531
2524 2259 657
2552 2337 784
2562 2415 950
2537 2496 1194
2512 2577 1438
2374 2606 1703
2178 2610 1978
1982 2613 2253
1595 2423 2325
1207 2233 2397
936 2119 2479
898 2158 2580
859 2197 2681
859 2256 2778
876 2326 2873
894 2395 2968
2637 2369 568
2663 2438 697
2689 2507 826
2701 2577 987
2686 2649 1212
2670 2721 1436
2564 2762 1701
2411 2787 1985
2258 2813 2269
1926 2688 2402
1593 2564 2534
1308 2462 2643
1117 2404 2703
927 2347 2763
875 2374 2844
893 2445 2936
911 2516 3027
2778 2555 605
2801 2616 736
2825 2677 868
2839 2739 1024
2834 2802 1230
2828 2864 1435
2754 2917 1699
2644 2965 1992
2534 3012 2284
2256 2954 2478
1979 2896 2671
1679 2805 2807
1337 2651 2825
994 2497 2844
892 2493 2910
910 2564 2998
928 2636 3086
2874 2702 653
2894 2756 791
2914 2810 929
2927 2864 1083
2927 2917 1268
2927 2970 1453
2874 3025 1704
2795 3080 1989
2717 3136 2274
2489 3116 2496
2261 3096 2719
1988 3032 2879
1624 2879 2914
1259 2726 2950
1089 2687 3002
1016 2706 3062
944 2724 3123
2947 2829 707
2963 2876 853
2979 2924 1000
2990 2970 1152
2993 3013 1316
2995 3056 1480
2960 3108 1713
2906 3165 1982
2852 3221 2250
2673 3226 2486
2493 3232 2722
2266 3201 2906
1944 3098 2987
1623 2995 3067
1377 2919 3107
1167 2858 3128
958 2796 3148
3021 2956 761
3033 2997 916
3044 3037 1071
3054 3075 1222
3058 3109 1364
3063 3143 1507
3045 3192 1722
3017 3249 1975
2988 3306 2227
2856 3337 2476
2724 3368 2725
2543 3370 2933
2265 3317 3059
1987 3264 3184
1664 3152 3213
1318 3010 3193
972 2869 3174
1347 827 373
1119 693 385
890 558 396
727 465 409
695 454 425
662 442 441
637 434 459
616 427 478
595 420 497
581 415 525
567 411 553
555 407 584
548 405 623
540 403 661
536 404 708
533 407 760
531 410 811
1214 790 350
1043 711 411
873 633 471
750 579 522
724 573 557
698 567 592
678 566 625
661 566 657
644 566 690
634 569 730
623 573 771
615 577 816
611 585 869
607 592 922
606 602 985
607 615 1053
