Assets/1__3DArt/KimSe/artstation_asset/LUTs_subway_asset/3DL/Yellow Line 04_S.3dl
# LUT by SparkleStock. Enhanced with VOXCOLOR algorithms.
0 64 128 192 256 320 384 448 512 576 640 704 768 832 896 960 1023
48 112 176
53 137 239
58 161 301
62 186 364
66 209 426
69 232 489
72 255 556
74 278 625
76 301 694
77 324 773
79 348 853
80 371 936
82 396 1026
84 421 1116
87 446 1212
92 471 1310
96 496 1409
133 233 205
111 254 297
89 275 389
74 296 472
76 316 535
78 336 599
79 358 670
81 382 745
83 406 820
85 432 906
87 458 992
89 484 1081
91 512 1177
93 539 1273
98 567 1373
103 595 1476
108 622 1580
219 354 234
169 371 355
120 389 477
87 406 580
87 422 644
87 439 709
87 461 784
89 486 865
90 510 945
92 539 1038
94 568 1131
97 597 1226
100 628 1328
103 658 1429
108 688 1535
114 719 1643
119 749 1750
353 498 271
296 527 422
239 557 573
188 574 696
149 566 763
111 559 830
98 573 909
99 598 994
99 623 1080
102 655 1179
104 686 1278
107 718 1380
111 752 1486
115 785 1593
120 818 1703
126 850 1815
133 883 1926
586 688 325
561 761 505
535 834 684
468 858 828
317 785 899
165 711 972
114 703 1055
113 727 1143
112 752 1231
115 786 1337
118 820 1441
121 855 1549
125 892 1661
130 928 1772
136 963 1885
142 997 1998
149 1031 2111
819 878 380
825 995 588
832 1112 795
748 1143 959
484 1003 1036
220 863 1113
131 832 1200
128 856 1292
126 880 1383
129 917 1494
131 954 1605
135 992 1718
140 1032 1835
145 1072 1951
152 1109 2067
159 1145 2182
165 1180 2297
1106 1107 448
1131 1241 661
1155 1374 874
1077 1422 1054
794 1301 1170
511 1180 1287
347 1108 1375
244 1060 1450
141 1013 1524
143 1052 1640
146 1091 1755
149 1132 1872
154 1176 1992
160 1220 2113
167 1260 2230
174 1298 2346
181 1336 2461
1422 1357 522
1457 1492 729
1492 1628 936
1430 1699 1131
1174 1639 1303
919 1578 1475
665 1455 1564
411 1301 1612
158 1147 1660
159 1189 1779
160 1230 1898
163 1274 2018
169 1322 2142
174 1370 2266
181 1413 2384
189 1455 2500
196 1496 2615
1738 1606 597
1783 1744 798
1829 1883 998
1783 1975 1208
1555 1976 1436
1327 1977 1664
982 1803 1754
578 1542 1774
174 1281 1795
174 1325 1918
175 1370 2040
177 1416 2164
183 1469 2292
189 1521 2419
196 1567 2538
203 1611 2654
211 1655 2769
2023 1867 672
2064 1988 853
2106 2108 1035
2070 2196 1235
1879 2217 1474
1688 2237 1712
1369 2116 1851
986 1924 1941
603 1731 2030
446 1653 2101
290 1576 2173
188 1543 2263
193 1600 2393
199 1656 2522
206 1708 2642
214 1756 2757
222 1805 2872
2307 2128 746
2345 2231 909
2383 2334 1071
2357 2416 1262
2203 2457 1511
2049 2498 1760
1756 2429 1949
1394 2305 2107
1031 2181 2265
718 1982 2285
405 1782 2305
198 1670 2362
204 1731 2494
209 1792 2626
216 1848 2746
224 1901 2860
232 1954 2975
2557 2376 815
2589 2460 959
2622 2545 1103
2603 2620 1283
2483 2673 1535
2363 2727 1788
2102 2699 2013
1771 2631 2224
1439 2562 2435
1025 2303 2442
611 2044 2449
320 1880 2492
277 1906 2606
233 1931 2720
224 1978 2834
232 2036 2948
241 2094 3061
2735 2596 874
2759 2662 1000
2784 2728 1127
2769 2789 1291
2678 2840 1532
2586 2892 1773
2368 2884 2008
2087 2845 2240
1805 2807 2473
1401 2611 2545
996 2416 2616
663 2256 2683
475 2167 2738
286 2077 2794
229 2089 2888
237 2151 3002
246 2214 3116
2914 2816 932
2930 2863 1041
2946 2910 1150
2936 2958 1300
2872 3008 1529
2809 3058 1759
2634 3068 2004
2403 3059 2257
2172 3051 2510
1776 2919 2647
1381 2788 2784
1006 2633 2874
673 2428 2870
340 2223 2867
234 2200 2942
242 2266 3056
250 2333 3171
3030 2988 982
3041 3024 1079
3052 3060 1176
3044 3098 1313
2998 3142 1527
2953 3187 1741
2813 3205 1985
2627 3211 2243
2440 3217 2501
2081 3127 2674
1722 3036 2848
1354 2906 2967
968 2695 2975
582 2484 2983
403 2417 3041
328 2423 3122
253 2428 3204
3116 3135 1027
3123 3164 1116
3130 3193 1204
3123 3224 1329
3090 3261 1526
3058 3297 1723
2950 3318 1958
2804 3331 2213
2659 3344 2467
2350 3283 2664
2041 3223 2861
1704 3128 3011
1311 2965 3066
918 2802 3121
654 2688 3161
454 2600 3194
255 2511 3227
3202 3282 1073
3205 3304 1152
3207 3326 1232
3202 3350 1345
3183 3379 1525
3163 3408 1704
3086 3431 1931
2982 3451 2183
2878 3471 2434
2619 3440 2654
2360 3409 2874
2055 3350 3055
1655 3234 3157
1254 3119 3258
905 2959 3282
580 2777 3266
256 2594 3250
498 359 256
386 313 297
273 267 338
195 241 385
186 256 441
177 271 497
168 287 558
160 303 621
152 319 684
146 337 757
140 355 831
135 373 908
132 393 991
129 413 1075
128 434 1164
129 456 1256
130 478 1348
484 418 261
382 394 342
279 369 422
208 359 497
200 375 561
191 392 624
183 410 693
176 430 764
169 450 835
164 473 916
159 496 998
155 519 1082
153 543 1173
151 568 1263
152 593 1359
154 619 1458
156 644 1556
470 477 266
378 474 386
285 472 506
221 477 610
213 494 681
205 512 751
198 534 828
192 558 907
186 581 987
182 609 1076
178 636 1165
175 665 1257
174 694 1354
173 723 1452
175 753 1555
179 782 1660
183 811 1765
542 582 289
463 604 440
385 626 591
318 641 719
275 643 800
231 644 881
213 662 966
207 688 1052
200 714 1138
197 746 1235
194 777 1331
192 809 1429
192 843 1533
192 876 1637
196 909 1745
200 941 1855
205 973 1965
783 780 347
727 831 512
671 881 677
583 899 820
432 849 918
281 800 1016
225 800 1109
218 825 1200
210 850 1290
207 884 1392
204 918 1494
203 952 1597
204 988 1706
205 1024 1814
209 1058 1924
214 1092 2035
219 1126 2147
1025 979 406
991 1058 585
957 1137 764
849 1156 921
590 1056 1037
330 955 1152
238 938 1253
229 962 1348
220 986 1442
218 1022 1549
215 1058 1657
214 1095 1766
216 1133 1878
218 1172 1991
222 1208 2103
228 1244 2216
234 1279 2329
1302 1203 473
1286 1296 653
1270 1389 833
1169 1423 1002
898 1339 1151
627 1256 1300
461 1202 1408
347 1164 1496
232 1126 1585
230 1164 1696
227 1201 1807
226 1240 1920
228 1282 2036
230 1323 2152
235 1362 2265
241 1400 2378
247 1437 2491
1597 1441 546
1596 1540 720
1596 1639 894
1518 1694 1074
1283 1662 1264
1048 1629 1454
789 1530 1569
517 1399 1646
246 1268 1723
242 1307 1838
239 1346 1952
237 1387 2068
240 1431 2186
242 1476 2305
248 1518 2419
254 1558 2531
261 1597 2643
1891 1678 619
1907 1784 787
1922 1889 955
1866 1966 1145
1667 1984 1376
1468 2002 1608
1116 1858 1729
688 1634 1795
260 1410 1861
255 1450 1979
251 1490 2097
249 1533 2216
252 1581 2337
255 1630 2457
260 1674 2572
267 1716 2684
274 1758 2796
2154 1925 691
2173 2021 847
2192 2118 1002
2150 2193 1184
1986 2225 1418
1823 2258 1652
1506 2160 1813
1113 1997 1937
720 1834 2061
547 1764 2143
373 1694 2225
259 1665 2320
261 1716 2442
264 1768 2564
269 1815 2679
276 1861 2789
283 1907 2899
2416 2171 762
2439 2259 906
2461 2347 1050
2434 2421 1224
2305 2467 1460
2177 2513 1696
1896 2461 1896
1538 2359 2078
1181 2258 2261
838 2078 2307
496 1898 2353
268 1796 2425
270 1851 2548
273 1906 2671
278 1957 2785
285 2007 2894
293 2056 3003
2646 2406 829
2670 2483 962
2694 2561 1094
2678 2630 1259
2581 2685 1492
2484 2739 1724
2240 2722 1952
1924 2670 2178
1608 2618 2403
1161 2385 2445
715 2151 2486
400 2003 2550
349 2025 2659
298 2047 2768
286 2089 2876
293 2142 2984
300 2195 3091
2811 2617 886
2831 2682 1009
2852 2746 1132
2841 2805 1286
2768 2855 1503
2695 2905 1721
2495 2904 1953
2231 2877 2192
1967 2851 2431
1547 2677 2532
1127 2504 2632
777 2360 2719
566 2276 2781
356 2192 2843
290 2202 2935
297 2258 3042
304 2315 3149
2977 2829 943
2993 2880 1057
3009 2931 1170
3004 2980 1313
2955 3026 1515
2906 3071 1717
2749 3085 1954
2538 3084 2207
2327 3083 2460
1933 2970 2618
1539 2856 2777
1153 2717 2888
783 2528 2903
414 2338 2918
295 2315 2994
302 2375 3101
308 2434 3207
3086 2997 994
3098 3039 1102
3111 3081 1210
3108 3122 1344
3073 3160 1530
3039 3199 1716
2916 3219 1945
2749 3230 2197
2582 3241 2449
2233 3166 2640
1884 3090 2830
1513 2975 2966
1096 2781 2996
679 2588 3025
483 2525 3087
396 2527 3165
310 2530 3244
3167 3142 1041
3176 3177 1146
3184 3212 1252
3182 3246 1378
3158 3278 1546
3134 3309 1714
3041 3330 1933
2913 3346 2176
2786 3362 2420
2491 3314 2628
2196 3265 2836
1864 3184 2999
1456 3036 3074
1048 2889 3148
762 2783 3197
536 2698 3233
311 2613 3270
3248 3287 1088
3253 3315 1191
3257 3343 1294
3256 3370 1412
3242 3395 1563
3228 3419 1713
3165 3441 1920
3077 3462 2155
2989 3483 2391
2749 3462 2616
2508 3440 2842
2215 3392 3032
1816 3291 3151
1417 3190 3271
1041 3042 3307
676 2869 3301
311 2697 3296
948 606 336
718 489 356
489 372 375
328 296 405
306 303 455
284 310 505
265 319 559
246 328 616
227 338 673
214 350 741
201 362 808
190 375 879
182 390 956
174 405 1033
169 422 1116
167 441 1201
164 459 1287
835 602 317
652 533 386
470 464 456
342 422 523
323 435 586
304 448 649
287 463 715
271 479 783
254 495 851
243 514 927
231 533 1004
221 553 1083
215 575 1169
209 597 1254
206 620 1345
206 643 1439
205 666 1533
722 599 298
587 577 417
451 556 536
356 548 640
340 566 717
324 585 793
309 607 871
295 630 950
281 653 1028
271 679 1114
261 705 1199
253 732 1287
248 760 1381
243 789 1475
243 817 1574
244 845 1677
246 873 1779
730 666 307
630 681 458
531 695 609
448 708 742
400 719 837
352 729 932
327 751 1022
314 778 1110
301 806 1197
292 837 1290
284 868 1383
277 900 1479
273 934 1580
270 967 1680
271 1000 1786
274 1031 1895
277 1063 2003
981 873 369
894 901 520
807 929 671
699 939 813
548 913 937
396 888 1061
336 897 1164
322 923 1257
308 949 1349
300 982 1447
291 1015 1546
285 1049 1646
282 1084 1751
280 1120 1855
282 1154 1963
286 1187 2073
290 1220 2182
1231 1080 431
1157 1121 582
1083 1162 732
949 1169 883
695 1108 1037
441 1047 1190
346 1043 1306
330 1068 1403
315 1093 1500
307 1127 1604
299 1162 1708
293 1197 1813
292 1235 1922
290 1272 2030
293 1308 2140
297 1343 2250
302 1378 2361
1497 1299 499
1441 1352 646
1385 1404 792
1262 1423 951
1003 1378 1132
744 1332 1313
574 1297 1441
449 1269 1543
324 1240 1645
316 1275 1753
308 1311 1860
302 1348 1969
301 1387 2080
300 1427 2190
303 1464 2301
309 1501 2411
314 1538 2521
1771 1525 570
1736 1587 711
1701 1650 852
1606 1690 1016
1391 1685 1224
1177 1679 1432
912 1606 1573
624 1497 1679
335 1389 1786
326 1425 1896
317 1461 2007
311 1499 2118
311 1541 2231
310 1583 2343
314 1622 2454
320 1661 2563
325 1699 2672
2045 1751 640
2030 1823 776
2016 1896 912
1949 1956 1081
1779 1992 1317
1609 2027 1552
1251 1914 1705
798 1726 1816
346 1538 1927
336 1575 2040
327 1611 2154
321 1650 2267
321 1694 2382
321 1739 2496
325 1780 2606
331 1820 2714
337 1860 2822
2284 1982 709
2281 2055 840
2278 2128 970
2230 2191 1134
2094 2234 1363
1957 2278 1592
1643 2203 1774
1241 2070 1933
838 1936 2092
647 1874 2184
457 1812 2277
329 1786 2377
329 1833 2492
329 1879 2606
333 1923 2715
339 1966 2821
345 2009 2927
2524 2214 778
2532 2286 903
2540 2359 1028
2511 2425 1186
2408 2477 1408
2305 2528 1631
2036 2493 1843
1683 2414 2050
1331 2335 2256
959 2174 2328
586 2014 2400
338 1923 2487
337 1971 2602
337 2020 2717
341 2067 2824
347 2112 2928
353 2157 3031
2735 2436 843
2750 2506 964
2766 2576 1084
2752 2641 1236
2678 2696 1448
2604 2751 1660
2379 2745 1891
2078 2709 2132
1777 2674 2372
1298 2466 2448
819 2259 2524
480 2126 2609
422 2144 2712
363 2162 2816
347 2200 2918
354 2248 3020
360 2296 3121
2887 2639 899
2903 2702 1018
2919 2764 1137
2912 2822 1281
2858 2870 1474
2803 2917 1668
2621 2924 1897
2375 2909 2144
2129 2895 2390
1694 2743 2519
1258 2591 2647
890 2464 2756
658 2386 2824
425 2308 2893
352 2315 2982
357 2366 3082
363 2416 3182
3040 2842 955
3056 2897 1072
3073 2953 1189
3072 3003 1326
3037 3043 1501
3002 3084 1676
2863 3102 1903
2673 3109 2156
2482 3115 2409
2089 3020 2590
1697 2924 2771
1300 2802 2903
894 2628 2936
488 2453 2970
356 2430 3046
361 2483 3145
366 2536 3243
3142 3005 1006
3156 3054 1125
3170 3102 1244
3171 3145 1376
3148 3179 1533
3125 3212 1690
3019 3234 1906
2872 3250 2152
2725 3266 2398
2385 3205 2605
2046 3144 2811
1671 3045 2966
1224 2868 3017
776 2691 3067
562 2632 3134
465 2632 3208
367 2631 3283
3218 3149 1054
3229 3190 1177
3239 3232 1300
3240 3268 1428
3225 3294 1567
3210 3321 1706
3132 3342 1907
3022 3362 2140
2913 3381 2372
2632 3344 2591
2351 3308 2810
2023 3239 2987
1601 3108 3081
1178 2976 3176
870 2878 3233
619 2797 3273
367 2716 3312
3295 3293 1103
3301 3327 1229
3308 3361 1355
3309 3391 1480
3302 3410 1601
3294 3430 1722
3244 3451 1909
3172 3473 2128
3101 3496 2347
2878 3483 2578
2656 3471 2809
2375 3434 3009
1978 3348 3146
1580 3261 3284
1178 3124 3332
772 2962 3337
367 2800 3341
1396 855 411
1088 683 417
780 511 423
560 395 442
516 389 487
473 384 531
437 383 579
403 385 628
370 386 678
344 391 739
319 396 800
296 402 864
279 411 935
261 419 1005
249 431 1082
240 445 1161
230 458 1240
1215 804 374
977 697 436
739 590 498
568 520 560
530 523 622
491 526 685
459 535 747
429 545 809
400 556 871
376 569 941
353 583 1011
332 597 1084
317 614 1163
302 630 1242
292 649 1327
285 668 1416
