Assets/1__3DArt/KimSe/artstation_asset/LUTs_subway_asset/3DL/Yellow Line 01_S.3dl
# LUT by SparkleStock. Enhanced with VOXCOLOR algorithms.
0 256 512 768 1023
352 304 256
360 319 360
379 344 485
403 375 669
432 416 929
753 683 310
603 740 747
460 687 1009
512 815 1385
572 959 1814
1662 1429 416
1670 1850 1245
558 1175 1594
619 1436 2103
692 1706 2583
2522 2327 561
2571 2631 1282
2027 2741 2356
928 2187 2609
763 2337 2962
2946 2946 769
2971 3065 1275
2838 3294 2317
1998 3224 3068
817 2706 3106
1698 1039 410
994 573 475
801 506 534
691 464 639
628 444 807
1422 1019 345
1123 1068 918
964 1102 1295
926 1192 1581
932 1311 1937
2098 1687 440
1959 1917 1087
1071 1745 1928
1075 1920 2347
1121 2128 2747
2748 2421 574
2783 2680 1210
2497 2877 2213
1418 2609 2792
1197 2697 3106
3086 2960 752
3145 3162 1501
3128 3345 2260
2547 3403 3071
1244 3030 3250
2799 1789 527
2256 1153 648
2048 1101 775
1653 938 791
1343 780 894
2447 1556 391
2200 1462 1049
2076 1570 1572
1793 1565 1669
1573 1535 1849
2302 1735 416
2213 1996 1091
2115 2224 2191
2101 2420 2638
2113 2602 2982
2940 2513 578
2923 2749 1239
2944 3009 2271
2325 2999 2985
2162 3091 3315
3205 2963 742
3287 3218 1616
3376 3514 2693
3136 3581 3192
2152 3373 3451
3214 2179 603
3044 1833 739
2968 1785 905
2890 1827 1046
2570 1624 1163
3102 2084 500
3062 1930 1129
3019 1994 1639
2969 2251 1892
2694 2211 2014
3041 2237 494
3066 2304 1180
3069 2396 2216
3051 2720 2743
2905 2881 2966
3121 2542 583
3166 2804 1241
3195 3041 2241
3155 3230 3108
3131 3408 3482
3324 2964 735
3410 3238 1595
3495 3554 2665
3497 3721 3361
3143 3671 3647
3410 2370 672
3416 2398 822
3418 2417 999
3413 2442 1209
3410 2482 1425
3440 2539 673
3554 2524 1247
3581 2556 1675
3551 2728 1979
3520 2928 2234
3455 2686 678
3644 2715 1352
3767 2725 2294
3703 2949 2791
3606 3350 3098
3457 2827 694
3637 3012 1394
3779 3179 2343
3759 3309 3125
3637 3635 3551
3443 2946 721
3549 3244 1542
3653 3584 2579
3662 3757 3319
3619 3811 3731
