Assets/1__3DArt/KimSe/artstation_asset/LUTs_subway_asset/3DL/Yellow Line 05.3dl
# LUT by SparkleStock. Enhanced with VOXCOLOR algorithms.
0 64 128 192 256 320 384 448 512 576 640 704 768 832 896 960 1023
192 288 336
200 292 363
208 296 390
215 301 418
217 307 448
219 312 477
221 319 509
223 325 541
225 332 574
227 341 613
229 349 653
231 359 695
233 370 741
235 381 787
237 393 838
239 404 892
240 416 945
264 377 341
248 374 396
232 372 451
222 371 498
224 376 530
225 380 561
227 387 597
229 395 636
231 404 674
233 415 721
236 426 767
239 438 816
243 452 869
247 466 922
250 480 980
254 495 1039
257 510 1099
336 466 346
296 456 429
256 447 512
229 442 579
230 445 612
231 449 645
232 456 686
234 466 730
236 475 775
240 489 828
244 503 881
248 517 937
253 534 997
258 550 1057
264 568 1121
269 586 1187
274 604 1253
456 580 353
413 583 468
369 587 583
327 582 672
290 559 706
253 536 741
241 535 786
244 546 836
246 557 886
251 574 946
256 591 1007
261 609 1069
268 629 1137
275 648 1204
282 669 1274
290 691 1345
297 712 1417
674 743 364
667 800 519
661 858 674
606 862 789
456 762 825
306 661 862
257 636 910
260 648 964
262 660 1018
269 681 1086
276 702 1154
284 725 1224
293 749 1298
302 773 1373
312 798 1449
321 823 1526
331 848 1602
892 907 374
922 1018 570
953 1128 765
886 1142 907
622 964 945
359 786 982
273 736 1033
276 749 1092
279 763 1150
288 788 1225
296 814 1301
306 840 1379
317 869 1461
329 898 1542
341 927 1624
353 955 1706
365 984 1787
1178 1126 390
1229 1259 599
1280 1392 807
1223 1429 976
948 1272 1064
674 1114 1153
511 1016 1207
405 946 1244
299 877 1281
309 907 1363
319 936 1444
331 968 1528
346 1002 1617
360 1037 1706
375 1071 1793
390 1104 1879
405 1137 1965
1500 1372 408
1562 1513 617
1625 1654 825
1588 1719 1020
1354 1632 1184
1120 1544 1349
861 1385 1406
590 1191 1408
319 997 1411
331 1031 1498
344 1065 1586
358 1101 1676
376 1142 1771
394 1183 1867
412 1222 1959
430 1261 2049
448 1299 2140
1821 1618 426
1895 1767 635
1970 1917 844
1954 2010 1063
1760 1992 1304
1566 1973 1545
1211 1755 1604
775 1436 1572
339 1117 1541
354 1155 1634
368 1193 1727
385 1234 1823
406 1281 1925
427 1329 2028
448 1374 2125
470 1417 2219
491 1461 2314
2126 1901 449
2192 2032 643
2259 2163 836
2251 2252 1051
2094 2257 1311
1938 2262 1572
1625 2103 1698
1233 1862 1758
841 1621 1818
675 1517 1848
510 1412 1878
407 1361 1934
431 1415 2041
455 1469 2149
480 1520 2250
505 1570 2348
530 1621 2446
2431 2183 473
2489 2296 650
2548 2409 828
2547 2494 1039
2429 2523 1319
2310 2551 1599
2039 2452 1792
1691 2289 1943
1343 2125 2094
997 1878 2061
651 1632 2028
430 1487 2044
457 1548 2157
484 1608 2270
511 1666 2375
540 1723 2476
568 1781 2577
2696 2455 498
2745 2548 660
2794 2641 821
2799 2718 1026
2713 2762 1315
2628 2805 1604
2399 2753 1849
2099 2653 2071
1799 2552 2293
1346 2235 2246
893 1918 2200
581 1714 2199
554 1734 2291
527 1754 2382
539 1804 2483
570 1868 2587
602 1931 2692
2881 2705 529
2918 2775 673
2955 2845 818
2959 2906 1008
2898 2948 1288
2836 2989 1568
2652 2959 1830
2406 2892 2083
2161 2825 2335
1747 2583 2374
1333 2340 2412
992 2141 2443
796 2027 2461
600 1914 2478
557 1923 2556
591 1994 2664
626 2064 2772
3067 2955 559
3092 3002 687
3117 3049 815
3120 3094 990
3082 3134 1261
3045 3173 1532
2904 3164 1811
2713 3132 2094
2522 3099 2378
2148 2931 2501
1773 2762 2624
1402 2567 2687
1037 2320 2630
673 2073 2574
576 2042 2629
612 2120 2741
649 2198 2852
3163 3143 599
3181 3176 713
3198 3208 827
3202 3241 988
3179 3274 1243
3156 3307 1498
3050 3309 1778
2904 3294 2071
2757 3279 2364
2432 3158 2536
2108 3038 2709
1756 2873 2810
1349 2621 2770
942 2368 2730
770 2289 2763
715 2298 2833
661 2306 2904
3215 3301 644
3227 3322 746
3240 3344 848
3244 3366 995
3231 3392 1230
3219 3417 1466
3143 3422 1738
3035 3417 2030
2927 3412 2321
2659 3326 2526
2390 3240 2730
2082 3119 2873
1696 2924 2894
1310 2730 2915
1052 2599 2927
859 2501 2934
666 2402 2941
3266 3459 689
3274 3469 779
3282 3479 869
3286 3492 1001
3284 3510 1217
3282 3527 1433
3235 3536 1699
3167 3541 1989
3098 3545 2279
2885 3494 2515
2672 3443 2752
2408 3364 2936
2043 3228 3019
1677 3092 3101
1334 2910 3090
1003 2704 3034
672 2498 2978
599 472 350
493 424 377
387 376 405
314 343 432
307 342 459
300 342 487
294 343 516
288 344 546
282 346 576
279 351 611
275 356 647
272 361 685
271 370 728
269 378 770
269 387 816
268 398 865
268 408 914
585 511 352
487 482 415
389 452 478
322 433 530
318 434 562
313 435 594
309 438 630
305 443 667
302 448 704
300 457 748
299 466 791
299 476 837
299 488 888
300 500 938
302 514 992
304 528 1049
306 542 1105
571 550 355
481 540 453
391 529 551
330 522 629
328 525 665
325 527 702
324 534 743
323 542 788
321 551 832
322 563 884
323 576 935
325 590 989
328 606 1048
331 623 1106
335 640 1168
339 658 1232
344 676 1296
640 636 361
565 650 490
491 663 619
429 666 721
390 649 767
352 633 813
339 634 862
340 645 912
340 656 963
343 673 1022
346 689 1081
350 707 1143
355 728 1209
361 748 1275
367 770 1344
374 791 1415
381 813 1485
874 816 371
831 864 524
787 912 677
708 918 800
557 840 865
406 762 930
356 744 989
357 756 1043
357 769 1098
362 789 1164
366 810 1230
372 832 1299
380 856 1371
388 880 1444
396 905 1519
406 931 1594
415 956 1669
1109 996 382
1096 1079 558
1084 1162 734
987 1171 879
724 1031 964
461 892 1048
373 854 1116
374 868 1175
374 881 1234
380 905 1307
386 930 1380
394 956 1455
404 984 1534
414 1013 1614
426 1041 1693
438 1070 1774
450 1099 1854
1388 1215 396
1397 1316 579
1406 1417 761
1323 1444 926
1054 1325 1057
785 1205 1189
620 1125 1266
507 1065 1318
395 1004 1369
402 1032 1447
410 1060 1526
419 1090 1606
432 1123 1692
445 1157 1777
459 1190 1861
475 1223 1946
490 1256 2030
1688 1453 413
1715 1564 593
1742 1674 774
1686 1728 958
1465 1670 1149
1244 1611 1340
982 1477 1429
700 1305 1466
417 1133 1504
426 1164 1587
435 1195 1670
446 1229 1755
462 1268 1846
478 1307 1937
495 1345 2026
513 1382 2114
531 1420 2201
1989 1691 429
2033 1811 608
2077 1932 786
2049 2013 989
1876 2014 1240
1703 2016 1492
1344 1828 1592
892 1545 1615
440 1262 1639
450 1296 1726
460 1331 1814
473 1369 1904
492 1413 2001
510 1457 2098
531 1500 2191
552 1542 2282
573 1584 2372
2268 1960 450
2312 2070 619
2356 2181 788
2340 2260 987
2203 2280 1248
2067 2299 1508
1757 2164 1664
1361 1952 1768
965 1741 1871
788 1645 1914
610 1549 1957
498 1501 2020
518 1551 2120
539 1600 2220
561 1648 2315
585 1695 2409
609 1743 2502
2547 2229 472
2591 2329 631
2635 2429 790
2631 2508 985
2531 2545 1255
2431 2581 1524
2171 2500 1736
1831 2360 1920
1491 2220 2104
1125 1993 2102
759 1767 2101
522 1634 2135
544 1688 2238
567 1743 2342
592 1796 2440
618 1849 2536
645 1902 2631
2791 2489 496
2831 2576 645
2872 2664 795
2876 2738 985
2808 2784 1256
2739 2831 1526
2527 2791 1779
2243 2709 2023
1959 2626 2268
1485 2336 2263
1011 2046 2258
683 1858 2283
647 1874 2369
611 1891 2456
618 1935 2549
647 1993 2646
676 2052 2744
2962 2729 525
2994 2800 667
3026 2870 808
3032 2931 988
2983 2972 1244
2935 3014 1500
2766 2993 1763
2538 2939 2028
2310 2886 2294
1890 2666 2368
1469 2446 2441
1118 2263 2499
903 2156 2525
688 2049 2551
637 2056 2626
667 2119 2724
697 2183 2823
3134 2970 553
3157 3023 688
3181 3076 822
3187 3123 991
3159 3160 1233
3130 3197 1474
3006 3194 1746
2834 3170 2033
2662 3146 2321
2295 2996 2473
1928 2846 2625
1552 2669 2715
1159 2438 2681
766 2208 2647
655 2177 2702
687 2245 2802
718 2314 2903
3224 3155 592
3241 3194 722
3258 3234 852
3265 3270 1013
3249 3300 1235
3233 3331 1458
3141 3335 1725
3012 3326 2015
2883 3317 2304
2573 3211 2499
2263 3106 2694
1913 2957 2819
1484 2723 2804
1055 2488 2790
866 2413 2827
796 2416 2891
727 2420 2955
3273 3311 636
3285 3339 763
3298 3367 891
3303 3394 1043
3296 3416 1245
3288 3439 1447
3224 3445 1702
3131 3444 1984
3039 3443 2266
2787 3369 2486
2535 3295 2706
2237 3187 2868
1843 3008 2912
1450 2829 2956
1172 2706 2977
951 2610 2986
731 2514 2994
3322 3467 680
3330 3484 805
3337 3501 929
3342 3518 1073
3343 3532 1254
3343 3547 1436
3306 3556 1679
3250 3562 1954
3194 3568 2228
3001 3526 2473
2808 3485 2718
2560 3416 2916
2203 3293 3020
1845 3170 3123
1478 2999 3126
1106 2803 3080
735 2608 3033
1006 657 363
786 556 391
566 455 419
414 385 446
398 378 471
381 371 496
367 367 522
353 364 550
339 360 577
330 361 609
321 362 642
314 364 676
309 369 714
304 374 752
300 382 794
298 391 838
296 400 882
906 646 364
726 589 434
546 533 505
423 494 563
412 491 595
401 489 627
391 489 662
382 491 698
373 493 733
367 499 774
362 506 815
358 513 859
356 524 906
354 534 954
353 547 1005
354 560 1058
354 574 1111
805 635 365
666 623 478
526 611 591
431 603 679
426 605 719
420 606 759
415 612 801
411 619 845
407 626 889
405 638 939
403 649 989
402 662 1041
403 679 1098
404 695 1155
406 712 1216
410 730 1278
413 748 1340
823 693 369
718 716 512
613 739 656
530 750 770
491 740 827
451 729 885
437 733 938
436 744 989
435 755 1040
436 771 1098
437 788 1156
439 806 1216
442 827 1281
446 848 1346
452 870 1414
458 892 1484
464 914 1553
1075 889 379
994 928 529
914 967 679
809 975 810
658 919 905
507 864 999
456 853 1068
454 865 1123
451 877 1178
454 897 1243
457 917 1307
460 938 1373
467 963 1444
473 987 1515
481 1013 1589
491 1039 1663
500 1064 1737
1327 1085 390
1271 1140 546
1214 1196 703
1089 1199 851
826 1098 983
563 998 1114
474 973 1198
471 986 1258
468 999 1317
472 1023 1388
476 1046 1458
482 1071 1531
491 1099 1608
500 1127 1685
511 1156 1763
523 1185 1842
536 1214 1921
1597 1304 403
1565 1372 559
1532 1441 715
1423 1460 877
1159 1378 1051
896 1296 1224
729 1235 1326
610 1183 1391
491 1132 1457
496 1158 1532
500 1184 1607
507 1212 1684
519 1244 1766
530 1277 1848
544 1309 1930
559 1342 2012
574 1375 2094
1877 1534 417
1868 1614 569
1859 1694 722
1784 1738 896
1576 1708 1114
1368 1678 1332
1103 1568 1452
809 1419 1524
516 1269 1596
521 1298 1675
526 1326 1754
535 1358 1835
548 1394 1921
562 1431 2008
578 1468 2093
596 1504 2178
614 1541 2263
2156 1763 432
2171 1855 580
2185 1947 728
2144 2016 914
1992 2037 1177
1840 2059 1439
1477 1901 1579
1009 1654 1658
541 1407 1736
547 1438 1818
553 1469 1901
562 1503 1986
578 1544 2077
594 1586 2167
613 1626 2256
634 1666 2344
654 1706 2431
2410 2019 452
2432 2109 596
2454 2198 740
2429 2269 923
2313 2302 1184
2196 2335 1444
1890 2225 1630
1490 2043 1777
1090 1861 1924
900 1773 1981
709 1685 2037
588 1642 2106
605 1686 2198
622 1731 2291
643 1776 2381
665 1820 2469
688 1865 2558
2664 2274 471
2693 2362 611
2722 2450 751
2714 2523 931
2633 2567 1190
2552 2611 1450
2303 2548 1680
1971 2432 1897
1639 2315 2113
1252 2108 2143
866 1902 2174
614 1780 2225
632 1829 2320
650 1877 2415
672 1925 2506
697 1974 2595
722 2023 2685
2885 2522 493
2917 2604 631
2950 2686 769
2954 2758 945
2902 2807 1196
2850 2857 1448
2654 2830 1709
2386 2765 1976
2119 2700 2242
1624 2436 2279
1129 2173 2316
785 2001 2368
740 2014 2448
696 2027 2529
698 2066 2616
724 2119 2706
750 2172 2796
3043 2754 521
3070 2824 660
3097 2894 799
3104 2955 969
3068 2997 1200
3033 3039 1432
2881 3027 1695
2670 2987 1974
2460 2947 2253
2033 2749 2362
1606 2551 2471
1244 2386 2555
1010 2285 2589
777 2184 2624
716 2188 2695
742 2245 2785
768 2301 2874
3200 2985 548
3223 3044 688
3245 3102 829
3253 3153 993
3235 3187 1205
3216 3222 1416
3108 3224 1681
2954 3209 1972
2801 3194 2264
2442 3062 2445
2083 2930 2626
1703 2771 2742
1280 2557 2731
858 2342 2719
735 2311 2775
761 2371 2864
787 2431 2953
3284 3166 585
3301 3213 731
3319 3259 876
3327 3300 1037
3318 3327 1227
3309 3354 1418
3232 3361 1672
3120 3358 1959
3009 3355 2245
2713 3264 2462
2417 3174 2679
2070 3041 2828
1619 2825 2839
1167 2608 2849
961 2536 2892
878 2535 2949
794 2535 3007
3331 3320 628
3343 3356 781
3356 3391 933
3363 3421 1091
3360 3441 1260
3357 3460 1429
3305 3468 1666
3227 3471 1938
3150 3473 2210
2915 3412 2446
2681 3350 2682
2391 3255 2862
1991 3091 2930
1590 2928 2998
1292 2812 3027
1044 2719 3037
796 2626 3047
3379 3475 671
3386 3499 830
3393 3523 989
3398 3543 1145
3402 3555 1292
3405 3567 1439
3377 3576 1660
3334 3584 1918
3291 3591 2176
3118 3559 2431
2945 3526 2685
2713 3468 2897
2363 3358 3021
2014 3249 3146
1622 3088 3163
1210 2903 3125
797 2718 3088
1427 865 373
1128 718 404
830 572 434
618 468 463
580 450 489
541 432 515
511 419 540
484 409 565
458 400 590
438 395 619
419 390 649
402 387 680
389 388 714
375 388 748
366 392 786
358 398 826
350 404 865
1271 817 373
1033 734 451
795 652 529
626 593 593
594 580 628
563 568 662
538 561 696
518 557 730
498 553 763
483 554 801
468 555 839
455 558 879
446 565 923
436 571 967
430 580 1015
425 591 1064
