Assets/1__3DArt/KimSe/artstation_asset/LUTs_subway_asset/3DL/Yellow Line 03_S.3dl
# LUT by SparkleStock. Enhanced with VOXCOLOR algorithms.
0 128 256 384 512 640 768 896 1023
80 96 128
83 116 179
86 131 234
88 144 297
87 157 372
82 173 473
72 192 597
61 215 748
48 240 929
217 272 157
123 266 317
90 273 424
89 292 518
89 319 638
89 358 794
89 403 973
88 452 1175
87 504 1399
558 572 215
547 714 522
325 626 686
109 504 801
118 550 962
132 618 1167
147 694 1391
164 774 1629
181 854 1877
1069 995 310
1189 1302 728
840 1191 997
381 940 1171
168 828 1305
203 928 1551
241 1039 1809
281 1152 2071
321 1261 2329
1716 1543 450
1878 1871 868
1686 1974 1331
1139 1758 1648
236 1131 1630
297 1265 1907
363 1411 2188
431 1559 2463
498 1697 2717
2319 2150 655
2443 2388 995
2340 2521 1463
1975 2479 1922
1313 2193 2236
643 1766 2249
485 1746 2450
581 1922 2728
673 2085 2970
2767 2693 882
2844 2833 1138
2797 2944 1557
2577 2979 2049
2138 2890 2524
1372 2482 2641
893 2255 2757
707 2224 2912
819 2404 3145
3065 3136 1116
3102 3194 1296
3086 3260 1637
2974 3307 2088
2720 3310 2599
2169 3145 2937
1498 2827 3045
992 2587 3095
936 2654 3255
3218 3443 1345
3237 3458 1467
3238 3484 1724
3192 3514 2097
3070 3538 2570
2722 3487 2988
2211 3349 3250
1619 3130 3359
1025 2834 3314
922 517 198
467 285 227
289 204 263
250 198 308
216 192 364
188 192 442
162 198 539
139 209 658
119 226 800
683 486 176
438 446 396
339 443 536
314 462 640
289 485 754
271 519 894
258 561 1058
250 608 1245
249 663 1457
937 755 231
796 824 526
561 790 767
369 747 964
353 789 1125
349 850 1312
353 921 1519
364 999 1744
384 1081 1985
1461 1202 340
1380 1330 642
1039 1290 982
650 1182 1286
424 1110 1479
436 1194 1700
460 1289 1933
493 1392 2174
534 1495 2420
2033 1706 481
2026 1878 772
1853 1987 1206
1391 1893 1612
517 1454 1820
546 1557 2064
591 1675 2313
646 1800 2559
708 1922 2794
2540 2249 679
2569 2411 945
2489 2538 1351
2200 2551 1811
1603 2371 2241
911 2037 2374
725 2020 2586
797 2159 2825
876 2294 3042
2920 2743 897
2956 2870 1141
2929 2974 1490
2767 3023 1928
2399 2984 2437
1650 2673 2682
1149 2491 2857
927 2458 3016
1016 2599 3217
3175 3156 1124
3204 3237 1353
3202 3300 1633
3126 3342 2000
2932 3362 2489
2436 3248 2895
1764 2996 3085
1224 2796 3188
1126 2836 3331
3313 3456 1349
3326 3494 1571
3332 3520 1788
3307 3543 2069
3228 3570 2481
2943 3546 2920
2474 3446 3233
1878 3268 3399
1207 3008 3394
1818 1023 308
1185 604 306
865 423 336
720 370 376
610 337 406
518 310 461
437 288 535
368 274 627
310 271 739
1434 859 237
1085 736 474
881 673 641
765 652 755
679 653 836
600 658 934
534 671 1058
483 691 1207
447 721 1384
1415 966 246
1202 989 551
981 978 852
813 972 1102
761 1008 1255
715 1053 1412
683 1105 1587
666 1165 1782
664 1230 1999
1713 1309 335
1558 1384 616
1315 1406 1007
1055 1398 1389
850 1379 1641
838 1456 1851
841 1542 2066
858 1633 2288
889 1728 2518
2280 1852 506
2175 1942 751
2033 2025 1149
1679 1994 1591
937 1740 1970
941 1829 2207
963 1929 2437
1001 2036 2661
1052 2142 2878
2729 2356 706
2686 2463 939
2621 2561 1303
2413 2596 1751
1939 2515 2235
1280 2275 2477
1089 2270 2707
1139 2382 2921
1204 2493 3117
3058 2806 919
3055 2908 1152
3038 2998 1480
2931 3053 1891
2661 3054 2372
1980 2834 2712
1493 2697 2939
1257 2670 3111
1327 2779 3288
3279 3181 1136
3294 3264 1380
3299 3330 1678
3256 3377 2032
3128 3402 2441
2714 3332 2869
2080 3140 3119
1544 2979 3269
1421 3002 3401
3400 3461 1349
3412 3513 1614
3421 3552 1898
3412 3581 2195
3370 3602 2500
3157 3596 2906
2753 3527 3232
2186 3386 3433
1484 3161 3467
2633 1542 444
2031 1018 414
1654 757 439
1427 657 483
1278 619 506
1098 555 535
937 495 585
793 443 655
669 403 743
2253 1308 335
1873 1094 564
1597 957 742
1409 893 868
1295 897 936
1138 865 983
994 835 1056
871 811 1158
771 797 1291
1999 1254 292
1760 1227 605
1560 1200 935
1417 1199 1215
1351 1248 1380
1247 1270 1494
1154 1291 1623
1079 1315 1773
1026 1344 1950
2016 1440 339
1851 1499 636
1703 1546 1051
1562 1586 1472
1420 1626 1782
1373 1697 1976
1338 1767 2165
1318 1838 2358
1317 1910 2562
2446 1924 502
2305 1996 752
2189 2055 1126
1959 2064 1585
1477 1984 2086
1467 2076 2335
1471 2171 2560
1491 2267 2769
1527 2359 2971
2876 2437 723
2790 2514 948
2726 2582 1289
2594 2625 1724
2306 2625 2231
1744 2483 2565
1573 2500 2818
1606 2595 3020
1655 2687 3200
3180 2866 940
3143 2945 1163
3120 3017 1491
3059 3073 1895
2909 3104 2347
2355 2970 2744
1927 2882 3013
1702 2867 3203
1756 2953 3364
3376 3209 1150
3375 3282 1390
3378 3350 1726
3361 3404 2103
3301 3437 2467
2995 3402 2873
2445 3265 3156
1956 3145 3345
1828 3158 3474
3481 3464 1350
3494 3522 1622
3504 3575 1988
3506 3616 2354
3494 3639 2624
3359 3643 2954
3043 3599 3257
2546 3492 3472
1867 3305 3541
3235 2000 593
2801 1472 544
2494 1173 560
2304 1054 611
2225 1064 669
1954 958 668
1698 849 694
1461 746 742
1246 655 811
2922 1748 467
2614 1480 675
2370 1290 842
2215 1216 982
2176 1294 1108
1944 1230 1109
1714 1157 1136
1500 1080 1194
1311 1010 1289
2698 1666 404
2469 1555 697
2275 1466 1013
2151 1449 1305
2133 1551 1529
1957 1544 1586
1780 1522 1654
1614 1492 1745
1475 1463 1870
2563 1718 399
2389 1714 687
2237 1714 1094
2135 1747 1527
2110 1843 1895
2009 1898 2049
1907 1938 2189
1815 1968 2329
1746 1993 2487
2517 1863 448
2395 1971 721
2284 2047 1108
2188 2109 1596
2118 2177 2170
2112 2293 2450
2108 2398 2683
2112 2493 2885
2130 2577 3076
2977 2458 717
2876 2535 942
2789 2594 1280
2724 2646 1718
2687 2703 2246
2297 2660 2645
2177 2710 2922
2197 2801 3123
2231 2881 3294
3284 2907 955
3223 2975 1168
3174 3033 1487
3142 3085 1896
3131 3138 2379
2769 3085 2790
2449 3048 3086
2264 3054 3298
2306 3125 3451
3466 3235 1164
3451 3302 1396
3438 3362 1727
3433 3418 2130
3440 3469 2580
3270 3463 2920
2858 3379 3207
2465 3301 3425
2352 3314 3556
3557 3467 1352
3569 3528 1624
3578 3586 1996
3587 3639 2421
3598 3683 2857
3543 3691 3071
3340 3668 3317
2957 3595 3525
2365 3450 3623
3524 2301 725
3265 1880 687
3077 1628 702
2957 1516 751
2899 1510 818
2831 1519 864
2623 1424 890
2346 1277 919
2071 1130 972
3304 2098 618
3099 1832 805
2944 1653 956
2847 1583 1087
2818 1643 1217
2784 1726 1289
2606 1684 1316
2355 1572 1341
2103 1447 1405
3145 2036 562
2977 1872 821
2843 1754 1109
2762 1718 1384
2747 1802 1606
2743 1943 1738
2605 1958 1801
2400 1900 1848
2191 1817 1931
3045 2083 554
2906 2003 806
2790 1943 1179
2715 1933 1587
2694 2006 1942
2716 2180 2161
2631 2249 2289
2489 2253 2380
2343 2228 2487
3002 2211 590
2893 2226 828
2797 2230 1184
2721 2239 1640
2670 2272 2183
2714 2447 2509
2690 2560 2722
2630 2628 2873
2566 2666 3011
3137 2487 721
3051 2562 942
2972 2615 1271
2908 2657 1698
2866 2702 2211
2776 2763 2675
2756 2857 2981
2768 2956 3185
2779 3029 3346
3350 2871 936
3294 2953 1147
3241 3018 1460
3199 3070 1860
3173 3118 2334
3084 3145 2809
2940 3167 3146
2838 3205 3378
2879 3280 3538
3546 3240 1169
3523 3308 1391
3501 3367 1711
3484 3421 2105
3476 3468 2549
3442 3497 2959
3217 3464 3273
2979 3430 3498
2908 3454 3640
3629 3470 1356
3639 3532 1621
3646 3593 1985
3651 3650 2408
3657 3700 2848
3654 3728 3176
3561 3726 3418
3327 3683 3590
2905 3583 3708
3707 2519 838
3579 2239 826
3484 2066 850
3420 1983 901
3387 1973 969
3388 2011 1039
3295 1979 1091
3117 1876 1135
2862 1701 1180
3574 2400 771
3457 2172 943
3375 2030 1080
3326 1980 1201
3311 2029 1326
3335 2145 1427
3265 2178 1487
3108 2123 1529
2871 1975 1574
3477 2377 738
3372 2196 964
3294 2071 1223
3250 2028 1476
3244 2096 1683
3282 2268 1842
3236 2363 1938
3109 2367 1999
2905 2265 2052
3414 2432 737
3322 2305 952
3248 2202 1289
3201 2157 1665
3191 2206 1994
3236 2401 2231
3214 2544 2386
3126 2608 2485
2971 2567 2556
3382 2546 768
3306 2492 969
3240 2436 1289
3190 2397 1709
3158 2390 2212
3200 2566 2544
3204 2734 2775
3164 2851 2928
3073 2876 3027
3397 2697 841
3336 2723 1036
3280 2733 1340
3233 2739 1739
3200 2753 2221
3206 2831 2685
3227 2968 3013
3241 3102 3232
3229 3174 3367
3497 2943 981
3452 3009 1177
3408 3057 1473
3371 3094 1855
3343 3126 2309
3341 3169 2789
3306 3236 3160
3284 3316 3424
3319 3400 3582
3619 3222 1163
3596 3298 1376
3572 3362 1684
3550 3417 2065
3535 3463 2500
3538 3501 2932
3459 3511 3285
3374 3522 3548
3357 3569 3707
3702 3471 1358
3710 3536 1615
3715 3600 1968
3718 3661 2380
3721 3714 2816
3730 3750 3187
3704 3766 3458
3595 3750 3649
3352 3691 3777
3818 2674 937
3778 2547 960
3747 2465 1001
3724 2423 1058
3712 2416 1127
3713 2437 1204
3715 2457 1283
3664 2424 1355
3502 2286 1409
3760 2661 923
3714 2506 1089
3686 2419 1216
3671 2396 1325
3667 2433 1439
3677 2518 1545
3692 2601 1640
3652 2622 1718
3501 2515 1769
3716 2693 922
3672 2536 1125
3643 2426 1358
3629 2384 1585
3629 2431 1767
3645 2564 1924
3666 2707 2054
3638 2789 2150
3505 2733 2205
3685 2762 938
3648 2628 1123
3618 2506 1428
3601 2436 1768
3599 2457 2060
3617 2610 2286
3642 2797 2468
3625 2936 2597
3518 2943 2663
3667 2863 970
3637 2772 1138
3612 2679 1424
3593 2602 1808
3580 2558 2268
3595 2693 2576
3620 2893 2825
3616 3073 3001
3544 3146 3089
3667 2983 1024
3643 2954 1188
3622 2915 1462
3604 2878 1829
3590 2855 2271
3591 2903 2699
3609 3053 3032
3617 3224 3264
3590 3336 3389
3679 3101 1090
3659 3132 1264
3640 3150 1539
3623 3160 1898
3608 3170 2325
3603 3194 2776
3611 3277 3157
3627 3392 3443
3644 3511 3608
3711 3252 1193
3700 3323 1394
3688 3382 1689
3676 3431 2056
3665 3471 2476
3661 3502 2896
3663 3534 3273
3669 3581 3570
3680 3660 3751
3773 3473 1359
3781 3539 1606
3787 3607 1945
3792 3671 2344
3795 3727 2770
3796 3764 3144
3799 3789 3450
3770 3794 3680
3676 3769 3824
3891 2786 1025
3898 2800 1087
3900 2805 1150
3899 2806 1216
3895 2804 1290
3891 2803 1371
3886 2802 1456
3881 2802 1543
3875 2802 1633
3889 2890 1070
3896 2843 1243
3900 2820 1364
3900 2819 1461
3896 2836 1563
3892 2874 1666
3886 2915 1766
3882 2955 1865
3878 2987 1962
3883 2983 1109
3895 2902 1304
3904 2830 1517
3908 2790 1716
3905 2805 1867
3898 2876 2011
3890 2966 2141
3883 3061 2258
3877 3147 2359
3876 3070 1145
3894 2977 1316
3909 2868 1596
3919 2786 1903
3919 2772 2150
3910 2858 2350
3898 2987 2523
3885 3137 2667
3875 3289 2778
3866 3155 1181
3891 3070 1328
3912 2971 1590
3928 2874 1942
3935 2800 2361
3925 2870 2627
3909 3014 2857
3891 3204 3042
3874 3416 3169
3857 3240 1218
3884 3188 1360
3909 3125 1612
3929 3062 1951
3940 3009 2356
3933 3021 2742
3917 3126 3050
3897 3303 3284
3875 3531 3444
3850 3322 1260
3875 3313 1413
3900 3295 1670
3921 3274 2008
3933 3256 2404
3930 3258 2815
3916 3314 3165
3895 3437 3445
3871 3638 3639
3845 3400 1306
3865 3434 1491
3885 3463 1771
3902 3488 2122
3914 3509 2519
3913 3528 2909
3902 3549 3264
3884 3607 3558
3861 3733 3768
3843 3475 1361
3850 3543 1597
3861 3613 1921
3873 3680 2304
3881 3738 2717
3880 3776 3090
3873 3801 3405
3860 3812 3657
3843 3811 3843
