Assets/1__3DArt/KimSe/artstation_asset/LUTs_subway_asset/3DL/Yellow Line 03.3dl
# LUT by SparkleStock. Enhanced with VOXCOLOR algorithms.
0 64 128 192 256 320 384 448 512 576 640 704 768 832 896 960 1023
80 96 128
81 106 153
83 116 179
84 124 206
86 131 234
88 138 262
88 144 297
87 151 335
87 157 372
84 165 422
82 173 473
78 182 529
72 192 597
67 203 665
61 215 748
54 228 839
48 240 929
149 184 143
126 187 195
103 191 248
88 195 294
88 202 329
88 209 363
88 217 407
88 227 456
88 237 504
87 251 569
86 265 633
84 280 703
81 298 784
78 315 866
74 334 960
71 353 1060
68 372 1161
218 272 157
171 269 237
123 266 317
91 266 383
90 273 423
89 280 463
89 291 517
89 304 577
89 318 637
89 337 715
90 357 793
90 378 877
89 403 971
88 427 1066
88 452 1171
88 478 1282
88 504 1393
338 390 179
289 403 291
240 415 403
193 417 492
150 396 536
107 376 581
94 380 642
96 398 713
97 415 783
100 441 875
102 467 966
105 496 1062
108 527 1168
111 559 1275
114 592 1389
118 625 1508
122 658 1626
561 572 215
555 643 369
549 714 523
490 728 640
325 625 686
161 522 732
109 503 800
114 525 879
119 546 959
126 581 1061
133 615 1163
140 651 1270
149 692 1386
157 733 1501
166 773 1621
175 813 1743
184 854 1864
783 753 251
821 883 447
858 1013 642
788 1039 788
501 854 836
214 669 883
124 625 957
132 652 1045
140 678 1134
152 720 1247
163 763 1361
175 807 1478
189 857 1603
203 906 1728
217 954 1853
231 1002 1978
245 1050 2103
1075 995 311
1134 1149 520
1193 1302 729
1135 1351 901
844 1191 997
552 1031 1094
383 939 1170
276 881 1235
169 824 1301
187 874 1423
205 924 1545
224 977 1671
244 1035 1802
264 1093 1933
285 1150 2060
305 1205 2185
326 1261 2311
1402 1269 382
1472 1428 591
1541 1586 800
1508 1665 995
1270 1583 1165
1031 1500 1335
765 1349 1410
484 1162 1437
203 976 1465
228 1034 1594
252 1092 1723
278 1153 1855
306 1220 1991
333 1287 2127
361 1352 2256
388 1415 2380
415 1478 2504
1729 1542 454
1809 1706 662
1889 1870 870
1881 1979 1090
1696 1974 1333
1511 1970 1576
1146 1758 1650
692 1444 1639
237 1129 1628
269 1194 1764
300 1260 1901
333 1328 2039
368 1405 2180
402 1482 2322
437 1554 2451
471 1624 2574
505 1695 2697
2037 1845 558
2107 1987 747
2177 2129 935
2175 2229 1146
2028 2247 1401
1881 2265 1655
1569 2119 1789
1176 1890 1861
782 1661 1933
629 1586 2003
475 1510 2073
387 1488 2168
429 1572 2312
472 1656 2456
512 1735 2585
553 1812 2705
593 1888 2826
2345 2148 663
2405 2268 832
2465 2387 1001
2468 2480 1202
2360 2521 1468
2251 2561 1735
1993 2479 1927
1660 2336 2083
1327 2192 2238
989 1977 2242
651 1761 2246
442 1648 2297
491 1739 2444
541 1830 2591
588 1916 2719
634 1999 2837
680 2082 2955
2613 2435 772
2662 2531 921
2711 2627 1069
2718 2709 1258
2642 2763 1526
2566 2817 1794
2357 2784 2029
2083 2709 2246
1808 2633 2464
1365 2349 2448
923 2066 2432
627 1895 2462
626 1950 2588
624 2004 2713
658 2081 2832
709 2170 2948
761 2258 3065
2801 2688 892
2837 2760 1019
2873 2831 1146
2879 2894 1314
2824 2943 1564
2769 2992 1815
2603 2979 2056
2383 2935 2293
2162 2890 2530
1775 2684 2586
1388 2478 2643
1074 2318 2699
904 2248 2754
735 2179 2809
715 2217 2904
771 2309 3020
826 2400 3135
2988 2942 1012
3012 2988 1117
3035 3034 1222
3040 3079 1370
3006 3123 1602
2972 3167 1835
2850 3174 2083
2683 3161 2339
2516 3148 2595
2185 3020 2725
1854 2891 2855
1521 2741 2936
1184 2547 2921
846 2354 2906
773 2353 2977
832 2448 3091
891 2543 3205
3093 3131 1125
3110 3161 1214
3126 3191 1302
3130 3223 1432
3109 3259 1642
3088 3295 1853
2997 3307 2093
2870 3309 2349
2743 3310 2605
2465 3227 2773
2187 3143 2941
1879 3021 3051
1510 2823 3045
1141 2624 3039
999 2581 3090
970 2616 3170
941 2651 3250
3155 3287 1235
3169 3306 1310
3182 3325 1384
3186 3346 1496
3174 3372 1683
3161 3398 1869
3094 3411 2095
3000 3417 2342
2907 3424 2588
2681 3370 2776
2455 3315 2964
2193 3231 3104
1861 3086 3148
1528 2942 3191
1309 2856 3225
1146 2799 3253
983 2742 3282
3218 3443 1345
3228 3451 1406
3237 3458 1467
3242 3468 1561
3238 3484 1724
3233 3501 1886
3192 3514 2097
3131 3526 2334
3070 3538 2570
2896 3513 2779
2722 3487 2988
2507 3440 3158
2211 3349 3250
1916 3259 3343
1619 3130 3359
1322 2982 3336
1025 2834 3314
503 310 164
389 257 180
274 204 196
195 170 215
186 171 241
177 172 267
168 173 298
160 174 332
151 176 366
143 179 411
135 183 456
126 188 507
117 195 568
108 203 629
100 212 703
92 223 784
84 233 864
486 342 168
379 311 222
271 280 276
198 261 323
191 265 358
184 269 392
177 275 435
171 282 481
165 289 527
160 300 588
155 311 648
150 323 714
144 339 790
139 354 866
134 371 955
130 390 1049
126 408 1143
468 375 173
368 366 264
269 357 355
201 353 431
196 360 474
190 367 517
186 377 571
183 390 630
180 402 689
177 421 764
175 439 840
173 459 920
171 482 1012
170 505 1104
169 531 1206
168 557 1314
168 584 1422
535 463 190
453 481 314
370 499 438
301 507 539
258 495 595
214 482 650
199 490 716
199 508 786
198 525 857
199 551 945
200 576 1034
201 604 1128
204 635 1232
206 666 1337
210 699 1450
214 733 1568
218 767 1686
774 661 231
727 717 378
680 773 525
595 785 648
434 710 724
273 635 800
220 624 877
222 645 956
224 667 1035
229 700 1134
234 732 1233
240 767 1336
248 806 1449
256 846 1561
264 886 1679
274 927 1799
283 968 1919
1012 859 273
1001 953 443
989 1047 613
889 1064 758
610 925 853
331 787 949
241 758 1039
245 783 1127
250 809 1214
259 849 1323
268 889 1432
279 931 1545
292 978 1665
305 1025 1785
319 1073 1907
334 1121 2030
349 1168 2153
1295 1101 334
1306 1213 511
1318 1325 687
1233 1361 851
953 1245 990
673 1129 1129
507 1059 1228
396 1012 1307
286 964 1386
300 1011 1503
314 1057 1619
330 1106 1738
349 1161 1864
368 1216 1989
388 1270 2113
409 1324 2235
430 1379 2357
1599 1364 405
1628 1484 580
1656 1604 755
1601 1667 937
1379 1617 1130
1157 1567 1324
894 1444 1430
610 1285 1493
327 1126 1555
347 1179 1678
366 1231 1800
388 1287 1924
413 1350 2054
439 1412 2183
465 1473 2306
492 1533 2427
519 1594 2547
1903 1626 475
1949 1754 649
1995 1883 823
1970 1973 1022
1805 1989 1271
1641 2005 1519
1281 1830 1633
824 1559 1679
368 1288 1724
393 1347 1852
418 1406 1981
446 1468 2110
478 1538 2243
509 1608 2376
542 1676 2500
575 1742 2618
608 1809 2737
2183 1913 576
2227 2028 738
2271 2143 900
2258 2231 1091
2129 2262 1341
2001 2293 1592
1699 2174 1753
1310 1980 1868
920 1785 1984
760 1718 2064
600 1651 2145
505 1632 2244
543 1707 2378
580 1783 2512
618 1856 2634
656 1927 2749
694 1998 2865
2463 2199 677
2505 2302 826
2548 2404 976
2545 2488 1160
2453 2535 1412
2361 2582 1665
2116 2519 1872
1795 2401 2057
1473 2282 2243
1127 2090 2276
781 1897 2310
565 1795 2378
608 1877 2513
651 1958 2648
694 2035 2768
737 2111 2880
780 2187 2992
2707 2472 783
2745 2559 920
2784 2647 1057
2789 2723 1230
2727 2778 1477
2665 2833 1724
2472 2813 1963
2214 2754 2198
1955 2695 2433
1507 2442 2457
1058 2189 2481
756 2036 2536
746 2084 2653
736 2131 2771
764 2200 2883
812 2280 2992
859 2360 3101
2879 2715 901
2909 2784 1024
2938 2852 1148
2943 2914 1305
2900 2962 1531
2856 3009 1756
2705 3003 1995
2500 2971 2241
2296 2939 2487
1911 2757 2576
1526 2575 2664
1210 2432 2744
1030 2367 2805
850 2302 2866
823 2335 2958
873 2417 3065
923 2499 3172
3051 2959 1018
3072 3009 1128
3093 3058 1238
3098 3105 1380
3072 3145 1584
3047 3185 1788
2938 3194 2027
2787 3189 2284
2636 3183 2540
2315 3071 2694
1994 2960 2848
1663 2827 2952
1314 2650 2957
964 2473 2961
882 2470 3033
935 2554 3138
987 2638 3243
3147 3142 1129
3163 3178 1230
3179 3214 1331
3184 3248 1459
3169 3280 1640
3154 3312 1822
3074 3326 2049
2962 3331 2300
2849 3336 2550
2585 3266 2735
2321 3196 2920
2019 3088 3049
1642 2908 3066
1265 2727 3082
1113 2686 3138
1074 2714 3213
1035 2743 3288
3207 3296 1238
3218 3320 1332
3230 3345 1425
3235 3369 1540
3227 3391 1698
3218 3414 1856
3161 3427 2066
3080 3436 2302
2999 3445 2538
2788 3400 2738
2576 3356 2937
2325 3283 3091
1992 3153 3154
1660 3023 3217
1431 2942 3258
1253 2887 3290
1075 2832 3321
3266 3449 1347
3274 3463 1433
3282 3476 1519
3287 3489 1621
3285 3502 1756
3283 3515 1891
3249 3528 2083
3199 3541 2305
3149 3554 2526
2991 3535 2740
2832 3516 2954
2631 3477 3133
2343 3398 3242
2055 3318 3351
1748 3199 3379
1432 3060 3366
1116 2921 3354
927 523 199
696 408 206
465 293 213
305 215 225
286 210 248
266 205 272
249 201 299
232 198 329
215 194 359
201 194 400
188 193 440
174 194 485
162 198 539
150 202 593
139 209 658
129 218 729
119 226 800
822 501 194
631 436 249
440 370 303
308 327 351
293 328 386
279 330 421
266 333 462
254 337 506
243 341 550
233 349 607
224 357 663
215 367 725
208 380 796
200 393 867
194 409 950
189 427 1038
184 445 1126
718 479 189
566 463 291
415 447 394
311 439 478
301 447 525
292 454 571
284 464 625
277 476 683
270 487 742
265 504 814
260 521 887
256 539 964
253 561 1053
251 584 1142
249 609 1242
249 636 1346
248 663 1451
733 535 201
617 559 337
501 582 473
409 596 586
365 593 653
321 589 720
305 600 789
301 618 860
298 635 930
298 660 1016
297 685 1102
298 711 1194
300 742 1296
302 773 1399
305 807 1511
310 842 1628
314 877 1745
987 751 248
899 791 388
811 832 528
700 843 656
542 795 762
385 747 867
332 745 955
330 766 1034
329 788 1112
332 819 1207
336 850 1303
340 883 1403
347 921 1512
354 959 1621
363 999 1736
373 1040 1855
383 1082 1974
1242 966 295
1181 1024 439
1121 1082 583
990 1089 727
719 997 871
448 905 1015
359 890 1121
359 915 1208
360 940 1295
367 977 1399
374 1015 1503
383 1055 1611
395 1100 1727
407 1145 1843
421 1191 1962
437 1239 2082
452 1286 2202
1514 1206 357
1479 1277 501
1443 1347 645
1330 1370 801
1062 1299 983
795 1228 1164
630 1179 1286
516 1142 1379
402 1105 1472
413 1148 1582
424 1190 1692
437 1236 1806
455 1287 1926
472 1339 2045
492 1391 2165
513 1444 2284
534 1496 2403
1796 1458 427
1784 1540 569
1771 1621 711
1694 1669 878
1489 1652 1096
1283 1634 1313
1023 1540 1451
737 1408 1549
450 1276 1646
465 1324 1761
480 1371 1876
498 1422 1994
521 1479 2116
544 1537 2238
570 1594 2357
596 1652 2474
622 1709 2590
2078 1711 496
2089 1803 636
2100 1895 776
2059 1968 954
1915 2004 1209
1771 2040 1463
1417 1901 1616
957 1674 1718
498 1448 1821
517 1500 1940
537 1552 2060
559 1608 2181
588 1671 2306
616 1735 2431
647 1798 2549
679 1860 2663
710 1922 2777
2330 1981 594
2347 2069 729
2365 2158 864
2341 2232 1036
2231 2277 1282
2121 2322 1529
1828 2230 1717
1444 2070 1875
1059 1910 2034
892 1851 2125
724 1792 2217
623 1775 2320
656 1843 2444
689 1910 2568
723 1976 2683
759 2042 2793
795 2108 2903
2582 2251 692
2606 2336 821
2631 2421 951
2622 2496 1117
2547 2550 1356
2471 2603 1595
2240 2559 1817
1930 2466 2032
1620 2372 2247
1266 2202 2310
911 2033 2374
688 1943 2458
724 2014 2582
761 2086 2706
800 2155 2818
840 2224 2924
880 2293 3030
2801 2509 795
2829 2588 920
2857 2666 1045
2859 2737 1203
2812 2794 1428
2764 2850 1653
2587 2841 1897
2345 2799 2150
2103 2757 2403
1648 2535 2467
1193 2312 2530
884 2177 2610
866 2218 2719
848 2258 2829
871 2319 2933
914 2390 3035
958 2462 3137
2957 2742 909
2980 2808 1029
3003 2874 1150
3008 2934 1296
2975 2980 1497
2943 3026 1697
2806 3028 1934
2618 3008 2189
2429 2987 2444
2047 2829 2565
1664 2671 2686
1345 2545 2789
1155 2485 2856
965 2425 2923
931 2453 3011
976 2525 3110
1020 2597 3209
3113 2975 1024
3132 3029 1139
3150 3082 1255
3157 3130 1390
3139 3166 1565
3121 3202 1741
3026 3215 1971
2891 3216 2228
2756 3217 2485
2445 3123 2663
2134 3029 2841
1806 2913 2967
1444 2752 2992
1082 2592 3017
991 2587 3089
1037 2660 3184
1083 2732 3280
3202 3154 1134
3217 3195 1247
3231 3237 1360
3238 3274 1486
3228 3301 1638
3219 3328 1790
3151 3344 2005
3053 3353 2250
2956 3363 2495
2705 3305 2697
2454 3248 2899
2158 3155 3047
1774 2993 3087
1389 2830 3126
1228 2791 3186
1179 2813 3256
1129 2835 3326
3258 3305 1241
3268 3335 1353
3278 3365 1465
3284 3392 1583
3280 3411 1713
3276 3429 1843
3229 3443 2037
3160 3455 2263
3092 3466 2489
2895 3431 2699
2698 3397 2910
2456 3335 3078
2124 3219 3160
1792 3104 3242
1553 3029 3292
1360 2975 3326
1168 2922 3360
3313 3456 1349
3320 3475 1460
3326 3494 1571
3331 3510 1681
3332 3520 1788
3333 3530 1895
3307 3543 2069
3268 3556 2276
3228 3570 2482
3085 3558 2701
2943 3546 2920
2754 3515 3108
2474 3446 3233
2195 3377 3359
1878 3268 3399
1542 3138 3397
1207 3008 3394
1365 761 246
1055 593 242
746 426 238
525 309 242
483 291 264
441 274 286
406 262 310
376 252 337
346 242 363
321 235 399
296 228 435
273 224 475
253 222 523
233 221 570
216 224 628
200 229 690
185 234 752
1205 699 232
955 602 284
705 506 337
526 438 383
490 428 417
454 418 451
426 413 490
402 411 531
379 409 571
359 412 623
340 414 675
323 418 731
308 426 797
293 434 862
282 447 938
272 461 1019
