Assets/1__3DArt/KimSe/artstation_asset/LUTs_subway_asset/3DL/Yellow Line 02.3dl
# LUT by SparkleStock. Enhanced with VOXCOLOR algorithms.
0 64 128 192 256 320 384 448 512 576 640 704 768 832 896 960 1023
304 272 224
307 274 258
311 276 291
313 280 326
315 285 363
316 290 399
317 297 440
318 305 483
319 313 526
320 322 578
320 331 630
322 340 684
325 351 746
329 362 807
336 374 877
344 387 951
352 400 1025
380 375 239
362 373 301
343 371 363
331 371 417
331 374 457
332 377 496
334 384 543
336 393 593
338 403 644
342 415 705
345 427 767
349 441 832
355 455 903
361 470 974
369 486 1052
379 503 1135
389 520 1217
456 479 253
416 472 344
375 465 434
348 461 509
348 463 551
348 464 593
351 471 645
354 482 703
358 492 762
364 508 833
369 524 904
376 541 979
384 560 1060
392 578 1141
403 598 1228
415 619 1318
426 639 1408
571 605 277
526 611 397
482 618 517
441 615 612
410 592 657
379 569 703
372 569 761
376 580 826
381 591 891
388 610 972
396 629 1053
405 650 1137
416 673 1227
426 696 1317
439 719 1412
452 743 1509
465 767 1606
761 774 320
748 831 470
736 887 621
686 893 738
563 802 789
439 710 840
401 687 903
405 698 974
410 709 1044
419 732 1134
429 754 1223
440 777 1315
452 804 1413
465 831 1511
478 858 1612
492 884 1713
506 911 1815
952 944 362
971 1050 543
990 1155 725
931 1172 864
715 1012 920
499 851 976
430 805 1046
434 816 1122
438 828 1198
450 853 1295
462 878 1393
474 905 1493
489 936 1599
503 966 1705
518 996 1811
532 1026 1918
546 1055 2024
1185 1154 416
1221 1279 606
1257 1405 795
1205 1442 953
979 1304 1052
752 1166 1151
624 1078 1224
546 1015 1283
467 953 1343
479 980 1446
492 1008 1550
505 1038 1657
521 1073 1769
537 1108 1881
552 1141 1992
567 1173 2101
581 1206 2210
1440 1383 477
1485 1514 662
1529 1645 847
1494 1709 1024
1298 1638 1185
1102 1567 1346
901 1428 1420
698 1255 1451
495 1081 1483
507 1111 1592
520 1141 1701
534 1174 1813
551 1213 1931
568 1252 2049
583 1289 2162
598 1325 2273
613 1360 2384
1695 1613 538
1748 1749 719
1801 1885 900
1782 1975 1095
1617 1972 1317
1452 1969 1540
1178 1779 1616
851 1494 1620
523 1210 1623
535 1242 1738
548 1275 1853
562 1310 1970
580 1353 2093
599 1397 2216
615 1437 2332
630 1476 2445
645 1515 2558
1930 1863 601
1978 1982 765
2026 2101 929
2013 2187 1117
1878 2206 1352
1743 2226 1588
1495 2093 1720
1190 1884 1800
885 1675 1880
768 1579 1939
650 1484 1998
578 1437 2079
596 1484 2205
615 1531 2331
631 1576 2449
646 1619 2562
661 1662 2676
2165 2113 663
2207 2215 811
2250 2317 958
2244 2399 1139
2139 2441 1387
2035 2483 1636
1812 2407 1823
1529 2273 1980
1247 2139 2137
1000 1917 2140
753 1694 2143
594 1563 2188
612 1614 2317
630 1665 2446
646 1714 2565
662 1762 2679
676 1809 2794
2371 2352 723
2408 2437 854
2445 2521 984
2444 2596 1156
2366 2652 1409
2289 2709 1662
2093 2679 1891
1839 2606 2107
1585 2533 2323
1255 2249 2313
924 1965 2303
697 1780 2333
676 1793 2442
654 1806 2551
657 1845 2664
672 1897 2779
687 1949 2894
2522 2573 777
2552 2637 891
2581 2702 1006
2582 2763 1163
2525 2818 1405
2468 2872 1647
2306 2864 1888
2091 2823 2128
1876 2783 2367
1555 2570 2431
1234 2356 2494
973 2178 2551
833 2068 2593
693 1959 2636
656 1960 2727
672 2017 2843
686 2073 2958
2673 2794 831
2695 2838 929
2717 2883 1027
2720 2931 1170
2684 2983 1401
2647 3036 1632
2518 3049 1885
2342 3041 2149
2166 3033 2412
1855 2891 2549
1543 2748 2685
1250 2575 2768
991 2344 2744
732 2112 2720
656 2076 2790
671 2137 2907
686 2198 3023
2763 2971 881
2782 3003 968
2802 3035 1055
2807 3071 1184
2784 3118 1400
2760 3164 1615
2657 3186 1866
2514 3195 2135
2372 3203 2405
2088 3107 2583
1805 3010 2761
1515 2867 2877
1213 2631 2867
912 2396 2857
778 2314 2906
728 2309 2985
678 2304 3064
2822 3126 929
2842 3149 1007
2861 3171 1085
2869 3199 1203
2854 3237 1400
2839 3275 1597
2759 3299 1840
2647 3316 2105
2534 3333 2371
2288 3270 2575
2042 3207 2780
1775 3105 2931
1468 2925 2976
1161 2745 3020
961 2614 3049
814 2507 3071
667 2401 3093
2882 3282 977
2901 3295 1046
2920 3308 1116
2931 3327 1222
2925 3356 1401
2919 3385 1579
2862 3412 1813
2780 3438 2075
2697 3463 2337
2488 3433 2568
2279 3404 2799
2036 3342 2986
1723 3218 3084
1410 3093 3183
1144 2914 3193
900 2706 3157
656 2498 3122
663 480 294
573 427 308
484 375 323
422 339 344
414 336 376
407 333 409
401 332 446
395 333 485
389 333 523
384 337 570
380 340 617
377 345 667
376 351 723
375 357 778
378 366 842
383 376 910
388 385 977
664 530 295
580 498 347
495 465 399
437 443 447
432 442 486
426 440 525
422 443 570
419 447 619
416 451 667
415 460 725
414 469 783
414 478 844
417 490 911
419 502 978
425 516 1052
433 531 1130
440 545 1207
665 580 296
586 568 386
507 555 476
453 547 551
449 547 596
445 547 642
443 553 695
443 561 753
443 570 810
445 583 879
448 597 948
451 612 1020
457 630 1099
464 647 1178
472 666 1262
482 685 1349
493 705 1437
732 674 312
665 686 432
599 697 552
544 700 651
510 683 707
477 667 764
466 669 826
468 679 892
469 690 957
474 708 1036
480 726 1115
486 746 1197
495 768 1286
504 791 1374
516 814 1468
528 837 1563
540 861 1658
930 853 356
891 898 492
852 942 629
784 949 745
659 879 821
534 810 897
493 794 970
494 805 1041
494 816 1112
501 837 1199
508 858 1285
517 880 1375
528 906 1470
539 932 1566
551 958 1664
564 984 1764
577 1010 1863
1128 1033 400
1116 1110 552
1105 1187 705
1025 1198 839
808 1076 935
591 954 1031
519 920 1114
519 931 1191
520 942 1267
529 965 1361
537 989 1455
547 1014 1552
560 1043 1655
573 1073 1757
587 1102 1861
601 1130 1964
615 1159 2068
1352 1239 452
1359 1332 607
1365 1425 763
1296 1453 911
1073 1352 1045
851 1251 1178
719 1182 1271
632 1128 1343
546 1074 1415
555 1100 1515
564 1125 1615
574 1153 1717
588 1186 1825
602 1219 1932
617 1251 2039
631 1282 2145
645 1314 2251
1588 1458 508
1609 1559 660
1630 1660 811
1582 1712 973
1397 1669 1153
1212 1627 1333
1006 1512 1435
789 1361 1498
572 1210 1560
580 1238 1664
589 1265 1769
599 1295 1875
614 1331 1987
629 1367 2099
644 1402 2208
658 1437 2315
673 1471 2422
1825 1677 564
1860 1786 712
1894 1894 860
1868 1972 1035
1721 1987 1261
1574 2002 1488
1293 1842 1599
945 1594 1652
598 1346 1705
606 1375 1814
614 1404 1923
625 1436 2034
640 1476 2150
656 1516 2266
671 1554 2377
686 1591 2486
701 1628 2594
2040 1914 621
2076 2013 759
2111 2113 897
2096 2190 1066
1978 2221 1297
1860 2252 1527
1611 2143 1683
1297 1964 1802
983 1785 1921
852 1698 1991
722 1612 2062
640 1568 2148
655 1611 2266
670 1654 2384
684 1695 2496
699 1736 2604
713 1776 2712
2255 2150 679
2292 2241 807
2329 2332 934
2323 2408 1098
2235 2455 1333
2147 2503 1567
1930 2445 1768
1649 2334 1952
1368 2224 2136
1099 2022 2169
829 1819 2201
654 1700 2263
669 1746 2383
683 1791 2503
697 1836 2614
711 1880 2722
725 1924 2830
2446 2379 734
2482 2459 852
2517 2539 971
2520 2611 1127
2457 2668 1360
2395 2725 1592
2210 2706 1825
1965 2651 2058
1720 2595 2291
1365 2339 2320
1011 2082 2349
764 1914 2403
735 1924 2506
706 1934 2610
705 1970 2716
719 2017 2824
733 2065 2931
2588 2592 786
2619 2658 896
2649 2723 1005
2654 2785 1151
2610 2837 1369
2565 2889 1587
2414 2888 1825
2211 2861 2074
2008 2833 2323
1674 2643 2418
1340 2453 2514
1064 2292 2594
906 2189 2645
748 2087 2695
704 2087 2784
717 2139 2891
730 2190 2998
2730 2805 837
2756 2857 939
2781 2908 1040
2789 2958 1175
2762 3006 1379
2735 3054 1582
2618 3070 1826
2456 3070 2090
2295 3071 2355
1982 2947 2517
1669 2824 2679
1364 2670 2786
1078 2455 2783
791 2240 2781
703 2205 2851
716 2260 2958
728 2315 3065
2818 2979 887
2840 3020 984
2863 3060 1081
2872 3101 1208
2856 3141 1394
2840 3182 1580
2750 3205 1817
2622 3218 2081
2494 3232 2345
2215 3151 2543
1937 3070 2741
1642 2944 2877
1316 2727 2892
989 2511 2906
840 2434 2960
779 2427 3034
719 2420 3108
2878 3133 935
2899 3165 1030
2919 3196 1125
2930 3228 1244
2921 3260 1411
2913 3292 1579
2845 3316 1805
2747 3336 2060
2649 3355 2315
2412 3305 2533
2174 3255 2751
1909 3167 2919
1587 3004 2985
1265 2841 3051
1045 2719 3090
876 2617 3115
707 2516 3140
2939 3288 984
2957 3310 1076
2975 3332 1168
2987 3355 1280
2986 3378 1429
2986 3402 1578
2940 3427 1792
2872 3453 2038
2804 3478 2285
2608 3459 2523
2412 3439 2761
2176 3390 2960
1859 3280 3078
1541 3171 3197
1251 3004 3220
973 2808 3196
695 2611 3171
1021 688 364
839 580 359
656 473 354
530 398 361
514 387 390
498 375 419
484 367 452
471 360 486
459 353 521
449 352 563
440 350 605
432 349 650
427 351 700
422 353 750
421 358 808
422 364 869
424 371 930
947 685 351
797 622 394
648 559 436
544 515 477
532 509 516
520 503 555
510 501 598
502 501 644
493 500 690
488 505 744
483 510 798
479 516 856
479 525 919
478 535 982
481 546 1052
486 558 1125
491 571 1198
873 682 339
756 664 428
639 645 517
558 633 593
550 632 642
541 631 691
536 635 745
532 641 802
527 647 859
527 659 925
526 670 992
527 684 1061
531 700 1138
535 716 1214
542 734 1296
550 752 1381
559 770 1465
893 743 346
805 760 467
717 776 588
646 784 691
610 774 758
574 765 825
561 768 891
559 779 957
558 789 1023
560 806 1100
563 823 1177
568 842 1258
575 864 1344
582 886 1431
592 909 1523
604 932 1617
615 955 1711
1099 932 392
1033 965 514
968 998 636
882 1004 752
755 957 853
629 910 955
585 902 1037
582 912 1108
579 922 1180
584 942 1264
588 961 1348
594 983 1434
603 1008 1527
613 1032 1620
624 1058 1716
637 1084 1814
649 1109 1911
1305 1122 437
1262 1170 561
1219 1219 685
1118 1223 813
901 1140 949
683 1056 1086
608 1035 1182
605 1045 1259
601 1056 1336
607 1078 1427
613 1099 1518
620 1123 1611
631 1151 1710
643 1179 1809
656 1207 1910
669 1235 2011
683 1264 2112
1519 1324 487
1496 1385 609
1474 1445 731
1386 1464 869
1168 1401 1037
950 1337 1206
814 1286 1318
719 1241 1403
625 1196 1488
630 1219 1584
636 1242 1679
644 1268 1777
656 1299 1880
668 1329 1983
682 1360 2086
696 1391 2189
710 1422 2292
1737 1533 538
1734 1604 657
1731 1674 776
1671 1716 921
1497 1701 1121
1322 1686 1320
1111 1595 1450
880 1467 1544
649 1339 1638
653 1364 1737
658 1388 1836
665 1415 1937
678 1449 2044
691 1482 2150
705 1515 2254
719 1548 2357
733 1582 2461
1954 1742 589
1971 1823 705
1987 1903 820
1955 1968 974
1825 2001 1205
1695 2034 1435
1407 1905 1581
1040 1694 1684
673 1483 1787
677 1508 1890
680 1533 1993
687 1562 2097
701 1598 2207
714 1634 2317
728 1670 2422
742 1706 2526
756 1741 2630
2150 1965 641
2174 2045 754
2197 2125 866
2179 2193 1015
2078 2235 1241
1977 2278 1467
1728 2193 1647
1404 2045 1804
1081 1896 1962
937 1817 2044
793 1739 2126
701 1700 2217
713 1738 2327
724 1776 2438
738 1814 2543
751 1852 2646
765 1891 2748
2346 2188 694
2377 2267 802
2407 2346 911
2403 2417 1057
2331 2470 1278
2259 2523 1499
2048 2482 1714
1769 2395 1925
1489 2308 2136
1197 2126 2198
906 1945 2259
714 1837 2337
725 1877 2448
735 1918 2559
747 1958 2663
761 1999 2765
774 2040 2867
2521 2405 745
2555 2481 851
2589 2557 957
2596 2626 1098
2548 2683 1310
2500 2741 1522
2327 2734 1759
2091 2696 2009
1856 2658 2259
1476 2429 2327
1097 2199 2394
832 2048 2472
794 2055 2570
757 2063 2668
753 2094 2768
766 2138 2868
778 2181 2968
2654 2611 794
2686 2678 900
2717 2745 1005
2727 2806 1140
2694 2856 1333
2662 2906 1527
2523 2913 1763
2331 2898 2021
2139 2884 2278
1792 2716 2406
1445 2549 2533
1155 2406 2638
979 2310 2696
803 2215 2755
752 2214 2840
763 2260 2939
774 2306 3037
2787 2816 843
2816 2875 948
2845 2933 1053
2858 2986 1181
2840 3029 1356
2823 3071 1531
2719 3091 1767
2571 3100 2032
2423 3109 2298
2109 3004 2485
1794 2900 2672
1479 2764 2803
1164 2566 2822
849 2367 2841
751 2334 2912
760 2383 3009
769 2432 3106
2873 2987 892
2898 3037 1000
2923 3086 1107
2937 3130 1231
2929 3165 1387
2920 3199 1544
2842 3223 1769
2729 3242 2027
2616 3261 2286
2343 3196 2503
2069 3131 2720
1769 3022 2877
1418 2824 2916
1067 2626 2955
902 2554 3014
831 2545 3083
759 2536 3152
2934 3141 941
2955 3181 1053
2977 3221 1164
2990 3257 1284
2988 3283 1422
2986 3309 1561
2930 3333 1770
2847 3355 2014
2764 3377 2259
2535 3340 2490
2307 3303 2722
2042 3229 2906
1706 3083 2994
1370 2937 3083
1130 2824 3131
938 2727 3159
747 2630 3187
2995 3294 991
3013 3325 1106
3030 3356 1221
3043 3383 1338
3048 3401 1458
3052 3419 1577
3018 3442 1771
2965 3468 2001
2911 3494 2232
2728 3484 2478
2545 3474 2724
2316 3437 2934
1994 3343 3072
1673 3249 3210
1358 3094 3248
1046 2909 3234
734 2725 3221
1380 905 434
1136 755 417
893 606 399
719 498 396
686 474 420
652 451 444
625 433 472
602 418 502
578 402 532
560 393 569
542 384 607
525 377 646
513 373 691
501 370 736
494 369 788
490 371 843
485 373 897
1258 864 413
1064 777 449
870 689 484
731 625 519
702 609 555
674 592 591
652 582 631
633 574 673
615 566 714
602 565 764
589 563 814
577 563 866
570 567 925
563 571 983
560 578 1047
560 586 1115
