Assets/1__3DArt/KimSe/artstation_asset/LUTs_subway_asset/3DL/Yellow Line 01_S.3dl
# LUT by SparkleStock. Enhanced with VOXCOLOR algorithms.
0 128 256 384 512 640 768 896 1023
352 304 256
355 310 307
360 319 360
368 330 419
379 344 485
390 358 568
403 375 669
417 393 789
432 416 929
477 448 276
414 443 427
395 449 528
402 464 615
416 490 722
434 524 856
454 562 1008
477 604 1178
502 650 1367
753 683 310
760 807 587
603 740 747
447 645 863
460 687 1009
484 748 1189
512 815 1385
541 886 1594
572 959 1814
1156 1010 357
1267 1275 728
1016 1204 993
673 1013 1179
509 921 1311
536 1013 1532
568 1113 1763
603 1217 1998
637 1318 2231
1662 1429 416
1808 1720 790
1670 1850 1245
1252 1706 1579
558 1175 1594
584 1299 1848
619 1436 2103
656 1575 2351
692 1706 2583
2147 1899 484
2261 2122 804
2192 2292 1286
1906 2320 1778
1369 2121 2125
815 1737 2146
655 1725 2333
692 1895 2587
731 2054 2808
2522 2327 561
2596 2473 823
2571 2631 1282
2397 2741 1829
2027 2741 2356
1368 2391 2496
928 2187 2609
720 2159 2747
763 2337 2962
2789 2685 653
2826 2763 861
2824 2883 1266
2738 3010 1797
2520 3107 2388
2010 3006 2757
1391 2720 2873
904 2490 2913
790 2555 3057
2946 2946 769
2965 2986 938
2971 3065 1275
2939 3172 1745
2838 3294 2317
2504 3323 2789
1998 3224 3068
1406 3014 3169
817 2706 3106
1010 643 335
671 458 363
536 390 397
509 383 436
489 379 485
480 379 550
476 382 630
477 390 727
481 403 841
842 633 309
664 608 508
595 606 637
583 618 733
577 638 833
579 668 953
587 704 1091
601 746 1250
620 795 1428
1046 841 330
952 914 598
781 896 828
639 865 1017
636 900 1162
646 955 1325
662 1019 1505
684 1089 1701
711 1165 1913
1455 1180 378
1413 1311 655
1161 1302 988
864 1231 1289
684 1174 1474
696 1250 1671
717 1338 1879
743 1433 2095
774 1531 2316
1901 1562 434
1921 1731 700
1804 1866 1129
1445 1825 1546
736 1467 1771
746 1563 1994
767 1673 2219
797 1792 2441
830 1911 2655
2312 1980 497
2360 2143 752
2317 2300 1173
2094 2372 1664
1602 2277 2129
995 1982 2262
810 1975 2459
839 2110 2677
874 2244 2875
2637 2369 568
2689 2507 826
2686 2649 1212
2564 2762 1701
2258 2813 2269
1593 2564 2534
1117 2404 2703
875 2374 2844
911 2516 3027
2874 2702 653
2914 2810 929
2927 2917 1268
2874 3025 1704
2717 3136 2274
2261 3096 2719
1624 2879 2914
1089 2687 3002
944 2724 3123
3021 2956 761
3044 3037 1071
3058 3109 1364
3045 3192 1722
2988 3306 2227
2724 3368 2725
2265 3317 3059
1664 3152 3213
972 2869 3174
1698 1039 410
1232 713 438
994 573 475
884 532 510
801 506 534
739 484 579
691 464 639
654 450 714
628 444 807
1426 927 351
1179 841 579
1031 797 740
945 781 849
884 783 918
836 790 999
801 803 1102
778 822 1227
768 850 1376
1422 1019 345
1282 1059 628
1123 1068 918
999 1073 1159
964 1102 1295
939 1144 1431
926 1192 1581
924 1248 1749
932 1311 1937
1656 1283 379
1563 1375 642
1391 1427 1027
1195 1445 1404
1030 1433 1641
1025 1503 1827
1030 1582 2016
1045 1668 2213
1068 1760 2418
2098 1687 440
2046 1799 679
1959 1917 1087
1684 1934 1543
1071 1745 1928
1067 1826 2141
1075 1920 2347
1094 2022 2549
1121 2128 2747
2463 2070 505
2459 2196 744
2434 2333 1134
2281 2424 1617
1893 2416 2134
1301 2215 2371
1113 2220 2585
1133 2330 2779
1163 2442 2958
2748 2421 574
2772 2547 834
2783 2680 1210
2714 2797 1677
2497 2877 2213
1885 2722 2573
1418 2609 2792
1166 2586 2945
1197 2697 3106
2955 2723 654
2989 2839 957
3017 2957 1327
3000 3070 1756
2904 3172 2233
2527 3180 2705
1919 3025 2958
1384 2874 3090
1224 2893 3200
3086 2960 752
3116 3062 1118
3145 3162 1501
3155 3258 1886
3128 3345 2260
2937 3420 2724
2547 3403 3071
1976 3279 3260
1244 3030 3250
2325 1440 475
1886 1034 515
1608 837 567
1437 767 612
1319 742 631
1187 691 653
1074 642 692
980 598 750
904 562 826
2065 1270 396
1809 1117 642
1609 1020 830
1463 977 957
1369 986 1017
1253 965 1053
1153 945 1110
1072 928 1194
1012 919 1307
1887 1247 362
1742 1252 667
1604 1256 998
1498 1274 1276
1444 1318 1427
1367 1341 1522
1303 1365 1630
1255 1393 1756
1223 1425 1909
1905 1400 375
1816 1486 660
1725 1566 1079
1627 1633 1502
1511 1676 1797
1477 1739 1966
1452 1806 2129
1438 1876 2297
1437 1949 2476
2237 1761 434
2165 1867 688
2105 1971 1085
1936 2030 1565
1539 2000 2068
1527 2082 2288
1525 2170 2487
1534 2263 2673
1553 2358 2856
2588 2144 506
2554 2256 752
2534 2374 1135
2450 2476 1615
2223 2541 2154
1717 2434 2478
1552 2461 2713
1565 2555 2894
1589 2651 3059
2850 2473 578
2850 2588 843
2862 2716 1233
2839 2839 1704
2731 2941 2208
2233 2869 2623
1823 2806 2884
1588 2797 3054
1616 2888 3201
3033 2746 655
3058 2861 964
3091 2993 1388
3105 3122 1852
3072 3224 2279
2799 3261 2726
2273 3163 3012
1786 3057 3185
1632 3069 3292
3146 2961 745
3182 3072 1122
3223 3205 1610
3255 3329 2083
3258 3413 2416
3139 3483 2790
2838 3489 3112
2342 3403 3317
1636 3195 3341
2799 1789 527
2481 1379 581
2256 1153 648
2114 1074 716
2048 1101 775
1840 1022 771
1653 938 791
1487 855 832
1343 780 894
2597 1603 439
2403 1411 695
2231 1275 896
2108 1229 1053
2062 1308 1175
1876 1267 1172
1704 1215 1190
1550 1159 1236
1421 1105 1316
2447 1556 391
2323 1503 709
2200 1462 1049
2108 1471 1356
2076 1570 1572
1931 1574 1617
1793 1565 1669
1671 1550 1742
1573 1535 1849
2348 1613 384
2267 1657 684
2186 1705 1112
2123 1773 1561
2093 1878 1925
2007 1930 2056
1924 1972 2172
1854 2008 2290
1803 2042 2426
2302 1735 416
2261 1876 684
2213 1996 1091
2163 2108 1604
2115 2224 2191
2107 2324 2436
2101 2420 2638
2102 2513 2814
2113 2602 2982
2677 2174 499
2641 2295 753
2610 2412 1141
2587 2529 1633
2575 2652 2203
2230 2640 2591
2117 2698 2847
2124 2788 3024
2143 2873 3178
2940 2513 578
2927 2626 846
2923 2749 1239
2928 2876 1725
2944 3009 2271
2628 3011 2697
2325 2999 2985
2137 3013 3176
2162 3091 3315
3109 2770 658
3125 2883 967
3149 3015 1394
3179 3155 1895
3214 3296 2425
3071 3347 2797
2681 3301 3087
2295 3242 3291
2166 3257 3402
3205 2963 742
3242 3078 1122
3287 3218 1616
3332 3369 2161
3376 3514 2693
3328 3563 2932
3136 3581 3192
2758 3530 3391
2152 3373 3451
3047 2016 566
2855 1688 626
2715 1498 699
2623 1423 777
2575 1435 852
2518 1462 901
2360 1396 932
2157 1283 965
1964 1168 1021
2919 1866 484
2806 1680 739
2700 1553 938
2620 1510 1097
2584 1574 1232
2541 1660 1302
2397 1641 1331
2206 1563 1356
2023 1470 1417
2822 1831 436
2752 1744 751
2681 1684 1088
2623 1680 1393
2595 1764 1616
2569 1897 1741
2449 1926 1798
2286 1892 1838
2128 1838 1912
2754 1883 422
2710 1876 724
2667 1883 1150
2632 1920 1595
2608 2005 1956
2601 2165 2160
2516 2239 2272
2396 2257 2347
2280 2251 2440
2714 1991 440
2695 2072 719
2671 2143 1127
2646 2216 1633
2620 2301 2201
2634 2461 2503
2598 2570 2691
2539 2642 2819
2481 2691 2938
2811 2199 497
2802 2328 755
2790 2448 1142
2778 2561 1630
2767 2670 2188
2681 2764 2651
2651 2865 2934
2650 2961 3110
2654 3042 3249
2994 2490 573
2997 2624 840
3000 2758 1230
3005 2890 1711
3012 3015 2250
2938 3099 2745
2798 3147 3074
2691 3194 3284
2718 3275 3423
3175 2775 657
3192 2896 964
3214 3033 1387
3239 3175 1883
3264 3311 2410
3245 3407 2857
3034 3415 3177
2802 3401 3389
2719 3429 3510
3264 2966 739
3302 3084 1118
3346 3230 1610
3392 3386 2154
3432 3534 2688
3442 3627 3055
3356 3667 3311
3125 3641 3473
2700 3540 3561
3214 2179 603
3116 1962 665
3044 1833 739
2995 1778 821
2968 1785 905
2963 1836 984
2890 1827 1046
2756 1757 1103
2570 1624 1163
3151 2092 539
3105 1940 786
3056 1845 974
3013 1818 1126
2991 1872 1263
2993 1985 1368
2927 2031 1436
2801 2004 1487
2621 1899 1544
3102 2084 500
3085 1991 806
3062 1930 1129
3038 1924 1423
3019 1994 1639
3024 2153 1796
2969 2251 1892
2857 2275 1955
2694 2211 2014
3065 2139 484
3065 2104 783
3065 2084 1199
3060 2098 1631
3046 2165 1976
3053 2344 2204
3011 2483 2349
2922 2557 2441
2789 2544 2509
3041 2237 494
3055 2272 775
3066 2304 1180
3071 2343 1672
3069 2396 2216
3075 2561 2531
3051 2720 2743
2995 2839 2879
2905 2881 2966
3041 2355 530
3062 2456 795
3080 2551 1184
3091 2640 1663
3094 2723 2200
3092 2834 2669
3089 2975 2978
3078 3106 3170
3053 3187 3285
3121 2542 583
3145 2673 853
3166 2804 1241
3183 2929 1715
3195 3041 2241
3199 3138 2743
3155 3230 3108
3115 3319 3349
3131 3408 3482
3232 2759 652
3259 2893 955
3288 3041 1372
3316 3189 1861
3339 3326 2381
3355 3429 2848
3281 3481 3209
3190 3515 3459
3157 3563 3591
3324 2964 735
3364 3086 1109
3410 3238 1595
3456 3401 2133
3495 3554 2665
3517 3660 3075
3497 3721 3361
3388 3727 3545
3143 3671 3647
3326 2292 638
3294 2196 703
3269 2138 777
3253 2115 860
3243 2122 949
3242 2154 1042
3242 2189 1137
3201 2181 1226
3079 2083 1304
3313 2287 602
3320 2199 839
3312 2149 1013
3299 2143 1152
3290 2187 1284
3288 2272 1401
3289 2359 1509
3250 2396 1603
3130 2330 1677
3303 2319 579
3333 2251 874
3350 2207 1180
3355 2205 1455
3347 2259 1654
3341 2385 1816
3340 2524 1952
3301 2614 2058
3186 2594 2130
3294 2382 570
3338 2347 862
3379 2320 1265
3405 2319 1678
3405 2365 1996
3395 2510 2219
3389 2688 2398
3350 2828 2527
3245 2861 2601
3286 2469 574
3341 2481 856
3392 2491 1253
3432 2506 1728
3454 2531 2244
3441 2663 2544
3429 2853 2781
3393 3029 2946
3307 3118 3031
3283 2566 593
3340 2633 869
3394 2697 1259
3438 2758 1728
3466 2814 2239
3461 2894 2676
3449 3048 2996
3421 3214 3207
3368 3335 3316
3286 2658 620
3338 2772 898
3389 2888 1290
3432 2998 1758
3462 3093 2264
3464 3169 2738
3456 3275 3115
3443 3397 3379
3429 3518 3517
3313 2778 663
3359 2916 966
3407 3069 1382
3450 3219 1866
3482 3352 2375
3491 3444 2828
3490 3516 3211
3481 3584 3494
3467 3664 3643
3384 2958 729
3427 3084 1095
3477 3243 1572
3527 3413 2101
3567 3571 2626
3583 3676 3039
3589 3748 3359
3557 3780 3583
3458 3764 3706
3410 2370 672
3413 2386 744
3416 2398 822
3417 2407 907
3418 2417 999
3416 2428 1102
3413 2442 1209
3411 2459 1318
3410 2482 1425
3427 2459 672
3467 2460 903
3485 2462 1062
3489 2474 1186
3488 2503 1310
3483 2549 1433
3476 2600 1555
3470 2653 1675
3466 2702 1795
3440 2539 673
3505 2533 959
3554 2524 1247
3581 2526 1499
3581 2556 1675
3567 2633 1834
3551 2728 1979
3534 2830 2112
3520 2928 2234
3449 2612 675
3532 2612 962
3611 2602 1352
3666 2598 1742
3679 2616 2026
3658 2709 2234
3629 2840 2413
3597 2992 2565
3567 3148 2687
3455 2686 678
3551 2705 962
3644 2715 1352
3720 2720 1809
3767 2725 2294
3742 2805 2564
3703 2949 2791
3656 3138 2970
3606 3350 3098
3457 2758 685
3554 2812 970
3650 2864 1362
3733 2908 1820
3789 2943 2302
3785 2990 2703
3748 3106 3005
3691 3282 3222
3628 3507 3369
3457 2827 694
3546 2916 990
3637 3012 1394
3720 3103 1860
3779 3179 2343
3786 3230 2777
3759 3309 3125
3706 3437 3384
3637 3635 3551
3454 2890 705
3525 3008 1025
3604 3145 1452
3678 3282 1937
3734 3402 2431
3746 3478 2852
3731 3534 3211
3693 3607 3488
3634 3737 3665
3443 2946 721
3491 3077 1077
3549 3244 1542
3606 3421 2061
3653 3584 2579
3668 3689 2992
3662 3757 3319
3643 3795 3564
3619 3811 3731
