Assets/1__3DArt/KimSe/artstation_asset/LUTs_subway_asset/3DL/Yellow Line 04_S.3dl
# LUT by SparkleStock. Enhanced with VOXCOLOR algorithms.
0 256 512 768 1023
48 112 176
66 209 426
76 301 694
82 396 1026
96 496 1409
586 688 325
317 785 899
112 752 1231
125 892 1661
149 1031 2111
1738 1606 597
1555 1976 1436
174 1281 1795
183 1469 2292
211 1655 2769
2735 2596 874
2678 2840 1532
1805 2807 2473
475 2167 2738
246 2214 3116
3202 3282 1073
3183 3379 1525
2878 3471 2434
1655 3234 3157
256 2594 3250
1838 1111 475
906 554 553
645 495 713
470 479 940
360 492 1220
1455 1084 401
981 1077 992
717 1130 1442
605 1241 1797
556 1351 2186
2288 1877 656
2004 2029 1256
732 1779 2036
663 1922 2482
657 2071 2893
3029 2692 919
3000 2895 1470
2472 2966 2332
997 2589 2899
665 2612 3253
3383 3295 1126
3407 3443 1726
3301 3528 2369
2352 3445 3150
647 2985 3424
3195 1959 677
2503 1289 794
2254 1222 972
1732 1026 1062
1299 853 1241
2687 1686 514
2279 1506 1116
2132 1589 1640
1747 1596 1825
1423 1561 2060
2517 1891 575
2289 2056 1185
2079 2176 2192
1955 2369 2704
1892 2511 3086
3267 2779 937
3166 2932 1475
3112 3069 2353
2147 2963 3046
1855 3006 3427
3549 3294 1162
3578 3470 1855
3601 3629 2742
3188 3616 3242
1773 3342 3598
3673 2369 789
3459 2017 936
3372 1968 1133
3282 2000 1306
2865 1761 1446
3459 2257 716
3287 2007 1243
3240 2049 1724
3225 2307 1995
2885 2242 2139
3372 2438 766
3238 2378 1300
3147 2352 2194
3177 2663 2737
2997 2794 3004
3490 2810 952
3408 2965 1455
3339 3067 2276
3250 3181 3117
3188 3324 3554
3697 3304 1204
3721 3485 1860
3728 3645 2713
3682 3734 3385
3154 3644 3753
3859 2578 897
3874 2610 1090
3866 2629 1277
3861 2641 1472
3859 2658 1665
3869 2792 1013
3899 2686 1462
3903 2674 1826
3893 2823 2093
3886 2991 2294
3863 2985 1101
3916 2858 1551
3945 2735 2299
3918 2923 2778
3887 3290 3055
3851 3159 1175
3905 3194 1621
3942 3200 2353
3919 3276 3106
3868 3571 3560
3843 3298 1249
3870 3502 1838
3891 3673 2633
3870 3765 3335
3827 3811 3795
