Assets/1__3DArt/KimSe/artstation_asset/LUTs_subway_asset/3DL/Yellow Line 05_S.3dl
# LUT by SparkleStock. Enhanced with VOXCOLOR algorithms.
0 256 512 768 1023
192 288 336
217 307 448
225 332 574
233 370 741
240 416 945
672 743 363
455 762 826
260 663 1022
290 751 1304
326 850 1615
1807 1618 423
1749 1990 1302
337 1119 1542
400 1288 1934
484 1467 2334
2844 2705 523
2870 2947 1284
2137 2826 2331
787 2035 2464
620 2071 2784
3266 3459 689
3284 3510 1217
3098 3545 2279
2043 3228 3019
672 2498 2978
1862 1095 371
939 553 549
703 480 641
553 442 742
457 435 879
1471 1069 341
1062 1079 973
861 1085 1342
792 1150 1566
773 1228 1826
2349 1892 404
2112 2068 1113
963 1704 1912
955 1824 2254
1007 1965 2587
3149 2817 502
3141 3023 1181
2727 3041 2195
1366 2533 2714
1094 2539 3004
3483 3487 652
3514 3594 1418
3464 3636 2200
2708 3473 3041
1090 2925 3202
3257 1991 359
2503 1205 646
2238 1111 883
1729 927 934
1310 767 1031
2718 1683 296
2314 1501 1042
2188 1590 1620
1859 1562 1728
1570 1501 1858
2554 1893 341
2344 2083 1074
2199 2214 2198
2202 2380 2620
2214 2508 2919
3383 2925 472
3285 3064 1179
3251 3171 2248
2465 2988 2961
2257 3017 3285
3671 3511 623
3705 3642 1520
3733 3730 2627
3426 3674 3172
2184 3335 3463
3762 2502 370
3524 2053 638
3434 1957 933
3337 1964 1159
2900 1712 1308
3532 2374 323
3349 2076 1059
3308 2098 1634
3316 2356 1928
2988 2268 2056
3450 2553 344
3303 2455 1117
3220 2408 2190
3299 2742 2736
3178 2866 2956
3588 2967 433
3502 3089 1160
3435 3154 2203
3400 3253 3105
3411 3392 3500
3824 3528 592
3848 3665 1486
3854 3762 2599
3828 3798 3354
3395 3679 3692
3955 2754 432
3961 2773 683
3964 2758 982
3960 2747 1281
3939 2754 1553
3951 2981 459
3978 2830 1152
3983 2800 1641
3979 2950 1985
3975 3128 2249
3947 3175 484
3991 2987 1263
4008 2818 2256
3993 3028 2771
3983 3429 3080
3949 3361 513
3990 3327 1296
4012 3281 2301
3993 3342 3116
3972 3671 3569
3939 3523 528
3982 3668 1422
3996 3777 2528
3979 3834 3328
3939 3859 3779
