Assets/1__3DArt/KimSe/artstation_asset/LUTs_subway_asset/3DL/Yellow Line 04.3dl
# LUT by SparkleStock. Enhanced with VOXCOLOR algorithms.
0 64 128 192 256 320 384 448 512 576 640 704 768 832 896 960 1023
48 112 176
53 137 239
58 161 301
62 186 364
66 209 426
69 232 489
72 255 556
74 278 625
76 301 694
77 324 773
79 348 853
80 371 936
82 396 1026
84 421 1116
87 446 1212
92 471 1310
96 496 1409
133 233 205
111 254 297
89 275 389
74 296 472
76 316 535
78 335 599
79 358 670
81 382 744
83 406 819
85 432 905
87 457 991
89 484 1081
91 512 1176
93 539 1272
98 567 1372
103 595 1475
108 622 1577
219 354 235
169 371 356
120 389 477
87 405 580
87 422 644
87 439 708
87 461 783
89 485 864
90 510 944
92 539 1037
94 567 1130
97 597 1225
100 627 1327
103 657 1428
108 688 1533
114 718 1639
119 749 1745
354 498 272
297 527 423
239 557 573
188 574 696
149 566 762
111 558 829
98 572 908
99 597 992
99 622 1077
102 654 1177
104 685 1276
107 717 1378
111 751 1484
115 784 1591
120 817 1699
126 850 1809
133 883 1918
587 688 327
562 761 506
537 834 685
469 858 828
317 785 899
166 711 971
114 702 1053
113 726 1141
112 750 1228
115 784 1334
118 819 1438
121 854 1546
125 890 1657
130 927 1768
136 962 1879
142 997 1990
149 1031 2101
821 878 382
827 995 589
834 1112 796
750 1143 960
485 1003 1037
220 863 1113
131 832 1199
128 855 1289
126 878 1380
129 915 1490
131 952 1601
135 990 1713
140 1030 1830
145 1070 1946
152 1107 2059
159 1143 2172
165 1179 2285
1111 1107 451
1136 1240 663
1159 1374 875
1081 1423 1056
797 1301 1171
513 1180 1287
349 1107 1375
245 1058 1448
141 1010 1521
143 1049 1636
146 1089 1750
149 1130 1866
154 1173 1986
160 1217 2106
167 1258 2222
174 1296 2335
181 1335 2448
1430 1355 527
1465 1492 733
1500 1628 938
1437 1699 1133
1181 1639 1305
924 1579 1477
668 1455 1565
413 1300 1611
158 1144 1658
159 1186 1775
160 1227 1893
163 1271 2012
169 1319 2135
174 1367 2259
181 1411 2375
189 1452 2488
196 1494 2602
1749 1604 603
1794 1743 802
1840 1883 1001
1794 1976 1210
1564 1977 1438
1335 1978 1667
988 1803 1756
581 1541 1775
174 1279 1794
174 1322 1915
175 1365 2036
177 1411 2158
183 1464 2285
189 1517 2411
196 1564 2529
203 1608 2642
211 1653 2755
2040 1864 680
2080 1986 859
2121 2108 1039
2084 2196 1238
1893 2217 1477
1701 2238 1716
1380 2116 1854
994 1923 1943
608 1729 2031
450 1651 2100
291 1572 2169
188 1538 2258
193 1595 2387
199 1652 2515
206 1703 2633
214 1753 2746
222 1802 2859
2330 2125 757
2366 2229 917
2402 2333 1077
2374 2416 1267
2221 2457 1516
2067 2498 1765
1772 2429 1953
1407 2304 2110
1042 2180 2268
725 1979 2286
408 1778 2303
198 1665 2358
204 1726 2489
209 1787 2619
216 1843 2737
224 1897 2850
232 1951 2963
2584 2371 828
2614 2457 969
2644 2543 1110
2624 2618 1288
2505 2673 1541
2386 2727 1793
2123 2699 2017
1789 2630 2228
1455 2561 2439
1035 2301 2444
616 2040 2449
322 1875 2489
277 1900 2601
233 1925 2713
224 1973 2826
232 2031 2938
241 2090 3051
2765 2591 887
2787 2658 1010
2809 2725 1134
2793 2787 1297
2702 2839 1538
2611 2892 1779
2392 2883 2014
2109 2844 2246
1825 2806 2478
1416 2609 2548
1007 2412 2618
670 2251 2682
479 2161 2735
287 2070 2788
229 2082 2881
237 2146 2994
246 2210 3107
2946 2812 945
2959 2859 1052
2973 2907 1158
2961 2955 1305
2898 3006 1535
2836 3056 1764
2660 3067 2010
2428 3058 2264
2196 3050 2517
1797 2917 2652
1397 2785 2787
1018 2628 2875
680 2422 2869
341 2215 2863
234 2192 2937
242 2261 3051
250 2329 3164
3055 2984 992
3064 3021 1087
3073 3057 1182
3064 3096 1317
3019 3141 1532
2974 3186 1746
2834 3204 1989
2647 3210 2248
2459 3216 2506
2098 3125 2679
1736 3034 2851
1364 2902 2968
974 2690 2975
583 2478 2981
403 2411 3037
328 2418 3118
253 2425 3200
3128 3133 1032
3134 3162 1120
3140 3191 1207
3133 3223 1331
3101 3260 1528
3068 3297 1725
2960 3318 1960
2814 3331 2215
2669 3343 2470
2358 3282 2666
2048 3221 2863
1709 3126 3012
1314 2962 3066
919 2798 3120
654 2685 3159
454 2597 3192
255 2510 3225
3202 3282 1073
3205 3304 1152
3207 3326 1232
3202 3350 1345
3183 3379 1525
3163 3408 1704
3086 3431 1931
2982 3451 2183
2878 3471 2434
2619 3440 2654
2360 3409 2874
2055 3350 3055
1655 3234 3157
1254 3119 3258
905 2959 3282
580 2777 3266
256 2594 3250
500 362 256
386 318 294
273 273 333
194 248 378
184 261 435
175 275 492
167 290 554
159 305 618
151 320 682
145 338 756
140 355 830
135 373 907
132 393 991
129 413 1075
128 434 1164
129 456 1256
130 478 1348
494 420 267
384 398 345
273 376 423
197 366 496
189 382 559
181 397 621
175 415 689
169 434 761
163 453 832
159 475 914
156 497 996
153 519 1081
152 544 1171
150 568 1262
151 593 1358
154 619 1455
156 644 1553
488 477 279
381 478 396
274 479 514
201 485 615
194 502 682
187 518 750
182 539 825
179 562 904
175 585 983
173 612 1072
172 638 1162
171 666 1254
171 695 1352
172 724 1450
175 753 1551
178 782 1655
182 811 1759
565 582 306
470 607 454
376 633 603
298 650 728
253 651 805
209 651 882
192 668 964
189 693 1049
186 718 1134
186 749 1230
186 779 1327
186 810 1426
188 843 1530
191 876 1633
194 909 1740
199 941 1848
204 974 1956
809 781 364
743 835 526
678 890 689
581 908 829
421 857 924
261 805 1020
205 804 1110
201 828 1198
196 853 1286
196 886 1388
196 919 1489
197 952 1593
200 988 1701
203 1024 1809
208 1058 1918
213 1092 2027
218 1126 2136
1052 981 422
1017 1063 598
981 1146 775
865 1167 931
590 1063 1044
314 959 1158
218 940 1257
212 963 1347
206 987 1438
207 1022 1545
207 1058 1652
209 1094 1760
212 1133 1873
216 1171 1985
221 1208 2096
227 1243 2206
233 1279 2316
1330 1205 489
1316 1301 666
1302 1398 844
1197 1433 1011
909 1347 1159
622 1260 1307
449 1205 1413
334 1165 1498
219 1126 1583
219 1163 1693
219 1200 1803
220 1239 1915
224 1280 2030
228 1322 2145
234 1361 2257
240 1399 2367
246 1436 2478
1624 1442 560
1628 1545 732
1632 1647 904
1553 1704 1082
1305 1669 1272
1057 1635 1461
789 1534 1574
512 1400 1649
234 1267 1723
233 1305 1836
231 1343 1949
232 1384 2063
236 1429 2180
240 1474 2298
246 1516 2410
253 1556 2520
260 1596 2630
1918 1679 632
1940 1788 798
1963 1897 964
1908 1975 1152
1700 1992 1384
1493 2009 1616
1130 1863 1735
689 1636 1800
248 1408 1864
246 1447 1979
244 1487 2094
244 1529 2211
248 1578 2331
253 1626 2451
259 1671 2563
266 1713 2672
273 1756 2782
2182 1924 704
2207 2024 858
2231 2123 1012
2191 2200 1192
2021 2232 1426
1851 2263 1659
1526 2164 1819
1123 1998 1942
720 1833 2065
545 1762 2144
369 1691 2223
254 1661 2316
258 1712 2437
262 1764 2558
268 1812 2670
275 1858 2778
282 1904 2886
2446 2169 776
2473 2259 917
2500 2350 1059
2474 2426 1231
2342 2472 1467
2209 2518 1703
1922 2464 1903
1557 2361 2084
1192 2258 2266
844 2077 2309
495 1895 2352
264 1792 2422
267 1847 2543
271 1901 2665
277 1953 2777
284 2003 2884
292 2053 2991
2677 2403 843
2704 2482 973
2731 2562 1103
2716 2633 1266
2617 2688 1499
2518 2742 1731
2271 2725 1958
1949 2672 2184
1628 2619 2409
1173 2384 2448
718 2148 2487
398 1999 2549
347 2020 2655
296 2041 2762
284 2084 2869
292 2138 2975
300 2191 3081
2843 2614 900
2864 2680 1020
2886 2746 1140
2876 2806 1293
2801 2856 1510
2727 2906 1727
2525 2905 1959
2258 2878 2198
1990 2851 2437
1564 2676 2536
1137 2501 2634
781 2356 2719
568 2271 2779
355 2186 2839
289 2196 2929
297 2254 3035
304 2311 3141
3009 2824 957
3025 2877 1068
3041 2929 1178
3035 2979 1319
2986 3025 1521
2936 3071 1723
2778 3085 1959
2566 3084 2213
2353 3083 2466
1954 2968 2623
1555 2854 2781
1164 2714 2890
789 2522 2903
414 2331 2915
294 2308 2990
301 2369 3095
308 2431 3201
3110 2993 1004
3122 3036 1110
3134 3078 1217
3130 3120 1349
3096 3160 1535
3062 3199 1720
2938 3219 1950
2771 3230 2202
2603 3241 2454
2250 3165 2643
1898 3089 2833
1522 2973 2968
1101 2777 2996
679 2582 3023
482 2519 3084
396 2523 3162
310 2527 3239
3179 3140 1046
3187 3176 1151
3196 3211 1255
3193 3245 1381
3169 3277 1549
3145 3309 1716
3052 3330 1935
2924 3346 2179
2796 3362 2422
2500 3313 2630
2203 3264 2837
1869 3182 3000
1459 3034 3074
1048 2886 3147
761 2781 3196
536 2696 3232
311 2612 3268
3248 3287 1088
3253 3315 1191
3257 3343 1294
3256 3370 1412
3242 3395 1563
3228 3419 1713
3165 3441 1920
3077 3462 2155
2989 3483 2391
2749 3462 2616
2508 3440 2842
2215 3392 3032
1816 3291 3151
1417 3190 3271
1041 3042 3307
676 2869 3301
311 2697 3296
952 612 336
720 498 350
487 384 365
325 310 392
303 314 443
281 318 495
262 325 552
244 332 611
226 340 670
213 351 739
200 362 807
189 375 879
181 390 956
174 405 1033
169 422 1116
167 441 1201
164 459 1287
854 606 330
656 541 394
458 477 458
320 437 521
302 448 582
285 458 643
270 471 709
256 486 777
243 500 846
234 518 923
225 536 1001
217 555 1081
212 576 1167
207 597 1252
205 620 1343
205 643 1436
204 667 1530
757 600 323
593 584 437
429 569 551
315 565 650
301 582 720
288 598 791
277 618 866
268 639 944
259 660 1022
254 685 1108
249 709 1194
245 735 1283
243 762 1377
241 790 1472
241 818 1570
243 846 1671
244 874 1772
776 665 340
644 687 486
512 709 633
407 727 759
357 735 847
307 744 935
286 763 1020
279 789 1105
273 814 1190
270 843 1284
267 873 1377
266 904 1473
266 936 1575
266 969 1676
269 1001 1780
272 1033 1887
275 1065 1993
1030 874 400
925 910 547
820 945 693
694 959 830
526 929 949
357 899 1069
296 906 1167
288 930 1255
280 955 1344
278 987 1442
275 1018 1540
274 1051 1641
275 1086 1745
276 1121 1850
279 1154 1956
283 1188 2063
287 1221 2171
1283 1084 461
1206 1132 607
1128 1180 753
981 1190 901
694 1122 1052
408 1055 1203
306 1048 1314
297 1072 1406
287 1096 1497
285 1130 1600
283 1164 1703
282 1198 1808
284 1235 1916
286 1273 2024
290 1308 2132
295 1343 2240
300 1378 2348
1548 1303 527
1496 1363 669
1445 1422 812
1313 1444 967
1022 1392 1147
731 1340 1326
550 1302 1451
424 1272 1548
298 1242 1645
295 1277 1750
292 1311 1856
291 1348 1963
294 1387 2074
296 1426 2184
301 1464 2292
306 1501 2400
311 1538 2507
1817 1528 594
1791 1597 732
1765 1666 870
1668 1709 1031
1429 1700 1238
1190 1690 1445
911 1613 1583
610 1501 1686
310 1389 1789
306 1425 1897
302 1460 2004
301 1497 2113
304 1539 2225
306 1581 2337
311 1621 2445
317 1660 2551
323 1699 2658
2087 1753 661
2086 1832 795
2086 1911 928
2023 1974 1095
1836 2007 1329
1650 2040 1564
1271 1923 1715
797 1730 1824
322 1537 1933
318 1573 2043
313 1609 2153
310 1647 2263
313 1692 2377
317 1736 2490
322 1778 2598
328 1819 2703
335 1859 2808
2324 1983 729
2333 2061 856
2342 2139 984
2298 2205 1145
2150 2247 1374
2001 2289 1602
1672 2211 1784
1252 2074 1941
833 1937 2098
640 1873 2188
447 1810 2277
320 1783 2374
322 1830 2487
325 1876 2601
330 1920 2707
337 1964 2811
343 2007 2914
2562 2214 796
2580 2290 918
2598 2367 1040
2574 2435 1196
2463 2486 1418
2352 2537 1641
2072 2500 1852
1707 2418 2058
1343 2337 2263
962 2174 2332
582 2011 2401
329 1919 2485
331 1967 2598
333 2016 2711
338 2063 2817
345 2109 2918
352 2155 3020
2770 2434 859
2794 2508 977
2818 2581 1095
2808 2648 1245
2729 2703 1457
2650 2757 1669
2418 2751 1899
2110 2714 2139
1801 2677 2379
1311 2467 2453
820 2257 2526
474 2122 2608
417 2140 2710
359 2158 2811
345 2196 2912
352 2244 3011
359 2293 3111
2921 2636 914
2942 2701 1030
2963 2766 1147
2958 2826 1289
2901 2873 1482
2844 2921 1675
2657 2927 1904
2406 2912 2151
2156 2897 2397
1711 2743 2523
1267 2590 2650
892 2461 2756
658 2381 2823
423 2302 2889
349 2310 2977
356 2361 3076
363 2413 3174
3072 2837 968
3090 2894 1084
3109 2951 1199
3109 3003 1333
3073 3044 1508
3037 3085 1682
2896 3103 1909
2703 3110 2162
2510 3116 2415
2112 3020 2594
1713 2923 2774
1310 2800 2904
898 2623 2936
487 2446 2967
353 2424 3043
360 2478 3140
366 2532 3237
3165 3002 1016
3180 3051 1133
3195 3100 1251
3197 3144 1381
3173 3178 1538
3150 3212 1694
3043 3234 1910
2895 3250 2156
2746 3266 2402
2403 3205 2608
2060 3143 2814
1681 3043 2968
1228 2865 3017
776 2686 3066
561 2627 3131
464 2628 3205
367 2629 3279
3230 3147 1059
3241 3189 1181
3251 3231 1303
3253 3267 1431
3238 3294 1569
3222 3321 1708
3143 3343 1909
3034 3362 2142
2924 3381 2375
2641 3344 2593
2358 3307 2812
2028 3239 2988
1603 3106 3082
1178 2974 3175
869 2876 3232
618 2795 3271
367 2714 3310
3295 3293 1103
3301 3327 1229
3308 3361 1355
3309 3391 1480
3302 3410 1601
3294 3430 1722
3244 3451 1909
3172 3473 2128
3101 3496 2347
2878 3483 2578
2656 3471 2809
2375 3434 3009
1978 3348 3146
1580 3261 3284
1178 3124 3332
772 2962 3337
367 2800 3341
1402 868 411
1093 703 410
784 537 409
562 423 423
516 412 468
471 401 514
434 396 564
401 393 618
368 391 672
343 394 734
318 397 797
295 402 863
278 411 934
261 420 1005
249 431 1082
240 445 1161
230 458 1240
1247 817 394
990 720 449
734 622 504
550 556 559
510 554 615
469 551 672
438 554 733
411 560 797
384 566 860
364 577 932
344 588 1004
326 600 1079
313 616 1159
300 632 1239
291 650 1325
284 668 1413
