Assets/1__3DArt/KimSe/artstation_asset/LUTs_subway_asset/3DL/Yellow Line 01.3dl
# LUT by SparkleStock. Enhanced with VOXCOLOR algorithms.
0 128 256 384 512 640 768 896 1023
352 304 256
355 310 307
360 319 360
368 330 419
379 344 485
390 358 568
403 375 669
417 393 789
432 416 929
477 448 276
414 443 427
396 448 528
403 464 613
416 489 720
435 523 854
456 561 1006
478 604 1174
502 650 1359
754 682 311
761 807 588
604 739 746
448 644 861
463 685 1006
487 745 1186
513 813 1380
542 885 1585
573 958 1798
1160 1008 358
1271 1275 730
1019 1203 994
676 1011 1177
512 917 1307
539 1008 1527
571 1109 1756
604 1214 1986
639 1317 2211
1674 1427 419
1819 1719 793
1679 1850 1247
1258 1705 1580
560 1172 1592
589 1293 1842
623 1429 2095
659 1571 2339
696 1704 2563
2169 1894 489
2280 2120 808
2210 2291 1290
1923 2319 1781
1381 2118 2128
821 1731 2144
659 1719 2327
697 1889 2577
736 2051 2792
2552 2320 566
2621 2469 827
2594 2628 1286
2420 2739 1834
2048 2739 2361
1382 2387 2497
936 2180 2606
726 2152 2740
767 2334 2950
2813 2679 657
2847 2759 865
2844 2880 1269
2757 3008 1801
2540 3106 2392
2025 3003 2760
1400 2715 2873
908 2484 2910
793 2553 3051
2946 2946 769
2965 2986 938
2971 3065 1275
2939 3172 1745
2838 3294 2317
2504 3323 2789
1998 3224 3068
1406 3014 3169
817 2706 3106
1013 647 337
668 468 350
533 399 383
506 388 428
488 382 480
479 380 548
475 382 630
477 390 727
481 403 841
864 622 328
650 606 504
572 607 620
565 620 712
565 640 816
573 669 942
585 705 1085
600 747 1245
619 796 1422
1079 830 352
968 911 596
774 893 814
619 860 1000
623 899 1144
639 954 1313
659 1018 1497
683 1089 1693
711 1166 1901
1492 1174 397
1463 1311 651
1186 1299 978
857 1223 1280
674 1168 1461
690 1246 1661
714 1335 1870
743 1432 2084
775 1531 2298
1934 1557 448
1979 1731 697
1856 1867 1123
1470 1823 1541
727 1457 1766
742 1555 1986
767 1669 2210
798 1790 2430
832 1910 2637
2344 1974 508
2409 2141 752
2365 2301 1170
2129 2372 1663
1619 2273 2129
999 1976 2259
811 1969 2453
841 2106 2667
877 2243 2860
2667 2362 576
2727 2503 828
2724 2647 1212
2597 2760 1702
2285 2811 2272
1606 2559 2535
1123 2398 2700
878 2368 2837
914 2514 3017
2895 2697 658
2937 2806 931
2949 2914 1269
2895 3023 1706
2737 3135 2277
2276 3094 2721
1631 2874 2914
1091 2682 2998
945 2723 3118
3021 2956 761
3044 3037 1071
3058 3109 1364
3045 3192 1722
2988 3306 2227
2724 3368 2725
2265 3317 3059
1664 3152 3213
972 2869 3174
1707 1057 416
1240 757 416
995 612 440
879 554 477
798 516 517
738 488 571
690 465 636
654 450 714
628 444 807
1481 954 396
1195 907 585
1022 860 700
924 822 780
866 806 864
824 802 966
795 808 1085
776 824 1220
767 851 1371
1493 1017 401
1337 1090 637
1133 1107 896
970 1105 1121
940 1124 1253
925 1156 1402
919 1199 1564
922 1252 1739
931 1314 1927
1726 1255 428
1662 1367 644
1444 1435 1024
1188 1461 1407
1007 1445 1628
1011 1510 1812
1024 1587 2005
1044 1671 2202
1067 1763 2403
2165 1675 476
2165 1798 680
2073 1927 1082
1749 1948 1545
1054 1744 1934
1056 1827 2136
1071 1921 2338
1093 2023 2538
1121 2129 2730
2513 2061 527
2550 2194 745
2530 2338 1132
2354 2434 1619
1924 2421 2138
1305 2213 2371
1111 2218 2580
1133 2329 2770
1164 2442 2944
2784 2414 587
2831 2542 837
2849 2680 1210
2773 2802 1679
2538 2881 2218
1901 2720 2576
1423 2605 2791
1167 2582 2939
1199 2697 3096
2975 2718 660
3018 2835 960
3048 2954 1329
3030 3070 1758
2929 3173 2236
2545 3179 2707
1928 3022 2958
1385 2870 3087
1226 2893 3195
3086 2960 752
3116 3062 1119
3145 3162 1501
3155 3258 1886
3128 3345 2260
2937 3420 2724
2547 3403 3071
1976 3279 3260
1244 3030 3250
2341 1474 486
1909 1123 491
1622 925 516
1438 824 553
1316 767 592
1185 702 634
1074 645 686
980 598 749
904 562 826
2150 1360 465
1869 1286 666
1636 1187 777
1461 1096 845
1356 1051 916
1241 1000 990
1146 959 1079
1069 932 1182
1011 920 1302
1992 1290 455
1844 1364 700
1653 1394 984
1490 1398 1227
1426 1394 1347
1353 1384 1466
1295 1386 1598
1252 1401 1742
1222 1429 1898
2006 1377 462
1956 1504 682
1817 1632 1100
1644 1724 1528
1494 1740 1778
1464 1779 1941
1445 1828 2110
1437 1886 2283
1437 1954 2463
2332 1728 498
2330 1854 700
2270 1987 1087
2040 2068 1581
1526 2037 2104
1518 2107 2295
1521 2185 2481
1534 2271 2663
1553 2361 2840
2658 2127 545
2682 2247 761
2679 2382 1138
2572 2500 1625
2284 2568 2176
1729 2449 2491
1550 2469 2715
1565 2559 2888
1590 2653 3046
2895 2464 598
2931 2580 849
2960 2716 1237
2932 2848 1712
2799 2955 2221
2260 2877 2634
1830 2809 2888
1589 2797 3051
1617 2888 3192
3054 2741 664
3093 2854 968
3135 2989 1393
3150 3122 1859
3111 3228 2286
2825 3264 2732
2285 3163 3015
1788 3055 3183
1634 3069 3287
3146 2961 745
3182 3070 1124
3225 3203 1613
3256 3328 2085
3259 3413 2416
3140 3483 2791
2838 3489 3112
2342 3403 3317
1636 3195 3341
2821 1840 542
2516 1511 561
2289 1303 594
2135 1193 642
2048 1152 704
1840 1045 738
1653 946 779
1487 857 830
1343 780 894
2692 1757 524
2492 1684 739
2304 1569 859
2155 1469 936
2074 1441 1025
1876 1337 1078
1700 1245 1142
1547 1168 1219
1419 1108 1310
2576 1695 512
2460 1753 775
2308 1769 1072
2170 1760 1321
2094 1745 1437
1931 1671 1521
1788 1611 1615
1668 1566 1720
1571 1539 1838
2479 1663 508
2434 1782 742
2328 1910 1173
2205 2010 1615
2112 2048 1878
2008 2031 2005
1922 2023 2135
1853 2028 2270
1801 2048 2412
2406 1666 514
2429 1836 714
2390 2000 1101
2290 2165 1638
2130 2335 2284
2113 2397 2467
2105 2462 2640
2106 2531 2806
2114 2608 2968
2761 2141 559
2789 2271 774
2786 2411 1151
2753 2560 1657
2689 2721 2260
2263 2688 2628
2122 2726 2861
2128 2800 3021
2145 2876 3167
2992 2498 609
3024 2611 860
3048 2742 1251
3060 2886 1744
3059 3043 2304
2676 3036 2725
2340 3015 2999
2140 3020 3176
2164 3092 3307
3131 2764 669
3166 2872 976
3205 3005 1407
3243 3152 1911
3276 3305 2440
3111 3356 2809
2698 3307 3095
2298 3245 3293
2167 3257 3398
3205 2963 742
3243 3075 1127
3289 3213 1626
3335 3364 2171
3378 3513 2694
3329 3563 2933
3136 3581 3192
2758 3530 3391
2152 3373 3451
3067 2067 580
2886 1823 613
2748 1664 658
2651 1572 715
2591 1534 785
2523 1507 856
2361 1411 911
2157 1285 961
1964 1168 1021
2992 2037 565
2877 1995 794
2766 1909 924
2675 1829 1009
2621 1802 1103
2561 1784 1197
2404 1696 1268
2206 1579 1334
2022 1473 1411
2923 2018 554
2858 2073 837
2773 2097 1145
2694 2098 1399
2645 2083 1519
2600 2082 1634
2461 2015 1725
2285 1923 1808
2127 1844 1900
2863 2012 549
2839 2110 810
2784 2228 1258
2719 2326 1705
2665 2362 1966
2639 2383 2104
2534 2351 2217
2398 2299 2319
2279 2260 2426
2813 2019 550
2829 2158 783
2812 2303 1196
2762 2458 1744
2680 2624 2380
2678 2672 2540
2622 2686 2677
2544 2687 2802
2480 2699 2924
2887 2174 572
2924 2319 792
2936 2469 1175
2923 2627 1685
2883 2795 2287
2741 2883 2722
2679 2944 2966
2661 2994 3109
2655 3047 3238
3042 2463 613
3082 2592 862
3110 2733 1253
3125 2884 1749
3126 3044 2312
3010 3154 2807
2834 3192 3111
2702 3216 3292
2720 3278 3416
3196 2768 670
3231 2878 979
3268 3010 1411
3304 3156 1920
3334 3308 2454
3305 3422 2889
3067 3432 3198
2809 3412 3398
2720 3430 3506
3264 2966 740
3302 3077 1128
3347 3216 1632
3394 3369 2184
3436 3521 2715
3445 3623 3063
3358 3666 3312
3125 3641 3473
2700 3540 3561
3228 2217 613
3137 2068 658
3068 1969 713
3017 1910 779
2984 1885 856
2971 1889 946
2893 1849 1025
2757 1761 1097
2570 1624 1163
3193 2236 601
3141 2233 842
3087 2189 981
3043 2140 1072
3016 2126 1172
3010 2140 1282
2937 2107 1378
2804 2028 1463
2621 1903 1539
3161 2261 593
3133 2322 895
3099 2363 1212
3066 2382 1468
3044 2378 1588
3044 2403 1715
2982 2384 1825
2863 2323 1921
2693 2219 2003
3131 2288 589
3123 2374 880
3107 2488 1339
3087 2586 1787
3066 2628 2040
3073 2662 2179
3027 2663 2301
2930 2627 2407
2787 2555 2495
3103 2316 589
3116 2428 859
3118 2559 1299
3107 2704 1851
3084 2863 2462
3093 2905 2608
3068 2927 2740
3006 2924 2855
2903 2892 2951
3090 2364 600
3121 2493 852
3140 2636 1262
3146 2789 1784
3138 2951 2373
3118 3074 2805
3111 3145 3041
3095 3180 3168
3052 3196 3275
3154 2528 626
3191 2654 888
3221 2795 1291
3243 2947 1795
3255 3105 2355
3246 3249 2860
3189 3327 3178
3134 3372 3364
3132 3413 3475
3248 2748 670
3285 2864 975
3322 3000 1407
3357 3149 1917
3388 3302 2456
3403 3437 2915
3314 3506 3255
3204 3540 3478
3158 3565 3588
3324 2964 737
3360 3075 1124
3404 3214 1630
3449 3368 2186
3490 3521 2723
3517 3641 3111
3498 3713 3375
3389 3726 3545
3143 3671 3647
3332 2310 643
3302 2253 701
3279 2215 767
3262 2193 841
3252 2186 925
3247 2194 1022
3245 2208 1124
3203 2185 1221
3079 2083 1304
3327 2373 636
3315 2412 889
3301 2410 1036
3289 2397 1134
3283 2400 1238
3286 2417 1352
3290 2440 1470
3253 2425 1581
3130 2334 1674
3320 2434 632
3318 2510 954
3316 2572 1275
3314 2612 1530
3312 2622 1652
3321 2649 1779
3332 2681 1908
3302 2678 2028
3185 2602 2122
3313 2492 631
3317 2577 954
3325 2692 1421
3334 2794 1862
3338 2844 2104
3350 2878 2238
3368 2918 2374
3347 2928 2496
3243 2873 2590
3306 2546 633
3316 2642 946
3329 2764 1410
3344 2904 1959
3359 3053 2529
3373 3092 2667
3395 3138 2803
3385 3161 2924
3303 3132 3018
3300 2597 640
3318 2704 943
3338 2834 1392
3359 2978 1928
3378 3130 2493
3390 3241 2878
3410 3312 3092
3411 3346 3210
3364 3346 3306
3299 2658 653
3326 2774 950
3354 2909 1386
3381 3057 1906
3406 3210 2458
3419 3345 2924
3430 3439 3227
3434 3497 3409
3427 3527 3511
3321 2766 682
3354 2884 998
3389 3023 1445
3424 3174 1966
3455 3327 2506
3473 3458 2953
3478 3562 3299
3474 3634 3532
3466 3668 3641
3384 2958 736
3418 3069 1116
3458 3208 1620
3501 3362 2177
3540 3515 2717
3565 3636 3110
3579 3728 3397
3554 3776 3591
3458 3764 3706
3410 2370 672
3413 2386 744
3416 2398 822
3417 2407 907
3418 2417 999
3416 2428 1102
3413 2442 1209
3411 2459 1318
3410 2482 1425
3424 2465 672
3434 2541 936
3440 2577 1093
3444 2593 1199
3449 2610 1308
3453 2630 1424
3456 2652 1544
3461 2677 1668
3466 2704 1795
3434 2549 674
3445 2646 1016
3458 2728 1341
3469 2786 1592
3475 2810 1716
3484 2838 1840
3495 2869 1968
3506 2901 2098
3518 2933 2232
3440 2626 678
3450 2723 1036
3468 2844 1506
3487 2952 1934
3499 3007 2161
3511 3042 2290
3527 3080 2420
3544 3119 2550
3563 3157 2682
3446 2698 683
3454 2794 1046
3470 2918 1533
3494 3056 2070
3523 3194 2584
3534 3231 2713
3551 3274 2840
3574 3319 2965
3599 3364 3090
3449 2763 691
3456 2860 1053
3474 2986 1544
3498 3127 2091
3526 3271 2621
3549 3367 2944
3568 3429 3130
3589 3474 3246
3620 3522 3361
3451 2824 703
3461 2925 1064
3481 3054 1556
3507 3199 2107
3536 3345 2646
3562 3464 3039
3581 3544 3288
3601 3601 3441
3629 3647 3547
3449 2884 717
3466 2990 1080
3492 3124 1574
3523 3273 2127
3555 3423 2668
3580 3543 3067
3596 3635 3360
3611 3701 3556
3629 3743 3663
3443 2946 737
3472 3058 1104
3509 3198 1601
3548 3351 2156
3585 3505 2698
3609 3626 3098
3622 3716 3390
3625 3778 3594
3619 3811 3731
