Assets/1__3DArt/KimSe/artstation_asset/LUTs_subway_asset/3DL/Yellow Line 01.3dl
# LUT by SparkleStock. Enhanced with VOXCOLOR algorithms.
0 64 128 192 256 320 384 448 512 576 640 704 768 832 896 960 1023
352 304 256
353 307 282
355 310 307
357 314 333
360 319 360
364 323 388
368 330 419
374 337 452
379 344 485
385 351 527
390 358 568
396 366 614
403 375 669
410 383 724
417 393 789
425 405 859
432 416 929
414 376 266
399 376 317
384 376 367
375 378 412
378 383 444
381 389 477
386 397 516
392 407 559
398 416 603
405 428 657
413 440 711
421 453 770
429 468 837
438 482 905
447 499 981
457 516 1063
467 533 1144
477 448 276
445 445 352
414 443 427
393 443 490
396 448 528
398 454 565
403 464 613
410 476 667
416 489 720
426 506 787
435 523 854
445 541 926
456 561 1006
466 582 1086
478 604 1174
490 627 1267
502 650 1359
577 543 290
546 555 394
515 567 498
485 570 581
457 553 624
428 537 667
423 542 724
430 558 787
437 574 851
448 597 930
459 619 1009
471 644 1092
483 671 1184
496 698 1275
509 727 1373
523 756 1475
538 786 1577
754 682 311
757 745 449
761 807 588
724 821 697
604 739 746
484 658 796
448 644 861
455 664 933
463 685 1006
475 715 1096
487 745 1186
499 777 1280
513 813 1380
527 848 1481
542 885 1585
558 921 1692
573 958 1798
930 822 331
968 934 505
1007 1046 678
962 1072 813
751 926 869
539 779 925
473 746 998
480 771 1079
488 795 1160
501 833 1262
514 871 1363
528 911 1467
543 955 1577
559 998 1687
575 1042 1798
592 1086 1909
608 1131 2020
1160 1008 358
1216 1142 544
1271 1275 730
1236 1323 888
1019 1203 994
803 1083 1099
676 1011 1177
594 964 1242
512 917 1307
526 962 1417
539 1008 1527
554 1056 1639
571 1109 1756
587 1162 1872
604 1214 1986
622 1265 2099
639 1317 2211
1417 1218 389
1481 1357 575
1545 1497 761
1528 1574 944
1349 1527 1120
1170 1479 1296
967 1358 1379
752 1201 1414
536 1044 1450
550 1097 1567
564 1150 1684
579 1207 1803
597 1269 1925
614 1332 2047
632 1392 2163
650 1451 2275
668 1511 2387
1674 1427 419
1746 1573 606
1819 1719 793
1820 1825 999
1679 1850 1247
1538 1875 1494
1258 1705 1580
909 1439 1586
560 1172 1592
574 1232 1717
589 1293 1842
604 1357 1968
623 1429 2095
641 1502 2223
659 1571 2339
678 1637 2451
696 1704 2563
1921 1661 454
1985 1790 627
2049 1920 800
2055 2022 1004
1944 2070 1268
1834 2119 1532
1590 2012 1680
1281 1829 1770
971 1645 1860
838 1579 1926
705 1512 1993
622 1494 2081
641 1574 2211
660 1654 2342
678 1730 2458
697 1804 2568
716 1878 2677
2169 1894 489
2224 2007 648
2280 2120 808
2290 2219 1008
2210 2291 1290
2130 2362 1571
1923 2319 1781
1652 2219 1954
1381 2118 2128
1101 1925 2136
821 1731 2144
640 1631 2194
659 1719 2327
678 1806 2461
697 1889 2577
717 1970 2684
736 2051 2792
2388 2117 525
2434 2212 671
2481 2307 816
2493 2399 1010
2439 2485 1299
2384 2571 1589
2213 2578 1844
1983 2544 2082
1753 2510 2320
1386 2257 2314
1019 2005 2308
765 1854 2341
738 1906 2455
710 1959 2568
714 2034 2677
734 2122 2783
753 2209 2889
2552 2320 566
2586 2394 696
2621 2469 827
2632 2546 1007
2594 2628 1286
2557 2711 1565
2420 2739 1834
2234 2739 2098
2048 2739 2361
1715 2563 2429
1382 2387 2497
1104 2247 2558
936 2180 2606
768 2113 2654
726 2152 2740
747 2243 2845
767 2334 2950
2715 2523 607
2738 2576 722
2761 2630 837
2770 2692 1003
2750 2771 1272
2729 2850 1541
2627 2899 1823
2485 2933 2113
2342 2967 2403
2043 2868 2545
1744 2769 2687
1442 2640 2775
1134 2454 2757
827 2267 2739
738 2269 2803
759 2364 2908
781 2460 3012
2813 2679 657
2830 2719 761
2847 2759 865
2855 2810 1018
2844 2880 1269
2833 2951 1521
2757 3008 1801
2648 3057 2097
2540 3106 2392
2282 3054 2576
2025 3003 2760
1740 2905 2880
1400 2715 2873
1060 2525 2865
908 2484 2910
851 2519 2981
793 2553 3051
2880 2813 713
2893 2842 807
2906 2872 901
2913 2913 1041
2908 2973 1272
2903 3033 1503
2848 3090 1773
2768 3145 2064
2689 3200 2354
2477 3181 2564
2264 3163 2774
2017 3105 2928
1699 2970 2970
1380 2834 3012
1157 2749 3040
981 2689 3059
805 2630 3079
2946 2946 769
2955 2966 853
2965 2986 938
2971 3015 1064
2971 3065 1275
2972 3114 1485
2939 3172 1745
2888 3233 2031
2838 3294 2317
2671 3308 2553
2504 3323 2789
2294 3305 2976
1998 3224 3068
1701 3144 3160
1406 3014 3169
1111 2860 3137
817 2706 3106
683 476 297
597 432 313
512 389 329
453 360 347
447 359 372
441 358 396
437 359 423
435 361 453
433 363 483
434 366 520
434 369 558
436 373 600
439 378 649
442 384 699
447 392 758
452 401 821
457 410 885
676 505 299
599 481 348
522 457 397
469 441 440
465 443 473
461 445 505
461 450 543
461 457 584
462 464 626
466 473 677
469 482 728
474 493 784
480 506 847
486 518 911
493 534 984
501 550 1061
509 566 1138
670 535 302
601 530 384
532 524 466
485 523 534
484 528 574
482 533 614
484 542 663
487 553 716
491 564 768
497 580 833
504 596 898
511 613 968
520 633 1046
529 653 1123
539 675 1210
550 699 1300
561 723 1391
728 605 311
674 623 421
620 642 531
574 651 623
544 642 676
515 633 729
508 640 789
513 656 853
518 672 916
527 694 994
536 716 1071
546 740 1153
557 767 1243
568 795 1333
581 824 1430
594 855 1531
607 886 1632
916 756 331
890 808 462
864 859 592
807 874 704
689 816 780
570 758 857
534 752 930
538 772 1002
543 792 1075
553 821 1162
563 850 1249
573 881 1340
586 915 1439
599 950 1537
613 987 1639
627 1024 1745
642 1062 1850
1104 907 352
1106 992 502
1109 1076 652
1041 1097 785
833 990 885
625 884 984
559 864 1071
563 888 1152
568 912 1233
578 947 1330
589 983 1428
601 1021 1528
615 1064 1634
630 1106 1741
645 1149 1849
661 1194 1958
676 1238 2067
1326 1091 377
1347 1192 534
1367 1293 690
1311 1333 843
1103 1251 986
894 1169 1129
767 1117 1229
680 1080 1306
593 1042 1384
604 1085 1489
615 1127 1594
627 1172 1701
643 1222 1813
658 1272 1924
674 1323 2035
690 1373 2145
707 1424 2255
1565 1292 406
1599 1400 562
1633 1509 718
1601 1575 887
1435 1555 1085
1270 1535 1283
1065 1441 1395
842 1309 1463
618 1178 1531
629 1227 1643
640 1275 1754
653 1327 1867
669 1386 1983
684 1444 2099
701 1501 2210
718 1559 2319
735 1616 2427
1804 1492 434
1852 1609 589
1899 1725 745
1890 1817 932
1768 1858 1185
1645 1900 1437
1364 1764 1560
1004 1539 1620
644 1314 1679
654 1369 1796
665 1424 1914
678 1483 2032
695 1549 2152
711 1616 2273
729 1680 2385
746 1744 2492
764 1807 2600
2030 1713 466
2076 1821 614
2122 1928 762
2121 2019 948
2027 2077 1207
1934 2135 1467
1695 2055 1641
1383 1905 1772
1072 1755 1904
930 1697 1981
788 1639 2058
698 1624 2149
715 1696 2271
731 1769 2393
749 1839 2503
767 1908 2608
785 1977 2713
2257 1934 498
2301 2032 639
2345 2131 780
2352 2221 963
2287 2296 1230
2222 2370 1497
2026 2345 1722
1763 2271 1925
1500 2196 2128
1205 2025 2165
910 1853 2201
719 1765 2267
735 1844 2390
751 1922 2513
769 1998 2622
788 2072 2724
806 2147 2826
2458 2146 533
2498 2234 667
2538 2321 801
2551 2407 979
2510 2490 1246
2469 2574 1513
2312 2592 1774
2096 2576 2031
1881 2561 2288
1499 2338 2320
1117 2116 2352
852 1983 2409
819 2029 2515
786 2074 2621
787 2143 2723
806 2222 2822
825 2301 2922
2609 2341 571
2642 2413 699
2674 2486 827
2686 2560 997
2659 2638 1249
2632 2715 1501
2509 2749 1768
2337 2762 2042
2166 2775 2316
1830 2624 2416
1494 2473 2516
1210 2352 2600
1029 2289 2653
849 2226 2706
802 2260 2788
821 2342 2886
840 2424 2983
2761 2535 609
2785 2593 731
2809 2651 854
2821 2714 1014
2808 2785 1251
2794 2856 1489
2705 2907 1762
2578 2948 2054
2451 2989 2345
2161 2910 2513
1870 2830 2680
1567 2720 2791
1240 2549 2791
913 2378 2790
817 2377 2854
836 2462 2949
856 2547 3045
2854 2688 658
2873 2735 778
2892 2783 898
2903 2835 1051
2897 2897 1269
2891 2959 1487
2826 3015 1754
2732 3068 2044
2638 3120 2334
2394 3084 2537
2150 3048 2740
1870 2967 2880
1515 2795 2893
1161 2622 2906
1000 2583 2954
934 2610 3019
869 2638 3084
2919 2820 711
2934 2858 831
2948 2897 951
2957 2940 1097
2956 2992 1294
2954 3044 1492
2909 3099 1744
2842 3154 2023
2776 3210 2303
2579 3203 2526
2382 3197 2749
2144 3152 2917
1823 3033 2978
1503 2913 3039
1267 2833 3073
1075 2773 3092
882 2713 3112
2983 2951 765
2994 2981 885
3004 3012 1004
3012 3045 1143
3015 3087 1319
3017 3129 1496
2992 3182 1734
2952 3241 2003
2913 3300 2272
2764 3323 2514
2614 3345 2757
2419 3338 2955
2131 3271 3063
1844 3204 3172
1535 3083 3191
1215 2935 3165
895 2787 3140
1013 647 337
841 558 344
668 468 350
548 406 362
533 399 383
517 392 404
506 388 428
497 385 454
488 382 480
483 381 514
479 380 548
476 380 585
475 382 630
475 385 674
477 390 727
479 397 784
481 403 841
938 635 333
799 586 380
659 537 427
563 504 469
552 503 501
542 502 533
535 504 570
531 507 609
526 511 648
526 518 697
526 525 745
527 533 797
530 544 857
533 554 918
539 568 986
545 584 1059
550 600 1132
864 622 328
757 614 416
650 606 504
577 602 577
572 607 620
567 612 663
565 620 712
565 630 764
565 640 816
569 654 879
573 669 942
578 685 1010
585 705 1085
592 724 1161
600 747 1245
610 771 1334
619 796 1422
880 667 332
802 692 448
725 717 565
663 732 664
632 731 728
601 729 791
593 738 855
596 754 918
599 769 982
606 791 1058
613 813 1133
621 836 1214
631 864 1302
641 891 1391
652 922 1487
664 954 1587
677 986 1687
1079 830 352
1023 871 474
968 911 596
891 927 711
774 893 814
657 859 918
619 860 1000
621 879 1072
623 899 1144
631 926 1228
639 954 1313
648 984 1401
659 1018 1497
670 1052 1593
683 1089 1693
697 1127 1797
711 1166 1901
1278 993 372
1244 1049 499
1210 1106 626
1120 1122 758
916 1055 901
712 989 1044
645 982 1145
646 1005 1225
648 1028 1305
656 1062 1399
665 1096 1492
674 1132 1589
687 1173 1692
700 1213 1794
714 1257 1900
729 1301 2007
744 1345 2114
1492 1174 397
1478 1243 524
1463 1311 651
1387 1342 797
1186 1299 978
986 1256 1159
857 1223 1280
766 1195 1370
674 1168 1461
682 1207 1561
690 1246 1661
701 1288 1763
714 1335 1870
728 1383 1977
743 1432 2084
759 1481 2191
775 1531 2298
1713 1366 422
1717 1444 548
1721 1521 674
1673 1575 831
1521 1583 1050
1369 1590 1270
1164 1523 1410
932 1418 1512
700 1312 1613
708 1356 1718
716 1401 1823
726 1448 1930
741 1502 2040
755 1556 2150
770 1611 2257
787 1666 2362
803 1721 2468
1934 1557 448
1957 1644 573
1979 1731 697
1960 1809 866
1856 1867 1123
1752 1925 1380
1470 1823 1541
1099 1640 1653
727 1457 1766
735 1506 1876
742 1555 1986
752 1608 2097
767 1669 2210
782 1729 2323
798 1790 2430
815 1850 2533
832 1910 2637
2139 1766 478
2167 1851 601
2194 1936 725
2187 2016 892
2110 2084 1147
2034 2152 1401
1799 2097 1602
1486 1981 1775
1173 1865 1947
1022 1815 2035
871 1765 2122
775 1754 2218
789 1819 2331
803 1884 2444
819 1948 2548
837 2012 2648
854 2077 2749
2344 1974 508
2377 2058 630
2409 2141 752
2414 2223 918
2365 2301 1170
2315 2379 1423
2129 2372 1663
1874 2322 1896
1619 2273 2129
1309 2124 2194
999 1976 2259
797 1899 2340
811 1969 2453
825 2038 2565
841 2106 2667
859 2175 2764
877 2243 2860
2528 2175 540
2562 2255 662
2596 2334 785
2610 2414 948
2582 2496 1193
2554 2577 1437
2410 2606 1703
2209 2609 1979
2008 2612 2255
1612 2419 2326
1215 2227 2396
938 2111 2476
900 2151 2575
862 2190 2674
861 2251 2769
879 2322 2862
897 2394 2955
2667 2362 576
2697 2432 702
2727 2503 828
2741 2575 987
2724 2647 1212
2707 2719 1437
2597 2760 1702
2441 2786 1987
2285 2811 2272
1945 2685 2403
1606 2559 2535
1315 2456 2642
1123 2398 2700
930 2339 2757
878 2368 2837
896 2441 2927
914 2514 3017
2807 2548 612
2832 2610 741
2857 2672 870
2872 2735 1025
2866 2798 1231
2859 2861 1436
2783 2915 1701
2672 2963 1994
2561 3011 2288
2279 2952 2481
1996 2892 2673
1693 2801 2807
1346 2645 2824
999 2489 2841
895 2486 2904
913 2560 2991
931 2634 3078
2895 2697 658
2916 2751 795
2937 2806 931
2950 2860 1084
2949 2914 1269
2949 2967 1454
2895 3023 1706
2816 3079 1991
2737 3135 2277
2506 3114 2499
2276 3094 2721
2000 3029 2880
1631 2874 2914
1263 2720 2947
1091 2682 2998
1018 2702 3058
945 2723 3118
2958 2827 709
2974 2874 855
2991 2922 1001
3002 2968 1153
3004 3012 1317
3006 3055 1480
2970 3107 1714
2916 3164 1983
2862 3220 2252
2681 3226 2487
2500 3231 2723
2271 3200 2907
1948 3096 2986
1625 2992 3066
1378 2917 3106
1168 2856 3126
959 2796 3146
3021 2956 761
3033 2997 916
3044 3037 1071
3054 3075 1222
3058 3109 1364
3063 3143 1507
3045 3192 1722
3017 3249 1975
2988 3306 2227
2856 3337 2476
2724 3368 2725
2543 3370 2933
2265 3317 3059
1987 3264 3184
1664 3152 3213
1318 3010 3193
972 2869 3174
1352 836 377
1121 708 377
890 580 378
724 489 384
691 473 403
658 456 421
633 444 443
613 434 466
592 425 488
579 418 519
566 412 549
554 407 582
547 405 621
540 403 661
536 404 708
533 407 760
531 410 811
1233 792 367
1050 721 414
867 651 461
736 601 502
710 591 533
683 582 564
664 577 598
650 574 634
635 572 670
626 574 715
618 576 759
611 579 808
608 586 863
605 592 919
605 603 982
607 616 1050
