Assets/1__3DArt/KimSe/artstation_asset/LUTs_subway_asset/3DL/Yellow Line 01.3dl
# LUT by SparkleStock. Enhanced with VOXCOLOR algorithms.
0 256 512 768 1023
352 304 256
360 319 360
379 344 485
403 375 669
432 416 929
754 682 311
604 739 746
463 685 1006
513 813 1380
573 958 1798
1674 1427 419
1679 1850 1247
560 1172 1592
623 1429 2095
696 1704 2563
2552 2320 566
2594 2628 1286
2048 2739 2361
936 2180 2606
767 2334 2950
2946 2946 769
2971 3065 1275
2838 3294 2317
1998 3224 3068
817 2706 3106
1707 1057 416
995 612 440
798 516 517
690 465 636
628 444 807
1493 1017 401
1133 1107 896
940 1124 1253
919 1199 1564
931 1314 1927
2165 1675 476
2073 1927 1082
1054 1744 1934
1071 1921 2338
1121 2129 2730
2784 2414 587
2849 2680 1210
2538 2881 2218
1423 2605 2791
1199 2697 3096
3086 2960 752
3145 3162 1501
3128 3345 2260
2547 3403 3071
1244 3030 3250
2821 1840 542
2289 1303 594
2048 1152 704
1653 946 779
1343 780 894
2576 1695 512
2308 1769 1072
2094 1745 1437
1788 1611 1615
1571 1539 1838
2406 1666 514
2390 2000 1101
2130 2335 2284
2105 2462 2640
2114 2608 2968
2992 2498 609
3048 2742 1251
3059 3043 2304
2340 3015 2999
2164 3092 3307
3205 2963 742
3289 3213 1626
3378 3513 2694
3136 3581 3192
2152 3373 3451
3228 2217 613
3068 1969 713
2984 1885 856
2893 1849 1025
2570 1624 1163
3161 2261 593
3099 2363 1212
3044 2378 1588
2982 2384 1825
2693 2219 2003
3103 2316 589
3118 2559 1299
3084 2863 2462
3068 2927 2740
2903 2892 2951
3154 2528 626
3221 2795 1291
3255 3105 2355
3189 3327 3178
3132 3413 3475
3324 2964 737
3404 3214 1630
3490 3521 2723
3498 3713 3375
3143 3671 3647
3410 2370 672
3416 2398 822
3418 2417 999
3413 2442 1209
3410 2482 1425
3434 2549 674
3458 2728 1341
3475 2810 1716
3495 2869 1968
3518 2933 2232
3446 2698 683
3470 2918 1533
3523 3194 2584
3551 3274 2840
3599 3364 3090
3451 2824 703
3481 3054 1556
3536 3345 2646
3581 3544 3288
3629 3647 3547
3443 2946 737
3509 3198 1601
3585 3505 2698
3622 3716 3390
3619 3811 3731
