Assets/1__3DArt/KimSe/artstation_asset/LUTs_subway_asset/3DL/Yellow Line 02.3dl
# LUT by SparkleStock. Enhanced with VOXCOLOR algorithms.
0 128 256 384 512 640 768 896 1023
304 272 224
311 276 291
315 285 363
317 297 440
319 313 526
320 331 630
325 351 746
336 374 877
352 400 1025
456 479 253
375 465 434
348 463 551
351 471 645
358 492 762
369 524 904
384 560 1060
403 598 1228
426 639 1408
761 774 320
736 887 621
563 802 789
401 687 903
410 709 1044
429 754 1223
452 804 1413
478 858 1612
506 911 1815
1185 1154 416
1257 1405 795
979 1304 1052
624 1078 1224
467 953 1343
492 1008 1550
521 1073 1769
552 1141 1992
581 1206 2210
1695 1613 538
1801 1885 900
1617 1972 1317
1178 1779 1616
523 1210 1623
548 1275 1853
580 1353 2093
615 1437 2332
645 1515 2558
2165 2113 663
2250 2317 958
2139 2441 1387
1812 2407 1823
1247 2139 2137
753 1694 2143
612 1614 2317
646 1714 2565
676 1809 2794
2522 2573 777
2581 2702 1006
2525 2818 1405
2306 2864 1888
1876 2783 2367
1234 2356 2494
833 2068 2593
656 1960 2727
686 2073 2958
2763 2971 881
2802 3035 1055
2784 3118 1400
2657 3186 1866
2372 3203 2405
1805 3010 2761
1213 2631 2867
778 2314 2906
678 2304 3064
2882 3282 977
2920 3308 1116
2925 3356 1401
2862 3412 1813
2697 3463 2337
2279 3404 2799
1723 3218 3084
1144 2914 3193
656 2498 3122
1021 688 364
656 473 354
514 387 390
484 367 452
459 353 521
440 350 605
427 351 700
421 358 808
424 371 930
873 682 339
639 645 517
550 632 642
536 635 745
527 647 859
526 670 992
531 700 1138
542 734 1296
559 770 1465
1099 932 392
968 998 636
755 957 853
585 902 1037
579 922 1180
588 961 1348
603 1008 1527
624 1058 1716
649 1109 1911
1519 1324 487
1474 1445 731
1168 1401 1037
814 1286 1318
625 1196 1488
636 1242 1679
656 1299 1880
682 1360 2086
710 1422 2292
1954 1742 589
1987 1903 820
1825 2001 1205
1407 1905 1581
673 1483 1787
680 1533 1993
701 1598 2207
728 1670 2422
756 1741 2630
2346 2188 694
2407 2346 911
2331 2470 1278
2048 2482 1714
1489 2308 2136
906 1945 2259
725 1877 2448
747 1958 2663
774 2040 2867
2654 2611 794
2717 2745 1005
2694 2856 1333
2523 2913 1763
2139 2884 2278
1445 2549 2533
979 2310 2696
752 2214 2840
774 2306 3037
2873 2987 892
2923 3086 1107
2929 3165 1387
2842 3223 1769
2616 3261 2286
2069 3131 2720
1418 2824 2916
902 2554 3014
759 2536 3152
2995 3294 991
3030 3356 1221
3048 3401 1458
3018 3442 1771
2911 3494 2232
2545 3474 2724
1994 3343 3072
1358 3094 3248
734 2725 3221
1739 1143 508
1255 806 471
1001 636 482
880 561 521
798 509 572
728 470 636
671 440 710
627 420 797
598 408 896
1506 1044 466
1209 976 638
1027 909 744
921 855 822
856 824 914
806 809 1021
767 805 1141
742 809 1274
729 821 1418
1517 1131 478
1355 1188 702
1136 1178 944
958 1148 1156
917 1146 1290
892 1160 1438
878 1184 1597
875 1215 1764
881 1251 1940
1750 1402 536
1682 1501 737
1446 1534 1086
1166 1516 1439
966 1463 1652
960 1499 1830
965 1545 2016
979 1597 2205
999 1651 2396
2184 1855 634
2183 1969 817
2072 2064 1173
1718 2032 1588
990 1764 1949
981 1802 2141
988 1854 2337
1005 1913 2533
1027 1974 2724
2522 2270 725
2561 2398 912
2529 2512 1247
2319 2554 1675
1823 2467 2145
1197 2190 2373
994 2139 2581
1007 2202 2773
1029 2270 2956
2787 2660 814
2841 2784 1018
2853 2892 1332
2747 2963 1740
2445 2971 2225
1753 2728 2575
1257 2540 2794
998 2459 2954
1015 2532 3127
2978 3009 905
3028 3115 1137
3060 3204 1440
3023 3272 1809
2869 3314 2242
2382 3237 2703
1717 2998 2965
1158 2778 3116
987 2755 3245
3094 3302 1000
3131 3380 1271
3164 3443 1577
3165 3494 1908
3111 3533 2251
2822 3539 2712
2317 3452 3080
1667 3256 3301
948 2937 3319
2383 1585 639
1943 1209 609
1647 987 611
1457 865 636
1336 790 675
1201 708 719
1082 638 774
982 578 840
904 531 920
2182 1474 600
1901 1381 771
1662 1261 857
1481 1150 910
1373 1086 980
1251 1017 1055
1148 961 1143
1064 920 1244
1001 891 1357
2017 1414 576
1870 1473 801
1675 1474 1053
1504 1446 1270
1430 1419 1387
1347 1388 1506
1279 1369 1634
1228 1361 1772
1193 1364 1918
2028 1518 591
1978 1635 794
1834 1726 1171
1650 1772 1560
1476 1752 1799
1433 1762 1959
1403 1781 2123
1386 1808 2290
1380 1841 2460
2351 1899 667
2350 2018 847
2290 2118 1185
2043 2146 1626
1480 2047 2115
1456 2078 2301
1447 2117 2485
1451 2164 2664
1465 2214 2839
2673 2330 752
2701 2446 936
2701 2551 1257
2579 2618 1684
2238 2618 2184
1634 2431 2497
1432 2399 2721
1435 2448 2897
1451 2502 3064
2911 2708 835
2954 2818 1037
2989 2923 1361
2950 3007 1771
2773 3052 2230
2152 2896 2636
1674 2762 2897
1407 2699 3074
1422 2755 3231
3077 3034 919
3124 3133 1155
3171 3231 1503
3181 3314 1901
3114 3368 2288
2732 3333 2726
2111 3161 3025
1557 2992 3221
1377 2969 3349
3182 3307 1009
3223 3390 1291
3267 3473 1687
3295 3543 2091
3289 3584 2396
3098 3602 2774
2681 3551 3121
2074 3406 3362
1316 3141 3423
2874 1962 739
2558 1615 737
2325 1392 752
2168 1266 783
2074 1208 828
1872 1081 854
1683 961 889
1514 854 937
1372 761 998
2731 1880 710
2527 1787 890
2338 1655 984
2189 1540 1041
2104 1495 1109
1907 1370 1157
1727 1258 1216
1569 1161 1287
1440 1082 1371
2604 1826 689
2489 1865 918
2339 1852 1173
2202 1814 1385
2126 1782 1483
1957 1683 1565
1806 1598 1655
1677 1529 1754
1574 1477 1864
2500 1805 679
2458 1912 887
2355 2001 1265
2234 2057 1654
2141 2062 1895
2024 2014 2023
1925 1976 2152
1844 1951 2283
1783 1939 2419
2424 1822 684
2450 1989 865
2413 2123 1204
2312 2233 1685
2149 2330 2293
2111 2355 2478
2086 2386 2651
2073 2422 2817
2072 2463 2978
2782 2336 774
2814 2464 955
2816 2574 1274
2786 2671 1717
2724 2764 2272
2223 2669 2639
2047 2661 2874
2041 2698 3039
2047 2740 3193
3021 2740 855
3059 2846 1056
3088 2945 1379
3105 3039 1805
3108 3131 2316
2640 3059 2730
2237 2980 3015
1994 2939 3209
2006 2981 3353
3171 3058 935
3214 3152 1172
3258 3244 1523
3300 3336 1957
3335 3429 2442
3105 3426 2806
2598 3317 3111
2112 3203 3339
1943 3184 3468
3264 3312 1020
3307 3396 1307
3353 3481 1712
3399 3567 2183
3437 3652 2669
3360 3669 2918
3075 3645 3204
2577 3550 3442
1858 3347 3542
3135 2194 794
2943 1937 819
2800 1765 853
2700 1661 898
2637 1611 952
2569 1567 1006
2408 1452 1045
2207 1305 1083
2017 1166 1131
3047 2168 776
2928 2103 968
2813 2002 1074
2721 1908 1142
2667 1868 1218
2606 1833 1293
2448 1725 1350
2251 1585 1404
2069 1456 1468
2969 2158 763
2902 2191 1001
2817 2183 1263
2739 2154 1480
2693 2124 1582
2646 2104 1681
2504 2014 1762
2325 1895 1837
2162 1788 1919
2902 2164 757
2877 2246 978
2825 2320 1361
2763 2369 1750
2712 2374 1988
2685 2374 2116
2574 2314 2224
2429 2230 2324
2301 2159 2427
2846 2186 760
2864 2315 958
2850 2424 1310
2804 2520 1792
2726 2612 2383
2722 2637 2539
2656 2620 2678
2565 2587 2807
2488 2563 2933
2920 2363 799
2960 2505 983
2976 2626 1304
2967 2732 1747
2931 2831 2297
2772 2863 2734
2694 2883 2985
2662 2900 3137
2643 2923 3276
3083 2698 867
3127 2821 1066
3161 2931 1387
3181 3031 1812
3186 3128 2323
3051 3175 2819
2831 3163 3138
2658 3147 3338
2665 3184 3477
3251 3060 950
3292 3155 1185
3334 3247 1535
3374 3337 1970
3408 3427 2458
3363 3488 2894
3061 3448 3225
2732 3385 3455
2605 3376 3587
3339 3316 1032
3382 3399 1320
3429 3484 1727
3475 3569 2202
3516 3654 2695
3513 3718 3060
3378 3728 3336
3063 3670 3535
2514 3531 3662
3308 2352 837
3212 2195 881
3138 2085 930
3085 2017 986
3051 1982 1047
3036 1971 1115
2960 1914 1174
2827 1805 1226
2644 1642 1274
3265 2382 830
3210 2356 1030
3154 2296 1146
3108 2235 1221
3082 2209 1302
3075 2208 1389
3002 2158 1464
2872 2057 1529
2690 1902 1586
3226 2417 826
3197 2455 1073
3162 2463 1339
3130 2452 1556
3111 2432 1660
3112 2441 1766
3050 2403 1859
2930 2316 1940
2758 2179 2009
3192 2458 826
3183 2525 1063
3168 2592 1449
3152 2640 1833
3136 2650 2064
3145 2667 2189
3098 2645 2302
2998 2581 2400
2848 2472 2483
3161 2504 832
3174 2601 1051
3177 2689 1417
3171 2774 1897
3155 2859 2460
3169 2882 2602
3142 2880 2734
3073 2847 2851
2960 2777 2950
3145 2570 850
3178 2691 1055
3200 2798 1394
3211 2896 1842
3208 2990 2378
3192 3060 2813
3182 3098 3055
3159 3107 3192
3104 3089 3311
3213 2769 895
3254 2887 1101
3288 2994 1430
3315 3092 1859
3331 3187 2365
3326 3273 2873
3253 3309 3207
3178 3321 3415
3166 3337 3544
3317 3037 961
3359 3140 1192
3401 3236 1540
3441 3328 1974
3474 3419 2462
3492 3502 2925
3376 3528 3291
3230 3527 3548
3155 3530 3682
3409 3314 1045
3452 3398 1330
3499 3483 1736
3546 3567 2211
3587 3653 2707
3610 3732 3113
3573 3775 3410
3417 3764 3618
3084 3680 3760
3422 2462 875
3393 2397 932
3369 2352 992
3349 2322 1055
3336 2307 1123
3331 2303 1196
3330 2302 1274
3291 2258 1348
3174 2128 1410
3412 2537 879
3402 2554 1086
3388 2540 1208
3376 2516 1289
3370 2507 1373
3372 2511 1462
3376 2518 1554
3341 2483 1640
3221 2361 1708
3404 2612 886
3402 2665 1142
3401 2695 1408
3401 2706 1622
3401 2702 1725
3411 2713 1831
3423 2728 1938
3394 2703 2036
3277 2595 2112
3396 2687 894
3399 2751 1148
3410 2819 1534
3421 2871 1908
3429 2890 2127
3445 2908 2248
3465 2930 2369
3445 2916 2478
3338 2826 2563
3387 2763 905
3397 2838 1150
3413 2913 1529
3432 2991 2001
3453 3071 2525
3471 3092 2659
3497 3120 2791
3488 3119 2910
3402 3054 3005
3378 2837 922
3399 2925 1157
3423 3010 1521
3448 3094 1978
3472 3180 2492
3488 3245 2882
3514 3289 3101
3516 3301 3226
3464 3271 3334
3376 2922 945
3408 3021 1173
3440 3114 1524
3472 3204 1965
3502 3295 2464
3519 3377 2934
3533 3436 3256
3538 3469 3460
3525 3476 3580
3402 3064 987
3441 3165 1225
3482 3259 1582
3521 3351 2022
3556 3441 2512
3577 3525 2963
3582 3592 3339
3574 3638 3609
3552 3655 3743
3475 3308 1059
3517 3394 1337
3564 3479 1737
3610 3563 2210
3651 3648 2707
3675 3726 3117
3687 3793 3438
3644 3823 3673
3509 3791 3828
3507 2546 913
3516 2554 980
3519 2560 1048
3517 2566 1117
3513 2570 1189
3508 2571 1265
3507 2568 1344
3511 2565 1428
3523 2562 1521
3518 2650 930
3535 2710 1143
3544 2736 1269
3548 2745 1353
3551 2752 1438
3554 2759 1526
3558 2765 1617
3566 2771 1713
3579 2777 1815
3529 2752 949
3545 2828 1216
3562 2883 1478
3576 2916 1685
3583 2926 1787
3593 2939 1887
3604 2952 1991
3618 2965 2097
3635 2979 2207
3538 2852 968
3551 2925 1240
3572 3001 1622
3595 3063 1980
3610 3092 2184
3625 3109 2297
3643 3128 2411
3664 3148 2526
3687 3169 2643
3543 2951 988
3554 3018 1259
3574 3092 1650
3602 3171 2107
3634 3250 2580
3651 3269 2705
3673 3292 2827
3701 3318 2948
3732 3346 3070
3542 3043 1007
3555 3108 1275
3578 3181 1666
3607 3259 2130
3640 3341 2615
3666 3401 2947
3690 3438 3139
3719 3467 3260
3755 3500 3383
3540 3131 1025
3560 3199 1292
3588 3272 1683
3620 3351 2149
3653 3434 2641
3681 3510 3047
3702 3563 3316
3725 3601 3489
3761 3637 3608
3538 3216 1047
3568 3291 1314
3603 3369 1705
3640 3449 2171
3676 3533 2665
3702 3612 3076
3718 3675 3400
3731 3724 3631
3753 3758 3761
3539 3298 1073
3580 3387 1341
3623 3473 1733
3668 3557 2201
3708 3640 2695
3733 3719 3107
3746 3787 3433
3746 3836 3681
3731 3859 3859
