Assets/1__3DArt/KimSe/artstation_asset/LUTs_subway_asset/3DL/Yellow Line 03.3dl
# LUT by SparkleStock. Enhanced with VOXCOLOR algorithms.
0 256 512 768 1023
80 96 128
86 131 234
87 157 372
72 192 597
48 240 929
561 572 215
325 625 686
119 546 959
149 692 1386
184 854 1864
1729 1542 454
1696 1974 1333
237 1129 1628
368 1405 2180
505 1695 2697
2801 2688 892
2824 2943 1564
2162 2890 2530
904 2248 2754
826 2400 3135
3218 3443 1345
3238 3484 1724
3070 3538 2570
2211 3349 3250
1025 2834 3314
1832 1046 314
876 456 297
609 346 388
437 289 532
310 271 739
1535 984 290
999 1039 844
725 1033 1224
673 1113 1574
662 1232 1988
2378 1860 541
2184 2075 1165
905 1750 1992
955 1932 2433
1051 2145 2862
3107 2809 937
3123 3017 1493
2711 3067 2385
1498 2696 2942
1330 2779 3280
3400 3461 1349
3422 3552 1898
3371 3602 2501
2753 3527 3232
1484 3161 3467
3270 2064 611
2580 1323 492
2235 1100 596
1699 855 681
1246 655 811
2947 1873 530
2524 1855 1069
2199 1750 1412
1784 1573 1607
1474 1469 1859
2712 1830 528
2594 2149 1164
2155 2325 2308
2118 2448 2701
2131 2583 3063
3366 2915 991
3363 3081 1537
3286 3203 2436
2472 3072 3112
2308 3128 3443
3557 3467 1352
3583 3580 2008
3599 3683 2859
3340 3668 3318
2365 3450 3623
3729 2564 854
3550 2214 822
3438 2076 915
3305 1998 1069
2862 1701 1180
3627 2627 865
3497 2622 1371
3398 2555 1671
3292 2514 1884
2905 2274 2042
3540 2695 891
3480 2846 1509
3339 2955 2531
3288 2972 2797
3073 2888 3013
3568 2955 1028
3574 3145 1596
3523 3274 2494
3396 3354 3257
3322 3406 3575
3702 3471 1355
3721 3583 2013
3736 3687 2885
3710 3760 3475
3352 3691 3777
3891 2786 1025
3900 2805 1150
3895 2804 1290
3886 2802 1456
3875 2802 1633
3883 3000 1119
3863 3086 1646
3860 3110 1940
3866 3130 2145
3876 3151 2356
3866 3178 1196
3838 3265 1847
3817 3353 2725
3838 3386 2943
3872 3430 3159
3850 3330 1269
3832 3420 1910
3818 3509 2796
3826 3587 3380
3869 3649 3627
3843 3475 1345
3848 3583 2000
3851 3682 2873
3854 3768 3490
3843 3811 3843
