Assets/1__3DArt/KimSe/artstation_asset/LUTs_subway_asset/3DL/Yellow Line 02.3dl
# LUT by SparkleStock. Enhanced with VOXCOLOR algorithms.
0 256 512 768 1023
304 272 224
315 285 363
319 313 526
325 351 746
352 400 1025
761 774 320
563 802 789
410 709 1044
452 804 1413
506 911 1815
1695 1613 538
1617 1972 1317
523 1210 1623
580 1353 2093
645 1515 2558
2522 2573 777
2525 2818 1405
1876 2783 2367
833 2068 2593
686 2073 2958
2882 3282 977
2925 3356 1401
2697 3463 2337
1723 3218 3084
656 2498 3122
1739 1143 508
1001 636 482
798 509 572
671 440 710
598 408 896
1517 1131 478
1136 1178 944
917 1146 1290
878 1184 1597
881 1251 1940
2184 1855 634
2072 2064 1173
990 1764 1949
988 1854 2337
1027 1974 2724
2787 2660 814
2853 2892 1332
2445 2971 2225
1257 2540 2794
1015 2532 3127
3094 3302 1000
3164 3443 1577
3111 3533 2251
2317 3452 3080
948 2937 3319
2874 1962 739
2325 1392 752
2074 1208 828
1683 961 889
1372 761 998
2604 1826 689
2339 1852 1173
2126 1782 1483
1806 1598 1655
1574 1477 1864
2424 1822 684
2413 2123 1204
2149 2330 2293
2086 2386 2651
2072 2463 2978
3021 2740 855
3088 2945 1379
3108 3131 2316
2237 2980 3015
2006 2981 3353
3264 3312 1020
3353 3481 1712
3437 3652 2669
3075 3645 3204
1858 3347 3542
3308 2352 837
3138 2085 930
3051 1982 1047
2960 1914 1174
2644 1642 1274
3226 2417 826
3162 2463 1339
3111 2432 1660
3050 2403 1859
2758 2179 2009
3161 2504 832
3177 2689 1417
3155 2859 2460
3142 2880 2734
2960 2777 2950
3213 2769 895
3288 2994 1430
3331 3187 2365
3253 3309 3207
3166 3337 3544
3409 3314 1045
3499 3483 1736
3587 3653 2707
3573 3775 3410
3084 3680 3760
3507 2546 913
3519 2560 1048
3513 2570 1189
3507 2568 1344
3523 2562 1521
3529 2752 949
3562 2883 1478
3583 2926 1787
3604 2952 1991
3635 2979 2207
3543 2951 988
3574 3092 1650
3634 3250 2580
3673 3292 2827
3732 3346 3070
3540 3131 1025
3588 3272 1683
3653 3434 2641
3702 3563 3316
3761 3637 3608
3539 3298 1073
3623 3473 1733
3708 3640 2695
3746 3787 3433
3731 3859 3859
