Assets/1__3DArt/KimSe/artstation_asset/LUTs_subway_asset/3DL/Yellow Line 02_S.3dl
# LUT by SparkleStock. Enhanced with VOXCOLOR algorithms.
0 128 256 384 512 640 768 896 1023
304 272 224
311 276 291
315 285 363
317 297 440
319 313 526
320 331 630
325 351 746
336 374 877
352 400 1025
456 479 253
375 465 434
348 463 551
350 472 647
356 493 764
368 524 906
383 560 1063
402 599 1233
424 639 1416
759 774 319
735 887 620
562 802 789
400 687 905
407 711 1048
426 756 1226
450 806 1418
475 860 1621
501 912 1830
1179 1155 415
1252 1405 793
976 1304 1052
622 1079 1224
464 956 1346
487 1012 1556
516 1077 1777
547 1145 2004
575 1209 2230
1683 1616 534
1792 1887 898
1609 1973 1316
1172 1779 1616
522 1212 1624
543 1280 1858
575 1360 2101
609 1442 2345
638 1519 2579
2141 2117 656
2231 2319 953
2122 2442 1384
1796 2408 1819
1236 2141 2134
748 1700 2145
608 1621 2323
640 1721 2576
670 1814 2810
2492 2579 767
2556 2706 1000
2502 2820 1400
2284 2865 1883
1856 2785 2363
1222 2361 2493
826 2076 2596
650 1968 2735
680 2079 2970
2738 2976 872
2781 3038 1050
2764 3120 1396
2638 3187 1863
2353 3204 2401
1791 3013 2759
1205 2637 2868
773 2320 2911
674 2308 3070
2882 3282 977
2920 3308 1116
2925 3356 1401
2862 3412 1813
2697 3463 2337
2279 3404 2799
1723 3218 3084
1144 2914 3193
656 2498 3122
1018 682 361
657 460 366
516 375 403
486 361 460
459 351 525
440 349 607
427 351 701
421 358 808
424 371 930
851 685 313
650 634 513
571 619 651
553 626 760
538 642 873
532 668 1001
533 699 1143
543 733 1299
560 769 1471
1065 935 361
950 985 628
761 946 857
605 897 1047
593 920 1195
595 961 1359
606 1007 1536
624 1058 1724
649 1109 1924
1481 1323 461
1422 1433 724
1143 1392 1037
822 1285 1321
637 1198 1498
642 1245 1689
658 1301 1890
681 1362 2097
708 1423 2310
1921 1742 571
1928 1895 815
1774 1992 1204
1384 1900 1580
684 1488 1789
685 1539 2000
701 1603 2216
726 1674 2434
754 1744 2650
2314 2191 679
2357 2343 906
2283 2464 1276
2014 2478 1712
1474 2308 2135
904 1949 2262
725 1883 2454
746 1964 2673
772 2044 2882
2623 2616 782
2678 2745 999
2656 2855 1330
2490 2911 1760
2115 2883 2275
1435 2552 2533
975 2316 2700
750 2221 2847
771 2310 3048
2850 2992 883
2900 3088 1102
2906 3166 1384
2821 3224 1766
2597 3261 2283
2055 3133 2718
1412 2828 2917
901 2559 3018
757 2539 3158
2995 3294 991
3030 3356 1221
3048 3401 1458
3018 3442 1771
2911 3494 2232
2545 3474 2724
1994 3343 3072
1358 3094 3248
734 2725 3221
1730 1123 501
1245 756 487
997 591 511
883 536 551
800 498 587
729 465 643
671 439 713
627 420 797
598 408 896
1449 1003 405
1189 888 612
1031 825 766
938 799 877
873 794 960
816 794 1050
772 798 1156
744 807 1280
731 819 1424
1444 1114 400
1294 1128 665
1122 1112 943
985 1098 1180
940 1116 1324
907 1144 1463
886 1176 1612
878 1212 1774
883 1248 1951
1680 1412 466
1580 1480 706
1390 1499 1066
1173 1482 1424
991 1443 1658
975 1488 1841
972 1539 2026
981 1594 2216
1001 1649 2412
2117 1856 585
2062 1949 795
1956 2033 1160
1655 2003 1575
1011 1755 1938
994 1798 2144
993 1853 2345
1006 1913 2544
1028 1975 2741
2471 2273 693
2469 2387 897
2431 2492 1237
2245 2534 1666
1795 2456 2137
1197 2187 2371
1000 2140 2584
1009 2205 2782
1030 2272 2969
2749 2664 795
2780 2781 1007
2786 2884 1325
2688 2953 1734
2405 2964 2219
1739 2726 2572
1256 2543 2795
999 2463 2960
1015 2534 3137
2956 3014 895
2999 3117 1130
3028 3203 1435
2992 3270 1806
2844 3312 2238
2366 3236 2700
1711 3001 2965
1158 2782 3119
986 2757 3251
3094 3302 1000
3131 3381 1271
3163 3444 1577
3165 3494 1908
3111 3533 2251
2822 3539 2712
2317 3452 3080
1667 3256 3301
948 2937 3319
2366 1547 627
1918 1111 622
1630 890 649
1453 802 685
1339 761 709
1203 695 736
1083 634 780
982 578 842
904 531 920
2094 1366 505
1834 1186 716
1626 1068 881
1474 1008 999
1381 1008 1067
1260 976 1110
1153 945 1171
1066 915 1254
1004 890 1363
1908 1343 448
1760 1322 724
1616 1299 1030
1503 1295 1296
1443 1328 1452
1359 1338 1553
1287 1346 1662
1231 1353 1785
1196 1360 1929
1924 1513 468
1831 1572 725
1736 1621 1114
1627 1656 1514
1492 1674 1806
1446 1716 1977
1411 1758 2140
1389 1798 2303
1383 1836 2475
2256 1911 577
2182 1994 796
2120 2066 1150
1936 2083 1591
1495 1999 2071
1467 2049 2290
1453 2102 2488
1453 2158 2674
1467 2212 2855
2603 2335 697
2569 2430 902
2552 2518 1232
2454 2577 1660
2178 2583 2156
1626 2411 2481
1437 2391 2717
1437 2446 2904
1452 2502 3076
2866 2712 804
2870 2812 1017
2888 2908 1345
2854 2986 1755
2705 3032 2213
2128 2885 2623
1670 2758 2892
1409 2699 3078
1422 2756 3240
3056 3038 907
3087 3135 1144
3126 3230 1493
3134 3310 1893
3075 3362 2280
2708 3329 2720
2102 3160 3023
1558 2994 3222
1376 2970 3354
3182 3307 1009
3222 3391 1289
3266 3475 1684
3294 3544 2088
3288 3584 2396
3098 3602 2774
2681 3551 3121
2074 3406 3362
1316 3141 3423
2851 1908 721
2519 1474 740
2288 1231 785
2143 1138 839
2072 1151 889
1872 1054 884
1684 953 901
1515 853 940
1372 761 998
2630 1706 589
2428 1487 807
2253 1333 982
2130 1276 1123
2083 1344 1238
1903 1291 1239
1729 1225 1258
1571 1152 1302
1442 1081 1378
2469 1656 518
2340 1574 796
2216 1508 1104
2125 1498 1388
2096 1585 1595
1950 1575 1647
1807 1549 1703
1679 1513 1775
1577 1474 1877
2365 1720 506
2280 1736 767
2199 1752 1156
2137 1790 1574
2111 1874 1924
2016 1905 2063
1924 1923 2183
1844 1931 2301
1786 1934 2434
2319 1861 546
2276 1977 778
2227 2064 1142
2176 2137 1618
2129 2211 2189
2103 2282 2439
2082 2346 2645
2071 2406 2823
2075 2458 2992
2698 2352 689
2661 2451 897
2631 2534 1229
2611 2608 1671
2604 2685 2208
2191 2618 2597
2044 2633 2858
2039 2687 3042
2048 2738 3203
2968 2746 811
2958 2840 1021
2957 2926 1348
2967 3008 1773
2989 3089 2279
2593 3031 2701
2225 2965 2999
1992 2933 3208
2005 2981 3361
3150 3061 919
3171 3153 1155
3198 3243 1504
3232 3330 1937
3270 3415 2425
3064 3416 2793
2582 3311 3103
2112 3201 3336
1943 3185 3472
3264 3312 1020
3305 3398 1303
3350 3486 1703
3395 3572 2175
3436 3652 2668
3359 3669 2917
3075 3645 3204
2576 3550 3442
1858 3347 3542
3114 2141 777
2907 1794 815
2761 1590 872
2668 1502 938
2619 1505 1002
2562 1519 1043
2407 1436 1064
2207 1303 1086
2017 1166 1131
2968 1979 661
2843 1764 874
2733 1620 1049
2653 1567 1194
2620 1623 1318
2580 1700 1382
2439 1666 1405
2250 1569 1423
2070 1453 1474
2859 1941 595
2779 1821 861
2704 1734 1160
2647 1712 1441
2625 1786 1653
2604 1909 1772
2486 1921 1827
2322 1864 1864
2165 1783 1931
2784 2000 576
2731 1960 829
2685 1930 1206
2650 1936 1615
2633 2003 1962
2632 2150 2161
2548 2200 2274
2424 2190 2351
2304 2151 2442
2742 2126 602
2716 2175 832
2689 2208 1189
2663 2240 1651
2641 2285 2199
2662 2428 2498
2623 2508 2690
2556 2544 2824
2491 2556 2948
2842 2366 692
2828 2470 900
2815 2553 1229
2803 2622 1665
2796 2688 2190
2700 2745 2657
2659 2810 2949
2649 2871 3135
2643 2917 3287
3034 2713 808
3036 2824 1016
3039 2919 1338
3046 3002 1758
3057 3078 2257
2969 3118 2754
2790 3122 3097
2646 3129 3327
2663 3181 3484
3230 3065 929
3249 3161 1160
3273 3252 1502
3300 3337 1928
3327 3417 2413
3296 3469 2861
3025 3431 3203
2724 3376 3445
2603 3376 3591
3340 3316 1032
3380 3404 1312
3425 3495 1707
3470 3583 2175
3509 3665 2672
3509 3721 3052
3377 3728 3334
3062 3670 3533
2514 3531 3662
3295 2315 826
3188 2084 875
3111 1942 938
3060 1878 1008
3033 1875 1079
3028 1915 1143
2957 1892 1191
2827 1801 1231
2644 1642 1274
3217 2222 740
3161 2042 943
3106 1930 1107
3064 1893 1245
3045 1940 1369
3050 2045 1459
2989 2078 1514
2868 2032 1551
2691 1899 1591
3159 2217 690
3130 2086 939
3100 1996 1220
3076 1970 1486
3064 2032 1689
3077 2183 1833
3028 2267 1919
2921 2269 1972
2759 2173 2019
3117 2282 675
3104 2207 912
3096 2145 1271
3090 2124 1660
3083 2174 1989
3102 2343 2207
3068 2465 2347
2984 2513 2434
2850 2462 2497
3090 2397 694
3093 2392 912
3096 2380 1255
3099 2374 1696
3100 2387 2215
3121 2539 2526
3106 2679 2738
3053 2767 2876
2961 2767 2965
3091 2541 750
3104 2608 954
3115 2657 1277
3124 2698 1699
3130 2739 2203
3138 2821 2676
3142 2937 2992
3133 3039 3194
3104 3081 3322
3178 2772 835
3196 2873 1038
3214 2958 1353
3230 3030 1763
3244 3093 2248
3255 3155 2755
3202 3216 3135
3150 3275 3397
3164 3332 3551
3302 3044 937
3327 3151 1160
3355 3250 1493
3382 3338 1910
3407 3417 2387
3427 3483 2859
3331 3502 3244
3210 3507 3525
3153 3529 3686
3411 3314 1045
3454 3407 1318
3501 3501 1703
3546 3593 2162
3583 3678 2654
3606 3745 3080
3570 3780 3396
3416 3764 3617
3084 3680 3760
3417 2445 870
3384 2338 928
3357 2272 993
3338 2240 1063
3326 2238 1136
3325 2260 1209
3327 2282 1283
3291 2253 1352
3174 2128 1410
3395 2441 828
3395 2326 1020
3385 2261 1168
3372 2246 1290
3364 2281 1405
3365 2359 1501
3371 2435 1588
3338 2454 1659
3221 2359 1711
3381 2483 805
3399 2377 1036
3410 2302 1293
3415 2278 1535
3411 2322 1718
3413 2440 1862
3419 2569 1979
3388 2640 2066
3278 2588 2119
3370 2561 801
3399 2482 1021
3430 2408 1357
3454 2369 1719
3459 2396 2018
3460 2532 2229
3466 2698 2395
3438 2818 2511
3339 2816 2573
3361 2669 817
3400 2631 1021
3441 2589 1345
3476 2554 1762
3499 2540 2247
3500 2659 2542
3505 2837 2774
3482 2992 2935
3403 3041 3017
3357 2792 853
3401 2811 1050
3446 2820 1363
3486 2826 1768
3514 2837 2243
3519 2893 2684
3523 3031 3008
3510 3177 3225
3465 3260 3344
3362 2913 899
3405 2986 1098
3449 3046 1408
3489 3097 1807
3518 3141 2272
3528 3187 2752
3532 3273 3144
3531 3376 3428
3525 3469 3587
3397 3071 965
3439 3177 1183
3482 3273 1509
3523 3359 1917
3555 3432 2381
3569 3490 2842
3574 3541 3251
3568 3592 3567
3550 3651 3747
3482 3308 1059
3527 3406 1322
3577 3506 1694
3626 3602 2139
3666 3689 2619
3684 3756 3048
3691 3808 3401
3646 3826 3665
3509 3791 3828
3507 2546 913
3516 2554 980
3519 2560 1048
3517 2566 1117
3513 2570 1189
3508 2571 1265
3507 2568 1344
3511 2565 1428
3523 2562 1521
3521 2643 926
3562 2623 1110
3580 2613 1240
3584 2616 1342
3583 2637 1443
3578 2673 1538
3573 2710 1630
3573 2745 1721
3579 2775 1816
3536 2738 938
3594 2699 1155
3639 2660 1388
3665 2640 1600
3667 2657 1754
3658 2723 1888
3648 2806 2007
3639 2893 2113
3635 2974 2210
3547 2834 951
3617 2788 1158
3687 2729 1471
3739 2685 1802
3755 2682 2061
3742 2762 2252
3723 2880 2413
3704 3018 2544
3688 3159 2648
3552 2935 969
3634 2896 1161
3715 2847 1466
3786 2799 1856
3833 2764 2303
3819 2828 2568
3793 2959 2787
3762 3134 2957
3733 3331 3078
3551 3035 990
3636 3027 1177
3723 3012 1479
3799 2995 1865
3854 2983 2309
3858 3008 2711
3835 3109 3017
3796 3272 3240
3757 3484 3392
3550 3130 1012
3630 3162 1208
3715 3188 1516
3792 3210 1905
3849 3231 2348
3863 3256 2790
3847 3319 3154
3811 3437 3432
3763 3624 3616
3551 3218 1038
3619 3290 1256
3693 3359 1581
3764 3423 1983
3819 3479 2433
3835 3524 2866
3828 3563 3251
3800 3628 3560
3754 3750 3766
3555 3298 1073
3601 3404 1323
3657 3510 1679
3714 3610 2108
3761 3699 2575
3778 3765 3002
3775 3815 3362
3758 3847 3650
3731 3859 3859
