Assets/1__3DArt/KimSe/artstation_asset/LUTs_subway_asset/3DL/Yellow Line 04_S.3dl
# LUT by SparkleStock. Enhanced with VOXCOLOR algorithms.
0 128 256 384 512 640 768 896 1023
48 112 176
58 161 301
66 209 426
72 255 556
76 301 694
79 348 853
82 396 1026
87 446 1212
96 496 1409
219 354 234
120 389 477
87 422 644
87 461 784
90 510 945
94 568 1131
100 628 1328
108 688 1535
119 749 1750
586 688 325
535 834 684
317 785 899
114 703 1055
112 752 1231
118 820 1441
125 892 1661
136 963 1885
149 1031 2111
1106 1107 448
1155 1374 874
794 1301 1170
347 1108 1375
141 1013 1524
146 1091 1755
154 1176 1992
167 1260 2230
181 1336 2461
1738 1606 597
1829 1883 998
1555 1976 1436
982 1803 1754
174 1281 1795
175 1370 2040
183 1469 2292
196 1567 2538
211 1655 2769
2307 2128 746
2383 2334 1071
2203 2457 1511
1756 2429 1949
1031 2181 2265
405 1782 2305
204 1731 2494
216 1848 2746
232 1954 2975
2735 2596 874
2784 2728 1127
2678 2840 1532
2368 2884 2008
1805 2807 2473
996 2416 2616
475 2167 2738
229 2089 2888
246 2214 3116
3030 2988 982
3052 3060 1176
2998 3142 1527
2813 3205 1985
2440 3217 2501
1722 3036 2848
968 2695 2975
403 2417 3041
253 2428 3204
3202 3282 1073
3207 3326 1232
3183 3379 1525
3086 3431 1931
2878 3471 2434
2360 3409 2874
1655 3234 3157
905 2959 3282
256 2594 3250
948 606 336
489 372 375
306 303 455
265 319 559
227 338 673
201 362 808
182 390 956
169 422 1116
164 459 1287
722 599 298
451 556 536
340 566 717
309 607 871
281 653 1028
261 705 1199
248 760 1381
243 817 1574
246 873 1779
981 873 369
807 929 671
548 913 937
336 897 1164
308 949 1349
291 1015 1546
282 1084 1751
282 1154 1963
290 1220 2182
1497 1299 499
1385 1404 792
1003 1378 1132
574 1297 1441
324 1240 1645
308 1311 1860
301 1387 2080
303 1464 2301
314 1538 2521
2045 1751 640
2016 1896 912
1779 1992 1317
1251 1914 1705
346 1538 1927
327 1611 2154
321 1694 2382
325 1780 2606
337 1860 2822
2524 2214 778
2540 2359 1028
2408 2477 1408
2036 2493 1843
1331 2335 2256
586 2014 2400
337 1971 2602
341 2067 2824
353 2157 3031
2887 2639 899
2919 2764 1137
2858 2870 1474
2621 2924 1897
2129 2895 2390
1258 2591 2647
658 2386 2824
352 2315 2982
363 2416 3182
3142 3005 1006
3170 3102 1244
3148 3179 1533
3019 3234 1906
2725 3266 2398
2046 3144 2811
1224 2868 3017
562 2632 3134
367 2631 3283
3295 3293 1103
3308 3361 1355
3302 3410 1601
3244 3451 1909
3101 3496 2347
2656 3471 2809
1978 3348 3146
1178 3124 3332
367 2800 3341
1838 1111 475
1221 719 493
906 554 553
759 513 634
645 495 713
550 484 819
470 479 940
407 481 1074
360 492 1220
1469 971 389
1109 843 624
898 786 810
775 778 960
682 801 1086
598 825 1219
529 853 1367
476 884 1529
443 918 1707
1455 1084 401
1226 1087 691
981 1077 992
788 1081 1258
717 1130 1442
654 1185 1617
605 1241 1797
572 1297 1986
556 1351 2186
1745 1402 495
1580 1456 757
1301 1475 1131
993 1472 1504
737 1463 1764
693 1534 1976
662 1608 2185
646 1681 2391
645 1749 2600
2288 1877 656
2180 1955 883
2004 2029 1256
1582 2002 1673
732 1779 2036
689 1847 2264
663 1922 2482
652 1999 2691
657 2071 2893
2712 2304 797
2671 2406 1017
2583 2502 1363
2312 2539 1787
1718 2467 2242
936 2229 2482
664 2204 2704
657 2283 2909
664 2360 3100
3029 2692 919
3030 2799 1149
3000 2895 1470
2845 2958 1870
2472 2966 2332
1623 2748 2672
997 2589 2899
657 2530 3072
665 2612 3253
3249 3026 1026
3269 3126 1281
3269 3209 1588
3197 3271 1948
2998 3309 2357
2410 3236 2791
1584 3022 3052
881 2829 3216
660 2822 3358
3383 3295 1126
3399 3377 1417
3407 3443 1726
3383 3493 2046
3301 3528 2369
2956 3527 2799
2352 3445 3150
1559 3268 3374
647 2985 3424
2620 1578 590
2055 1130 619
1696 902 679
1474 814 751
1323 785 814
1140 732 885
977 684 976
838 644 1084
724 615 1207
2260 1382 485
1894 1184 719
1622 1057 907
1433 1001 1054
1312 1021 1163
1149 1010 1250
1001 998 1353
876 989 1475
780 985 1618
2020 1346 442
1783 1307 738
1573 1274 1055
1413 1274 1339
1329 1331 1532
1204 1367 1673
1093 1399 1817
1002 1428 1970
937 1454 2140
2037 1517 484
1872 1560 759
1708 1595 1151
1534 1629 1555
1340 1671 1869
1256 1742 2073
1185 1809 2264
1131 1869 2449
1100 1922 2638
2451 1938 637
2312 2004 867
2188 2059 1222
1912 2067 1655
1315 1994 2123
1254 2071 2370
1208 2148 2590
1181 2222 2790
1174 2288 2982
2863 2372 799
2780 2452 1014
2714 2525 1344
2548 2573 1760
2168 2575 2236
1448 2428 2558
1188 2428 2805
1169 2499 3003
1170 2566 3182
3157 2743 932
3125 2831 1156
3103 2916 1483
3021 2985 1879
2808 3023 2314
2078 2888 2702
1493 2780 2970
1153 2740 3165
1160 2807 3332
3352 3050 1045
3356 3141 1299
3363 3231 1644
3337 3304 2027
3240 3350 2390
2794 3317 2800
2043 3162 3092
1367 3016 3296
1141 3007 3438
3468 3293 1144
3484 3381 1445
3499 3466 1833
3499 3534 2216
3470 3571 2501
3245 3582 2851
2761 3532 3178
2041 3399 3419
1111 3163 3506
3195 1959 677
2787 1529 720
2503 1289 794
2330 1200 884
2254 1222 972
1986 1125 1004
1732 1026 1062
1500 934 1143
1299 853 1241
2898 1744 567
2606 1512 799
2376 1355 994
2230 1301 1159
2189 1380 1306
1954 1338 1347
1723 1286 1407
1509 1228 1489
1327 1172 1597
2687 1686 514
2468 1584 802
2279 1506 1116
2155 1493 1410
2132 1589 1640
1940 1600 1732
1747 1596 1825
1569 1581 1931
1423 1561 2060
2560 1748 517
2394 1743 790
2241 1740 1175
2130 1767 1588
2092 1853 1944
1955 1913 2120
1819 1957 2273
1698 1989 2420
1606 2010 2574
2517 1891 575
2403 1988 823
2289 2056 1185
2179 2113 1646
2079 2176 2192
2014 2278 2473
1955 2369 2704
1912 2447 2903
1892 2511 3086
2966 2391 779
2871 2473 995
2785 2539 1321
2712 2598 1744
2657 2660 2253
2118 2610 2635
1912 2644 2907
1883 2716 3109
1876 2777 3281
3267 2779 937
3212 2859 1156
3166 2932 1475
3131 3000 1879
3112 3069 2353
2611 3015 2750
2147 2963 3046
1851 2947 3264
1855 3006 3427
3451 3073 1061
3439 3158 1311
3430 3240 1652
3427 3319 2060
3431 3394 2510
3178 3392 2852
2594 3296 3149
2026 3199 3382
1822 3195 3530
3549 3294 1162
3565 3383 1464
3578 3470 1855
3589 3553 2294
3601 3629 2742
3506 3641 2972
3188 3616 3242
2620 3526 3476
1773 3342 3598
3486 2195 736
3238 1859 789
3063 1664 869
2952 1585 965
2900 1596 1063
2834 1619 1140
2629 1539 1197
2361 1407 1255
2100 1275 1335
3277 2021 645
3081 1796 869
2934 1653 1057
2844 1607 1221
2817 1675 1374
2781 1765 1470
2601 1742 1526
2353 1653 1578
2110 1548 1658
3126 1977 602
2966 1838 874
2837 1740 1172
2757 1717 1456
2742 1800 1687
2731 1939 1833
2584 1968 1919
2370 1929 1988
2158 1863 2080
3032 2035 604
2900 1973 860
2786 1924 1225
2708 1918 1621
2683 1987 1969
2692 2150 2189
2585 2222 2331
2420 2234 2437
2257 2216 2551
2992 2163 649
2890 2191 883
2796 2204 1228
2713 2219 1667
2647 2251 2184
2673 2408 2499
2614 2510 2715
2515 2571 2875
2419 2603 3018
3125 2410 768
3044 2496 983
2969 2559 1302
2901 2611 1714
2847 2661 2206
2707 2718 2657
2635 2800 2959
2602 2882 3166
2576 2941 3333
3338 2750 922
3286 2846 1138
3237 2926 1449
3194 2994 1843
3162 3054 2305
3025 3088 2771
2792 3101 3108
2606 3124 3347
2613 3187 3517
3536 3080 1073
3517 3168 1314
3499 3249 1644
3483 3324 2041
3473 3392 2481
3411 3436 2894
3079 3401 3219
2722 3355 3459
2580 3367 3619
3623 3300 1182
3639 3389 1479
3650 3476 1861
3657 3559 2292
3663 3634 2737
3645 3684 3081
3494 3688 3345
3143 3634 3542
2527 3508 3687
3673 2369 789
3550 2148 852
3459 2017 936
3401 1962 1032
3372 1968 1133
3373 2018 1229
3282 2000 1306
3109 1915 1375
2865 1761 1446
3550 2267 738
3439 2077 948
3360 1967 1123
3315 1938 1277
3303 1995 1424
3326 2111 1541
3255 2154 1621
3099 2116 1684
2868 1992 1748
3459 2257 716
3360 2108 967
3287 2007 1243
3244 1979 1507
3240 2049 1724
3276 2211 1888
3225 2307 1995
3093 2322 2071
2885 2242 2139
3401 2321 726
3315 2224 960
3244 2142 1300
3198 2109 1670
3186 2159 1995
3229 2337 2226
3198 2473 2383
3096 2539 2490
2926 2509 2574
3372 2438 766
3301 2411 979
3238 2378 1300
3186 2353 1710
3147 2352 2194
3188 2510 2512
3177 2663 2737
3114 2771 2894
2997 2794 3004
3389 2584 841
3332 2633 1042
3279 2663 1345
3231 2684 1736
3192 2707 2202
3186 2786 2655
3186 2909 2974
3172 3027 3191
3127 3089 3337
3490 2810 952
3449 2896 1157
3408 2965 1455
3371 3020 1833
3339 3067 2276
3324 3118 2749
3250 3181 3117
3182 3251 3384
3188 3324 3554
3614 3066 1079
3594 3163 1310
3573 3251 1627
3554 3327 2010
3537 3392 2439
3530 3446 2871
3404 3462 3232
3257 3472 3508
3192 3506 3682
3697 3304 1204
3711 3395 1490
3721 3485 1860
3727 3570 2278
3728 3645 2713
3731 3704 3094
3682 3734 3385
3513 3719 3599
3154 3644 3753
3788 2492 841
3751 2395 918
3721 2337 1005
3699 2313 1099
3687 2318 1198
3689 2348 1297
3692 2379 1395
3643 2361 1486
3488 2245 1561
3739 2488 843
3698 2364 1044
3672 2299 1203
3658 2289 1339
3655 2332 1473
3667 2416 1590
3681 2500 1695
3642 2527 1783
3493 2441 1849
3702 2528 854
3663 2404 1086
3637 2319 1337
3624 2290 1574
3625 2339 1766
3643 2463 1924
3664 2598 2053
3635 2678 2152
3497 2637 2217
3676 2605 879
3643 2505 1093
3618 2411 1405
3602 2358 1742
3600 2382 2033
3618 2522 2252
3643 2693 2424
3623 2823 2548
3506 2836 2623
3662 2713 918
3635 2655 1111
3613 2591 1406
3595 2536 1785
3581 2505 2230
3595 2625 2527
3620 2807 2761
3610 2970 2928
3521 3039 3024
3664 2833 973
3643 2836 1156
3624 2825 1439
3607 2811 1805
3592 2803 2236
3587 2855 2655
3602 2992 2974
3603 3145 3198
3555 3245 3330
3676 2949 1034
3659 3009 1224
3643 3054 1507
3627 3087 1866
3611 3113 2286
3598 3148 2730
3599 3230 3105
3603 3337 3389
3600 3443 3560
3708 3095 1114
3700 3192 1333
3692 3277 1636
3682 3349 2004
3671 3407 2419
3658 3451 2836
3650 3495 3218
3641 3547 3525
3626 3616 3714
3769 3304 1226
3783 3400 1499
3794 3494 1852
3802 3582 2254
3803 3659 2677
3798 3714 3056
3793 3757 3377
3744 3774 3626
3603 3747 3791
3859 2578 897
3872 2596 995
3874 2610 1090
3871 2621 1183
3866 2629 1277
3863 2635 1374
3861 2641 1472
3860 2648 1569
3859 2658 1665
3866 2690 960
3880 2663 1161
3886 2652 1306
3886 2656 1422
3883 2679 1538
3880 2717 1648
3878 2758 1752
3876 2797 1850
3876 2830 1945
3869 2792 1013
3887 2737 1235
3899 2686 1462
3905 2658 1667
3903 2674 1826
3898 2740 1969
3893 2823 2093
3889 2910 2202
3886 2991 2294
3868 2889 1059
3891 2824 1261
3911 2745 1547
3923 2683 1849
3924 2673 2096
3916 2751 2289
3906 2867 2451
3897 3004 2580
3889 3143 2676
3863 2985 1101
3891 2930 1280
3916 2858 1551
3936 2788 1898
3945 2735 2299
3933 2794 2561
3918 2923 2778
3901 3096 2945
3887 3290 3055
3857 3076 1140
3886 3055 1308
3914 3021 1571
3936 2983 1911
3949 2951 2306
3941 2970 2683
3923 3066 2981
3901 3225 3201
3880 3433 3346
3851 3159 1175
3878 3182 1352
3905 3194 1621
3929 3199 1962
3942 3200 2353
3936 3216 2759
3919 3276 3106
3895 3390 3379
3868 3571 3560
3846 3233 1211
3868 3301 1416
3891 3360 1708
3911 3410 2062
3923 3452 2457
3918 3484 2848
3902 3519 3206
3879 3582 3502
3851 3699 3707
3843 3298 1249
3855 3402 1505
3870 3502 1838
3884 3593 2223
3891 3673 2633
3885 3726 3010
3870 3765 3335
3849 3792 3599
3827 3811 3795
