Assets/1__3DArt/KimSe/artstation_asset/LUTs_subway_asset/3DL/Yellow Line 03_S.3dl
# LUT by SparkleStock. Enhanced with VOXCOLOR algorithms.
0 256 512 768 1023
80 96 128
86 131 234
87 157 372
72 192 597
48 240 929
558 572 215
325 626 686
118 550 962
147 694 1391
181 854 1877
1716 1543 450
1686 1974 1331
236 1131 1630
363 1411 2188
498 1697 2717
2767 2693 882
2797 2944 1557
2138 2890 2524
893 2255 2757
819 2404 3145
3218 3443 1345
3238 3484 1724
3070 3538 2570
2211 3349 3250
1025 2834 3314
1818 1023 308
865 423 336
610 337 406
437 288 535
310 271 739
1415 966 246
981 978 852
761 1008 1255
683 1105 1587
664 1230 1999
2280 1852 506
2033 2025 1149
937 1740 1970
963 1929 2437
1052 2142 2878
3058 2806 919
3038 2998 1480
2661 3054 2372
1493 2697 2939
1327 2779 3288
3400 3461 1349
3421 3552 1898
3370 3602 2500
2753 3527 3232
1484 3161 3467
3235 2000 593
2494 1173 560
2225 1064 669
1698 849 694
1246 655 811
2698 1666 404
2275 1466 1013
2133 1551 1529
1780 1522 1654
1475 1463 1870
2517 1863 448
2284 2047 1108
2118 2177 2170
2108 2398 2683
2130 2577 3076
3284 2907 955
3174 3033 1487
3131 3138 2379
2449 3048 3086
2306 3125 3451
3557 3467 1352
3578 3586 1996
3598 3683 2857
3340 3668 3317
2365 3450 3623
3707 2519 838
3484 2066 850
3387 1973 969
3295 1979 1091
2862 1701 1180
3477 2377 738
3294 2071 1223
3244 2096 1683
3236 2363 1938
2905 2265 2052
3382 2546 768
3240 2436 1289
3158 2390 2212
3204 2734 2775
3073 2876 3027
3497 2943 981
3408 3057 1473
3343 3126 2309
3306 3236 3160
3319 3400 3582
3702 3471 1358
3715 3600 1968
3721 3714 2816
3704 3766 3458
3352 3691 3777
3891 2786 1025
3900 2805 1150
3895 2804 1290
3886 2802 1456
3875 2802 1633
3883 2983 1109
3904 2830 1517
3905 2805 1867
3890 2966 2141
3877 3147 2359
3866 3155 1181
3912 2971 1590
3935 2800 2361
3909 3014 2857
3874 3416 3169
3850 3322 1260
3900 3295 1670
3933 3256 2404
3916 3314 3165
3871 3638 3639
3843 3475 1361
3861 3613 1921
3881 3738 2717
3873 3801 3405
3843 3811 3843
