Assets/1__3DArt/KimSe/artstation_asset/LUTs_subway_asset/3DL/Yellow Line 03.3dl
# LUT by SparkleStock. Enhanced with VOXCOLOR algorithms.
0 128 256 384 512 640 768 896 1023
80 96 128
83 116 179
86 131 234
88 144 297
87 157 372
82 173 473
72 192 597
61 215 748
48 240 929
218 272 157
123 266 317
90 273 423
89 291 517
89 318 637
90 357 793
89 403 971
88 452 1171
88 504 1393
561 572 215
549 714 523
325 625 686
109 503 800
119 546 959
133 615 1163
149 692 1386
166 773 1621
184 854 1864
1075 995 311
1193 1302 729
844 1191 997
383 939 1170
169 824 1301
205 924 1545
244 1035 1802
285 1150 2060
326 1261 2311
1729 1542 454
1889 1870 870
1696 1974 1333
1146 1758 1650
237 1129 1628
300 1260 1901
368 1405 2180
437 1554 2451
505 1695 2697
2345 2148 663
2465 2387 1001
2360 2521 1468
1993 2479 1927
1327 2192 2238
651 1761 2246
491 1739 2444
588 1916 2719
680 2082 2955
2801 2688 892
2873 2831 1146
2824 2943 1564
2603 2979 2056
2162 2890 2530
1388 2478 2643
904 2248 2754
715 2217 2904
826 2400 3135
3093 3131 1125
3126 3191 1302
3109 3259 1642
2997 3307 2093
2743 3310 2605
2187 3143 2941
1510 2823 3045
999 2581 3090
941 2651 3250
3218 3443 1345
3237 3458 1467
3238 3484 1724
3192 3514 2097
3070 3538 2570
2722 3487 2988
2211 3349 3250
1619 3130 3359
1025 2834 3314
927 523 199
465 293 213
286 210 248
249 201 299
215 194 359
188 193 440
162 198 539
139 209 658
119 226 800
718 479 189
415 447 394
301 447 525
284 464 625
270 487 742
260 521 887
253 561 1053
249 609 1242
248 663 1451
987 751 248
811 832 528
542 795 762
332 745 955
329 788 1112
336 850 1303
347 921 1512
363 999 1736
383 1082 1974
1514 1206 357
1443 1347 645
1062 1299 983
630 1179 1286
402 1105 1472
424 1190 1692
455 1287 1926
492 1391 2165
534 1496 2403
2078 1711 496
2100 1895 776
1915 2004 1209
1417 1901 1616
498 1448 1821
537 1552 2060
588 1671 2306
647 1798 2549
710 1922 2777
2582 2251 692
2631 2421 951
2547 2550 1356
2240 2559 1817
1620 2372 2247
911 2033 2374
724 2014 2582
800 2155 2818
880 2293 3030
2957 2742 909
3003 2874 1150
2975 2980 1497
2806 3028 1934
2429 2987 2444
1664 2671 2686
1155 2485 2856
931 2453 3011
1020 2597 3209
3202 3154 1134
3231 3237 1360
3228 3301 1638
3151 3344 2005
2956 3363 2495
2454 3248 2899
1774 2993 3087
1228 2791 3186
1129 2835 3326
3313 3456 1349
3326 3494 1571
3332 3520 1788
3307 3543 2069
3228 3570 2482
2943 3546 2920
2474 3446 3233
1878 3268 3399
1207 3008 3394
1832 1046 314
1206 646 279
876 456 297
718 386 341
609 346 388
517 313 453
437 289 532
368 275 626
310 271 739
1529 902 273
1122 817 483
877 745 607
740 695 694
655 676 788
585 671 906
527 676 1043
481 693 1201
446 722 1379
1535 984 290
1293 1049 566
999 1039 844
771 1014 1079
725 1033 1224
694 1068 1391
673 1113 1574
663 1168 1774
662 1232 1988
1826 1300 375
1704 1413 628
1387 1446 1024
1036 1432 1413
812 1397 1644
816 1468 1847
831 1548 2059
855 1637 2279
887 1731 2503
2378 1860 541
2341 1981 769
2184 2075 1165
1757 2034 1612
905 1750 1992
922 1835 2211
955 1932 2433
999 2038 2652
1051 2145 2862
2800 2362 732
2811 2489 956
2748 2596 1319
2506 2629 1768
1975 2532 2252
1281 2280 2486
1083 2271 2708
1139 2382 2915
1205 2494 3106
3107 2809 937
3135 2922 1167
3123 3017 1493
3005 3072 1904
2711 3067 2385
1998 2838 2722
1498 2696 2942
1259 2668 3108
1330 2779 3280
3306 3182 1146
3330 3267 1390
3338 3335 1687
3294 3383 2040
3161 3407 2448
2736 3335 2876
2090 3139 3122
1545 2976 3268
1423 3001 3397
3400 3461 1349
3413 3513 1614
3422 3552 1898
3413 3581 2196
3371 3602 2501
3157 3596 2907
2753 3527 3232
2186 3386 3433
1484 3161 3467
2660 1585 456
2085 1108 380
1695 837 378
1442 704 417
1280 638 465
1098 563 516
936 498 578
793 444 654
669 403 743
2406 1431 401
2003 1297 593
1676 1147 697
1435 1022 762
1291 964 840
1129 900 925
988 850 1027
868 816 1148
771 798 1286
2192 1336 373
1955 1394 649
1669 1384 943
1432 1350 1188
1338 1336 1317
1233 1319 1450
1146 1314 1598
1076 1324 1761
1024 1348 1939
2197 1450 413
2090 1582 673
1860 1673 1103
1600 1717 1532
1401 1709 1790
1359 1747 1969
1331 1793 2155
1316 1849 2348
1314 1915 2547
2600 1922 561
2558 2048 788
2434 2139 1164
2108 2152 1635
1458 2042 2151
1454 2112 2360
1466 2191 2564
1491 2276 2763
1526 2364 2956
2984 2444 765
2980 2555 982
2933 2645 1324
2762 2692 1764
2386 2677 2276
1760 2510 2594
1571 2513 2829
1607 2601 3016
1656 2690 3189
3246 2872 966
3261 2969 1190
3256 3051 1519
3185 3111 1924
2999 3137 2375
2389 2988 2767
1936 2889 3025
1703 2869 3203
1758 2954 3356
3405 3211 1162
3424 3290 1405
3437 3360 1743
3420 3416 2120
3351 3448 2481
3028 3410 2885
2460 3269 3163
1957 3144 3347
1829 3158 3470
3481 3464 1350
3495 3520 1625
3506 3573 1992
3508 3615 2357
3495 3639 2626
3359 3643 2955
3043 3599 3257
2546 3492 3472
1867 3305 3541
3270 2064 611
2882 1611 515
2580 1323 492
2365 1164 525
2235 1100 596
1958 975 634
1699 855 681
1461 747 740
1246 655 811
3101 1954 562
2817 1812 735
2555 1633 817
2348 1484 872
2226 1431 963
1960 1303 1020
1717 1188 1092
1499 1090 1179
1310 1013 1283
2947 1873 530
2757 1897 792
2524 1855 1069
2315 1792 1297
2199 1750 1412
1980 1654 1504
1784 1573 1607
1614 1510 1725
1474 1469 1859
2815 1829 517
2714 1940 775
2524 2018 1200
2319 2057 1624
2170 2050 1881
2032 2018 2021
1914 1997 2164
1817 1991 2314
1745 2000 2473
2712 1830 528
2696 2015 775
2594 2149 1164
2412 2247 1680
2155 2325 2308
2130 2385 2511
2118 2448 2701
2118 2514 2884
2131 2583 3063
3118 2457 776
3116 2583 997
3068 2678 1340
2978 2751 1791
2847 2815 2339
2349 2730 2707
2188 2747 2951
2204 2816 3124
2233 2886 3284
3366 2915 991
3375 3006 1211
3363 3081 1537
3334 3145 1952
3286 3203 2436
2836 3127 2835
2472 3072 3112
2270 3063 3302
2308 3128 3443
3498 3239 1180
3513 3311 1421
3521 3376 1760
3524 3436 2165
3520 3493 2607
3324 3480 2942
2884 3389 3222
2470 3305 3431
2354 3314 3553
3557 3467 1352
3571 3524 1630
3583 3580 2008
3593 3633 2434
3599 3683 2859
3544 3691 3072
3340 3668 3318
2957 3595 3525
2365 3450 3623
3556 2364 745
3341 2027 670
3167 1801 652
3037 1667 679
2948 1604 742
2850 1558 816
2629 1436 868
2348 1279 914
2071 1130 972
3456 2327 720
3293 2221 890
3141 2078 968
3017 1953 1016
2936 1899 1098
2846 1861 1190
2631 1741 1258
2359 1589 1321
2102 1451 1400
3363 2304 706
3248 2316 958
3110 2279 1220
2985 2222 1433
2908 2176 1537
2835 2154 1649
2646 2057 1738
2408 1932 1822
2190 1825 1920
3280 2296 702
3212 2368 951
3096 2423 1357
2970 2448 1760
2876 2434 1997
2826 2434 2134
2683 2377 2248
2502 2299 2356
2342 2238 2473
3209 2303 709
3190 2434 950
3120 2530 1332
3005 2605 1829
2849 2669 2421
2829 2698 2583
2750 2694 2728
2649 2679 2863
2567 2675 2997
3285 2502 797
3293 2643 1026
3262 2750 1374
3194 2833 1826
3093 2902 2368
2899 2919 2785
2814 2952 3034
2791 2993 3192
2782 3035 3335
3437 2868 979
3451 2980 1205
3443 3069 1537
3416 3142 1955
3370 3205 2442
3206 3227 2900
3002 3224 3201
2860 3230 3394
2882 3284 3530
3580 3243 1187
3591 3317 1428
3597 3382 1767
3596 3440 2175
3591 3494 2619
3532 3528 3008
3267 3489 3304
2994 3443 3513
2909 3456 3636
3629 3470 1355
3642 3526 1633
3653 3582 2012
3663 3636 2443
3670 3688 2878
3660 3725 3185
3562 3726 3420
3327 3683 3590
2905 3583 3708
3729 2564 854
3632 2358 820
3550 2214 822
3485 2123 855
3438 2076 915
3413 2063 999
3305 1998 1069
3119 1879 1129
2862 1701 1180
3676 2594 858
3596 2538 1037
3524 2448 1122
3465 2364 1174
3424 2325 1252
3405 2321 1352
3300 2263 1435
3119 2149 1507
2871 1979 1569
3627 2627 865
3566 2642 1116
3497 2622 1371
3436 2587 1575
3398 2555 1671
3385 2559 1786
3292 2514 1884
3130 2419 1969
2905 2274 2042
3581 2661 876
3541 2710 1125
3478 2751 1517
3414 2773 1898
3367 2764 2117
3359 2776 2244
3287 2751 2357
3156 2686 2457
2971 2579 2543
3540 2695 891
3522 2781 1133
3480 2846 1509
3418 2902 1985
3339 2955 2531
3333 2972 2669
3288 2972 2797
3203 2946 2912
3073 2888 3013
3514 2752 923
3517 2864 1157
3497 2951 1509
3456 3021 1956
3397 3082 2474
3340 3128 2875
3313 3165 3105
3286 3186 3239
3230 3183 3356
3568 2955 1028
3580 3061 1259
3574 3145 1596
3554 3214 2015
3523 3274 2494
3476 3327 2954
3396 3354 3257
3329 3375 3450
3322 3406 3575
3649 3223 1181
3661 3304 1424
3665 3374 1765
3663 3435 2174
3656 3490 2621
3643 3539 3029
3530 3550 3350
3406 3551 3576
3358 3571 3703
3702 3471 1355
3712 3528 1633
3721 3583 2013
3728 3635 2446
3736 3687 2885
3740 3735 3227
3710 3760 3475
3596 3750 3651
3352 3691 3777
3827 2695 945
3802 2613 960
3778 2552 991
3757 2510 1039
3740 2487 1102
3732 2480 1184
3725 2476 1270
3666 2427 1349
3502 2286 1409
3806 2778 975
3777 2774 1171
3755 2742 1273
3738 2706 1336
3726 2689 1414
3721 2690 1509
3719 2694 1609
3664 2653 1699
3501 2518 1766
3785 2855 1004
3758 2884 1261
3732 2891 1515
3712 2883 1715
3703 2870 1809
3703 2878 1916
3706 2890 2026
3658 2859 2125
3505 2740 2197
3764 2926 1032
3743 2967 1288
3715 3005 1669
3690 3030 2032
3677 3034 2233
3681 3047 2349
3689 3065 2468
3652 3048 2573
3518 2955 2652
3744 2991 1059
3729 3046 1309
3707 3093 1684
3681 3137 2140
3653 3183 2633
3658 3199 2757
3671 3222 2879
3648 3220 2990
3544 3161 3077
3729 3054 1089
3722 3123 1334
3708 3181 1694
3689 3232 2135
3667 3282 2618
3652 3322 2968
3660 3356 3166
3651 3369 3280
3590 3348 3378
3719 3126 1128
3722 3206 1371
3717 3273 1719
3705 3331 2142
3690 3384 2607
3673 3433 3026
3666 3473 3308
3661 3502 3488
3644 3519 3600
3730 3251 1206
3738 3330 1457
3740 3398 1807
3737 3457 2223
3731 3512 2672
3722 3560 3067
3708 3602 3390
3694 3636 3622
3682 3663 3747
3773 3473 1352
3781 3530 1630
3786 3583 2009
3791 3634 2442
3796 3684 2883
3800 3732 3228
3801 3772 3495
3769 3790 3691
3676 3769 3824
3891 2786 1025
3898 2800 1087
3900 2805 1150
3899 2806 1216
3895 2804 1290
3891 2803 1371
3886 2802 1456
3881 2802 1543
3875 2802 1633
3889 2898 1075
3883 2943 1290
3882 2961 1412
3882 2965 1490
3881 2968 1574
3880 2972 1666
3879 2978 1762
3878 2984 1861
3878 2988 1961
3883 3000 1119
3872 3052 1389
3863 3086 1646
3859 3104 1845
3860 3110 1940
3863 3119 2041
3866 3130 2145
3871 3142 2251
3876 3151 2356
3876 3092 1159
3863 3141 1432
3848 3185 1806
3838 3220 2153
3838 3237 2339
3843 3249 2446
3851 3265 2555
3861 3282 2664
3873 3297 2771
3866 3178 1196
3852 3222 1467
3838 3265 1847
3825 3308 2284
3817 3353 2725
3825 3366 2833
3838 3386 2943
3853 3408 3053
3872 3430 3159
3857 3256 1232
3845 3300 1499
3832 3341 1877
3821 3384 2315
3814 3429 2763
3817 3465 3055
3829 3493 3223
3848 3518 3328
3873 3546 3432
3850 3330 1269
3842 3376 1535
3832 3420 1910
3823 3463 2347
3818 3509 2796
3820 3553 3150
3826 3587 3380
3842 3617 3526
3869 3649 3627
3845 3402 1307
3842 3453 1575
3837 3500 1950
3832 3546 2384
3830 3593 2829
3832 3638 3183
3834 3676 3456
3841 3710 3648
3859 3739 3759
3843 3475 1345
3847 3531 1623
3848 3583 2000
3849 3633 2432
3851 3682 2873
3854 3728 3221
3854 3768 3490
3850 3797 3693
3843 3811 3843
