Assets/1__3DArt/KimSe/artstation_asset/LUTs_subway_asset/3DL/Yellow Line 03_S.3dl
# LUT by SparkleStock. Enhanced with VOXCOLOR algorithms.
0 64 128 192 256 320 384 448 512 576 640 704 768 832 896 960 1023
80 96 128
81 106 153
83 116 179
84 124 206
86 131 234
88 138 262
88 144 297
87 151 335
87 157 372
84 165 422
82 173 473
78 182 529
72 192 597
67 203 665
61 215 748
54 228 839
48 240 929
149 184 143
126 187 195
103 191 248
88 196 294
88 202 329
88 209 363
88 218 407
88 228 456
88 238 505
87 252 569
85 265 633
84 280 704
81 298 785
78 315 867
74 334 962
71 353 1063
68 372 1164
217 272 157
170 269 237
123 266 317
91 267 383
90 273 424
89 280 464
89 292 518
89 305 578
89 319 638
89 338 716
89 358 794
89 379 878
89 403 973
88 427 1069
88 452 1175
87 478 1287
87 504 1399
337 390 179
288 403 291
239 416 403
192 418 492
150 397 537
107 377 582
94 382 644
96 399 715
97 417 786
99 443 877
102 469 968
104 497 1065
107 528 1172
111 560 1279
114 592 1395
117 625 1515
120 658 1636
558 572 215
553 643 369
547 714 522
489 728 640
325 626 686
161 523 733
109 504 801
113 527 882
118 550 962
125 584 1065
132 618 1167
139 654 1274
147 694 1391
156 734 1507
164 774 1629
173 814 1753
181 854 1877
779 753 251
818 883 446
856 1013 642
786 1038 788
500 854 836
214 670 884
124 627 959
131 655 1049
139 683 1138
150 725 1252
162 767 1366
174 811 1484
187 859 1610
201 908 1735
214 956 1863
228 1003 1991
242 1050 2119
1069 995 310
1129 1149 519
1189 1302 728
1131 1351 900
840 1191 997
549 1031 1094
381 940 1171
275 884 1238
168 828 1305
186 878 1428
203 928 1551
221 981 1677
241 1039 1809
261 1096 1941
281 1152 2071
301 1207 2200
321 1261 2329
1392 1269 380
1463 1428 589
1533 1586 798
1501 1665 994
1263 1582 1164
1025 1500 1333
760 1349 1409
481 1164 1439
202 980 1468
226 1038 1598
250 1097 1729
275 1158 1862
302 1225 1999
329 1292 2136
356 1355 2267
383 1417 2395
409 1479 2523
1716 1543 450
1797 1707 659
1878 1871 868
1870 1978 1088
1686 1974 1331
1502 1969 1573
1139 1758 1648
688 1445 1639
236 1131 1630
266 1198 1768
297 1265 1907
329 1335 2046
363 1411 2188
398 1488 2331
431 1559 2463
465 1628 2590
498 1697 2717
2018 1847 552
2089 1988 742
2160 2130 931
2159 2230 1142
2013 2247 1397
1866 2265 1651
1557 2118 1785
1166 1890 1859
774 1662 1933
622 1589 2005
470 1516 2078
382 1495 2174
424 1579 2319
466 1662 2464
506 1741 2595
546 1816 2720
585 1891 2844
2319 2150 655
2381 2269 825
2443 2388 995
2448 2481 1197
2340 2521 1463
2231 2560 1729
1975 2479 1922
1644 2336 2079
1313 2193 2236
978 1980 2242
643 1766 2249
436 1655 2303
485 1746 2450
534 1837 2598
581 1922 2728
627 2004 2849
673 2085 2970
2582 2438 763
2633 2533 913
2684 2629 1062
2693 2710 1252
2617 2763 1520
2541 2816 1787
2334 2784 2022
2061 2708 2241
1789 2633 2459
1350 2352 2446
912 2071 2433
619 1902 2466
617 1957 2592
616 2012 2719
650 2089 2840
701 2175 2959
753 2262 3078
2767 2693 882
2806 2763 1010
2844 2833 1138
2852 2896 1307
2797 2944 1557
2742 2992 1808
2577 2979 2049
2358 2935 2286
2138 2890 2524
1755 2686 2582
1372 2482 2641
1061 2323 2700
893 2255 2757
725 2187 2814
707 2224 2912
763 2314 3029
819 2404 3145
2952 2948 1000
2978 2993 1107
3004 3038 1214
3010 3082 1362
2976 3125 1595
2942 3168 1828
2820 3174 2076
2654 3161 2332
2487 3148 2588
2160 3021 2719
1832 2894 2850
1502 2745 2933
1169 2554 2922
835 2362 2910
764 2360 2983
825 2454 3098
885 2547 3213
3065 3136 1116
3084 3165 1206
3102 3194 1296
3108 3225 1426
3086 3260 1637
3065 3295 1847
2974 3307 2088
2847 3309 2344
2720 3310 2599
2445 3227 2768
2169 3145 2937
1864 3024 3048
1498 2827 3045
1133 2630 3042
992 2587 3095
964 2620 3175
936 2654 3255
3142 3289 1231
3156 3308 1306
3170 3326 1381
3175 3347 1493
3162 3372 1680
3149 3398 1867
3083 3411 2093
2989 3417 2339
2895 3424 2585
2670 3370 2773
2446 3316 2962
2186 3232 3103
1855 3088 3148
1524 2945 3193
1306 2859 3227
1143 2801 3256
981 2744 3285
3218 3443 1345
3228 3451 1406
3237 3458 1467
3242 3468 1561
3238 3484 1724
3233 3501 1886
3192 3514 2097
3131 3526 2334
3070 3538 2570
2896 3513 2779
2722 3487 2988
2507 3440 3158
2211 3349 3250
1916 3259 3343
1619 3130 3359
1322 2982 3336
1025 2834 3314
501 306 163
388 253 183
275 200 203
197 165 224
187 167 248
178 169 273
169 171 302
160 173 335
152 175 368
143 179 413
135 183 457
126 188 507
117 195 568
108 203 629
100 212 703
92 223 784
84 233 864
476 343 165
377 310 222
278 278 280
209 258 329
201 263 364
193 268 399
185 274 441
178 281 486
170 288 532
164 299 591
157 311 651
151 323 716
145 338 792
139 354 868
135 371 957
130 390 1051
126 408 1146
450 379 167
365 367 262
280 356 356
221 351 435
214 358 480
208 366 525
201 377 579
195 389 638
189 402 696
184 420 770
180 439 844
176 458 924
173 482 1016
170 505 1107
169 530 1210
169 557 1319
168 583 1428
512 468 182
445 483 309
379 498 437
321 505 541
278 494 599
236 482 658
219 490 724
214 508 795
210 526 865
208 551 953
206 576 1040
205 604 1133
206 635 1237
207 666 1342
210 699 1456
214 733 1575
218 767 1694
747 663 223
710 716 373
672 769 524
596 780 650
443 708 727
291 635 804
239 626 883
237 648 963
236 670 1043
238 702 1141
240 734 1240
244 769 1342
250 807 1455
256 846 1567
264 886 1686
273 927 1809
282 967 1931
983 859 264
974 949 438
964 1040 611
870 1056 759
608 922 854
346 789 950
259 761 1042
260 787 1132
261 813 1222
267 853 1330
274 892 1439
282 933 1552
294 980 1672
305 1027 1793
318 1073 1917
333 1121 2043
347 1168 2169
1265 1099 325
1275 1207 505
1284 1316 685
1203 1351 851
940 1240 990
676 1129 1128
515 1061 1228
406 1015 1310
296 969 1392
308 1015 1509
319 1061 1626
333 1110 1745
350 1164 1871
368 1218 1997
387 1272 2123
407 1325 2249
427 1378 2375
1570 1362 395
1594 1478 574
1618 1595 753
1564 1657 936
1354 1610 1129
1145 1563 1322
890 1443 1429
613 1287 1494
336 1131 1558
353 1183 1682
371 1236 1806
390 1292 1931
414 1354 2061
438 1416 2191
463 1476 2317
489 1535 2441
515 1594 2565
1874 1624 466
1913 1749 643
1952 1874 820
1926 1963 1021
1769 1980 1268
1613 1998 1516
1265 1826 1630
821 1559 1677
377 1293 1725
399 1352 1855
422 1411 1986
447 1474 2117
477 1543 2251
507 1613 2384
539 1679 2511
571 1744 2633
603 1809 2756
2152 1912 566
2190 2024 731
2229 2137 895
2214 2223 1088
2092 2255 1338
1970 2287 1587
1676 2170 1748
1297 1979 1865
917 1787 1982
758 1722 2065
599 1656 2149
505 1638 2249
541 1713 2384
577 1788 2520
614 1860 2644
651 1930 2762
689 2000 2881
2430 2200 667
2468 2300 818
2506 2400 970
2502 2482 1155
2414 2529 1407
2326 2576 1659
2087 2515 1867
1773 2398 2053
1458 2282 2239
1117 2092 2275
777 1902 2312
564 1802 2382
605 1883 2518
647 1964 2655
689 2041 2777
732 2115 2892
774 2190 3006
2672 2473 773
2707 2559 911
2743 2644 1050
2747 2719 1224
2687 2774 1471
2628 2828 1717
2439 2808 1956
2185 2751 2192
1931 2693 2427
1490 2443 2454
1049 2193 2481
752 2043 2538
741 2090 2657
730 2138 2776
758 2206 2890
806 2284 3001
853 2363 3113
2843 2718 889
2872 2785 1015
2900 2852 1140
2905 2912 1298
2863 2959 1524
2821 3006 1749
2672 3001 1988
2470 2969 2234
2268 2937 2480
1890 2758 2571
1511 2578 2662
1199 2437 2743
1021 2373 2807
843 2309 2870
817 2341 2964
867 2422 3073
917 2502 3181
3015 2963 1006
3036 3011 1118
3058 3059 1229
3064 3105 1372
3039 3144 1577
3013 3184 1781
2905 3193 2020
2756 3187 2277
2606 3182 2533
2289 3072 2688
1972 2962 2843
1646 2830 2948
1301 2656 2956
955 2481 2964
875 2477 3038
929 2559 3144
982 2640 3250
3120 3146 1120
3137 3180 1222
3153 3215 1324
3159 3249 1453
3144 3280 1635
3129 3311 1817
3050 3325 2044
2938 3330 2294
2826 3336 2544
2564 3266 2730
2303 3197 2916
2004 3091 3046
1631 2912 3065
1258 2733 3085
1108 2691 3141
1070 2718 3217
1031 2745 3293
3193 3297 1234
3205 3322 1328
3217 3346 1421
3223 3369 1537
3214 3391 1695
3206 3413 1854
3149 3427 2064
3069 3436 2299
2988 3445 2535
2778 3401 2735
2568 3356 2935
2317 3284 3089
1987 3155 3154
1657 3026 3218
1428 2945 3260
1251 2889 3292
1074 2833 3324
3266 3449 1347
3274 3463 1433
3282 3476 1519
3287 3489 1621
3285 3502 1756
3283 3515 1891
3249 3528 2083
3199 3541 2304
3149 3554 2526
2991 3535 2740
2832 3516 2954
2631 3477 3133
2343 3398 3242
2055 3318 3351
1748 3199 3379
1432 3060 3366
1116 2921 3354
922 517 198
695 401 212
467 285 227
309 207 243
289 204 263
269 201 283
250 198 308
233 195 336
216 192 364
202 192 403
188 192 442
174 194 486
162 198 539
150 202 593
139 209 658
129 218 729
119 226 800
802 501 187
627 433 249
452 365 311
330 321 364
314 324 399
297 326 434
282 330 474
267 334 517
253 339 559
241 347 614
229 356 668
218 366 728
210 379 799
201 392 869
195 409 952
189 427 1040
184 445 1128
683 486 176
560 466 286
438 446 396
352 435 486
339 443 536
326 451 586
314 462 640
301 474 697
289 485 754
280 502 824
271 519 894
263 538 970
258 561 1058
252 583 1145
250 608 1245
250 636 1351
249 663 1457
686 545 185
603 563 328
520 581 471
450 592 590
407 590 662
364 588 734
343 599 804
333 617 874
323 635 945
317 659 1028
311 684 1112
306 711 1201
305 741 1303
304 772 1404
307 806 1517
311 841 1635
315 876 1753
937 755 231
866 789 378
796 824 526
702 833 660
561 790 767
421 748 875
369 747 964
361 768 1044
353 789 1125
351 820 1218
349 850 1312
348 883 1410
353 921 1519
357 959 1627
364 999 1744
374 1040 1865
384 1081 1985
1187 964 278
1130 1016 429
1072 1067 581
954 1073 729
716 990 873
477 907 1016
394 896 1124
388 920 1215
383 944 1305
385 980 1408
386 1017 1512
391 1056 1619
400 1101 1735
409 1145 1850
422 1191 1971
438 1238 2094
453 1285 2218
1461 1202 340
1420 1266 491
1380 1330 642
1274 1352 803
1039 1290 982
803 1227 1162
650 1182 1286
537 1146 1382
424 1110 1479
430 1152 1589
436 1194 1700
445 1238 1814
460 1289 1933
474 1340 2053
493 1392 2174
513 1443 2297
534 1495 2420
1747 1454 411
1725 1529 559
1703 1604 707
1627 1650 878
1446 1639 1094
1264 1627 1310
1020 1538 1449
745 1410 1549
471 1282 1649
481 1329 1766
491 1375 1882
505 1425 2001
525 1482 2123
546 1539 2246
570 1596 2367
595 1652 2487
621 1709 2607
2033 1706 481
2029 1792 627
2026 1878 772
1981 1948 953
1853 1987 1206
1725 2027 1459
1391 1893 1612
954 1674 1716
517 1454 1820
532 1506 1942
546 1557 2064
565 1612 2188
591 1675 2313
617 1738 2438
646 1800 2559
677 1861 2676
708 1922 2794
2286 1977 580
2292 2061 719
2297 2144 859
2268 2216 1033
2171 2262 1279
2073 2309 1524
1795 2222 1712
1428 2067 1871
1060 1912 2031
894 1855 2125
729 1797 2219
628 1781 2324
658 1847 2450
688 1914 2575
722 1979 2692
757 2044 2805
792 2108 2918
2540 2249 679
2555 2330 812
2569 2411 945
2556 2483 1113
2489 2538 1351
2421 2592 1589
2200 2551 1811
1901 2461 2026
1603 2371 2241
1257 2204 2308
911 2037 2374
691 1949 2461
725 2020 2586
759 2090 2711
797 2159 2825
837 2227 2934
876 2294 3042
2762 2508 783
2782 2584 910
2802 2659 1037
2800 2728 1197
2758 2784 1422
2715 2841 1647
2544 2833 1890
2308 2793 2143
2073 2753 2396
1630 2535 2462
1186 2316 2529
884 2184 2610
865 2224 2722
845 2264 2833
867 2324 2940
910 2393 3044
953 2463 3148
2920 2743 897
2938 2806 1019
2956 2870 1141
2959 2928 1290
2929 2974 1490
2900 3020 1691
2767 3023 1928
2583 3003 2182
2399 2984 2437
2024 2829 2559
1650 2673 2682
1337 2550 2787
1149 2491 2857
960 2431 2926
927 2458 3016
971 2529 3117
1016 2599 3217
3077 2977 1012
3094 3029 1128
3111 3081 1245
3117 3127 1382
3101 3163 1559
3085 3199 1735
2991 3212 1965
2857 3214 2222
2724 3215 2478
2419 3123 2657
2113 3030 2835
1790 2916 2963
1432 2758 2991
1075 2599 3019
986 2593 3093
1033 2664 3190
1079 2734 3286
3175 3156 1124
3190 3196 1239
3204 3237 1353
3210 3273 1480
3202 3300 1633
3193 3327 1786
3126 3342 2000
3029 3352 2245
2932 3362 2489
2684 3305 2692
2436 3248 2895
2144 3157 3044
1764 2996 3085
1384 2836 3127
1224 2796 3188
1175 2816 3260
1126 2836 3331
3244 3306 1237
3255 3336 1349
3265 3365 1462
3270 3391 1580
3267 3410 1710
3263 3429 1841
3216 3443 2034
3148 3454 2260
3080 3466 2485
2885 3431 2696
2689 3397 2907
2449 3336 3076
2119 3221 3159
1789 3106 3243
1551 3032 3294
1359 2977 3328
1166 2922 3362
3313 3456 1349
3320 3475 1460
3326 3494 1571
3331 3510 1681
3332 3520 1788
3333 3530 1895
3307 3543 2069
3268 3556 2275
3228 3570 2481
3085 3558 2701
2943 3546 2920
2754 3515 3108
2474 3446 3233
2195 3377 3359
1878 3268 3399
1542 3138 3397
1207 3008 3394
1357 749 243
1050 578 251
743 407 259
525 289 270
484 277 288
443 264 307
408 255 328
378 246 350
347 237 372
322 232 406
297 226 439
273 223 477
253 222 524
233 221 571
216 224 628
200 229 690
185 234 752
1172 691 219
941 588 283
710 485 347
545 415 402
510 410 439
475 405 476
446 403 514
419 403 551
392 403 588
370 407 636
347 410 684
327 416 737
311 425 801
295 433 865
283 446 940
272 461 1022
