Assets/1__3DArt/KimSe/artstation_asset/LUTs_subway_asset/3DL/Yellow Line 05_S.3dl
# LUT by SparkleStock. Enhanced with VOXCOLOR algorithms.
0 64 128 192 256 320 384 448 512 576 640 704 768 832 896 960 1023
192 288 336
200 292 363
208 296 390
215 301 418
217 307 448
219 312 477
221 319 509
223 325 541
225 332 574
227 341 613
229 349 653
231 359 695
233 370 741
235 381 787
237 393 838
239 404 892
240 416 945
264 377 340
248 374 396
232 372 451
222 371 498
223 376 530
225 381 562
226 388 598
228 396 637
230 404 675
233 415 722
236 426 768
239 438 817
243 452 870
246 466 924
249 481 982
253 496 1042
256 511 1102
336 466 345
296 456 429
256 447 512
229 442 579
230 446 612
230 450 646
232 458 687
234 467 732
236 477 776
239 490 830
243 504 883
247 518 939
252 535 1000
257 551 1060
262 569 1125
267 587 1192
272 605 1259
456 580 352
412 583 467
368 587 583
327 582 672
289 560 707
252 537 742
240 537 788
242 548 838
244 560 889
249 576 949
255 592 1010
260 610 1073
266 630 1141
273 650 1208
280 671 1280
287 692 1353
294 714 1426
672 743 363
666 800 518
659 857 673
605 862 789
455 762 826
305 662 863
256 637 912
258 650 967
260 663 1022
267 684 1090
274 705 1158
281 727 1229
290 751 1304
299 775 1379
308 800 1457
317 825 1536
326 850 1615
889 907 373
920 1017 568
950 1127 763
883 1141 906
620 964 944
357 786 983
272 737 1036
274 752 1096
277 767 1155
285 792 1231
294 817 1307
303 843 1385
314 872 1468
325 901 1550
337 930 1634
348 959 1719
359 987 1804
1172 1126 388
1224 1259 597
1275 1392 805
1218 1428 974
944 1271 1063
670 1114 1153
508 1016 1208
402 949 1247
296 881 1285
306 911 1368
316 940 1451
327 972 1536
342 1006 1625
356 1041 1714
370 1075 1804
384 1108 1894
399 1142 1984
1490 1372 406
1553 1513 615
1616 1654 823
1581 1718 1018
1347 1631 1183
1113 1543 1348
855 1385 1406
586 1193 1410
316 1000 1414
328 1035 1503
340 1069 1592
354 1106 1684
371 1148 1780
388 1189 1876
406 1228 1971
424 1266 2065
441 1304 2159
1807 1618 423
1882 1767 632
1958 1916 841
1943 2009 1061
1749 1990 1302
1556 1972 1543
1203 1754 1603
770 1437 1572
337 1119 1542
351 1159 1638
364 1198 1733
380 1241 1831
400 1288 1934
421 1336 2038
442 1381 2137
463 1424 2236
484 1467 2334
2105 1901 446
2173 2031 640
2241 2162 833
2235 2251 1049
2079 2256 1309
1922 2261 1569
1611 2103 1696
1222 1863 1756
833 1623 1817
669 1520 1850
505 1418 1882
403 1367 1940
426 1422 2049
449 1476 2158
474 1528 2262
498 1577 2363
523 1627 2464
2402 2183 469
2464 2296 647
2525 2408 825
2526 2493 1037
2408 2522 1316
2289 2550 1595
2019 2452 1789
1674 2289 1940
1329 2127 2092
987 1882 2062
645 1637 2032
426 1494 2050
452 1555 2164
478 1617 2278
505 1675 2386
534 1731 2490
562 1787 2593
2662 2455 494
2714 2548 656
2767 2640 818
2773 2717 1022
2688 2761 1312
2602 2804 1601
2375 2753 1845
2077 2653 2067
1779 2554 2289
1332 2238 2245
884 1923 2201
576 1720 2203
549 1742 2296
521 1763 2390
533 1812 2492
564 1875 2599
596 1938 2706
2844 2705 523
2884 2775 669
2925 2844 814
2931 2905 1005
2870 2947 1284
2808 2988 1564
2625 2958 1826
2381 2892 2078
2137 2826 2331
1728 2585 2371
1319 2344 2411
981 2146 2444
787 2035 2464
594 1923 2484
552 1932 2564
586 2001 2674
620 2071 2784
3026 2955 552
3055 3002 681
3083 3049 811
3089 3093 987
3052 3133 1258
3014 3172 1528
2875 3164 1807
2685 3131 2090
2495 3099 2373
2124 2932 2497
1754 2765 2621
1386 2572 2685
1026 2327 2632
666 2082 2578
571 2051 2635
608 2128 2748
645 2204 2861
3132 3143 594
3152 3175 709
3172 3207 824
3178 3240 986
3155 3273 1241
3133 3307 1495
3028 3308 1775
2881 3293 2068
2735 3279 2360
2413 3159 2533
2092 3040 2706
1743 2877 2809
1340 2626 2770
937 2375 2732
767 2296 2767
712 2303 2838
658 2310 2910
3199 3301 641
3213 3322 744
3227 3343 847
3232 3366 994
3220 3391 1229
3207 3417 1464
3131 3422 1737
3024 3417 2028
2916 3412 2319
2649 3327 2524
2382 3242 2729
2076 3120 2872
1691 2927 2894
1307 2733 2916
1050 2603 2929
858 2504 2936
665 2404 2944
3266 3459 689
3274 3469 779
3282 3479 869
3286 3492 1001
3284 3510 1217
3282 3527 1433
3235 3536 1699
3167 3541 1989
3098 3545 2279
2885 3494 2515
2672 3443 2752
2408 3364 2936
2043 3228 3019
1677 3092 3101
1334 2910 3090
1003 2704 3034
672 2498 2978
597 469 349
493 419 380
389 370 411
317 337 440
309 338 466
302 338 492
295 340 519
289 343 548
283 345 577
279 350 613
275 355 648
272 361 686
271 369 728
269 378 770
269 387 816
268 398 865
268 408 914
575 511 347
485 479 413
394 448 478
331 427 533
326 429 566
320 431 599
315 436 634
310 442 671
306 447 708
303 456 751
301 465 794
300 475 840
300 488 890
300 500 940
302 514 994
303 528 1051
305 542 1108
554 554 345
476 540 445
399 525 546
346 517 626
342 521 666
338 525 705
335 532 749
332 541 794
329 550 838
328 563 889
327 576 940
327 590 994
329 606 1052
331 622 1110
334 640 1172
338 658 1237
342 676 1302
617 641 348
556 650 479
495 660 610
442 661 714
405 646 765
367 631 815
353 633 867
351 645 919
349 656 971
350 673 1029
351 690 1088
353 708 1149
356 728 1214
360 748 1280
366 770 1350
372 792 1422
379 814 1494
849 819 360
812 863 514
775 907 668
703 911 794
561 836 862
419 761 931
370 745 992
367 758 1049
365 771 1106
368 791 1172
370 811 1238
374 833 1306
380 857 1378
387 881 1451
395 906 1527
404 932 1605
413 958 1683
1081 996 372
1068 1075 549
1055 1154 727
964 1162 874
717 1027 960
470 892 1046
386 857 1117
384 871 1179
381 885 1242
385 909 1315
390 933 1388
395 958 1463
404 986 1542
413 1014 1621
424 1043 1704
435 1072 1787
447 1101 1871
1359 1214 387
1364 1311 571
1370 1408 755
1289 1434 922
1036 1319 1054
783 1204 1186
625 1127 1266
513 1068 1320
401 1009 1375
407 1037 1454
413 1064 1533
420 1094 1615
432 1127 1700
443 1160 1786
457 1193 1873
471 1226 1961
486 1259 2048
1659 1451 404
1680 1558 587
1701 1666 769
1646 1718 954
1437 1663 1146
1228 1607 1337
975 1476 1427
699 1307 1467
424 1138 1507
431 1169 1592
437 1201 1677
447 1234 1764
461 1273 1855
475 1311 1947
492 1349 2038
509 1386 2129
527 1424 2220
1958 1689 422
1996 1806 602
2033 1923 783
2003 2002 987
1838 2006 1237
1673 2009 1488
1325 1825 1588
885 1546 1613
446 1267 1638
454 1302 1729
462 1337 1820
473 1375 1913
490 1419 2011
507 1463 2108
527 1505 2203
547 1547 2298
568 1588 2392
2235 1959 444
2274 2066 614
2312 2173 785
2294 2252 985
2164 2272 1245
2033 2293 1504
1732 2161 1660
1346 1952 1765
960 1744 1869
784 1649 1916
608 1555 1962
497 1508 2027
516 1557 2128
535 1606 2230
557 1654 2327
581 1701 2424
604 1748 2520
2512 2228 466
2551 2326 626
2591 2423 787
2586 2501 983
2490 2538 1252
2393 2576 1520
2140 2496 1732
1807 2359 1916
1475 2221 2100
1115 1996 2102
755 1772 2104
522 1640 2140
543 1695 2246
564 1750 2351
588 1803 2452
614 1855 2550
641 1907 2647
2753 2488 490
2791 2574 641
2830 2659 792
2833 2732 983
2766 2779 1253
2700 2826 1522
2492 2788 1775
2213 2707 2019
1934 2625 2263
1468 2338 2261
1003 2050 2259
681 1864 2287
644 1881 2375
608 1898 2464
615 1942 2559
643 2000 2659
672 2057 2758
2924 2729 518
2955 2798 662
2987 2867 805
2992 2926 986
2945 2968 1241
2898 3010 1497
2732 2990 1759
2508 2938 2024
2283 2885 2290
1869 2667 2365
1455 2449 2440
1109 2268 2500
897 2163 2529
684 2057 2557
633 2063 2634
663 2126 2734
693 2188 2835
3094 2970 547
3119 3022 682
3143 3074 818
3151 3121 989
3123 3158 1230
3096 3195 1471
2973 3192 1742
2803 3169 2029
2632 3145 2316
2270 2997 2469
1908 2848 2622
1537 2673 2713
1149 2445 2682
761 2216 2651
652 2185 2708
683 2252 2810
715 2319 2912
3194 3155 587
3212 3193 718
3231 3232 849
3238 3269 1011
3223 3299 1233
3207 3329 1456
3117 3333 1723
2988 3325 2012
2860 3316 2301
2553 3212 2496
2246 3107 2692
1900 2960 2818
1475 2727 2805
1051 2494 2792
863 2418 2831
794 2421 2896
725 2424 2961
3258 3311 634
3271 3339 761
3284 3367 889
3290 3393 1042
3283 3415 1244
3275 3438 1446
3211 3445 1701
3119 3443 1983
3027 3442 2264
2777 3369 2485
2527 3296 2705
2230 3188 2867
1839 3010 2912
1448 2832 2958
1171 2709 2979
950 2612 2988
730 2516 2997
3322 3467 680
3330 3484 805
3337 3501 929
3342 3518 1073
3343 3532 1254
3343 3547 1436
3306 3556 1679
3250 3562 1954
3194 3568 2228
3001 3526 2473
2808 3485 2718
2560 3416 2916
2203 3293 3020
1845 3170 3123
1478 2999 3126
1106 2803 3080
735 2608 3033
1001 649 362
785 546 397
569 443 432
419 373 462
402 369 484
385 364 506
370 362 530
355 360 555
341 358 581
332 360 612
322 361 643
314 364 677
309 369 714
304 374 752
300 382 794
298 391 838
296 400 882
887 646 354
721 585 430
555 524 506
440 483 568
428 482 601
415 482 635
404 484 670
393 487 705
381 491 740
374 497 780
366 504 820
360 512 862
357 523 909
354 534 956
354 547 1007
354 560 1060
354 574 1114
772 642 345
657 623 462
541 604 579
462 592 673
454 596 719
446 600 765
438 606 810
430 615 855
421 623 900
416 635 949
411 648 997
407 661 1048
406 677 1104
405 694 1159
407 711 1220
410 729 1283
413 748 1346
779 703 344
700 717 491
622 732 637
557 739 757
520 732 822
483 724 888
466 729 946
460 741 999
454 753 1053
450 770 1109
447 787 1166
445 805 1224
447 826 1288
448 847 1352
452 869 1420
458 891 1492
464 914 1563
1026 894 357
959 925 510
891 957 664
801 961 799
667 911 899
533 861 999
483 853 1072
477 865 1131
470 878 1190
468 898 1254
466 917 1317
467 939 1383
471 963 1452
475 987 1522
482 1013 1597
490 1039 1674
499 1065 1750
1274 1084 370
1217 1133 530
1160 1181 690
1045 1182 842
814 1090 976
582 999 1110
500 977 1198
493 990 1263
486 1003 1328
486 1025 1398
486 1048 1468
488 1073 1541
495 1100 1617
501 1128 1693
511 1156 1773
523 1186 1856
534 1215 1938
1545 1301 386
1505 1363 546
1465 1424 705
1361 1441 870
1129 1368 1044
896 1295 1218
741 1237 1323
624 1187 1394
507 1137 1464
508 1162 1540
509 1188 1616
513 1215 1694
522 1247 1775
531 1278 1857
544 1311 1941
558 1344 2027
573 1376 2113
1827 1531 403
1807 1604 559
1786 1677 715
1711 1718 891
1527 1695 1108
1343 1671 1326
1094 1566 1449
813 1421 1524
531 1276 1599
533 1304 1681
534 1332 1762
539 1363 1845
551 1398 1931
562 1434 2018
578 1470 2105
595 1507 2193
612 1543 2282
2110 1760 421
2109 1846 572
2108 1931 724
2062 1996 912
1926 2021 1173
1790 2047 1433
1447 1895 1574
1001 1655 1654
555 1414 1735
558 1445 1821
560 1476 1907
566 1510 1995
580 1550 2087
594 1590 2178
612 1630 2269
632 1669 2360
652 1709 2450
2365 2017 442
2374 2101 589
2383 2185 736
2354 2253 921
2249 2288 1180
2144 2324 1439
1854 2218 1625
1471 2041 1773
1088 1865 1922
900 1778 1982
712 1692 2042
592 1649 2113
607 1692 2207
621 1736 2301
641 1780 2393
663 1824 2485
686 1868 2576
2621 2273 463
2639 2356 606
2657 2439 748
2645 2509 930
2572 2555 1188
2498 2601 1446
2260 2541 1676
1940 2428 1892
1620 2314 2109
1242 2111 2142
864 1907 2176
618 1787 2230
633 1835 2327
649 1883 2424
671 1931 2518
695 1979 2609
719 2027 2701
2844 2521 486
2868 2599 626
2892 2678 766
2893 2747 944
2845 2798 1194
2797 2848 1444
2608 2823 1705
2348 2760 1971
2088 2697 2237
1605 2437 2277
1122 2177 2316
785 2007 2370
740 2020 2454
694 2033 2537
697 2072 2626
722 2124 2718
748 2176 2810
3003 2753 513
3026 2821 655
3048 2889 796
3052 2948 967
3020 2990 1198
2988 3033 1429
2840 3021 1692
2634 2983 1970
2429 2944 2248
2010 2749 2359
1592 2554 2470
1236 2391 2556
1006 2291 2593
775 2191 2630
715 2195 2704
741 2250 2795
766 2306 2887
3162 2985 541
3183 3042 683
3204 3099 825
3212 3148 991
3195 3183 1202
3178 3218 1414
3071 3220 1678
2920 3206 1969
2769 3192 2260
2416 3061 2441
2062 2931 2623
1688 2774 2742
1271 2562 2733
855 2349 2724
733 2318 2781
759 2376 2872
785 2435 2963
3256 3166 580
3273 3212 727
3290 3258 874
3298 3297 1035
3290 3324 1226
3282 3351 1416
3206 3359 1670
3095 3356 1956
2985 3353 2242
2692 3264 2459
2400 3174 2677
2057 3043 2827
1611 2828 2840
1165 2614 2852
960 2541 2896
876 2540 2955
793 2538 3013
3317 3320 626
3329 3355 779
3341 3390 932
3348 3420 1090
3346 3440 1259
3344 3459 1428
3292 3467 1665
3215 3470 1937
3138 3472 2209
2905 3411 2445
2672 3350 2681
2385 3255 2862
1987 3093 2930
1589 2931 2999
1291 2815 3029
1043 2721 3040
795 2628 3051
3379 3475 671
3386 3499 830
3393 3523 989
3398 3543 1145
3402 3555 1292
3405 3567 1439
3377 3576 1660
3334 3584 1918
3291 3591 2176
3118 3559 2431
2945 3526 2685
2713 3468 2897
2363 3358 3021
2014 3249 3146
1622 3088 3163
1210 2903 3125
797 2718 3088
1419 851 371
1124 700 412
829 548 452
619 443 487
582 430 510
545 418 533
515 409 555
488 402 576
461 395 597
440 392 625
420 388 652
402 386 681
389 387 715
376 388 748
366 392 786
358 398 826
350 404 865
1239 808 358
1018 717 443
797 626 529
640 563 599
610 556 639
580 549 678
554 547 713
532 546 745
509 546 777
492 548 812
474 551 848
459 556 885
448 563 928
438 570 970
431 580 1017
426 591 1067
