Assets/1__3DArt/KimSe/artstation_asset/LUTs_subway_asset/3DL/Yellow Line 04.3dl
# LUT by SparkleStock. Enhanced with VOXCOLOR algorithms.
0 256 512 768 1023
48 112 176
66 209 426
76 301 694
82 396 1026
96 496 1409
587 688 327
317 785 899
112 750 1228
125 890 1657
149 1031 2101
1749 1604 603
1564 1977 1438
174 1279 1794
183 1464 2285
211 1653 2755
2765 2591 887
2702 2839 1538
1825 2806 2478
479 2161 2735
246 2210 3107
3202 3282 1073
3183 3379 1525
2878 3471 2434
1655 3234 3157
256 2594 3250
1851 1134 478
919 602 527
643 506 701
470 480 938
360 492 1220
1569 1113 478
993 1154 1025
673 1167 1428
592 1252 1787
552 1354 2174
2382 1883 708
2145 2073 1296
685 1794 2066
648 1927 2480
653 2072 2879
3075 2691 941
3082 2908 1488
2516 2976 2345
994 2588 2902
663 2610 3246
3383 3295 1126
3408 3442 1727
3301 3528 2369
2352 3445 3150
647 2985 3424
3228 2021 689
2586 1465 764
2267 1285 915
1733 1035 1053
1299 853 1241
2919 1888 677
2508 1891 1238
2186 1804 1572
1746 1652 1789
1419 1566 2048
2702 1875 711
2577 2149 1303
2082 2309 2335
1950 2415 2722
1888 2520 3071
3344 2780 986
3348 2963 1536
3258 3118 2410
2157 2982 3070
1853 3008 3420
3549 3294 1162
3583 3464 1866
3602 3628 2743
3189 3615 3242
1773 3342 3598
3693 2412 799
3523 2173 928
3421 2085 1101
3291 2026 1290
2865 1761 1446
3600 2482 850
3478 2519 1408
3381 2483 1732
3276 2455 1951
2884 2249 2129
3520 2569 904
3467 2732 1531
3313 2850 2480
3251 2876 2750
2995 2807 2989
3557 2816 1013
3568 3020 1582
3509 3173 2443
3328 3278 3199
3189 3329 3547
3697 3304 1204
3728 3462 1900
3742 3612 2775
3686 3726 3399
3154 3644 3753
3859 2578 897
3874 2610 1090
3866 2629 1277
3861 2641 1472
3859 2658 1665
3869 2807 1024
3860 2915 1570
3861 2948 1872
3871 2971 2082
3886 2995 2291
3864 3005 1121
3845 3109 1777
3833 3217 2586
3850 3253 2817
3887 3304 3048
3855 3166 1191
3843 3283 1838
3833 3397 2679
3831 3503 3267
3867 3585 3556
3843 3298 1249
3856 3461 1911
3862 3595 2762
3850 3717 3400
3827 3811 3795
