Assets/1__3DArt/KimSe/artstation_asset/LUTs_subway_asset/3DL/Yellow Line 05_S.3dl
# LUT by SparkleStock. Enhanced with VOXCOLOR algorithms.
0 128 256 384 512 640 768 896 1023
192 288 336
208 296 390
217 307 448
221 319 509
225 332 574
229 349 653
233 370 741
237 393 838
240 416 945
336 466 345
256 447 512
230 446 612
232 458 687
236 477 776
243 504 883
252 535 1000
262 569 1125
272 605 1259
672 743 363
659 857 673
455 762 826
256 637 912
260 663 1022
274 705 1158
290 751 1304
308 800 1457
326 850 1615
1172 1126 388
1275 1392 805
944 1271 1063
508 1016 1208
296 881 1285
316 940 1451
342 1006 1625
370 1075 1804
399 1142 1984
1807 1618 423
1958 1916 841
1749 1990 1302
1203 1754 1603
337 1119 1542
364 1198 1733
400 1288 1934
442 1381 2137
484 1467 2334
2402 2183 469
2525 2408 825
2408 2522 1316
2019 2452 1789
1329 2127 2092
645 1637 2032
452 1555 2164
505 1675 2386
562 1787 2593
2844 2705 523
2925 2844 814
2870 2947 1284
2625 2958 1826
2137 2826 2331
1319 2344 2411
787 2035 2464
552 1932 2564
620 2071 2784
3132 3143 594
3172 3207 824
3155 3273 1241
3028 3308 1775
2735 3279 2360
2092 3040 2706
1340 2626 2770
767 2296 2767
658 2310 2910
3266 3459 689
3282 3479 869
3284 3510 1217
3235 3536 1699
3098 3545 2279
2672 3443 2752
2043 3228 3019
1334 2910 3090
672 2498 2978
1001 649 362
569 443 432
402 369 484
370 362 530
341 358 581
322 361 643
309 369 714
300 382 794
296 400 882
772 642 345
541 604 579
454 596 719
438 606 810
421 623 900
411 648 997
406 677 1104
407 711 1220
413 748 1346
1026 894 357
891 957 664
667 911 899
483 853 1072
470 878 1190
466 917 1317
471 963 1452
482 1013 1597
499 1065 1750
1545 1301 386
1465 1424 705
1129 1368 1044
741 1237 1323
507 1137 1464
509 1188 1616
522 1247 1775
544 1311 1941
573 1376 2113
2110 1760 421
2108 1931 724
1926 2021 1173
1447 1895 1574
555 1414 1735
560 1476 1907
580 1550 2087
612 1630 2269
652 1709 2450
2621 2273 463
2657 2439 748
2572 2555 1188
2260 2541 1676
1620 2314 2109
864 1907 2176
633 1835 2327
671 1931 2518
719 2027 2701
3003 2753 513
3048 2889 796
3020 2990 1198
2840 3021 1692
2429 2944 2248
1592 2554 2470
1006 2291 2593
715 2195 2704
766 2306 2887
3256 3166 580
3290 3258 874
3290 3324 1226
3206 3359 1670
2985 3353 2242
2400 3174 2677
1611 2828 2840
960 2541 2896
793 2538 3013
3379 3475 671
3393 3523 989
3402 3555 1292
3377 3576 1660
3291 3591 2176
2945 3526 2685
2363 3358 3021
1622 3088 3163
797 2718 3088
1862 1095 371
1248 716 470
939 553 549
802 507 608
703 480 641
620 457 687
553 442 742
499 434 807
457 435 879
1486 960 341
1153 849 618
961 792 808
856 771 929
782 770 1000
715 772 1068
659 780 1147
618 793 1238
591 811 1343
1471 1069 341
1272 1094 664
1062 1079 973
904 1063 1216
861 1085 1342
821 1115 1451
792 1150 1566
776 1187 1690
773 1228 1826
1774 1390 364
1631 1468 665
1395 1482 1067
1136 1453 1440
926 1404 1651
910 1455 1802
906 1511 1951
914 1570 2104
935 1631 2263
2349 1892 404
2253 1990 678
2112 2068 1113
1743 2011 1569
963 1704 1912
951 1759 2085
955 1824 2254
974 1894 2420
1007 1965 2587
2809 2373 450
2776 2490 718
2714 2589 1132
2492 2606 1624
1980 2481 2124
1236 2166 2312
999 2112 2491
1022 2191 2661
1061 2273 2826
3149 2817 502
3154 2931 786
3141 3023 1181
3026 3069 1659
2727 3041 2195
1950 2744 2526
1366 2533 2714
1054 2450 2845
1094 2539 3004
3372 3197 567
3394 3291 887
3404 3362 1272
3360 3405 1711
3217 3415 2196
2728 3290 2668
1966 3011 2905
1301 2770 3019
1104 2758 3126
3483 3487 652
3499 3550 1027
3514 3594 1418
3508 3622 1813
3464 3636 2200
3209 3598 2680
2708 3473 3041
1992 3251 3231
1090 2925 3202
2655 1563 369
2057 1077 496
1687 839 613
1468 753 703
1328 722 745
1160 667 776
1011 618 818
883 578 870
777 548 930
2275 1353 331
1911 1156 635
1645 1034 869
1466 979 1028
1364 985 1107
1219 958 1144
1089 931 1191
978 909 1252
891 893 1330
2028 1316 319
1807 1294 667
1619 1273 1027
1486 1273 1325
1434 1314 1483
1340 1328 1569
1255 1339 1655
1185 1351 1748
1135 1365 1857
2057 1501 334
1907 1562 655
1771 1610 1098
1638 1644 1531
1500 1660 1820
1458 1710 1969
1423 1758 2104
1398 1805 2236
1389 1849 2373
2504 1955 376
2373 2034 665
2265 2099 1090
2032 2096 1581
1523 1975 2067
1509 2037 2262
1504 2102 2433
1511 2168 2590
1533 2232 2744
2956 2451 430
2877 2539 707
2821 2614 1115
2687 2650 1611
2379 2623 2151
1741 2410 2445
1531 2386 2655
1545 2456 2818
1575 2525 2969
3277 2879 488
3247 2969 777
3231 3047 1189
3170 3100 1675
3009 3116 2189
2374 2917 2591
1857 2765 2835
1561 2702 2992
1594 2774 3136
3480 3231 554
3486 3316 881
3496 3388 1321
3482 3440 1798
3418 3465 2237
3061 3390 2694
2396 3180 2977
1784 2991 3144
1586 2976 3252
3580 3498 636
3599 3568 1023
3616 3624 1520
3623 3664 2004
3613 3681 2350
3454 3663 2745
3066 3576 3087
2436 3403 3305
1552 3127 3325
3257 1991 359
2812 1486 503
2503 1205 646
2317 1097 776
2238 1111 883
1976 1020 902
1729 927 934
1505 840 978
1310 767 1031
2940 1753 314
2638 1499 635
2398 1322 892
2247 1257 1094
2212 1335 1253
1989 1283 1270
1771 1220 1294
1569 1154 1332
1395 1093 1390
2718 1683 296
2500 1582 663
2314 1501 1042
2197 1488 1379
2188 1590 1620
2025 1584 1678
1859 1562 1728
1702 1532 1783
1570 1501 1858
2590 1743 305
2426 1746 647
2285 1751 1102
2193 1786 1570
2180 1882 1947
2094 1923 2080
2000 1949 2185
1912 1966 2281
1841 1976 2385
2554 1893 341
2446 2006 643
2344 2083 1074
2259 2147 1602
2199 2214 2198
2203 2301 2434
2202 2380 2620
2203 2449 2776
2214 2508 2919
3051 2473 405
2957 2559 690
2877 2623 1102
2818 2677 1614
2788 2735 2199
2356 2638 2579
2215 2655 2823
2225 2724 2987
2249 2786 3129
3383 2925 472
3329 3002 765
3285 3064 1179
3257 3118 1684
3251 3171 2248
2846 3074 2677
2465 2988 2961
2228 2955 3148
2257 3017 3285
3580 3265 544
3570 3341 872
3562 3405 1316
3562 3459 1832
3573 3508 2379
3382 3479 2767
2890 3341 3068
2404 3209 3278
2237 3200 3394
3671 3511 623
3689 3582 1015
3705 3642 1520
3719 3691 2078
3733 3730 2627
3670 3725 2888
3426 3674 3172
2947 3552 3393
2184 3335 3463
3565 2286 357
3291 1875 496
3099 1631 643
2980 1523 788
2924 1519 921
2856 1532 1009
2647 1447 1067
2373 1317 1113
2110 1191 1170
3341 2092 315
3136 1834 635
2980 1662 890
2885 1595 1098
2861 1654 1276
2832 1736 1376
2656 1703 1425
2409 1604 1458
2166 1494 1509
3183 2038 295
3018 1882 667
2887 1769 1045
2809 1735 1384
2803 1817 1636
2808 1954 1780
2677 1971 1851
2476 1917 1892
2272 1841 1949
3088 2091 299
2951 2019 651
2839 1963 1110
2769 1954 1577
2758 2026 1956
2794 2192 2170
2718 2256 2289
2581 2253 2361
2436 2223 2436
3053 2222 325
2948 2246 646
2855 2254 1085
2782 2264 1611
2736 2297 2190
2798 2462 2496
2785 2561 2686
2730 2612 2808
2663 2635 2912
3204 2498 377
3122 2582 672
3047 2639 1088
2987 2683 1597
2949 2727 2171
2857 2775 2642
2838 2851 2927
2852 2929 3100
2860 2985 3235
3443 2892 446
3391 2982 744
3342 3050 1160
3302 3102 1662
3279 3148 2219
3184 3164 2728
3015 3157 3066
2889 3167 3281
2925 3231 3423
3662 3276 527
3643 3352 856
3623 3413 1299
3608 3463 1814
3601 3506 2360
3565 3528 2828
3299 3463 3168
3011 3394 3395
2907 3402 3525
3751 3522 611
3768 3595 1001
3779 3655 1507
3787 3706 2067
3795 3747 2622
3789 3768 3014
3676 3749 3298
3388 3675 3486
2858 3526 3593
3762 2502 370
3622 2226 497
3524 2053 638
3462 1969 786
3434 1957 933
3434 1992 1060
3337 1964 1159
3155 1871 1238
2900 1712 1308
3628 2390 338
3508 2166 650
3425 2027 893
3378 1976 1092
3369 2021 1275
3397 2132 1415
3329 2166 1509
3171 2119 1576
2934 1984 1634
3532 2374 323
3426 2199 691
3349 2076 1059
3307 2033 1387
3308 2098 1634
3356 2263 1814
3316 2356 1928
3192 2363 2001
2988 2268 2056
3473 2434 325
3380 2315 680
3306 2214 1135
3261 2169 1593
3257 2217 1956
3315 2406 2200
3304 2544 2356
3223 2605 2453
3067 2563 2515
3450 2553 344
3370 2507 675
3303 2455 1117
3251 2416 1633
3220 2408 2190
3279 2581 2516
3299 2742 2736
3268 2851 2874
3178 2866 2956
3472 2710 381
3412 2744 692
3354 2756 1114
3305 2762 1618
3273 2775 2172
3288 2853 2654
3320 2983 2973
3344 3105 3170
3333 3164 3288
3588 2967 433
3546 3040 741
3502 3089 1160
3463 3125 1658
3435 3154 2203
3437 3197 2725
3400 3253 3105
3375 3320 3358
3411 3392 3500
3727 3260 502
3710 3343 834
3687 3408 1277
3665 3458 1789
3648 3499 2331
3652 3534 2822
3561 3532 3207
3458 3529 3477
3427 3561 3624
3824 3528 592
3840 3602 982
3848 3665 1486
3852 3718 2045
3854 3762 2599
3860 3791 3039
3828 3798 3354
3694 3767 3565
3395 3679 3692
3880 2653 395
3834 2528 513
3802 2443 647
3783 2397 793
3777 2383 945
3779 2399 1091
3780 2417 1226
3723 2387 1344
3552 2258 1438
3823 2650 383
3777 2498 685
3748 2411 910
3736 2384 1093
3739 2415 1271
3755 2493 1425
3773 2572 1560
3732 2592 1671
3575 2493 1754
3782 2689 378
3738 2537 739
3709 2428 1092
3697 2384 1401
3703 2427 1630
3727 2553 1816
3756 2691 1969
3732 2770 2086
3596 2719 2161
3757 2766 382
3717 2636 736
3687 2516 1184
3669 2445 1625
3671 2465 1962
3699 2613 2202
3735 2795 2392
3727 2930 2527
3620 2937 2602
3747 2874 396
3712 2787 735
3683 2696 1174
3660 2619 1677
3646 2574 2209
3672 2707 2520
3711 2904 2765
3720 3080 2935
3652 3149 3021
3755 3003 421
3727 2977 747
3700 2938 1176
3678 2900 1673
3661 2876 2202
3664 2925 2653
3695 3074 2985
3718 3242 3205
3698 3347 3321
3772 3130 449
3753 3165 771
3730 3182 1199
3708 3189 1695
3690 3196 2223
3684 3221 2716
3700 3305 3110
3725 3418 3390
3750 3530 3541
3811 3293 493
3806 3368 833
3795 3426 1281
3780 3470 1793
3766 3504 2327
3760 3533 2804
3762 3566 3211
3770 3613 3516
3782 3683 3685
3886 3528 566
3905 3604 956
3916 3670 1457
3919 3726 2013
3919 3772 2566
3916 3802 3010
3917 3825 3358
3881 3826 3608
3765 3791 3756
3955 2754 432
3958 2771 550
3961 2773 683
3963 2767 828
3964 2758 982
3964 2751 1135
3960 2747 1281
3952 2747 1421
3939 2754 1553
3954 2875 447
3964 2831 743
3969 2807 951
3971 2802 1117
3972 2814 1285
3972 2844 1444
3970 2880 1592
3967 2918 1729
3963 2952 1857
3951 2981 459
3968 2901 815
3978 2830 1152
3983 2789 1438
3983 2800 1641
3981 2865 1824
3979 2950 1985
3977 3041 2126
3975 3128 2249
3949 3079 470
3970 2986 823
3986 2878 1263
3995 2796 1685
3995 2781 1986
3991 2864 2209
3986 2988 2399
3983 3135 2554
3981 3286 2674
3947 3175 484
3971 3087 827
3991 2987 1263
4004 2891 1752
4008 2818 2256
4001 2887 2537
3993 3028 2771
3987 3217 2954
3983 3429 3080
3949 3270 499
3971 3215 837
3991 3149 1270
4006 3083 1759
4012 3031 2262
4005 3043 2676
3996 3148 2990
3987 3326 3216
3980 3555 3367
3949 3361 513
3970 3349 855
3990 3327 1296
4005 3302 1793
4012 3281 2301
4006 3284 2752
3993 3342 3116
3981 3468 3390
3972 3671 3569
3947 3447 523
3969 3480 883
3987 3505 1345
4000 3524 1863
4007 3539 2385
4001 3557 2830
3988 3581 3210
3971 3642 3506
3959 3773 3701
3939 3523 528
3965 3600 920
3982 3668 1422
3992 3727 1977
3996 3777 2528
3991 3811 2973
3979 3834 3328
3962 3849 3596
3939 3859 3779
