Assets/1__3DArt/KimSe/artstation_asset/LUTs_subway_asset/CUBE/LoFi Chill 01.cube
# LUT by SparkleStock. Enhanced with VOXCOLOR algorithms.
LUT_3D_SIZE 5
DOMAIN_MIN 0.000000 0.000000 0.000000
DOMAIN_MAX 0.903226 0.903226 0.903226
0.085958 0.070330 0.085958
0.187215 0.083406 0.088865
0.396424 0.116933 0.097011
0.629548 0.168396 0.118870
0.765796 0.219583 0.156784
0.089235 0.080326 0.096751
0.195469 0.111036 0.117829
0.410756 0.156822 0.141440
0.645744 0.217729 0.177889
0.782295 0.281731 0.239597
0.090212 0.092363 0.116570
0.195967 0.137506 0.159838
0.427240 0.227018 0.227765
0.667181 0.312300 0.291873
0.806023 0.397710 0.381521
0.089677 0.113049 0.157919
0.192388 0.171639 0.222569
0.431005 0.291620 0.324974
0.696981 0.435070 0.435044
0.835473 0.531496 0.533108
0.083249 0.146662 0.239529
0.185969 0.225003 0.327541
0.427521 0.369649 0.450918
0.709849 0.530963 0.566555
0.863288 0.634453 0.640729
0.082965 0.090228 0.130403
0.169138 0.108257 0.139313
0.383779 0.143985 0.148108
0.630393 0.200714 0.171794
0.776413 0.262010 0.221031
0.087726 0.099112 0.139749
0.194906 0.149198 0.184859
0.411061 0.203031 0.213051
0.650566 0.266725 0.246299
0.789963 0.330495 0.300756
0.090862 0.114606 0.164273
0.199960 0.176737 0.224171
0.429876 0.270755 0.294754
0.671702 0.355564 0.351303
0.810983 0.434126 0.424833
0.092004 0.133701 0.203762
0.196780 0.203910 0.273864
0.433854 0.324728 0.373506
0.695859 0.460198 0.473907
0.836038 0.549640 0.555117
0.092105 0.162442 0.273394
0.194098 0.240513 0.349565
0.432209 0.384084 0.468630
0.711762 0.540564 0.579282
0.861966 0.637910 0.645902
0.081074 0.113577 0.199393
0.147359 0.139283 0.222122
0.350229 0.193974 0.246981
0.623167 0.266989 0.275956
0.787574 0.343986 0.332655
0.085339 0.122278 0.206314
0.179855 0.183237 0.265952
0.389274 0.258231 0.312872
0.647886 0.334144 0.347077
0.801677 0.407398 0.401581
0.092508 0.138525 0.223635
0.204162 0.215438 0.297407
0.434907 0.326074 0.379055
0.679275 0.412389 0.427887
0.819644 0.485066 0.485185
0.098459 0.158632 0.258683
0.214293 0.241650 0.336712
0.447487 0.368784 0.434343
0.702549 0.495469 0.521171
0.839977 0.574990 0.583014
0.104786 0.184029 0.311418
0.224770 0.272030 0.392936
0.449345 0.407350 0.496145
0.716061 0.553478 0.594881
0.861767 0.643685 0.652685
0.084288 0.135358 0.274757
0.136692 0.169546 0.310182
0.306825 0.249464 0.366148
0.607852 0.363801 0.418621
0.803367 0.461983 0.478408
0.086273 0.143737 0.278901
0.170722 0.209167 0.345348
0.352857 0.305030 0.415566
0.635913 0.418895 0.471503
0.817057 0.508812 0.525281
0.094266 0.160085 0.289973
0.201252 0.242341 0.369263
0.417442 0.367674 0.464814
0.675622 0.481455 0.526975
0.832454 0.558839 0.572765
0.107908 0.183453 0.313111
0.235823 0.275286 0.396322
0.474480 0.413598 0.497580
0.716597 0.535901 0.572657
0.848659 0.605254 0.615442
0.123257 0.210886 0.357759
0.263177 0.306237 0.438921
0.505626 0.447618 0.538098
0.730419 0.572807 0.615645
0.865070 0.651838 0.661447
0.090653 0.150900 0.328764
0.136608 0.191118 0.372260
0.290419 0.290492 0.451811
0.568583 0.441962 0.542121
0.820108 0.585895 0.613435
0.091293 0.156904 0.330613
0.171619 0.225264 0.399782
0.340225 0.333269 0.482717
0.602873 0.477201 0.567131
0.832646 0.606638 0.630437
0.098338 0.173564 0.338459
0.203629 0.257388 0.419280
0.410750 0.386777 0.516305
0.653834 0.521163 0.595703
0.846352 0.628889 0.647456
0.113412 0.198164 0.357798
0.241724 0.291878 0.441224
0.475518 0.432877 0.541596
0.710601 0.564106 0.620422
0.859980 0.648386 0.661907
0.142201 0.236520 0.401659
0.290049 0.330963 0.474532
0.548232 0.477207 0.569559
0.772646 0.603195 0.641901
0.872726 0.663315 0.673026
