Assets/1__3DArt/KimSe/artstation_asset/LUTs_subway_asset/CUBE/LoFi Chill 02_S.cube
# LUT by SparkleStock. Enhanced with VOXCOLOR algorithms.
LUT_3D_SIZE 5
DOMAIN_MIN 0.000000 0.000000 0.000000
DOMAIN_MAX 0.903226 0.903226 0.903226
0.050794 0.046886 0.089866
0.155729 0.058120 0.100122
0.381386 0.087818 0.117137
0.633802 0.135949 0.153925
0.774461 0.191177 0.209012
0.055205 0.058175 0.107834
0.177670 0.115154 0.123041
0.412444 0.175135 0.138331
0.660311 0.227440 0.189660
0.801616 0.286406 0.291886
0.056891 0.068683 0.133089
0.178327 0.144849 0.181064
0.439053 0.285210 0.242060
0.695005 0.374922 0.311154
0.842713 0.445094 0.443264
0.060979 0.085699 0.182496
0.175007 0.167491 0.265162
0.443156 0.339431 0.381474
0.739827 0.520631 0.485604
0.886934 0.604220 0.599400
0.063082 0.102091 0.278900
0.174919 0.204189 0.393334
0.445489 0.401603 0.536808
0.758788 0.599513 0.647856
0.918894 0.704108 0.709241
0.053803 0.059616 0.148356
0.147848 0.077440 0.173870
0.379756 0.111327 0.197401
0.641735 0.170006 0.231707
0.790527 0.249856 0.289673
0.057890 0.068122 0.162305
0.195189 0.165508 0.231860
0.427791 0.230367 0.263528
0.672909 0.277502 0.294026
0.823479 0.336071 0.356526
0.062834 0.080935 0.192701
0.196655 0.205340 0.271082
0.451654 0.360284 0.329243
0.699470 0.434708 0.366724
0.859612 0.485702 0.446722
0.066989 0.096975 0.240746
0.187368 0.211186 0.328913
0.450525 0.403141 0.429270
0.731738 0.579114 0.494616
0.892517 0.640761 0.558551
0.071067 0.112507 0.321219
0.185406 0.221069 0.419318
0.450470 0.424603 0.552063
0.757041 0.626212 0.644461
0.917530 0.727907 0.679257
0.059459 0.069952 0.238662
0.130721 0.099825 0.272749
0.347701 0.172574 0.319074
0.643371 0.259938 0.362273
0.816030 0.362149 0.423806
0.061875 0.079090 0.246094
0.182140 0.174301 0.334202
0.417795 0.276289 0.408105
0.680675 0.345331 0.442539
0.845569 0.421686 0.487021
0.068967 0.093225 0.265572
0.205602 0.224693 0.367600
0.464320 0.399513 0.463423
0.708886 0.474541 0.495482
0.875739 0.521698 0.535128
0.076879 0.112932 0.309885
0.211133 0.243612 0.410477
0.468349 0.444869 0.515753
0.733378 0.617790 0.562829
0.899451 0.664919 0.590588
0.086329 0.128787 0.372669
0.221978 0.257289 0.475401
0.470544 0.448997 0.585821
0.757540 0.646216 0.662523
0.917437 0.748201 0.678648
0.067108 0.076072 0.337942
0.124386 0.115877 0.379269
0.307325 0.229242 0.451198
0.630038 0.382774 0.510577
0.848186 0.510734 0.575571
0.067855 0.085940 0.339175
0.167698 0.173114 0.423868
0.373210 0.308372 0.514857
0.678159 0.452214 0.581424
0.869427 0.547591 0.623432
0.074545 0.104818 0.351027
0.200859 0.223273 0.452364
0.445374 0.402136 0.564090
0.718408 0.537779 0.634726
0.890341 0.594212 0.661240
0.089343 0.127165 0.377620
0.236939 0.267256 0.483682
0.502689 0.469498 0.594529
0.751183 0.629341 0.664190
0.905330 0.671140 0.680545
0.108058 0.151159 0.434717
0.266110 0.296544 0.534108
0.536023 0.494477 0.634528
0.774582 0.651633 0.699832
0.919385 0.746423 0.713416
0.077089 0.078002 0.409193
0.127895 0.125941 0.455397
0.296070 0.265284 0.544963
0.598837 0.472655 0.635395
0.870925 0.643766 0.693853
0.076237 0.087849 0.409170
0.167639 0.173168 0.487439
0.353925 0.325512 0.578793
0.640372 0.518067 0.663414
0.885569 0.664341 0.713046
0.081685 0.107612 0.417538
0.202153 0.221194 0.511649
0.434927 0.398228 0.613375
0.696545 0.572496 0.690561
0.900460 0.684687 0.731389
0.096974 0.135455 0.438603
0.242657 0.271500 0.538051
0.503838 0.466440 0.640173
0.759187 0.627522 0.710619
0.914105 0.710286 0.743071
0.128853 0.175611 0.494464
0.296048 0.323829 0.578613
0.583566 0.524685 0.667562
0.824316 0.673395 0.725061
0.927286 0.733726 0.745265
