Assets/1__3DArt/KimSe/artstation_asset/LUTs_subway_asset/CUBE/LoFi Chill 03_S.cube
# LUT by SparkleStock. Enhanced with VOXCOLOR algorithms.
LUT_3D_SIZE 5
DOMAIN_MIN 0.000000 0.000000 0.000000
DOMAIN_MAX 0.903226 0.903226 0.903226
0.152381 0.125031 0.160195
0.247769 0.129584 0.165379
0.450140 0.144362 0.178833
0.673567 0.170743 0.207192
0.802521 0.202095 0.254118
0.156792 0.131372 0.170570
0.263043 0.172099 0.174538
0.468778 0.209795 0.180946
0.691288 0.238550 0.224279
0.824013 0.273861 0.321681
0.158651 0.137390 0.190074
0.270947 0.193245 0.225438
0.494701 0.296881 0.266483
0.717381 0.353738 0.322942
0.852511 0.397599 0.446021
0.164804 0.149600 0.235338
0.278098 0.208855 0.302314
0.517137 0.335131 0.394535
0.755175 0.473960 0.479373
0.881963 0.534436 0.587723
0.175013 0.166489 0.338233
0.290185 0.239204 0.422779
0.537845 0.381936 0.535914
0.789893 0.538598 0.636942
0.906680 0.637043 0.703680
0.156903 0.131750 0.206664
0.245224 0.139068 0.226808
0.453119 0.154167 0.244074
0.683326 0.188307 0.271094
0.818066 0.244162 0.326446
0.161923 0.137030 0.219787
0.275016 0.207657 0.269122
0.474630 0.249782 0.287427
0.695514 0.277655 0.311056
0.840864 0.316031 0.373081
0.168276 0.146688 0.247144
0.284637 0.241234 0.302717
0.496266 0.361865 0.340657
0.713517 0.414764 0.367822
0.866679 0.446999 0.443809
0.175107 0.160705 0.292983
0.290775 0.245077 0.357327
0.519509 0.393821 0.434274
0.742565 0.538314 0.484827
0.888543 0.587105 0.545062
0.186298 0.177022 0.377728
0.302112 0.253724 0.444746
0.543340 0.404853 0.549105
0.787602 0.568908 0.632470
0.906583 0.669109 0.672475
0.167443 0.140037 0.290795
0.238555 0.158790 0.317490
0.445379 0.203379 0.354673
0.695595 0.255129 0.385080
0.838958 0.327074 0.437528
0.171085 0.147822 0.299841
0.276948 0.215066 0.365212
0.481445 0.283586 0.421531
0.708031 0.327006 0.446285
0.857782 0.381318 0.487770
0.179760 0.159076 0.319431
0.302193 0.255469 0.392055
0.515765 0.389471 0.466912
0.722128 0.448707 0.490781
0.880000 0.483247 0.528451
0.188445 0.176401 0.358784
0.318197 0.270103 0.430125
0.539680 0.427013 0.514929
0.743485 0.577943 0.551822
0.895487 0.622313 0.578252
0.200803 0.190589 0.418326
0.338055 0.280196 0.489427
0.562495 0.424560 0.580229
0.788341 0.590496 0.650557
0.907759 0.696257 0.671274
0.182102 0.148206 0.388318
0.241455 0.176362 0.416494
0.425353 0.252477 0.469007
0.705183 0.359307 0.519500
0.864056 0.446316 0.567759
0.183632 0.157667 0.389759
0.280545 0.218832 0.451069
0.471217 0.312138 0.521161
0.724609 0.414928 0.577625
0.875614 0.484212 0.612158
0.190089 0.172467 0.400926
0.312492 0.256147 0.472417
0.525781 0.388850 0.563339
0.743308 0.493742 0.626535
0.889721 0.540615 0.651202
0.203727 0.189828 0.421007
0.348843 0.288810 0.495009
0.580485 0.441931 0.588121
0.766045 0.579315 0.655974
0.900578 0.626111 0.672120
0.219395 0.208543 0.462299
0.382013 0.309005 0.534526
0.620652 0.457526 0.623348
0.802885 0.591644 0.690089
0.909157 0.693129 0.708362
0.194974 0.151814 0.455008
0.249676 0.186798 0.485792
0.424142 0.283551 0.552151
0.690848 0.435901 0.628676
0.882950 0.575881 0.686604
0.194397 0.161930 0.453484
0.288406 0.222413 0.508711
0.471936 0.330153 0.580798
0.717768 0.473462 0.655051
0.890485 0.597876 0.706886
0.198919 0.177114 0.457622
0.321771 0.256724 0.525175
0.534998 0.387231 0.610517
0.753052 0.521194 0.682253
0.898363 0.621618 0.726966
0.211782 0.196590 0.470002
0.360996 0.292230 0.542427
0.596599 0.437472 0.631464
0.792380 0.570799 0.702483
0.905842 0.651466 0.740321
0.239313 0.225670 0.502028
0.414693 0.328996 0.568701
0.664992 0.480747 0.653345
0.844894 0.606743 0.716587
0.914818 0.672772 0.743325
