Assets/1__3DArt/KimSe/artstation_asset/LUTs_subway_asset/CUBE/LoFi Chill 03_S.cube
# LUT by SparkleStock. Enhanced with VOXCOLOR algorithms.
LUT_3D_SIZE 32
0.152381 0.125031 0.160195
0.162307 0.125409 0.160763
0.172232 0.125787 0.161330
0.182158 0.126165 0.161897
0.192083 0.126543 0.162464
0.202009 0.126921 0.163031
0.223711 0.128166 0.164150
0.247769 0.129584 0.165379
0.271826 0.131002 0.166608
0.295884 0.132420 0.167836
0.319942 0.133837 0.169065
0.350175 0.136138 0.171176
0.383497 0.138879 0.173729
0.416818 0.141620 0.176281
0.450140 0.144362 0.178833
0.483461 0.147103 0.181386
0.516192 0.150482 0.184836
0.548332 0.154500 0.189184
0.580472 0.158517 0.193533
0.612612 0.162535 0.197881
0.644752 0.166552 0.202229
0.673567 0.170743 0.207192
0.695734 0.175281 0.213384
0.717901 0.179818 0.219575
0.740069 0.184355 0.225767
0.762236 0.188893 0.231959
0.782386 0.193399 0.238426
0.792453 0.197747 0.246272
0.802521 0.202095 0.254118
0.812588 0.206444 0.261964
0.822655 0.210792 0.269810
0.832723 0.215140 0.277656
0.153184 0.126023 0.161566
0.163394 0.127343 0.161987
0.173603 0.128664 0.162408
0.183812 0.129984 0.162828
0.194021 0.131305 0.163249
0.204230 0.132625 0.163670
0.226048 0.134301 0.164368
0.250188 0.136048 0.165121
0.274328 0.137796 0.165874
0.298468 0.139543 0.166627
0.322608 0.141290 0.167381
0.352827 0.143767 0.169248
0.386084 0.146609 0.171672
0.419342 0.149451 0.174096
0.452599 0.152293 0.176520
0.485857 0.155135 0.178945
0.518551 0.158542 0.182532
0.550681 0.162514 0.187283
0.582812 0.166485 0.192034
0.614943 0.170457 0.196785
0.647074 0.174429 0.201536
0.675911 0.178592 0.207093
0.698160 0.183139 0.214263
0.720410 0.187685 0.221434
0.742659 0.192232 0.228604
0.764908 0.196778 0.235775
0.785132 0.201327 0.243291
0.795227 0.205886 0.252537
0.805322 0.210444 0.261782
0.815416 0.215003 0.271028
0.825511 0.219562 0.280274
0.835606 0.224121 0.289519
0.153988 0.127016 0.162937
0.164481 0.129278 0.163211
0.174973 0.131541 0.163486
0.185466 0.133803 0.163760
0.195959 0.136066 0.164034
0.206452 0.138329 0.164309
0.228386 0.140436 0.164586
0.252608 0.142513 0.164863
0.276830 0.144589 0.165141
0.301053 0.146666 0.165418
0.325275 0.148743 0.165696
0.355478 0.151397 0.167319
0.388671 0.154339 0.169615
0.421865 0.157282 0.171911
0.455058 0.160224 0.174208
0.488252 0.163167 0.176504
0.520909 0.166601 0.180228
0.553031 0.170527 0.185382
0.585153 0.174453 0.190535
0.617274 0.178379 0.195689
0.649396 0.182305 0.200842
0.678254 0.186441 0.206994
0.700586 0.190997 0.215143
0.722918 0.195553 0.223293
0.745249 0.200108 0.231442
0.767581 0.204664 0.239591
0.787878 0.209255 0.248156
0.798000 0.214024 0.258802
0.808122 0.218794 0.269447
0.818245 0.223563 0.280092
0.828367 0.228332 0.290737
0.838489 0.233101 0.301382
0.154791 0.128008 0.164307
0.165568 0.131213 0.164435
0.176344 0.134418 0.164564
0.187120 0.137623 0.164692
0.197897 0.140828 0.164820
0.208673 0.144032 0.164948
0.230723 0.146571 0.164804
0.255028 0.148977 0.164606
0.279332 0.151383 0.164407
0.303637 0.153789 0.164209
0.327942 0.156195 0.164011
0.358129 0.159026 0.165390
0.391259 0.162069 0.167558
0.424388 0.165112 0.169727
0.457518 0.168156 0.171895
0.490647 0.171199 0.174063
0.523268 0.174661 0.177925
0.555380 0.178541 0.183481
0.587493 0.182421 0.189036
0.619605 0.186301 0.194592
0.651718 0.190182 0.200148
0.680598 0.194290 0.206895
0.703012 0.198855 0.216023
0.725426 0.203420 0.225151
0.747840 0.207985 0.234279
0.770254 0.212550 0.243407
0.790624 0.217183 0.253022
0.800774 0.222163 0.265067
0.810923 0.227143 0.277111
0.821073 0.232122 0.289156
0.831223 0.237102 0.301201
0.841372 0.242081 0.313246
0.155595 0.129001 0.165678
0.166655 0.133148 0.165660
0.177715 0.137295 0.165641
0.188775 0.141442 0.165623
0.199835 0.145589 0.165605
0.210894 0.149736 0.165587
0.233060 0.152707 0.165022
0.257447 0.155442 0.164348
0.281834 0.158177 0.163674
0.306221 0.160912 0.163000
0.330608 0.163648 0.162326
0.360781 0.166655 0.163462
0.393846 0.169799 0.165502
0.426912 0.172943 0.167542
0.459977 0.176087 0.169582
0.493042 0.179231 0.171622
0.525627 0.182720 0.175621
0.557730 0.186555 0.181579
0.589833 0.190389 0.187538
0.621937 0.194224 0.193496
0.654040 0.198058 0.199454
0.682941 0.202139 0.206796
0.705437 0.206713 0.216903
0.727934 0.211287 0.227010
0.750430 0.215861 0.237117
0.772927 0.220435 0.247224
0.793370 0.225112 0.257887
0.803547 0.230302 0.271331
0.813724 0.235492 0.284776
0.823901 0.240682 0.298220
0.834078 0.245872 0.311665
0.844255 0.251061 0.325109
0.156398 0.129993 0.167049
0.167742 0.135083 0.166884
0.179085 0.140172 0.166719
0.190429 0.145261 0.166555
0.201772 0.150351 0.166390
0.213116 0.155440 0.166225
0.235398 0.158842 0.165240
0.259867 0.161907 0.164090
0.284336 0.164971 0.162941
0.308806 0.168036 0.161791
0.333275 0.171100 0.160642
0.363432 0.174285 0.161533
0.396434 0.177529 0.163445
0.429435 0.180774 0.165357
0.462436 0.184018 0.167269
0.495438 0.187263 0.169181
0.527985 0.190779 0.173317
0.560079 0.194568 0.179678
0.592174 0.198357 0.186039
0.624268 0.202146 0.192400
0.656362 0.205934 0.198761
0.685284 0.209988 0.206697
0.707863 0.214571 0.217782
0.730442 0.219154 0.228868
0.753021 0.223737 0.239954
0.775599 0.228321 0.251040
0.796116 0.233040 0.262752
0.806320 0.238440 0.277596
0.816525 0.243841 0.292440
0.826729 0.249241 0.307284
0.836934 0.254641 0.322129
0.847139 0.260042 0.336973
0.156651 0.130710 0.168774
0.168095 0.136040 0.169042
0.179539 0.141371 0.169311
0.190983 0.146701 0.169579
0.202427 0.152031 0.169847
0.213871 0.157361 0.170116
0.236575 0.162285 0.169549
0.261531 0.167127 0.168816
0.286486 0.171970 0.168082
0.311442 0.176812 0.167349
0.336398 0.181654 0.166616
0.366685 0.185666 0.167627
0.399637 0.189263 0.169510
0.432590 0.192859 0.171392
0.465542 0.196456 0.173275
0.498495 0.200053 0.175158
0.531006 0.203814 0.179451
0.563076 0.207740 0.186154
0.595145 0.211666 0.192856
0.627215 0.215592 0.199558
0.659285 0.219518 0.206261
0.688226 0.223684 0.214679
0.710910 0.228330 0.226531
0.733594 0.232975 0.238382
0.756278 0.237621 0.250233
0.778962 0.242267 0.262084
0.799582 0.247069 0.274612
0.809883 0.252657 0.290520
0.820183 0.258245 0.306428
0.830484 0.263833 0.322337
0.840784 0.269421 0.338245
0.851085 0.275009 0.354153
0.156792 0.131372 0.170570
0.168300 0.136803 0.171387
0.179809 0.142234 0.172204
0.191317 0.147664 0.173022
0.202825 0.153095 0.173839
0.214333 0.158526 0.174656
0.237520 0.165189 0.174677
0.263043 0.172099 0.174538
0.288566 0.179009 0.174399
0.314089 0.185919 0.174260
0.339612 0.192828 0.174122
0.370057 0.197798 0.175325
0.402964 0.201797 0.177198
0.435871 0.205796 0.179072
0.468778 0.209795 0.180946
0.501684 0.213795 0.182820
0.534159 0.217844 0.187273
0.566201 0.221944 0.194304
0.598244 0.226044 0.201336
0.630286 0.230144 0.208368
0.662328 0.234243 0.215400
0.691288 0.238550 0.224279
0.714081 0.243268 0.236853
0.736875 0.247987 0.249427
0.759669 0.252706 0.262000
0.782463 0.257425 0.274574
0.803192 0.262319 0.287870
0.813603 0.268090 0.304776
0.824013 0.273861 0.321681
0.834424 0.279632 0.338587
0.844834 0.285402 0.355492
0.855244 0.291173 0.372397
0.156934 0.132034 0.172366
0.168506 0.137565 0.173732
0.180078 0.143097 0.175098
0.191651 0.148628 0.176464
0.203223 0.154159 0.177830
0.214795 0.159691 0.179196
0.238465 0.168094 0.179804
0.264556 0.177071 0.180260
0.290646 0.186048 0.180716
0.316736 0.195026 0.181172
0.342826 0.204003 0.181628
0.373430 0.209930 0.183023
0.406291 0.214331 0.184887
0.439152 0.218733 0.186752
0.472013 0.223135 0.188617
0.504874 0.227536 0.190481
0.537312 0.231874 0.195094
0.569327 0.236148 0.202455
0.601342 0.240421 0.209816
0.633357 0.244695 0.217177
0.665371 0.248969 0.224538
0.694349 0.253415 0.233878
0.717253 0.258207 0.247175
0.740156 0.262999 0.260471
0.763060 0.267791 0.273768
0.785963 0.272583 0.287064
0.806803 0.277569 0.301129
0.817323 0.283523 0.319031
0.827843 0.289476 0.336934
0.838363 0.295430 0.354836
0.848884 0.301384 0.372739
0.859404 0.307338 0.390642
0.157076 0.132695 0.174162
0.168712 0.138327 0.176077
0.180348 0.143959 0.177992
0.191985 0.149592 0.179907
0.203621 0.155224 0.181822
0.215257 0.160856 0.183737
0.239411 0.170998 0.184931
0.266068 0.182043 0.185982
0.292725 0.193088 0.187032
0.319382 0.204132 0.188083
0.346040 0.215177 0.189133
0.376802 0.222061 0.190721
0.409618 0.226866 0.192576
0.442433 0.231670 0.194432
0.475248 0.236474 0.196287
0.508064 0.241278 0.198143
0.540465 0.245904 0.202916
0.572452 0.250351 0.210606
0.604440 0.254799 0.218296
0.636427 0.259246 0.225987
0.668415 0.263694 0.233677
0.697411 0.268281 0.243477
0.720424 0.273146 0.257497
0.743437 0.278011 0.271516
0.766451 0.282876 0.285535
0.789464 0.287741 0.299554
0.810413 0.292818 0.314387
0.821043 0.298955 0.333287
0.831673 0.305092 0.352187
0.842303 0.311229 0.371086
0.852933 0.317366 0.389986
0.863563 0.323502 0.408886
0.157218 0.133357 0.175958
0.168918 0.139090 0.178422
0.180618 0.144822 0.180886
0.192318 0.150555 0.183350
0.204019 0.156288 0.185814
0.215719 0.162021 0.188277
0.240356 0.173903 0.190059
0.267580 0.187015 0.191704
0.294805 0.200127 0.193349
0.322029 0.213239 0.194994
0.349254 0.226351 0.196639
0.380175 0.234193 0.198419
0.412944 0.239400 0.200265
0.445714 0.244607 0.202111
0.478484 0.249813 0.203958
0.511253 0.255020 0.205804
0.543618 0.259934 0.210737
0.575578 0.264555 0.218757
0.607538 0.269177 0.226777
0.639498 0.273798 0.234796
0.671458 0.278419 0.242816
0.700472 0.283146 0.253077
0.723595 0.288084 0.267819
0.746718 0.293023 0.282561
0.769841 0.297961 0.297302
0.792964 0.302900 0.312044
0.814024 0.308068 0.327646
0.824763 0.314388 0.347542
0.835503 0.320708 0.367439
0.846243 0.327027 0.387336
0.856983 0.333347 0.407233
0.867722 0.339667 0.427130
0.157517 0.134271 0.179015
0.169239 0.140025 0.182039
0.180960 0.145779 0.185064
0.192682 0.151533 0.188089
0.204403 0.157287 0.191114
0.216125 0.163041 0.194139
0.241045 0.175593 0.196805
0.268605 0.189504 0.199398
0.296165 0.203415 0.201991
0.323725 0.217326 0.204585
0.351284 0.231237 0.207178
0.382624 0.240626 0.209747
0.415854 0.247753 0.212304
0.449085 0.254881 0.214861
0.482315 0.262009 0.217418
0.515545 0.269137 0.219975
0.548080 0.275181 0.225327
0.579921 0.280140 0.233475
0.611762 0.285100 0.241623
0.643603 0.290060 0.249771
0.675444 0.295020 0.257918
0.704382 0.300035 0.268397
0.727511 0.305163 0.283539
0.750640 0.310290 0.298680
0.773769 0.315418 0.313822
0.796898 0.320545 0.328963
0.817978 0.325905 0.344989
0.828809 0.332426 0.365438
0.839640 0.338947 0.385887
0.850471 0.345468 0.406335
0.861302 0.351989 0.426784
0.872134 0.358510 0.447233
0.157895 0.135311 0.182701
0.169617 0.141046 0.186293
0.181338 0.146782 0.189885
0.193060 0.152518 0.193477
0.204782 0.158254 0.197070
0.216503 0.163989 0.200662
0.241606 0.176675 0.204359
0.269386 0.190751 0.208078
0.297165 0.204827 0.211797
0.324944 0.218902 0.215515
0.352724 0.232978 0.219234
0.384613 0.244209 0.222892
0.418556 0.254017 0.226519
0.452500 0.263825 0.230146
0.486443 0.273633 0.233773
0.520387 0.283441 0.237400
0.553197 0.291036 0.243301
0.584873 0.296416 0.251477
0.616550 0.301797 0.259652
0.648226 0.307177 0.267827
0.679903 0.312558 0.276002
0.708715 0.317936 0.286579
0.731798 0.323311 0.301958
0.754881 0.328685 0.317338
0.777965 0.334060 0.332717
0.801048 0.339434 0.348096
0.822103 0.345035 0.364375
0.833017 0.351766 0.385153
0.843930 0.358497 0.405931
0.854844 0.365229 0.426710
0.865757 0.371960 0.447488
0.876671 0.378692 0.468266
0.158273 0.136350 0.186388
0.169995 0.142068 0.190547
0.181716 0.147785 0.194706
0.193438 0.153503 0.198866
0.205160 0.159220 0.203025
0.216881 0.164938 0.207184
0.242167 0.177758 0.211914
0.270166 0.191998 0.216758
0.298165 0.206238 0.221602
0.326164 0.220479 0.226446
0.354163 0.234719 0.231289
0.386601 0.247792 0.236036
0.421258 0.260280 0.240733
0.455915 0.272769 0.245431
0.490572 0.285257 0.250128
0.525229 0.297746 0.254826
0.558314 0.306891 0.261276
0.589825 0.312692 0.269478
0.621337 0.318493 0.277681
0.652849 0.324295 0.285884
0.684361 0.330096 0.294086
0.713048 0.335837 0.304761
0.736085 0.341459 0.320378
0.759123 0.347080 0.335995
0.782161 0.352702 0.351612
0.805198 0.358323 0.367229
0.826229 0.364165 0.383761
0.837225 0.371106 0.404869
0.848221 0.378048 0.425976
0.859217 0.384990 0.447084
0.870213 0.391932 0.468191
0.881208 0.398874 0.489299
0.158651 0.137390 0.190074
0.170373 0.143089 0.194801
0.182095 0.148789 0.199527
0.193816 0.154488 0.204254
0.205538 0.160187 0.208980
0.217259 0.165886 0.213707
0.242728 0.178840 0.219469
0.270947 0.193245 0.225438
0.299165 0.207650 0.231407
0.327384 0.222055 0.237376
0.355602 0.236460 0.243345
0.388589 0.251375 0.249180
0.423960 0.266543 0.254948
0.459330 0.281712 0.260715
0.494701 0.296881 0.266483
0.530072 0.312050 0.272251
0.563430 0.322746 0.279250
0.594778 0.328968 0.287480
0.626125 0.335190 0.295710
0.657472 0.341412 0.303940
0.688819 0.347634 0.312170
0.717381 0.353738 0.322942
0.740373 0.359607 0.338797
0.763365 0.365475 0.354652
0.786357 0.371344 0.370507
0.809348 0.377212 0.386362
0.830355 0.383295 0.403147
0.841433 0.390447 0.424584
0.852511 0.397599 0.446021
0.863589 0.404751 0.467458
0.874668 0.411903 0.488894
0.885746 0.419055 0.510331
0.159030 0.138430 0.193761
0.170751 0.144111 0.199055
0.182473 0.149792 0.204348
0.194194 0.155473 0.209642
0.205916 0.161154 0.214936
0.217638 0.166835 0.220229
0.243290 0.179923 0.227023
0.271728 0.194492 0.234118
0.300166 0.209062 0.241212
0.328604 0.223632 0.248306
0.357042 0.238201 0.255400
0.390577 0.254958 0.262324
0.426661 0.272807 0.269162
0.462745 0.290656 0.276000
0.498830 0.308505 0.282838
0.534914 0.326354 0.289676
0.568547 0.338601 0.297224
0.599730 0.345243 0.305482
0.630912 0.351886 0.313739
0.662094 0.358529 0.321997
0.693277 0.365172 0.330255
0.721714 0.371639 0.341124
0.744660 0.377755 0.357217
0.767606 0.383870 0.373309
0.790552 0.389986 0.389402
0.813499 0.396101 0.405495
0.834481 0.402424 0.422534
0.845641 0.409787 0.444300
0.856802 0.417150 0.466066
0.867962 0.424512 0.487832
0.879123 0.431875 0.509598
0.890283 0.439237 0.531364
0.159715 0.139895 0.199055
0.171418 0.145604 0.204897
0.183121 0.151312 0.210740
0.194825 0.157020 0.216582
0.206528 0.162729 0.222425
0.218231 0.168437 0.228267
0.244029 0.181625 0.236014
0.272645 0.196309 0.244142
0.301262 0.210993 0.252270
0.329878 0.225677 0.260398
0.358495 0.240361 0.268526
0.392459 0.258143 0.276538
0.429096 0.277474 0.284493
0.465734 0.296806 0.292447
0.502371 0.316137 0.300401
0.539009 0.335468 0.308355
0.572988 0.349205 0.316619
0.604307 0.357349 0.325192
0.635627 0.365492 0.333765
0.666947 0.373635 0.342338
0.698266 0.381778 0.350911
0.726741 0.389348 0.361959
0.749528 0.395770 0.377956
0.772314 0.402191 0.393953
0.795100 0.408613 0.409949
0.817886 0.415035 0.425946
0.838734 0.421649 0.442896
0.849895 0.429222 0.464612
0.861055 0.436795 0.486328
0.872216 0.444368 0.508043
0.883376 0.451941 0.529759
0.894537 0.459514 0.551475
0.160707 0.141786 0.205955
0.172374 0.147567 0.212328
0.184041 0.153349 0.218702
0.195708 0.159130 0.225075
0.207374 0.164912 0.231448
0.219041 0.170693 0.237821
0.244947 0.183947 0.246441
0.273700 0.198695 0.255512
0.302454 0.213443 0.264582
0.331208 0.228191 0.273652
0.359961 0.242939 0.282722
0.394233 0.260932 0.291823
0.431264 0.280547 0.300939
0.468295 0.300161 0.310055
0.505326 0.319776 0.319171
0.542357 0.339391 0.328287
0.576752 0.354560 0.337433
0.608511 0.365283 0.346610
0.640270 0.376006 0.355787
0.672028 0.386729 0.364964
0.703787 0.397452 0.374141
0.732464 0.406863 0.385448
0.754975 0.413651 0.401015
0.777487 0.420439 0.416582
0.799998 0.427226 0.432149
0.822510 0.434014 0.447715
0.843116 0.440968 0.464235
0.854194 0.448751 0.485521
0.865273 0.456535 0.506807
0.876351 0.464318 0.528093
0.887429 0.472102 0.549379
0.898507 0.479885 0.570664
0.161700 0.143676 0.212856
0.173330 0.149531 0.219760
0.184960 0.155386 0.226663
0.196590 0.161241 0.233567
0.208220 0.167095 0.240471
0.219851 0.172950 0.247374
0.245865 0.186269 0.256869
0.274756 0.201081 0.266881
0.303646 0.215893 0.276894
0.332537 0.230705 0.286906
0.361428 0.245518 0.296919
0.396008 0.263721 0.307108
0.433432 0.283619 0.317386
0.470857 0.303517 0.327663
0.508281 0.323416 0.337941
0.545705 0.343314 0.348219
0.580517 0.359915 0.358248
0.612714 0.373217 0.368029
0.644912 0.386520 0.377810
0.677110 0.399823 0.387590
0.709308 0.413125 0.397371
0.738186 0.424378 0.408937
0.760423 0.431532 0.424074
0.782660 0.438686 0.439211
0.804897 0.445840 0.454348
0.827134 0.452993 0.469484
0.847498 0.460287 0.485575
0.858494 0.468281 0.506430
0.869490 0.476275 0.527286
0.880486 0.484268 0.548142
0.891482 0.492262 0.568998
0.902477 0.500256 0.589854
0.162693 0.145567 0.219757
0.174286 0.151495 0.227191
0.185880 0.157423 0.234625
0.197473 0.163351 0.242059
0.209067 0.169279 0.249494
0.220660 0.175206 0.256928
0.246783 0.188591 0.267296
0.275811 0.203467 0.278251
0.304839 0.218343 0.289205
0.333867 0.233220 0.300160
0.362895 0.248096 0.311115
0.397783 0.266509 0.322393
0.435600 0.286691 0.333832
0.473418 0.306873 0.345272
0.511236 0.327055 0.356711
0.549054 0.347237 0.368151
0.584281 0.365269 0.379063
0.616918 0.381152 0.389447
0.649555 0.397034 0.399832
0.682192 0.412916 0.410216
0.714829 0.428799 0.420601
0.743908 0.441894 0.432426
0.765870 0.449413 0.447133
0.787833 0.456933 0.461840
0.809796 0.464453 0.476547
0.831759 0.471972 0.491254
0.851880 0.479606 0.506914
0.862794 0.487810 0.527340
0.873707 0.496014 0.547766
0.884621 0.504219 0.568191
0.895534 0.512423 0.588617
0.906448 0.520627 0.609043
0.163685 0.147458 0.226657
0.175242 0.153459 0.234622
0.186799 0.159460 0.242587
0.198356 0.165461 0.250552
0.209913 0.171462 0.258517
0.221470 0.177463 0.266481
0.247700 0.190913 0.277723
0.276866 0.205853 0.289620
0.306031 0.220794 0.301517
0.335196 0.235734 0.313414
0.364362 0.250674 0.325311
0.399557 0.269298 0.337677
0.437768 0.289763 0.350279
0.475980 0.310229 0.362880
0.514191 0.330694 0.375481
0.552402 0.351160 0.388083
0.588045 0.370624 0.399878
0.621121 0.389086 0.410866
0.654197 0.407548 0.421854
0.687274 0.426010 0.432842
0.720350 0.444472 0.443831
0.749630 0.459409 0.455915
0.771318 0.467295 0.470192
0.793006 0.475180 0.484469
0.814695 0.483066 0.498746
0.836383 0.490951 0.513023
0.856262 0.498925 0.528253
0.867093 0.507340 0.548249
0.877924 0.515754 0.568245
0.888755 0.524169 0.588241
0.899587 0.532583 0.608237
0.910418 0.540998 0.628233
0.164804 0.149600 0.235338
0.176339 0.155723 0.243791
0.187875 0.161846 0.252244
0.199410 0.167969 0.260696
0.210946 0.174092 0.269149
0.222482 0.180215 0.277602
0.248810 0.193790 0.289603
0.278098 0.208855 0.302314
0.307385 0.223921 0.315025
0.336672 0.238986 0.327737
0.365959 0.254051 0.340448
0.401434 0.272902 0.353748
0.440002 0.293645 0.367344
0.478569 0.314388 0.380939
0.517137 0.335131 0.394535
0.555705 0.355874 0.408130
0.591735 0.376390 0.420721
0.625225 0.396678 0.432307
0.658716 0.416967 0.443893
0.692207 0.437256 0.455478
0.725698 0.457544 0.467064
0.755175 0.473960 0.479373
0.776625 0.482629 0.493129
0.798076 0.491298 0.506884
0.819526 0.499968 0.520640
0.840977 0.508637 0.534396
0.860630 0.517290 0.549079
0.871297 0.525863 0.568401
0.881963 0.534436 0.587723
0.892630 0.543010 0.607045
0.903296 0.551583 0.626367
0.913963 0.560156 0.645689
0.166174 0.152247 0.247580
0.177719 0.158590 0.256435
0.189264 0.164932 0.265290
0.200809 0.171275 0.274145
0.212353 0.177617 0.283001
0.223898 0.183960 0.291856
0.250304 0.197777 0.304389
0.279683 0.213089 0.317659
0.309062 0.228402 0.330928
0.338441 0.243714 0.344197
0.367819 0.259026 0.357466
0.403513 0.278136 0.371392
0.442365 0.299144 0.385646
0.481216 0.320152 0.399900
0.520068 0.341161 0.414154
0.558919 0.362169 0.428408
0.595273 0.382978 0.441621
0.629130 0.403587 0.453792
0.662987 0.424195 0.465964
0.696843 0.444804 0.478135
0.730700 0.465413 0.490306
0.760366 0.482582 0.502771
0.781652 0.492870 0.515822
0.802938 0.503159 0.528873
0.824224 0.513447 0.541924
0.845510 0.523736 0.554975
0.864971 0.533747 0.568878
0.875308 0.542375 0.587038
0.885645 0.551003 0.605199
0.895982 0.559631 0.623359
0.906320 0.568260 0.641519
0.916657 0.576888 0.659679
0.167545 0.154894 0.259821
0.179099 0.161456 0.269079
0.190653 0.168018 0.278337
0.202207 0.174580 0.287594
0.213761 0.181142 0.296852
0.225314 0.187705 0.306110
0.251799 0.201764 0.319176
0.281269 0.217323 0.333003
0.310739 0.232883 0.346830
0.340209 0.248442 0.360657
0.369680 0.264001 0.374484
0.405593 0.283370 0.389035
0.444728 0.304643 0.403948
0.483863 0.325917 0.418861
0.522998 0.347191 0.433773
0.562133 0.368464 0.448686
0.598812 0.389566 0.462521
0.633035 0.410495 0.475278
0.667257 0.431424 0.488035
0.701480 0.452353 0.500791
0.735702 0.473282 0.513548
0.765558 0.491204 0.526168
0.786679 0.503111 0.538515
0.807800 0.515019 0.550862
0.828921 0.526927 0.563209
0.850042 0.538834 0.575555
0.869311 0.550204 0.588677
0.879319 0.558887 0.605676
0.889327 0.567570 0.622674
0.899335 0.576253 0.639673
0.909343 0.584936 0.656671
0.919351 0.593619 0.673670
0.168916 0.157541 0.272063
0.180479 0.164322 0.281723
0.192042 0.171104 0.291383
0.203605 0.177886 0.301044
0.215168 0.184667 0.310704
0.226731 0.191449 0.320364
0.253293 0.205751 0.333962
0.282855 0.221557 0.348347
0.312416 0.237364 0.362732
0.341978 0.253170 0.377117
0.371540 0.268976 0.391503
0.407673 0.288604 0.406679
0.447091 0.310143 0.422250
0.486510 0.331682 0.437821
0.525929 0.353221 0.453393
0.565347 0.374760 0.468964
0.602351 0.396154 0.483421
0.636939 0.417403 0.496763
0.671528 0.438652 0.510106
0.706116 0.459901 0.523448
0.740705 0.481151 0.536790
0.770749 0.499826 0.549566
0.791706 0.513353 0.561208
0.812662 0.526879 0.572851
0.833619 0.540406 0.584493
0.854575 0.553933 0.596135
0.873652 0.566662 0.608477
0.883331 0.575400 0.624313
0.893009 0.584137 0.640150
0.902688 0.592875 0.655987
0.912366 0.601613 0.671823
0.922045 0.610351 0.687660
0.170286 0.160187 0.284304
0.181859 0.167189 0.294367
0.193431 0.174190 0.304430
0.205003 0.181191 0.314493
0.216575 0.188192 0.324555
0.228147 0.195194 0.334618
0.254787 0.209738 0.348748
0.284440 0.225791 0.363691
0.314093 0.241845 0.378634
0.343747 0.257898 0.393578
0.373400 0.273951 0.408521
0.409752 0.293838 0.424322
0.449454 0.315642 0.440552
0.489157 0.337447 0.456782
0.528859 0.359251 0.473012
0.568561 0.381055 0.489242
0.605890 0.402742 0.504321
0.640844 0.424311 0.518249
0.675798 0.445881 0.532177
0.710753 0.467450 0.546104
0.745707 0.489020 0.560032
0.775941 0.508448 0.572963
0.796733 0.523594 0.583901
0.817524 0.538740 0.594839
0.838316 0.553886 0.605777
0.859108 0.569032 0.616715
0.877993 0.583119 0.628276
0.887342 0.591912 0.642951
0.896691 0.600704 0.657626
0.906041 0.609497 0.672301
0.915390 0.618290 0.686975
0.924739 0.627083 0.701650
0.171704 0.162708 0.297869
0.183292 0.169949 0.308302
0.194879 0.177190 0.318736
0.206467 0.184430 0.329169
0.218054 0.191671 0.339602
0.229641 0.198911 0.350036
0.256359 0.213737 0.364622
0.286102 0.230080 0.380040
0.315845 0.246423 0.395457
0.345588 0.262766 0.410874
0.375331 0.279109 0.426292
0.411893 0.299298 0.442615
0.451863 0.321410 0.459391
0.491834 0.343522 0.476167
0.531804 0.365634 0.492942
0.571775 0.387747 0.509718
0.609408 0.409747 0.525301
0.644704 0.431637 0.539691
0.680000 0.453527 0.554081
0.715296 0.475416 0.568470
0.750592 0.497306 0.582860
0.781008 0.517399 0.595883
0.801662 0.533901 0.606171
0.822317 0.550402 0.616460
0.842971 0.566904 0.626748
0.863626 0.583405 0.637037
0.882335 0.598624 0.647841
0.891313 0.607434 0.661226
0.900292 0.616244 0.674611
0.909271 0.625053 0.687996
0.918250 0.633863 0.701381
0.927228 0.642672 0.714766
0.173359 0.164599 0.318051
0.184992 0.172178 0.328695
0.196625 0.179757 0.339338
0.208258 0.187336 0.349982
0.219891 0.194915 0.360626
0.231524 0.202494 0.371269
0.258318 0.217796 0.385937
0.288143 0.234642 0.401409
0.317969 0.251488 0.416882
0.347794 0.268334 0.432354
0.377620 0.285180 0.447826
0.414337 0.305884 0.464155
0.454499 0.328518 0.480913
0.494662 0.351152 0.497670
0.534825 0.373785 0.514428
0.574987 0.396419 0.531186
0.612826 0.418841 0.546682
0.648342 0.441050 0.560916
0.683857 0.463260 0.575150
0.719373 0.485470 0.589384
0.754889 0.507680 0.603619
0.785450 0.527999 0.616412
