Assets/1__3DArt/KimSe/artstation_asset/LUTs_subway_asset/CUBE/LoFi Chill 05.cube
# LUT by SparkleStock. Enhanced with VOXCOLOR algorithms.
LUT_3D_SIZE 8
DOMAIN_MIN 0.000000 0.000000 0.000000
DOMAIN_MAX 0.903226 0.903226 0.903226
0.074237 0.054701 0.093773
0.124526 0.061507 0.097743
0.214589 0.074473 0.109213
0.331427 0.094466 0.129442
0.461003 0.121478 0.158888
0.577841 0.153618 0.197267
0.662696 0.185600 0.238481
0.720469 0.214684 0.280775
0.075749 0.061696 0.099256
0.129552 0.073479 0.112154
0.221676 0.090177 0.128509
0.340038 0.113573 0.152263
0.471297 0.144317 0.185734
0.590331 0.180702 0.228650
0.677016 0.217661 0.275134
0.736387 0.252977 0.322527
0.076324 0.066415 0.108354
0.132292 0.081411 0.127278
0.229829 0.109773 0.155015
0.353103 0.144651 0.188990
0.486733 0.181797 0.228002
0.608376 0.224914 0.276700
0.697651 0.269165 0.329697
0.759506 0.312434 0.383713
0.077222 0.070432 0.122407
0.134556 0.087917 0.145857
0.237520 0.127753 0.184927
0.367634 0.179038 0.232556
0.507255 0.233040 0.283627
0.631497 0.284037 0.337947
0.723441 0.336147 0.396791
0.787767 0.387224 0.456612
0.079278 0.074993 0.143015
0.137728 0.095058 0.170398
0.244258 0.141543 0.216680
0.381690 0.210408 0.277964
0.531463 0.292511 0.347971
0.658797 0.354577 0.408293
0.752933 0.414052 0.470988
0.818876 0.471088 0.533795
0.082492 0.081043 0.175533
0.142698 0.104328 0.205697
0.253162 0.157558 0.257041
0.396034 0.236510 0.325363
0.552357 0.333781 0.404701
0.688034 0.428048 0.480245
0.783317 0.495206 0.544379
0.848570 0.553597 0.604600
0.085864 0.089771 0.223175
0.148558 0.116764 0.255388
0.263514 0.176881 0.309853
0.412009 0.265209 0.381757
0.574257 0.373927 0.464846
0.714984 0.482587 0.545122
0.810356 0.562288 0.607118
0.873055 0.622770 0.660708
0.088448 0.100469 0.285722
0.154332 0.131663 0.319679
0.273998 0.198981 0.375539
0.428040 0.296284 0.447849
0.595850 0.414536 0.529935
0.740174 0.531332 0.607614
0.835029 0.617690 0.664232
0.893066 0.675295 0.705951
0.074804 0.062452 0.122699
0.123776 0.069112 0.126815
0.214595 0.083487 0.137498
0.333226 0.105834 0.156983
0.464924 0.135700 0.186411
0.584397 0.171206 0.225668
0.671643 0.207287 0.269347
0.731520 0.241725 0.314818
0.076902 0.066081 0.128328
0.136979 0.085423 0.146246
0.231271 0.107303 0.164278
0.350058 0.134639 0.188148
0.481668 0.168832 0.221388
0.601070 0.207790 0.263482
0.687785 0.246260 0.308558
0.746512 0.281836 0.353902
0.079099 0.071165 0.139335
0.142432 0.095246 0.162613
0.242335 0.129452 0.192422
0.365594 0.168411 0.226729
0.498747 0.208829 0.264807
0.619857 0.253726 0.311545
0.708099 0.298038 0.361162
0.768194 0.339358 0.410591
0.081437 0.076537 0.155230
0.144691 0.101992 0.180228
0.249693 0.146891 0.220419
0.379679 0.201440 0.267932
0.518380 0.257715 0.317285
0.641701 0.309982 0.369070
0.732193 0.361375 0.423636
0.794432 0.409750 0.477825
0.084060 0.081592 0.176149
0.147127 0.108309 0.202573
0.255304 0.158861 0.248422
0.392442 0.229754 0.308647
0.540901 0.312545 0.376358
0.666846 0.375484 0.433974
0.759288 0.433810 0.492020
0.823029 0.487873 0.548837
0.087713 0.087495 0.206032
0.150837 0.115620 0.233424
0.262372 0.171987 0.283405
0.404930 0.252400 0.350196
0.559968 0.349565 0.426869
0.693690 0.442326 0.499141
0.787183 0.508316 0.559098
0.850481 0.564249 0.614010
0.091767 0.095711 0.248113
0.155302 0.124975 0.275836
0.270443 0.187347 0.328503
0.418558 0.276986 0.399142
0.579891 0.385478 0.480048
0.718852 0.492329 0.557336
0.812309 0.569852 0.616398
0.873262 0.628063 0.666062
0.095955 0.106220 0.303164
0.159913 0.135984 0.330256
0.278636 0.204569 0.384264
0.432146 0.303389 0.456324
0.599349 0.421736 0.537401
0.742494 0.537143 0.613280
0.835802 0.621393 0.668331
0.892383 0.677360 0.708164
0.077380 0.068731 0.164347
0.122339 0.075037 0.169232
0.212761 0.092963 0.178501
0.334092 0.121077 0.197139
0.470595 0.157464 0.227766
0.593843 0.198826 0.268213
0.684275 0.240542 0.313716
0.747038 0.281177 0.361591
0.079441 0.071896 0.168878
0.139004 0.093693 0.188985
0.233799 0.121071 0.208029
0.354579 0.154864 0.232104
0.489605 0.194990 0.265128
0.611880 0.239090 0.307194
0.700985 0.282227 0.352577
0.761760 0.322354 0.398522
0.082786 0.076944 0.177613
0.148742 0.105056 0.203113
0.251914 0.147294 0.235861
0.377430 0.193813 0.271391
0.511023 0.238631 0.307820
0.632342 0.286593 0.352509
0.720634 0.332717 0.399604
0.780537 0.374841 0.446139
0.086709 0.082771 0.191859
0.154446 0.112862 0.218483
0.264267 0.166832 0.261621
0.396303 0.228804 0.310129
0.532991 0.287468 0.356828
0.654354 0.340911 0.404911
0.742938 0.391633 0.454716
0.803177 0.437756 0.503267
0.090794 0.088618 0.212298
0.158656 0.119928 0.239717
0.270312 0.178052 0.286179
0.408023 0.254258 0.345469
0.553785 0.337452 0.410124
0.677295 0.400579 0.463456
0.767349 0.457435 0.516211
0.828734 0.508487 0.566814
0.095508 0.094583 0.239028
0.163974 0.127252 0.267127
0.276850 0.188957 0.315757
0.418204 0.272551 0.379856
0.570703 0.369226 0.453046
0.701343 0.460116 0.521109
0.792342 0.524404 0.576087
0.853224 0.577388 0.625187
0.100695 0.102148 0.274769
0.170277 0.136024 0.303206
0.284135 0.201089 0.353018
0.428780 0.291609 0.419872
0.587766 0.399374 0.497690
0.724088 0.504239 0.571494
0.815133 0.579371 0.626849
0.873887 0.634857 0.672112
0.106564 0.111699 0.320766
0.177127 0.146182 0.348659
0.291700 0.214329 0.398637
0.439224 0.311540 0.466471
0.604127 0.429474 0.545787
0.745366 0.543476 0.619601
0.836856 0.625687 0.672639
0.891830 0.679828 0.710286
0.082359 0.073851 0.215408
0.122561 0.079962 0.221196
0.209452 0.101011 0.230487
0.332292 0.136784 0.248895
0.476435 0.184993 0.279760
0.605818 0.236221 0.322621
0.700586 0.285773 0.369869
0.766903 0.333506 0.419400
0.083822 0.077321 0.218086
0.140347 0.099386 0.238718
0.232407 0.130717 0.258676
0.354528 0.172566 0.283363
0.496234 0.223991 0.316495
0.623832 0.276759 0.359673
0.716965 0.327067 0.406088
0.781121 0.373836 0.453258
0.087467 0.082562 0.223316
0.153067 0.111939 0.249452
0.256703 0.160211 0.284372
0.384240 0.215701 0.321471
0.521408 0.270300 0.357590
0.645258 0.324172 0.400957
0.735483 0.374626 0.446555
0.796923 0.420199 0.491557
0.092727 0.088978 0.233287
0.162970 0.121489 0.261031
0.276175 0.183006 0.306715
0.410550 0.253895 0.356769
0.547458 0.319782 0.402408
0.667998 0.375854 0.446687
0.755765 0.427466 0.492289
0.815197 0.473271 0.536272
0.099023 0.095900 0.249475
0.171790 0.130666 0.278676
0.287687 0.196174 0.326564
0.426882 0.279492 0.385870
0.570462 0.366557 0.448316
0.690442 0.429352 0.496250
0.777341 0.484375 0.543139
0.836069 0.532439 0.587367
0.105542 0.102010 0.273022
0.180198 0.138958 0.303101
0.296184 0.206754 0.351763
0.436882 0.295004 0.413799
0.585228 0.392803 0.482986
0.711704 0.481481 0.546180
0.799324 0.543308 0.595333
0.857301 0.592855 0.638164
0.112534 0.109072 0.302490
0.189929 0.148284 0.333403
0.305670 0.217926 0.382332
0.446896 0.310225 0.445618
0.598915 0.416190 0.518200
0.731471 0.518578 0.587836
0.819362 0.590929 0.638806
0.875428 0.643216 0.679191
0.120440 0.117492 0.339085
0.200659 0.158770 0.370395
0.315874 0.229768 0.418929
0.456939 0.325555 0.482271
0.611636 0.438743 0.556028
0.749662 0.550760 0.627080
0.838699 0.630793 0.677651
0.891723 0.682855 0.712708
0.089897 0.077939 0.272055
0.125965 0.084288 0.278519
0.205844 0.106754 0.290159
0.327249 0.150339 0.309622
0.479701 0.214615 0.339431
0.619330 0.281816 0.385878
0.720181 0.342309 0.435248
0.790698 0.398232 0.485806
0.090336 0.081098 0.272555
0.144270 0.103330 0.292901
0.230240 0.136299 0.313974
0.351167 0.186369 0.339964
0.500686 0.254077 0.374038
0.637043 0.320962 0.419442
0.735610 0.380933 0.467080
0.803561 0.435031 0.514792
0.093346 0.087027 0.274999
0.157196 0.116670 0.300678
0.256931 0.166800 0.336044
0.384170 0.230522 0.374601
0.527416 0.300743 0.412806
0.657976 0.365924 0.456378
0.752533 0.423953 0.501619
0.817068 0.475252 0.545991
0.099304 0.094662 0.279395
0.169949 0.128282 0.307357
0.282679 0.192604 0.353678
0.417925 0.271351 0.405152
0.558032 0.350339 0.452486
0.681330 0.413539 0.494439
0.770573 0.469010 0.537193
0.830988 0.517215 0.578193
0.107996 0.102862 0.287091
0.185182 0.140436 0.317763
0.304686 0.210599 0.367263
0.445659 0.300997 0.427595
0.588586 0.396522 0.489541
0.705552 0.461138 0.532617
0.789360 0.514946 0.573623
0.845541 0.560587 0.611664
0.117297 0.109467 0.306613
0.197759 0.150313 0.338376
0.318991 0.223815 0.388943
0.460518 0.317688 0.450653
0.603815 0.419173 0.516077
0.725125 0.506089 0.574186
0.808456 0.564818 0.616840
0.863087 0.610573 0.653113
0.127039 0.116382 0.330424
0.211487 0.160429 0.363187
0.334171 0.236893 0.414508
0.474485 0.332823 0.476394
0.615371 0.436619 0.542168
0.741811 0.535502 0.606505
0.825460 0.604486 0.652457
0.878319 0.653095 0.687556
0.137670 0.123963 0.358410
0.226543 0.171205 0.392201
0.350627 0.250466 0.443994
0.488823 0.347713 0.505334
0.625639 0.452135 0.569926
0.756587 0.559724 0.636363
0.841884 0.636943 0.683800
0.892448 0.686554 0.715800
0.099917 0.080208 0.326882
0.132618 0.087435 0.333639
0.207162 0.112231 0.347334
0.321870 0.159901 0.370371
0.470352 0.232850 0.404406
0.630472 0.329471 0.451878
0.741569 0.407308 0.504223
0.817428 0.473642 0.555611
0.099332 0.082928 0.325333
0.151146 0.105472 0.344611
0.232544 0.140283 0.366460
0.347247 0.194223 0.394967
0.492895 0.270532 0.432701
0.648157 0.365477 0.480149
0.755477 0.440772 0.530177
0.827912 0.503803 0.578242
0.101524 0.089143 0.325209
0.163939 0.118772 0.349745
0.260328 0.169931 0.384471
0.382565 0.236910 0.423931
0.522391 0.315482 0.464989
0.669145 0.407041 0.511945
0.770710 0.477785 0.558243
0.838658 0.535940 0.601788
0.106751 0.097485 0.326580
0.176650 0.131290 0.353711
0.287185 0.196318 0.398646
0.418978 0.277666 0.449697
0.556820 0.363988 0.498659
0.692667 0.451187 0.544903
0.786871 0.516189 0.586897
0.849477 0.568670 0.625483
0.115406 0.106820 0.329867
0.193234 0.145471 0.360020
0.311831 0.217192 0.408666
0.451212 0.310064 0.468265
0.593575 0.411037 0.530324
0.717666 0.494879 0.576869
0.803534 0.554072 0.614913
0.860257 0.600840 0.648759
0.129537 0.116352 0.337679
0.214607 0.159861 0.370623
0.339782 0.237872 0.422678
0.483559 0.336647 0.485412
0.626320 0.442376 0.550523
0.741497 0.532540 0.604737
0.819958 0.588985 0.641217
0.871123 0.631274 0.671345
0.143865 0.123633 0.356368
0.233771 0.171363 0.390311
0.361864 0.253650 0.443361
0.505839 0.355658 0.506706
0.645934 0.463178 0.572084
0.757328 0.555470 0.627898
0.834384 0.619932 0.667913
0.883361 0.664336 0.697635
0.158875 0.130989 0.378407
0.253924 0.182882 0.413407
0.384565 0.269145 0.467249
0.527655 0.373639 0.530591
0.663492 0.481534 0.594972
0.770181 0.573245 0.649544
0.847858 0.644830 0.691836
0.895156 0.691085 0.720263
0.111040 0.081059 0.370838
0.140863 0.089408 0.377888
0.211594 0.117036 0.393465
0.321812 0.169708 0.420035
0.466186 0.250521 0.459028
0.627770 0.360706 0.511672
0.755700 0.465442 0.567787
0.842466 0.549027 0.619796
0.109552 0.083340 0.367727
0.159734 0.106250 0.385750
0.237952 0.143085 0.408214
0.348448 0.201234 0.439212
0.490016 0.284699 0.481101
0.645911 0.392698 0.533513
0.768461 0.492541 0.587071
0.850559 0.571034 0.635685
0.110876 0.089409 0.365697
0.172344 0.119225 0.388847
0.266219 0.171321 0.422537
0.384901 0.241340 0.462685
0.521161 0.326279 0.506838
0.668132 0.429927 0.558270
0.782714 0.522814 0.608068
0.858713 0.594351 0.651934
0.115300 0.098002 0.364826
0.184744 0.132120 0.390882
0.293374 0.197463 0.433897
0.422350 0.280624 0.483982
0.557358 0.371732 0.534166
0.693334 0.469852 0.584187
0.798097 0.554496 0.629577
0.866916 0.617989 0.668058
0.123355 0.108013 0.365380
0.201348 0.147280 0.394593
0.318669 0.219611 0.441741
0.455943 0.313446 0.499565
0.596174 0.416836 0.560336
0.720269 0.509811 0.609495
0.814149 0.585802 0.650475
0.875093 0.640903 0.683560
0.137802 0.118521 0.368924
0.224172 0.163478 0.401210
0.349551 0.243157 0.452291
0.492421 0.343706 0.513810
0.633338 0.451404 0.577611
0.746592 0.544734 0.630943
0.829832 0.613473 0.668976
0.882869 0.660887 0.697400
0.158913 0.129299 0.380477
0.251990 0.179370 0.414314
0.382631 0.265216 0.467728
0.527824 0.370968 0.531384
0.667093 0.481371 0.596439
0.773866 0.573615 0.649909
0.845809 0.637682 0.686403
0.890692 0.679700 0.711698
0.181310 0.138726 0.397292
0.280150 0.193723 0.432033
0.414613 0.284973 0.486787
0.560311 0.394798 0.551311
0.696058 0.506573 0.616105
0.795796 0.596279 0.667807
0.860180 0.657636 0.703072
0.899192 0.696464 0.725873
0.121564 0.081626 0.401867
0.149082 0.090829 0.409368
0.217231 0.121411 0.426952
0.324807 0.179590 0.457206
0.466880 0.268730 0.501531
0.628025 0.390416 0.560890
0.766228 0.515691 0.622636
0.861454 0.615004 0.675968
0.119436 0.083309 0.397531
0.168006 0.106403 0.414541
0.244130 0.145267 0.437912
0.352188 0.207792 0.471637
0.491292 0.298334 0.517917
0.645945 0.416758 0.576283
0.777330 0.535468 0.634945
0.867043 0.628517 0.684889
0.119895 0.088820 0.394020
0.180536 0.118834 0.416269
0.272604 0.171780 0.449219
0.389105 0.244741 0.490244
0.523305 0.335636 0.537678
0.668780 0.448457 0.594033
0.790624 0.558246 0.648576
0.873033 0.642833 0.693828
0.123422 0.097141 0.391578
0.192708 0.131679 0.417198
0.299858 0.197205 0.458556
0.426911 0.281915 0.507782
0.560210 0.377160 0.559284
0.694970 0.483194 0.613111
0.805528 0.582733 0.662848
0.879412 0.657571 0.702718
0.130714 0.107312 0.390568
0.208993 0.147144 0.419360
0.325331 0.219886 0.465231
0.460927 0.314283 0.521303
0.599406 0.419231 0.580705
0.722897 0.518632 0.632376
0.821340 0.607524 0.677083
0.886055 0.672157 0.711417
0.144735 0.118327 0.392441
0.231773 0.164221 0.424060
0.356661 0.244728 0.473998
0.498182 0.346085 0.534045
0.637364 0.454852 0.596364
0.749925 0.550825 0.649428
0.836595 0.629801 0.690106
0.892375 0.684793 0.719341
0.169194 0.131165 0.400010
0.263861 0.182839 0.433187
0.395316 0.270704 0.486142
0.540386 0.378499 0.549243
0.678577 0.490643 0.613459
0.783642 0.583978 0.665870
0.853470 0.649724 0.701473
0.897579 0.693901 0.725612
0.200013 0.144745 0.414543
0.300357 0.201384 0.447632
0.436134 0.295535 0.502002
0.582305 0.408503 0.566614
0.717182 0.522752 0.631300
0.814110 0.612928 0.682009
0.870803 0.668948 0.713536
0.904579 0.703789 0.733081
