Assets/1__3DArt/KimSe/artstation_asset/LUTs_subway_asset/CUBE/LoFi Chill 03.cube
# LUT by SparkleStock. Enhanced with VOXCOLOR algorithms.
LUT_3D_SIZE 8
DOMAIN_MIN 0.000000 0.000000 0.000000
DOMAIN_MAX 0.903226 0.903226 0.903226
0.152381 0.125031 0.160195
0.192083 0.126921 0.163031
0.271826 0.132561 0.168144
0.383497 0.141951 0.176399
0.516192 0.154807 0.188475
0.644752 0.170310 0.205680
0.740069 0.186758 0.227925
0.802521 0.203088 0.254969
0.155784 0.128812 0.165867
0.197682 0.135679 0.176021
0.280035 0.144740 0.185135
0.393999 0.156972 0.196452
0.528158 0.172865 0.212352
0.657156 0.192174 0.234532
0.752180 0.213159 0.263340
0.814114 0.234648 0.298135
0.157312 0.131388 0.172878
0.200991 0.141469 0.189210
0.288110 0.160561 0.209923
0.406155 0.182322 0.231308
0.541622 0.203222 0.252211
0.671267 0.228306 0.280820
0.766638 0.255971 0.317296
0.828723 0.284797 0.360430
0.158541 0.133704 0.183513
0.203342 0.146578 0.205736
0.294806 0.175703 0.238768
0.418030 0.211348 0.274154
0.557462 0.246277 0.306873
0.687413 0.277886 0.341471
0.783068 0.313002 0.384983
0.845374 0.349708 0.435401
0.160739 0.136681 0.200126
0.205906 0.152904 0.228497
0.299770 0.188358 0.270320
0.428397 0.239266 0.320312
0.575256 0.298146 0.372334
0.705572 0.338995 0.412786
0.800983 0.381414 0.461390
0.863043 0.424977 0.516511
0.165087 0.141975 0.228485
0.210108 0.162442 0.263003
0.305588 0.204940 0.312529
0.437655 0.265082 0.371108
0.589490 0.336916 0.432826
0.724783 0.406599 0.488354
0.819438 0.456385 0.539105
0.879991 0.503101 0.593549
0.170381 0.150735 0.274489
0.215499 0.176300 0.314423
0.312321 0.226351 0.369451
0.447238 0.295685 0.433405
0.603333 0.377865 0.500170
0.742992 0.459794 0.560040
0.836078 0.521806 0.608404
0.893742 0.572696 0.656962
0.175864 0.162236 0.339793
0.221921 0.193467 0.383648
0.320093 0.251343 0.441211
0.457273 0.329743 0.506620
0.616701 0.421203 0.573815
0.759892 0.510475 0.631917
0.852250 0.579408 0.674411
0.905691 0.628922 0.710005
0.154272 0.128623 0.181748
0.189875 0.133733 0.189560
0.270082 0.141350 0.195399
0.384277 0.152203 0.202934
0.519699 0.166651 0.214901
0.650600 0.184642 0.233276
0.747649 0.204676 0.258766
0.811236 0.225842 0.291134
0.157089 0.130940 0.187566
0.202934 0.147826 0.209496
0.286894 0.161650 0.222040
0.401304 0.176242 0.232997
0.535612 0.194109 0.248036
0.664572 0.215000 0.269348
0.759516 0.237248 0.297094
0.821130 0.259740 0.330367
0.160209 0.134333 0.197730
0.208496 0.155774 0.225172
0.296892 0.180083 0.249958
0.414739 0.204326 0.271435
0.549813 0.227272 0.290777
0.678726 0.253352 0.316879
0.773286 0.281014 0.349994
0.834343 0.308908 0.388695
0.163255 0.138223 0.212024
0.210710 0.161220 0.241476
0.302807 0.195094 0.277763
0.425598 0.232700 0.313283
0.564304 0.268750 0.343868
0.693758 0.301232 0.375005
0.788517 0.335727 0.413966
0.849582 0.370665 0.458925
0.166222 0.142408 0.230943
0.212739 0.166983 0.262434
0.306997 0.206719 0.305833
0.434818 0.258739 0.355404
0.579954 0.316856 0.404931
0.710044 0.358479 0.441724
0.804721 0.400024 0.485107
0.865627 0.441529 0.534218
0.170570 0.148141 0.259301
0.216034 0.174694 0.292635
0.311644 0.220653 0.341998
0.443282 0.281915 0.399806
0.593962 0.352887 0.459130
0.727215 0.420172 0.510999
0.821117 0.469310 0.556717
0.880857 0.514383 0.605378
0.175864 0.156973 0.302256
0.220708 0.185414 0.336416
0.317517 0.237829 0.389997
0.452163 0.308332 0.453389
0.607350 0.390047 0.518188
0.745234 0.469710 0.575061
0.836949 0.529964 0.619872
0.893621 0.579048 0.663932
0.181981 0.168554 0.361760
0.226470 0.198463 0.394704
0.324593 0.257492 0.450265
0.461855 0.337235 0.516308
0.620560 0.428665 0.582555
0.762226 0.516402 0.638759
0.853019 0.583466 0.679284
0.905490 0.631700 0.712596
0.158037 0.132884 0.216826
0.188817 0.139349 0.227127
0.264428 0.151922 0.237592
0.378755 0.168308 0.248002
0.520544 0.186979 0.259275
0.656069 0.208909 0.277785
0.756007 0.233376 0.304964
0.821437 0.259936 0.340492
0.160684 0.135293 0.222583
0.204693 0.155837 0.248984
0.285772 0.176945 0.268138
0.399890 0.197968 0.282689
0.538047 0.218975 0.295954
0.670294 0.242979 0.316083
0.767491 0.268621 0.343607
0.830393 0.294937 0.377400
0.164415 0.139003 0.232168
0.213464 0.165894 0.264228
0.302913 0.199369 0.296097
0.421671 0.230789 0.321300
0.557250 0.255886 0.338177
0.686388 0.283437 0.361327
0.780902 0.312143 0.391330
0.841593 0.340836 0.426683
0.168458 0.143852 0.246794
0.218298 0.172882 0.279947
0.313715 0.216303 0.321872
0.437955 0.260700 0.360004
0.574910 0.297574 0.387667
0.702323 0.330281 0.414617
0.795238 0.363876 0.448271
0.854666 0.397146 0.487048
0.172400 0.149621 0.267228
0.221846 0.179451 0.301092
0.318060 0.227143 0.346878
0.445974 0.284082 0.396577
0.589128 0.341393 0.442892
0.717024 0.382780 0.475291
0.809750 0.422870 0.512836
0.868942 0.461971 0.555218
0.176955 0.155896 0.294343
0.226288 0.187204 0.328872
0.322366 0.238652 0.377468
0.452622 0.303030 0.433169
0.601254 0.373156 0.489439
0.732186 0.438076 0.536833
0.824198 0.485625 0.577091
0.882323 0.528373 0.619359
0.182370 0.164301 0.332399
0.232077 0.197056 0.366831
0.327996 0.252225 0.416955
0.459827 0.323707 0.476474
0.612849 0.404615 0.538811
0.748757 0.482085 0.592123
0.838671 0.540168 0.632973
0.893906 0.586973 0.671985
0.188776 0.175002 0.383572
0.239085 0.208866 0.416206
0.334986 0.267565 0.466243
0.468118 0.345831 0.527355
0.624716 0.436544 0.592381
0.764676 0.522834 0.646489
0.853911 0.588174 0.684776
0.905323 0.634988 0.715338
0.163756 0.137579 0.263382
0.190145 0.144995 0.274902
0.258687 0.162736 0.290492
0.370417 0.187312 0.306004
0.517710 0.215473 0.319660
0.660809 0.243405 0.337511
0.765212 0.273405 0.364815
0.833228 0.305735 0.401409
0.166098 0.140720 0.268139
0.206529 0.162197 0.295523
0.281691 0.189403 0.320349
0.393699 0.219378 0.340638
0.536620 0.249702 0.356413
0.675016 0.278441 0.374722
0.776203 0.308871 0.401539
0.841430 0.340310 0.435711
0.169775 0.144885 0.275704
0.217408 0.173713 0.308960
0.304933 0.214663 0.346396
0.423187 0.255647 0.377157
0.560679 0.289210 0.396242
0.692680 0.319416 0.415875
0.789046 0.350650 0.442846
0.850680 0.381946 0.475697
0.174359 0.150396 0.288079
0.225362 0.182635 0.322682
0.322478 0.234251 0.368999
0.447627 0.287674 0.411117
0.584031 0.331022 0.439687
0.710595 0.364333 0.461849
0.802658 0.397835 0.490232
0.861247 0.430697 0.523531
0.179423 0.157262 0.306530
0.232332 0.191226 0.341920
0.331506 0.246491 0.389800
0.460544 0.310353 0.440463
0.602233 0.371073 0.485315
0.726511 0.411510 0.512618
0.816164 0.449495 0.543835
0.873023 0.485871 0.579151
0.184333 0.164550 0.331706
0.238875 0.199982 0.367969
0.337706 0.257194 0.416351
0.467324 0.326099 0.470196
0.612094 0.397520 0.523193
0.739927 0.459836 0.565614
0.828874 0.504966 0.599878
0.884597 0.544777 0.635300
0.190132 0.172646 0.364174
0.246796 0.210145 0.400862
0.345284 0.269218 0.448919
0.474657 0.342333 0.504218
0.621219 0.421997 0.561909
0.754200 0.496943 0.611229
0.841609 0.552449 0.647691
0.894863 0.596507 0.681251
0.196861 0.182278 0.405996
0.256059 0.221935 0.441958
0.354425 0.282560 0.488683
0.483362 0.359245 0.543912
0.631012 0.445981 0.603682
0.768114 0.530305 0.655344
0.855381 0.593753 0.691148
0.905461 0.638887 0.718639
0.171295 0.142471 0.318445
0.194463 0.151351 0.330715
0.255794 0.172810 0.349751
0.362198 0.206600 0.371351
0.510502 0.249663 0.392184
0.664377 0.287566 0.409815
0.775120 0.324671 0.436000
0.846517 0.363037 0.471701
0.172905 0.146307 0.320915
0.210795 0.168511 0.348469
0.278814 0.198659 0.375678
0.386209 0.238235 0.402163
0.531633 0.285051 0.426762
0.678964 0.322203 0.443845
0.785547 0.358664 0.468892
0.853758 0.395461 0.501828
0.176122 0.151361 0.326478
0.221654 0.180552 0.359754
0.303568 0.224180 0.398701
0.418279 0.274674 0.435072
0.557831 0.324577 0.463027
0.696675 0.361316 0.480209
0.797391 0.397060 0.504270
0.861510 0.432500 0.534978
0.180946 0.157461 0.335032
0.231533 0.191119 0.369873
0.326520 0.245978 0.417233
0.450219 0.308063 0.463425
0.587397 0.365216 0.498426
0.716732 0.402595 0.517055
0.810325 0.437902 0.540872
0.869628 0.472221 0.570027
0.187035 0.164568 0.347400
0.242897 0.202434 0.383484
0.344969 0.262231 0.432373
0.475428 0.333095 0.484671
0.616177 0.402774 0.531032
0.737225 0.444184 0.554071
0.823701 0.480260 0.578888
0.878138 0.514104 0.607242
0.192712 0.173392 0.369630
0.252178 0.212770 0.406871
0.356568 0.274827 0.456053
0.487343 0.348905 0.509252
0.626869 0.424540 0.559395
0.750367 0.484784 0.596957
0.835210 0.527025 0.624828
0.887872 0.563454 0.653209
0.199234 0.181836 0.396683
0.262660 0.223712 0.434714
0.368937 0.287932 0.483679
0.498550 0.363885 0.536499
0.634858 0.442417 0.587512
0.762270 0.514205 0.632228
0.846090 0.566710 0.663883
0.896738 0.607556 0.691764
0.206578 0.190923 0.429562
0.274512 0.235636 0.467527
0.383010 0.302013 0.515853
0.511258 0.379157 0.567555
0.643489 0.458981 0.617698
0.773768 0.539461 0.665656
0.857914 0.600386 0.698581
0.906187 0.643425 0.722802
0.179991 0.147198 0.375162
0.200965 0.157541 0.387287
0.257922 0.182537 0.408871
0.356984 0.223096 0.436143
0.498006 0.277924 0.465209
0.665347 0.339246 0.489280
0.784798 0.387085 0.514709
0.860702 0.431903 0.547580
0.180870 0.151473 0.374705
0.217244 0.174007 0.401433
0.281169 0.206800 0.430029
0.381240 0.252211 0.460874
0.519326 0.309927 0.492799
0.680463 0.371518 0.517796
0.794678 0.417655 0.541765
0.866834 0.460106 0.571806
0.183355 0.157070 0.377444
0.227810 0.186180 0.409856
0.306578 0.231430 0.448933
0.414827 0.286610 0.487982
0.547294 0.346509 0.521997
0.698839 0.407262 0.547922
0.805871 0.451049 0.570143
0.873112 0.490726 0.597315
0.187447 0.163694 0.383096
0.237486 0.197394 0.417488
0.330270 0.253437 0.464269
0.448892 0.319242 0.511690
0.580219 0.384933 0.551073
0.719752 0.444314 0.577927
0.818032 0.485669 0.598700
0.879484 0.522550 0.623243
0.193280 0.171313 0.391750
0.249671 0.209958 0.427966
0.350676 0.271594 0.476435
0.478183 0.345746 0.529109
0.615532 0.421710 0.577733
0.742104 0.480491 0.606221
0.830752 0.520048 0.626481
0.885939 0.554501 0.648970
0.202031 0.181162 0.405783
0.265085 0.224038 0.443042
0.373635 0.290012 0.492253
0.507010 0.368010 0.545423
0.645800 0.447381 0.595152
0.762810 0.511738 0.630230
0.843196 0.552134 0.652411
0.892651 0.585310 0.674356
0.209553 0.191362 0.427932
0.278588 0.236623 0.465869
0.391742 0.305008 0.514844
0.526705 0.385041 0.567393
0.663240 0.466141 0.616909
0.775081 0.533882 0.654703
0.852866 0.582742 0.681139
0.900088 0.619786 0.703496
0.217800 0.201559 0.454506
0.293156 0.249468 0.492324
0.410745 0.320252 0.540738
0.546483 0.401773 0.592284
0.679465 0.483335 0.640640
0.785735 0.552260 0.678735
0.862727 0.608486 0.707317
0.908192 0.648524 0.728125
0.188058 0.150191 0.421639
0.207567 0.162242 0.433739
0.262094 0.190415 0.457477
0.357065 0.236879 0.489556
0.492544 0.301550 0.526276
0.656518 0.379460 0.560691
0.789598 0.448685 0.589266
0.874192 0.506441 0.620502
0.188204 0.154783 0.419352
0.223795 0.177892 0.444715
0.285567 0.213036 0.474177
0.381724 0.263472 0.508493
0.514493 0.329884 0.546729
0.672226 0.406817 0.581370
0.798930 0.473770 0.608984
0.879060 0.528632 0.638023
0.190044 0.160715 0.419675
0.234088 0.190055 0.450825
0.311347 0.236531 0.489285
0.416355 0.295431 0.529968
0.543984 0.362863 0.568898
0.692047 0.437404 0.603261
0.809976 0.500662 0.629372
0.884115 0.551571 0.655621
0.193526 0.167721 0.422494
0.243588 0.201672 0.456315
0.335434 0.258242 0.501702
0.451621 0.326453 0.549087
0.579037 0.397933 0.591385
0.715096 0.469491 0.625158
0.822301 0.528277 0.649604
0.889289 0.574598 0.672882
0.198813 0.175761 0.427968
0.255973 0.214827 0.464241
0.356453 0.277156 0.511647
0.482306 0.352814 0.563299
0.617056 0.432233 0.612270
0.740236 0.501203 0.645773
0.835429 0.555406 0.668821
0.894505 0.596958 0.689352
0.207467 0.185903 0.438073
0.272366 0.230031 0.475655
0.381895 0.297488 0.524228
0.514928 0.377374 0.576488
0.651762 0.459385 0.625751
0.764985 0.528605 0.662257
0.848560 0.579329 0.685164
0.899604 0.616795 0.703874
0.219018 0.199262 0.455929
0.291510 0.246527 0.493272
0.408664 0.317554 0.541555
0.546470 0.400268 0.593257
0.683171 0.483552 0.641702
0.789977 0.552153 0.677997
0.861593 0.600737 0.700886
0.904700 0.635736 0.718462
0.230322 0.212993 0.478784
0.310700 0.262549 0.514917
0.434736 0.336198 0.562103
0.575883 0.420762 0.612528
0.710799 0.504381 0.659418
0.810577 0.571644 0.694425
0.873850 0.619875 0.717324
0.911041 0.653738 0.733436
0.194974 0.151814 0.455008
0.213325 0.165304 0.467583
0.266585 0.196376 0.493646
0.359676 0.248283 0.530188
0.492347 0.321848 0.573743
0.652601 0.413791 0.618092
0.791942 0.502832 0.654295
0.882867 0.576375 0.686192
0.194468 0.156302 0.451904
0.229335 0.180147 0.476085
0.290178 0.217503 0.506375
0.384692 0.272462 0.543731
0.514784 0.346441 0.587417
0.668744 0.435585 0.630798
0.801130 0.520941 0.665718
0.887122 0.590910 0.696058
0.195590 0.162355 0.450571
0.239502 0.192226 0.480705
0.316212 0.239804 0.518499
0.419933 0.301892 0.560362
0.545272 0.375685 0.603302
0.689577 0.460664 0.644816
0.812302 0.540553 0.677568
0.891501 0.605282 0.705289
0.198428 0.169636 0.451240
0.248947 0.204169 0.484761
0.340572 0.261107 0.528785
0.455848 0.331126 0.575762
0.581516 0.407168 0.620089
0.714041 0.487594 0.659330
0.825016 0.560946 0.689462
0.896102 0.619286 0.714034
0.203210 0.178008 0.454344
0.261330 0.217790 0.490739
0.361857 0.280565 0.537184
0.487110 0.357000 0.587610
0.620634 0.438547 0.636197
0.740854 0.514803 0.673463
0.838768 0.581228 0.700929
0.900940 0.632604 0.722281
0.211370 0.188297 0.462010
0.277786 0.233347 0.500053
0.387869 0.301626 0.547955
0.520458 0.382470 0.599124
0.655955 0.466020 0.647642
0.767468 0.539094 0.685375
0.852690 0.599149 0.710688
0.905751 0.644058 0.729247
0.225019 0.203378 0.477121
0.299923 0.252041 0.514412
0.419296 0.324613 0.561999
0.558340 0.408815 0.612650
0.694784 0.493468 0.660025
0.799680 0.563773 0.695975
0.867984 0.614636 0.718261
0.909731 0.652009 0.734104
0.240928 0.222331 0.499476
0.324332 0.272335 0.533770
0.452015 0.347327 0.579304
0.595924 0.433482 0.628185
0.731537 0.518399 0.673594
0.828753 0.586110 0.707271
0.883776 0.630692 0.727487
0.915419 0.661341 0.740651
