Assets/1__3DArt/KimSe/artstation_asset/LUTs_subway_asset/CUBE/LoFi Chill 04_S.cube
# LUT by SparkleStock. Enhanced with VOXCOLOR algorithms.
LUT_3D_SIZE 32
0.066422 0.070330 0.097680
0.076206 0.072031 0.098153
0.085990 0.073733 0.098625
0.095774 0.075434 0.099098
0.105558 0.077136 0.099571
0.115341 0.078837 0.100043
0.135129 0.081248 0.099728
0.156918 0.083800 0.099256
0.178707 0.086352 0.098783
0.200496 0.088905 0.098310
0.222285 0.091457 0.097838
0.249714 0.095616 0.098184
0.279964 0.100579 0.098940
0.310213 0.105542 0.099697
0.340462 0.110505 0.100453
0.370712 0.115467 0.101209
0.400914 0.121446 0.103100
0.431069 0.128441 0.106125
0.461223 0.135437 0.109150
0.491378 0.142432 0.112175
0.521533 0.149427 0.115199
0.548931 0.156611 0.119044
0.570814 0.164173 0.124526
0.592698 0.171736 0.130009
0.614581 0.179298 0.135492
0.636465 0.186860 0.140974
0.656536 0.194249 0.146780
0.667549 0.200772 0.154201
0.678562 0.207294 0.161621
0.689574 0.213817 0.169042
0.700587 0.220340 0.176462
0.711600 0.226862 0.183883
0.067273 0.071984 0.099902
0.077725 0.074893 0.100621
0.088176 0.077802 0.101341
0.098628 0.080711 0.102060
0.109079 0.083620 0.102780
0.119531 0.086529 0.103500
0.139728 0.089423 0.103005
0.161874 0.092314 0.102267
0.184019 0.095205 0.101529
0.206165 0.098095 0.100791
0.228311 0.100986 0.100053
0.255956 0.105289 0.100311
0.286352 0.110297 0.101067
0.316748 0.115306 0.101824
0.347143 0.120314 0.102580
0.377539 0.125323 0.103336
0.407824 0.131302 0.105423
0.437997 0.138251 0.108842
0.468170 0.145201 0.112260
0.498343 0.152150 0.115678
0.528516 0.159099 0.119097
0.555920 0.166290 0.123493
0.577785 0.173962 0.129844
0.599650 0.181634 0.136196
0.621515 0.189306 0.142548
0.643380 0.196978 0.148900
0.663422 0.204542 0.155648
0.674343 0.211568 0.164376
0.685264 0.218594 0.173105
0.696185 0.225619 0.181834
0.707106 0.232645 0.190562
0.718027 0.239671 0.199291
0.068124 0.073638 0.102123
0.079243 0.077755 0.103090
0.090363 0.081871 0.104056
0.101482 0.085988 0.105023
0.112601 0.090105 0.105990
0.123721 0.094221 0.106956
0.144326 0.097598 0.106281
0.166829 0.100828 0.105278
0.189331 0.104057 0.104275
0.211834 0.107286 0.103272
0.234336 0.110515 0.102268
0.262198 0.114961 0.102438
0.292740 0.120015 0.103194
0.323282 0.125070 0.103951
0.353825 0.130124 0.104707
0.384367 0.135178 0.105463
0.414733 0.141157 0.107747
0.444925 0.148061 0.111559
0.475116 0.154964 0.115370
0.505307 0.161868 0.119182
0.535499 0.168772 0.122994
0.562909 0.175968 0.127942
0.584756 0.183750 0.135162
0.606603 0.191532 0.142383
0.628449 0.199314 0.149604
0.650296 0.207096 0.156825
0.670307 0.214835 0.164515
0.681137 0.222364 0.174552
0.691966 0.229893 0.184589
0.702796 0.237422 0.194626
0.713626 0.244951 0.204662
0.724455 0.252479 0.214699
0.068975 0.075292 0.104344
0.080762 0.080617 0.105558
0.092549 0.085941 0.106772
0.104336 0.091265 0.107985
0.116123 0.096589 0.109199
0.127911 0.101913 0.110413
0.148925 0.105774 0.109558
0.171784 0.109341 0.108289
0.194643 0.112909 0.107021
0.217502 0.116477 0.105752
0.240362 0.120044 0.104484
0.268440 0.124634 0.104565
0.299129 0.129734 0.105321
0.329817 0.134834 0.106077
0.360506 0.139934 0.106834
0.391194 0.145034 0.107590
0.421643 0.151013 0.110071
0.451853 0.157871 0.114276
0.482062 0.164728 0.118481
0.512272 0.171586 0.122686
0.542482 0.178444 0.126891
0.569898 0.185647 0.132391
0.591726 0.193538 0.140480
0.613555 0.201430 0.148570
0.635384 0.209322 0.156660
0.657212 0.217213 0.164750
0.677192 0.225128 0.173382
0.687931 0.233160 0.184727
0.698669 0.241192 0.196072
0.709407 0.249224 0.207417
0.720145 0.257256 0.218763
0.730883 0.265288 0.230108
0.069826 0.076947 0.106566
0.082280 0.083478 0.108026
0.094735 0.090010 0.109487
0.107190 0.096542 0.110948
0.119645 0.103073 0.112408
0.132100 0.109605 0.113869
0.153523 0.113949 0.112834
0.176739 0.117855 0.111300
0.199955 0.121761 0.109767
0.223171 0.125667 0.108233
0.246387 0.129574 0.106699
0.274682 0.134306 0.106692
0.305517 0.139452 0.107448
0.336352 0.144598 0.108204
0.367187 0.149743 0.108961
0.398021 0.154889 0.109717
0.428553 0.160868 0.112394
0.458781 0.167680 0.116992
0.489009 0.174492 0.121591
0.519237 0.181305 0.126189
0.549465 0.188117 0.130788
0.576887 0.195325 0.136840
0.598697 0.203327 0.145798
0.620507 0.211328 0.154757
0.642318 0.219330 0.163716
0.664128 0.227331 0.172675
0.684078 0.235421 0.182250
0.694725 0.243957 0.194903
0.705371 0.252492 0.207556
0.716018 0.261027 0.220209
0.726665 0.269562 0.232863
0.737311 0.278097 0.245516
0.070676 0.078601 0.108787
0.083799 0.086340 0.110495
0.096922 0.094079 0.112203
0.110045 0.101819 0.113910
0.123167 0.109558 0.115618
0.136290 0.117297 0.117325
0.158121 0.122124 0.116111
0.181694 0.126369 0.114312
0.205267 0.130613 0.112513
0.228840 0.134858 0.110713
0.252413 0.139103 0.108914
0.280924 0.143979 0.108819
0.311905 0.149170 0.109575
0.342887 0.154361 0.110331
0.373868 0.159553 0.111087
0.404849 0.164744 0.111844
0.435463 0.170723 0.114718
0.465709 0.177490 0.119709
0.495955 0.184256 0.124701
0.526201 0.191023 0.129693
0.556448 0.197789 0.134685
0.583876 0.205004 0.141289
0.605668 0.213115 0.151116
0.627460 0.221226 0.160944
0.649252 0.229338 0.170772
0.671044 0.237449 0.180600
0.690963 0.245714 0.191117
0.701518 0.254753 0.205079
0.712074 0.263791 0.219040
0.722629 0.272829 0.233001
0.733184 0.281867 0.246963
0.743739 0.290906 0.260924
0.071488 0.080295 0.111678
0.084836 0.088548 0.114029
0.098185 0.096801 0.116380
0.111533 0.105054 0.118731
0.124881 0.113307 0.121082
0.138230 0.121560 0.123433
0.160733 0.128133 0.122937
0.185066 0.134370 0.121871
0.209400 0.140608 0.120806
0.233733 0.146845 0.119740
0.258067 0.153083 0.118674
0.286925 0.158821 0.118854
0.318045 0.164310 0.119656
0.349165 0.169798 0.120458
0.380285 0.175287 0.121260
0.411404 0.180776 0.122061
0.442150 0.186968 0.125189
0.472521 0.193865 0.130643
0.502893 0.200761 0.136097
0.533264 0.207657 0.141551
0.563635 0.214553 0.147004
0.591204 0.221918 0.154213
0.613169 0.230223 0.164933
0.635133 0.238528 0.175653
0.657097 0.246833 0.186373
0.679061 0.255138 0.197093
0.699153 0.263646 0.208564
0.709884 0.273172 0.223787
0.720615 0.282698 0.239011
0.731345 0.292224 0.254235
0.742076 0.301750 0.269459
0.752806 0.311277 0.284682
0.072291 0.081996 0.114703
0.085777 0.090624 0.117777
0.099262 0.099252 0.120851
0.112748 0.107880 0.123924
0.126234 0.116508 0.126998
0.139719 0.125136 0.130072
0.162946 0.133709 0.130474
0.188122 0.142270 0.130341
0.213297 0.150831 0.130208
0.238472 0.159392 0.130076
0.263647 0.167953 0.129943
0.292877 0.174697 0.130470
0.324134 0.180534 0.131327
0.355391 0.186370 0.132184
0.386649 0.192206 0.133041
0.417906 0.198043 0.133897
0.448793 0.204491 0.137291
0.479311 0.211552 0.143220
0.509828 0.218613 0.149149
0.540346 0.225674 0.155079
0.570864 0.232734 0.161008
0.598600 0.240280 0.168833
0.620775 0.248795 0.180450
0.642950 0.257310 0.192066
0.665124 0.265826 0.203683
0.687299 0.274341 0.215299
0.707605 0.283105 0.227725
0.718564 0.293116 0.244203
0.729523 0.303127 0.260680
0.740482 0.313138 0.277157
0.751442 0.323149 0.293634
0.762401 0.333160 0.310111
0.073095 0.083698 0.117728
0.086718 0.092701 0.121525
0.100340 0.101704 0.125321
0.113963 0.110707 0.129117
0.127586 0.119710 0.132914
0.141209 0.128713 0.136710
0.165160 0.139284 0.138010
0.191177 0.150169 0.138810
0.217194 0.161053 0.139611
0.243211 0.171938 0.140411
0.269228 0.182823 0.141212
0.298829 0.190574 0.142086
0.330224 0.196758 0.142998
0.361618 0.202942 0.143910
0.393012 0.209126 0.144822
0.424407 0.215310 0.145733
0.455436 0.222014 0.149392
0.486100 0.229240 0.155797
0.516764 0.236465 0.162202
0.547428 0.243690 0.168607
0.578092 0.250916 0.175012
0.605997 0.258641 0.183453
0.628382 0.267367 0.195966
0.650767 0.276093 0.208479
0.673152 0.284818 0.220992
0.695537 0.293544 0.233505
0.716056 0.302565 0.246887
0.727244 0.313060 0.264618
0.738432 0.323556 0.282348
0.749620 0.334052 0.300078
0.760808 0.344548 0.317809
0.771996 0.355044 0.335539
0.073898 0.085399 0.120753
0.087658 0.094777 0.125272
0.101418 0.104156 0.129791
0.115178 0.113534 0.134310
0.128938 0.122912 0.138829
0.142699 0.132290 0.143349
0.167374 0.144860 0.145546
0.194232 0.158068 0.147280
0.221091 0.171276 0.149013
0.247949 0.184485 0.150747
0.274808 0.197693 0.152481
0.304782 0.206450 0.153703
0.336313 0.212981 0.154669
0.367845 0.219513 0.155636
0.399376 0.226045 0.156603
0.430908 0.232576 0.157569
0.462079 0.239537 0.161493
0.492889 0.246927 0.168374
0.523700 0.254317 0.175255
0.554510 0.261707 0.182136
0.585321 0.269097 0.189016
0.613393 0.277003 0.198073
0.635988 0.285939 0.211483
0.658584 0.294875 0.224892
0.681179 0.303811 0.238302
0.703775 0.312747 0.251711
0.724507 0.322024 0.266049
0.735924 0.333005 0.285033
0.747340 0.343985 0.304017
0.758757 0.354966 0.323000
0.770174 0.365946 0.341984
0.781590 0.376927 0.360967
0.074702 0.087101 0.123778
0.088599 0.096854 0.129020
0.102496 0.106607 0.134262
0.116394 0.116361 0.139503
0.130291 0.126114 0.144745
0.144188 0.135867 0.149987
0.169588 0.150436 0.153083
0.197288 0.165967 0.155749
0.224988 0.181499 0.158416
0.252688 0.197031 0.161083
0.280388 0.212563 0.163749
0.310734 0.222326 0.165319
0.342403 0.229205 0.166341
0.374072 0.236085 0.167362
0.405740 0.242964 0.168384
0.437409 0.249843 0.169405
0.468722 0.257060 0.173594
0.499679 0.264615 0.180951
0.530635 0.272170 0.188307
0.561592 0.279724 0.195664
0.592549 0.287279 0.203020
0.620789 0.295364 0.212693
0.643595 0.304511 0.226999
0.666401 0.313657 0.241305
0.689207 0.322804 0.255611
0.712012 0.331950 0.269917
0.732958 0.341483 0.285211
0.744604 0.352949 0.305448
0.756249 0.364414 0.325685
0.767894 0.375880 0.345922
0.779540 0.387345 0.366159
0.791185 0.398811 0.386396
0.076135 0.089653 0.128221
0.090200 0.099678 0.134191
0.104265 0.109702 0.140162
0.118330 0.119727 0.146133
0.132395 0.129752 0.152103
0.146460 0.139776 0.158074
0.172264 0.155412 0.162379
0.200415 0.172169 0.166350
0.228567 0.188927 0.170322
0.256718 0.205684 0.174294
0.284870 0.222442 0.178266
0.315726 0.233809 0.180783
0.347934 0.242482 0.182573
0.380143 0.251154 0.184363
0.412351 0.259826 0.186153
0.444560 0.268499 0.187943
0.476164 0.276731 0.192601
0.507163 0.284524 0.200129
0.538163 0.292316 0.207656
0.569162 0.300109 0.215183
0.600162 0.307901 0.222710
0.628482 0.316203 0.232670
0.651443 0.325523 0.247494
0.674405 0.334844 0.262319
0.697366 0.344164 0.277143
0.720327 0.353484 0.291967
0.741441 0.363213 0.307817
0.753315 0.374987 0.328795
0.765189 0.386760 0.349773
0.777063 0.398534 0.370751
0.788937 0.410307 0.391728
0.800811 0.422080 0.412706
0.077884 0.092631 0.133373
0.092132 0.102875 0.140075
0.106380 0.113119 0.146778
0.120628 0.123363 0.153480
0.134876 0.133608 0.160182
0.149124 0.143852 0.166885
0.175172 0.160088 0.172554
0.203579 0.177522 0.178017
0.231987 0.194957 0.183480
0.260394 0.212391 0.188943
0.288802 0.229826 0.194406
0.320237 0.243096 0.198170
0.353187 0.254284 0.201085
0.386136 0.265472 0.204000
0.419086 0.276660 0.206916
0.452035 0.287848 0.209831
0.484005 0.297476 0.215061
0.514995 0.305543 0.222607
0.545986 0.313610 0.230152
0.576976 0.321677 0.237698
0.607966 0.329744 0.245243
0.636323 0.338280 0.255325
0.659413 0.347756 0.270479
0.682502 0.357232 0.285632
0.705592 0.366707 0.300786
0.728681 0.376183 0.315939
0.749939 0.386079 0.332145
0.762042 0.398072 0.353607
0.774145 0.410065 0.375070
0.786248 0.422058 0.396533
0.798351 0.434051 0.417995
0.810453 0.446044 0.439458
0.079633 0.095608 0.138525
0.094064 0.106072 0.145959
0.108495 0.116536 0.153393
0.122926 0.127000 0.160827
0.137357 0.137463 0.168262
0.151788 0.147927 0.175696
0.178079 0.164764 0.182730
0.206743 0.182875 0.189684
0.235406 0.200987 0.196638
0.264070 0.219098 0.203592
0.292734 0.237210 0.210546
0.324749 0.252383 0.215557
0.358439 0.266087 0.219598
0.392130 0.279790 0.223638
0.425820 0.293494 0.227678
0.459511 0.307198 0.231719
0.491846 0.318220 0.237521
0.522828 0.326562 0.245085
0.553809 0.334903 0.252649
0.584790 0.343244 0.260213
0.615771 0.351586 0.267776
0.644164 0.360357 0.277980
0.667382 0.369989 0.293463
0.690600 0.379620 0.308946
0.713817 0.389251 0.324429
0.737035 0.398882 0.339912
0.758438 0.408944 0.356472
0.770769 0.421156 0.378420
0.783101 0.433369 0.400367
0.795432 0.445582 0.422315
0.807764 0.457794 0.444262
0.820095 0.470007 0.466210
0.081382 0.098586 0.143676
0.095996 0.109269 0.151842
0.110609 0.119953 0.160009
0.125223 0.130636 0.168175
0.139837 0.141319 0.176341
0.154451 0.152003 0.184507
0.180987 0.169440 0.192905
0.209907 0.188229 0.201351
0.238826 0.207017 0.209796
0.267746 0.225805 0.218241
0.296666 0.244594 0.226686
0.329260 0.261670 0.232945
0.363692 0.277889 0.238110
0.398123 0.294108 0.243276
0.432555 0.310328 0.248441
0.466986 0.326547 0.253607
0.499688 0.338965 0.259981
0.530660 0.347581 0.267563
0.561632 0.356196 0.275145
0.592604 0.364812 0.282727
0.623576 0.373428 0.290309
0.652006 0.382434 0.300635
0.675351 0.392221 0.316447
0.698697 0.402008 0.332259
0.722043 0.411795 0.348072
0.745388 0.421582 0.363884
0.766936 0.431809 0.380800
0.779497 0.444241 0.403232
0.792057 0.456674 0.425664
0.804617 0.469106 0.448097
0.817177 0.481538 0.470529
0.829737 0.493970 0.492962
0.083130 0.101564 0.148828
0.097927 0.112467 0.157726
0.112724 0.123369 0.166624
0.127521 0.134272 0.175522
0.142318 0.145175 0.184420
0.157115 0.156078 0.193318
0.183894 0.174116 0.203081
0.213070 0.193582 0.213017
0.242246 0.213047 0.222954
0.271422 0.232512 0.232890
0.300598 0.251978 0.242826
0.333772 0.270956 0.250332
0.368944 0.289691 0.256623
0.404117 0.308426 0.262913
0.439289 0.327161 0.269204
0.474462 0.345897 0.275495
0.507529 0.359709 0.282441
0.538492 0.368600 0.290041
0.569455 0.377490 0.297641
0.600418 0.386380 0.305242
0.631381 0.395270 0.312842
0.659847 0.404511 0.323290
0.683321 0.414454 0.339431
0.706795 0.424396 0.355573
0.730268 0.434338 0.371715
0.753742 0.444281 0.387856
0.775435 0.454675 0.405127
0.788224 0.467326 0.428044
0.801013 0.479978 0.450962
0.813802 0.492630 0.473879
0.826590 0.505281 0.496796
0.839379 0.517933 0.519713
0.085801 0.105676 0.155752
0.100822 0.116798 0.165337
0.115843 0.127921 0.174921
0.130864 0.139043 0.184505
0.145885 0.150165 0.194089
0.160906 0.161288 0.203673
0.187898 0.179782 0.214640
0.217284 0.199750 0.225885
0.246671 0.219719 0.237129
0.276057 0.239687 0.248374
0.305443 0.259656 0.259618
0.339010 0.279876 0.268426
0.374668 0.300221 0.276016
0.410325 0.320566 0.283605
0.445982 0.340911 0.291195
0.481640 0.361256 0.298785
0.515023 0.376400 0.306465
0.546132 0.386342 0.314234
0.577241 0.396284 0.322004
0.608351 0.406227 0.329774
0.639460 0.416169 0.337543
0.668012 0.426136 0.348064
0.691449 0.436151 0.364087
0.714886 0.446167 0.380109
0.738323 0.456182 0.396132
0.761760 0.466198 0.412155
0.783439 0.476655 0.429317
0.796324 0.489320 0.452180
0.809208 0.501986 0.475042
0.822093 0.514651 0.497904
0.834978 0.527317 0.520767
0.847863 0.539982 0.543629
0.089393 0.110922 0.164449
0.104679 0.122264 0.174674
0.119966 0.133606 0.184898
0.135252 0.144948 0.195122
0.150538 0.156290 0.205347
0.165824 0.167632 0.215571
0.192998 0.186437 0.227583
0.222549 0.206735 0.239953
0.252100 0.227033 0.252322
0.281651 0.247331 0.264692
0.311202 0.267628 0.277062
0.344976 0.288427 0.287226
0.380862 0.309477 0.296289
0.416748 0.330526 0.305352
0.452634 0.351576 0.314414
0.488520 0.372625 0.323477
0.522169 0.389036 0.332053
0.553580 0.400808 0.340143
0.584991 0.412580 0.348233
0.616402 0.424352 0.356323
0.647813 0.436124 0.364413
0.676499 0.447307 0.374958
0.699735 0.457314 0.390413
0.722971 0.467320 0.405869
0.746207 0.477326 0.421324
0.769443 0.487333 0.436780
0.790948 0.497750 0.453371
0.803796 0.510224 0.475638
0.816644 0.522697 0.497906
0.829493 0.535170 0.520174
0.842341 0.547643 0.542441
0.855189 0.560117 0.564709
0.092985 0.116168 0.173146
0.108537 0.127730 0.184011
0.124088 0.139291 0.194875
0.139640 0.150853 0.205740
0.155191 0.162415 0.216605
0.170743 0.173976 0.227470
0.198098 0.193092 0.240526
0.227814 0.213719 0.254021
0.257529 0.234347 0.267516
0.287245 0.254974 0.281010
0.316961 0.275601 0.294505
0.350942 0.296979 0.306027
0.387057 0.318733 0.316563
0.423172 0.340487 0.327098
0.459287 0.362241 0.337633
0.495401 0.383995 0.348169
0.529315 0.401673 0.357642
0.561028 0.415274 0.366052
0.592741 0.428876 0.374462
0.624454 0.442477 0.382872
0.656167 0.456079 0.391282
0.684987 0.468479 0.401851
0.708022 0.478476 0.416740
0.731057 0.488473 0.431628
0.754091 0.498470 0.446516
0.777126 0.508468 0.461405
0.798457 0.518845 0.477424
0.811268 0.531127 0.499097
0.824080 0.543408 0.520770
0.836892 0.555689 0.542443
0.849704 0.567970 0.564116
0.862515 0.580251 0.585789
0.096577 0.121415 0.181843
0.112394 0.133196 0.193348
0.128211 0.144977 0.204853
0.144028 0.156758 0.216358
0.159845 0.168539 0.227863
0.175662 0.180320 0.239368
0.203198 0.199747 0.253469
0.233078 0.220704 0.268089
0.262959 0.241660 0.282709
0.292839 0.262617 0.297329
0.322719 0.283573 0.311949
0.356908 0.305531 0.324828
0.393252 0.327989 0.336836
0.429595 0.350448 0.348844
0.465939 0.372906 0.360852
0.502282 0.395364 0.372861
0.536461 0.414309 0.383230
0.568476 0.429740 0.391960
0.600491 0.445171 0.400690
0.632506 0.460602 0.409421
0.664521 0.476033 0.418151
0.693475 0.489650 0.428745
0.716308 0.499638 0.443066
0.739142 0.509626 0.457387
0.761975 0.519614 0.471708
0.784809 0.529602 0.486029
0.805965 0.539941 0.501477
0.818741 0.552030 0.522555
0.831516 0.564119 0.543634
0.844291 0.576208 0.564712
0.857066 0.588297 0.585791
0.869841 0.600386 0.606869
0.100169 0.126661 0.190539
0.116252 0.138662 0.202685
0.132334 0.150662 0.214830
0.148416 0.162663 0.226976
0.164498 0.174664 0.239121
0.180580 0.186664 0.251267
0.208298 0.206403 0.266412
0.238343 0.227688 0.282157
0.268388 0.248974 0.297902
0.298433 0.270260 0.313647
0.328478 0.291546 0.329393
0.362874 0.314083 0.343628
0.399447 0.337246 0.357109
0.436019 0.360408 0.370591
0.472591 0.383571 0.384072
0.509163 0.406734 0.397553
0.543607 0.426945 0.408818
0.575924 0.444206 0.417869
0.608241 0.461467 0.426919
0.640558 0.478728 0.435970
0.672874 0.495988 0.445020
0.701963 0.510822 0.455638
0.724595 0.520801 0.469392
0.747227 0.530780 0.483146
0.769859 0.540758 0.496900
0.792491 0.550737 0.510654
0.813474 0.561036 0.525530
0.826213 0.572933 0.546014
0.838952 0.584830 0.566498
0.851690 0.596727 0.586981
0.864429 0.608624 0.607465
0.877167 0.620521 0.627949
0.104644 0.132648 0.200985
0.121009 0.144896 0.213716
0.137375 0.157143 0.226447
0.153741 0.169391 0.239177
0.170107 0.181638 0.251908
0.186472 0.193886 0.264639
0.214334 0.213904 0.280662
0.244495 0.235477 0.297344
0.274656 0.257049 0.314025
0.304817 0.278622 0.330706
0.334978 0.300194 0.347388
0.369502 0.323197 0.362741
0.406208 0.346915 0.377429
0.442915 0.370632 0.392118
0.479621 0.394350 0.406806
0.516327 0.418068 0.421495
0.550947 0.439237 0.433589
0.583480 0.457857 0.443087
0.616014 0.476478 0.452586
0.648547 0.495099 0.462085
0.681080 0.513720 0.471583
0.710234 0.529513 0.482245
0.732628 0.539650 0.495234
0.755022 0.549788 0.508222
0.777416 0.559925 0.521211
0.799811 0.570062 0.534200
0.820568 0.580438 0.548286
0.833142 0.592002 0.567861
0.845716 0.603567 0.587436
0.858290 0.615132 0.607011
0.870864 0.626696 0.626587
0.883438 0.638261 0.646162
0.110883 0.140116 0.214928
0.127569 0.152665 0.228134
0.144254 0.165215 0.241341
0.160940 0.177764 0.254548
0.177626 0.190314 0.267754
0.194312 0.202863 0.280961
0.222243 0.223100 0.297528
0.252422 0.244873 0.314768
0.282601 0.266647 0.332007
0.312780 0.288421 0.349246
0.342959 0.310195 0.366486
0.377453 0.333435 0.382476
0.414105 0.357409 0.397841
0.450756 0.381383 0.413207
0.487407 0.405356 0.428572
0.524059 0.429330 0.443938
0.558674 0.450838 0.456722
0.591253 0.469879 0.466925
0.623832 0.488921 0.477128
0.656411 0.507962 0.487331
0.688990 0.527004 0.497534
0.718070 0.543242 0.508279
0.740154 0.553874 0.520106
0.762237 0.564505 0.531932
0.784320 0.575137 0.543759
0.806403 0.585768 0.555586
0.826832 0.596453 0.568448
0.838985 0.607405 0.586486
0.851138 0.618356 0.604525
0.863291 0.629308 0.622563
0.875444 0.640259 0.640601
0.887597 0.651211 0.658640
0.117122 0.147584 0.228871
0.134128 0.160435 0.242553
0.151134 0.173286 0.256235
0.168140 0.186138 0.269918
0.185146 0.198989 0.283600
0.202152 0.211841 0.297282
0.230151 0.232295 0.314394
0.260348 0.254270 0.332191
0.290546 0.276245 0.349989
0.320743 0.298220 0.367786
0.350941 0.320195 0.385584
0.385404 0.343673 0.402211
0.422001 0.367903 0.418254
0.458597 0.392133 0.434296
0.495194 0.416363 0.450339
0.531790 0.440593 0.466381
0.566401 0.462439 0.479856
0.599026 0.481901 0.490763
0.631650 0.501364 0.501671
0.664275 0.520826 0.512578
0.696900 0.540288 0.523486
0.725907 0.556972 0.534312
0.747679 0.568097 0.544977
0.769452 0.579223 0.555642
0.791224 0.590348 0.566307
0.812996 0.601474 0.576973
0.833095 0.612468 0.588610
0.844827 0.622807 0.605112
0.856559 0.633145 0.621613
0.868292 0.643484 0.638115
0.880024 0.653823 0.654616
0.891756 0.664162 0.671117
0.123361 0.155051 0.242814
0.140687 0.168205 0.256972
0.158013 0.181358 0.271130
0.175339 0.194511 0.285288
0.192666 0.207664 0.299446
0.209992 0.220818 0.313604
0.238059 0.241490 0.331260
0.268275 0.263666 0.349615
0.298491 0.285843 0.367971
0.328707 0.308019 0.386326
0.358923 0.330195 0.404681
0.393356 0.353911 0.421946
0.429897 0.378397 0.438666
0.466439 0.402883 0.455385
0.502980 0.427369 0.472105
0.539522 0.451856 0.488824
0.574128 0.474040 0.502990
0.606798 0.493923 0.514602
0.639469 0.513806 0.526213
0.672139 0.533690 0.537825
0.704810 0.553573 0.549437
0.733744 0.570701 0.560346
0.755205 0.582321 0.569849
0.776666 0.593940 0.579353
0.798127 0.605560 0.588856
0.819589 0.617179 0.598359
0.839358 0.628483 0.608772
0.850670 0.638209 0.623737
0.861981 0.647935 0.638702
0.873293 0.657660 0.653666
0.884604 0.667386 0.668631
0.895916 0.677112 0.683595
0.129599 0.162519 0.256757
0.147246 0.175974 0.271391
0.164892 0.189430 0.286024
0.182539 0.202885 0.300658
0.200185 0.216340 0.315292
0.217832 0.229795 0.329925
0.245968 0.250685 0.348126
0.276202 0.273063 0.367039
0.306436 0.295440 0.385953
0.336670 0.317818 0.404866
0.366904 0.340195 0.423779
0.401307 0.364149 0.441682
0.437793 0.388892 0.459078
0.474280 0.413634 0.476474
0.510767 0.438376 0.493871
0.547254 0.463118 0.511267
0.581855 0.485641 0.526123
0.614571 0.505945 0.538440
0.647287 0.526249 0.550756
0.680004 0.546553 0.563072
0.712720 0.566857 0.575388
0.741581 0.584431 0.586380
0.762731 0.596544 0.594721
0.783881 0.608658 0.603063
0.805031 0.620771 0.611404
0.826181 0.632885 0.619745
0.845621 0.644498 0.628935
0.856512 0.653611 0.642362
0.867403 0.662724 0.655790
0.878293 0.671837 0.669218
0.889184 0.680950 0.682645
0.900075 0.690063 0.696073
0.136382 0.170113 0.271826
0.154349 0.183891 0.286916
0.172315 0.197670 0.302006
0.190282 0.211448 0.317095
0.208248 0.225227 0.332185
0.226215 0.239005 0.347274
0.254383 0.260099 0.365919
0.284591 0.282657 0.385275
0.314799 0.305214 0.404630
0.345007 0.327771 0.423986
0.375216 0.350329 0.443341
0.409528 0.374480 0.461732
0.445893 0.399428 0.479641
0.482258 0.424376 0.497550
0.518622 0.449324 0.515458
0.554987 0.474272 0.533367
0.589515 0.497067 0.548747
0.622207 0.517710 0.561599
0.654899 0.538352 0.574450
0.687591 0.558995 0.587301
0.720283 0.579637 0.600153
0.749032 0.597569 0.611158
0.769897 0.610081 0.618472
0.790762 0.622592 0.625786
0.811627 0.635103 0.633100
0.832492 0.647615 0.640413
0.851619 0.659453 0.648476
0.862052 0.667929 0.660285
0.872485 0.676405 0.672093
0.882919 0.684880 0.683902
0.893352 0.693356 0.695710
0.903785 0.701832 0.707519
0.145882 0.178337 0.292528
0.164169 0.192545 0.307975
0.182456 0.206754 0.323421
0.200743 0.220962 0.338867
0.219029 0.235170 0.354314
0.237316 0.249379 0.369760
0.265332 0.270606 0.388350
0.295293 0.293236 0.407568
0.325254 0.315867 0.426787
0.355215 0.338497 0.446005
0.385176 0.361128 0.465223
0.419101 0.385273 0.483361
0.455009 0.410175 0.500959
0.490916 0.435078 0.518557
0.526824 0.459980 0.536154
0.562731 0.484882 0.553752
0.596843 0.507618 0.568821
0.629160 0.528187 0.581361
0.661476 0.548757 0.593902
0.693793 0.569326 0.606442
0.726110 0.589895 0.618982
0.754558 0.607751 0.629662
