Assets/1__3DArt/KimSe/artstation_asset/LUTs_subway_asset/CUBE/LoFi Chill 04.cube
# LUT by SparkleStock. Enhanced with VOXCOLOR algorithms.
LUT_3D_SIZE 8
DOMAIN_MIN 0.000000 0.000000 0.000000
DOMAIN_MAX 0.903226 0.903226 0.903226
0.066422 0.070330 0.097680
0.105179 0.077703 0.099949
0.177549 0.087888 0.099807
0.277939 0.103249 0.100800
0.398228 0.125086 0.105786
0.518847 0.152877 0.117886
0.612840 0.181457 0.137075
0.677853 0.208145 0.162188
0.069826 0.076758 0.106566
0.114584 0.093498 0.120398
0.189741 0.108075 0.124976
0.291838 0.125900 0.128298
0.414121 0.150554 0.136541
0.536350 0.182444 0.154203
0.632441 0.217195 0.181760
0.700363 0.252135 0.217149
0.073095 0.083052 0.117862
0.122299 0.107916 0.142220
0.205077 0.136949 0.162453
0.312847 0.166171 0.177833
0.436399 0.194588 0.190499
0.560964 0.232339 0.215071
0.659879 0.275370 0.252602
0.731323 0.320458 0.299982
0.078042 0.091024 0.133774
0.131234 0.123255 0.167988
0.222251 0.168831 0.206621
0.337959 0.215609 0.240235
0.466085 0.256641 0.265046
0.591821 0.299515 0.295253
0.692853 0.349976 0.341032
0.766959 0.403993 0.398312
0.086384 0.102438 0.156627
0.143894 0.141622 0.200153
0.241044 0.200448 0.254137
0.365117 0.267424 0.308159
0.502343 0.332074 0.354476
0.627750 0.379851 0.388689
0.729031 0.434743 0.438490
0.803622 0.493730 0.500350
0.101509 0.120966 0.192548
0.163849 0.166590 0.243978
0.265829 0.235796 0.309184
0.395098 0.317152 0.377562
0.537758 0.399513 0.439924
0.666678 0.465000 0.484676
0.765007 0.520160 0.532330
0.835750 0.576007 0.588951
0.124983 0.148001 0.245484
0.192764 0.200065 0.303598
0.297678 0.276714 0.375177
0.428504 0.367033 0.450299
0.572299 0.460060 0.520046
0.702780 0.537281 0.571799
0.796511 0.592629 0.611431
0.860498 0.641081 0.654886
0.156375 0.182166 0.314932
0.230034 0.240828 0.378693
0.335631 0.322188 0.452131
0.463983 0.416436 0.526837
0.604029 0.513448 0.595211
0.731795 0.595103 0.645885
0.821603 0.649868 0.677338
0.878819 0.689361 0.704398
0.072850 0.082240 0.125850
0.112339 0.101177 0.142023
0.183782 0.113594 0.143242
0.283660 0.127406 0.140429
0.405156 0.148035 0.141975
0.528263 0.176412 0.153197
0.625477 0.208260 0.175533
0.694886 0.241529 0.207532
0.078010 0.087936 0.134004
0.132338 0.123606 0.169219
0.208906 0.145372 0.180550
0.308971 0.163962 0.182663
0.429259 0.187110 0.186957
0.550577 0.217206 0.200454
0.646301 0.250958 0.225416
0.714072 0.285746 0.259556
0.084902 0.097231 0.148715
0.144167 0.139400 0.191100
0.228826 0.177787 0.220714
0.334248 0.209746 0.237610
0.454330 0.236000 0.245505
0.576029 0.270059 0.263509
0.672834 0.309307 0.294858
0.742160 0.350717 0.336609
0.093630 0.108765 0.168714
0.153796 0.153116 0.213560
0.245954 0.207263 0.260515
0.359221 0.257725 0.297102
0.483308 0.297168 0.318136
0.605385 0.335121 0.340396
0.703457 0.380022 0.377874
0.774714 0.428482 0.427208
0.104662 0.122064 0.193743
0.165789 0.168438 0.241202
0.262729 0.232583 0.298996
0.383972 0.302755 0.355378
0.516976 0.367908 0.401064
0.638638 0.410553 0.427430
0.736451 0.458939 0.467956
0.807820 0.511172 0.520526
0.120811 0.140299 0.228640
0.182915 0.188581 0.277997
0.283401 0.260178 0.343334
0.410039 0.342890 0.411872
0.549085 0.424946 0.472811
0.673581 0.487567 0.513681
0.768989 0.537261 0.553382
0.836935 0.586716 0.601138
0.144822 0.166309 0.277868
0.207097 0.215555 0.327620
0.309422 0.292261 0.396908
0.438469 0.383086 0.471523
0.579837 0.475391 0.539608
0.707197 0.550501 0.588614
0.798177 0.602349 0.623582
0.859863 0.646395 0.660961
0.177525 0.200096 0.342595
0.238469 0.249169 0.390299
0.340718 0.328789 0.460096
0.469045 0.423781 0.535400
0.608221 0.520360 0.603021
0.734443 0.600665 0.652066
0.822290 0.653725 0.681555
0.877942 0.691128 0.705844
0.085305 0.098302 0.166206
0.123763 0.120508 0.188198
0.194866 0.148748 0.205528
0.294923 0.173633 0.211921
0.417173 0.191745 0.207436
0.542768 0.219671 0.215188
0.643634 0.254011 0.237820
0.717341 0.292685 0.273801
0.091598 0.104615 0.174457
0.148197 0.146504 0.216950
0.226170 0.185147 0.245527
0.326137 0.215271 0.257919
0.445022 0.236368 0.257025
0.567034 0.264677 0.265612
0.664761 0.298698 0.288179
0.735116 0.335841 0.322718
0.101050 0.115247 0.188713
0.164588 0.164476 0.238209
0.252548 0.218076 0.282383
0.358080 0.260618 0.308121
0.474521 0.285912 0.312173
0.593665 0.316476 0.323629
0.689108 0.352415 0.348691
0.757539 0.391094 0.385141
0.113007 0.128951 0.209368
0.177869 0.179673 0.259610
0.273134 0.245046 0.315733
0.385873 0.303687 0.358107
0.505227 0.343513 0.377212
0.622303 0.376717 0.391901
0.716357 0.415589 0.420241
0.784098 0.457559 0.460096
0.127168 0.144860 0.236458
0.191942 0.196017 0.286486
0.288788 0.265832 0.346675
0.407374 0.340456 0.404844
0.536133 0.406965 0.450543
0.652479 0.444818 0.469758
0.745733 0.486636 0.500700
0.813268 0.531784 0.543168
0.144964 0.163528 0.270123
0.209592 0.215191 0.320056
0.306823 0.287714 0.382438
0.428433 0.370421 0.447921
0.563262 0.452283 0.507417
0.683287 0.512620 0.544862
0.774537 0.556557 0.576328
0.838939 0.599274 0.614748
0.169184 0.188289 0.314658
0.232847 0.239706 0.363380
0.329166 0.313284 0.425812
0.451339 0.400583 0.494203
0.588928 0.491751 0.560222
0.712839 0.564972 0.606560
0.800554 0.613148 0.636866
0.859594 0.652488 0.667830
0.201444 0.220272 0.372345
0.262633 0.270197 0.417572
0.356495 0.343314 0.477623
0.476684 0.432263 0.545010
0.613120 0.527650 0.611392
0.737133 0.606517 0.658660
0.822908 0.657736 0.686299
0.876955 0.692710 0.707615
0.104730 0.118752 0.217567
0.141615 0.141360 0.241498
0.211162 0.182884 0.273252
0.310895 0.225291 0.295799
0.434680 0.257135 0.300453
0.562825 0.282719 0.301655
0.667175 0.317766 0.321142
0.744613 0.359700 0.357395
0.111110 0.125625 0.225464
0.166777 0.168200 0.268499
0.243682 0.219194 0.310170
0.343585 0.266014 0.338191
0.463865 0.300848 0.346947
0.587104 0.326664 0.349107
0.687433 0.360336 0.367621
0.760998 0.399491 0.401117
0.121675 0.136732 0.237786
0.185760 0.187519 0.288191
0.274322 0.251489 0.342028
0.380156 0.308571 0.380372
0.496259 0.346831 0.393788
0.613763 0.374061 0.398364
0.708987 0.406992 0.416842
0.777933 0.443872 0.448226
0.135737 0.151526 0.256342
0.202615 0.204736 0.308078
0.299320 0.277624 0.369479
0.411953 0.346798 0.419453
0.529032 0.396519 0.445280
0.641512 0.425869 0.453069
0.732272 0.459310 0.472628
0.797515 0.495720 0.503590
0.152715 0.169345 0.282076
0.220343 0.223563 0.333416
0.317476 0.297440 0.394454
0.434210 0.376866 0.454000
0.559237 0.447556 0.501069
0.669272 0.482055 0.514544
0.757233 0.517510 0.536186
0.820366 0.555239 0.568160
0.172719 0.189294 0.314789
0.240106 0.243903 0.365505
0.335436 0.317206 0.424850
0.452124 0.399641 0.486339
0.580713 0.480872 0.542738
0.696041 0.539612 0.577313
0.782165 0.577878 0.600871
0.842371 0.613787 0.629944
0.197317 0.213212 0.354643
0.264172 0.267886 0.404161
0.356862 0.339591 0.460831
0.471559 0.422615 0.521641
0.600811 0.509444 0.581768
0.720522 0.580699 0.625400
0.804462 0.625290 0.651178
0.860421 0.659892 0.675773
0.228386 0.242895 0.404431
0.293854 0.296797 0.451177
0.382788 0.365967 0.503626
0.493646 0.447655 0.561261
0.620714 0.536366 0.620813
0.741083 0.613154 0.665976
0.824326 0.662449 0.691700
0.876480 0.694891 0.710022
0.131482 0.143519 0.277829
0.167013 0.167206 0.302785
0.232977 0.210510 0.337819
0.330709 0.270063 0.376870
0.456251 0.335605 0.410514
0.587945 0.362982 0.407599
0.695372 0.397230 0.421125
0.775564 0.439433 0.453346
0.136727 0.149990 0.284098
0.191111 0.192681 0.326231
0.263551 0.244009 0.368904
0.361624 0.306432 0.411533
0.485431 0.373808 0.448380
0.611016 0.401968 0.447358
0.713549 0.434356 0.459865
0.789382 0.473085 0.488760
0.146858 0.161173 0.294545
0.209499 0.211585 0.343316
0.294011 0.275556 0.396666
0.398253 0.346196 0.446876
0.517405 0.412993 0.484864
0.635830 0.442269 0.486542
0.732188 0.473069 0.498617
0.802711 0.508535 0.524630
0.161521 0.176211 0.309258
0.227721 0.229580 0.359815
0.322096 0.302903 0.420175
0.433384 0.381764 0.477332
0.551120 0.451370 0.519144
0.661919 0.482438 0.524466
0.751386 0.512331 0.536808
0.815979 0.544953 0.560428
0.180241 0.194426 0.329157
0.249119 0.250301 0.380494
0.346445 0.325378 0.440669
0.461809 0.408647 0.500853
0.583596 0.486367 0.550547
0.688361 0.522444 0.562388
0.771255 0.552623 0.575906
0.829981 0.583036 0.597617
0.202660 0.216131 0.360407
0.271340 0.272483 0.410511
0.367477 0.347040 0.468343
0.481019 0.429548 0.526469
0.601613 0.509588 0.577849
0.711813 0.567895 0.610309
0.792198 0.601129 0.626878
0.847751 0.630523 0.647085
0.228209 0.240067 0.396281
0.296541 0.296416 0.444709
0.390711 0.369678 0.499623
0.500685 0.450077 0.554641
0.617438 0.529196 0.604667
0.731018 0.597652 0.644900
0.810528 0.638860 0.666323
0.862927 0.668926 0.684930
0.258273 0.267826 0.438663
0.325774 0.323702 0.484340
0.417277 0.395033 0.535466
0.522745 0.472365 0.586253
0.634210 0.548659 0.632738
0.747652 0.621255 0.674430
0.827325 0.668282 0.697856
0.877070 0.698200 0.713267
0.165513 0.172256 0.341731
0.199433 0.196382 0.366686
0.261921 0.240643 0.403068
0.353640 0.302465 0.445486
0.472998 0.376973 0.487949
0.614645 0.449431 0.517674
0.725682 0.486679 0.527736
0.806948 0.524497 0.550461
0.168855 0.177555 0.345219
0.221402 0.219326 0.385425
0.289818 0.270332 0.427519
0.381198 0.333589 0.471494
0.498410 0.408201 0.515120
0.635421 0.479517 0.545492
0.741055 0.515245 0.555366
0.817484 0.549953 0.575520
0.177601 0.187776 0.353092
0.238019 0.236870 0.399134
0.318083 0.299350 0.449852
0.415527 0.369581 0.499414
0.528366 0.442299 0.542753
0.657924 0.510475 0.572731
0.756712 0.544233 0.582162
0.827384 0.575684 0.599678
0.191093 0.202118 0.364890
0.254853 0.254217 0.412662
0.344743 0.325473 0.469269
0.449645 0.403166 0.524282
0.561663 0.477334 0.569615
0.681821 0.541051 0.598441
0.772619 0.572813 0.607622
0.836823 0.601173 0.622855
0.208899 0.219912 0.380636
0.275676 0.274800 0.429570
0.369288 0.348205 0.486335
0.479439 0.430237 0.543680
0.596320 0.510680 0.594108
0.706519 0.570157 0.622030
0.788734 0.600416 0.631622
0.846086 0.626162 0.645237
0.232196 0.241325 0.403250
0.300701 0.298162 0.451631
0.396255 0.372841 0.506974
0.508352 0.454954 0.562384
0.626066 0.534614 0.611437
0.730142 0.596263 0.643434
0.804993 0.626896 0.655114
0.856090 0.651127 0.668028
0.259721 0.266432 0.435977
0.327633 0.322851 0.481756
0.421977 0.396542 0.533831
0.531859 0.476929 0.585831
0.646198 0.554443 0.632148
0.746157 0.615911 0.664816
0.819576 0.653614 0.681803
0.867909 0.679642 0.695266
0.290315 0.293989 0.473456
0.356901 0.349327 0.515606
0.449220 0.421324 0.563700
0.555816 0.499181 0.611588
0.665461 0.573527 0.654152
0.760376 0.633083 0.685461
0.833278 0.675678 0.704973
0.879639 0.702786 0.717451
0.200646 0.200362 0.397755
0.232225 0.224318 0.421979
0.291455 0.269013 0.458717
0.378075 0.332159 0.502744
0.490410 0.410112 0.548856
0.625910 0.494596 0.588656
0.747124 0.555967 0.610602
0.833361 0.601933 0.632162
0.201963 0.204125 0.398950
0.252131 0.244460 0.436970
0.316863 0.294782 0.477699
0.402796 0.358273 0.521513
0.512988 0.435157 0.567151
0.644002 0.517045 0.606257
0.759712 0.575819 0.627571
0.841187 0.618676 0.647236
0.208685 0.213016 0.404306
0.266926 0.260372 0.447698
0.342790 0.320876 0.495304
0.434544 0.390073 0.542857
0.540907 0.464284 0.586931
0.664927 0.541458 0.624195
0.773039 0.596162 0.644125
0.848365 0.635038 0.661276
0.220356 0.226145 0.413320
0.282083 0.276686 0.458432
0.367525 0.345219 0.510922
0.466657 0.420802 0.562495
0.572627 0.495398 0.607093
0.687982 0.566591 0.641635
0.786939 0.616362 0.659763
0.855101 0.650848 0.674300
0.236682 0.242832 0.425889
0.301401 0.296446 0.472215
0.390845 0.367303 0.524950
0.495454 0.446678 0.578185
0.606341 0.526011 0.626102
0.712347 0.591151 0.657760
0.801209 0.635760 0.674070
0.861593 0.665895 0.686308
0.258906 0.263586 0.444258
0.325674 0.319301 0.490050
0.418050 0.392038 0.541757
0.525814 0.472026 0.593337
0.638310 0.550120 0.639287
0.736454 0.612578 0.670940
0.815444 0.652927 0.686360
0.868106 0.679453 0.696961
0.287777 0.289396 0.471724
0.354068 0.344686 0.514194
0.447045 0.417396 0.562787
0.555316 0.496740 0.611357
0.667146 0.572896 0.654444
0.761686 0.632019 0.684105
0.830500 0.669737 0.699377
0.875289 0.693963 0.709358
0.320320 0.318048 0.505311
0.384521 0.371380 0.542679
0.476385 0.442670 0.586876
0.583248 0.520246 0.631513
0.692432 0.593711 0.671044
0.782473 0.649264 0.698080
0.844417 0.685444 0.713333
0.883623 0.708091 0.722301
0.230880 0.225476 0.440529
0.259970 0.248108 0.464192
0.316436 0.292607 0.501126
0.399138 0.356669 0.546230
0.505839 0.436795 0.594493
0.633874 0.525903 0.638348
0.757843 0.603992 0.669976
0.848675 0.659872 0.692066
0.230544 0.226994 0.439846
0.278408 0.265557 0.476007
0.339984 0.314786 0.515442
0.421654 0.378189 0.558912
0.526281 0.456338 0.605518
0.650025 0.541857 0.647749
0.768471 0.616204 0.678016
0.854597 0.668823 0.698815
0.235285 0.233792 0.442956
0.291597 0.279586 0.484545
0.363988 0.338089 0.529387
0.451315 0.406138 0.574906
0.552591 0.480961 0.618860
0.670039 0.560922 0.658343
0.780771 0.629521 0.686248
0.860430 0.677408 0.704814
0.244918 0.245055 0.449650
0.305061 0.294432 0.493240
0.386990 0.360573 0.542198
0.481670 0.434143 0.590433
0.582876 0.508339 0.633535
0.692716 0.581763 0.669468
0.794177 0.643460 0.694352
0.866166 0.685821 0.710273
0.259395 0.260211 0.459970
0.322684 0.312905 0.504583
0.408915 0.381693 0.553983
0.509179 0.458600 0.603372
0.615232 0.536088 0.648194
0.716848 0.603026 0.680465
0.808123 0.657416 0.702027
0.871788 0.694050 0.715300
0.280314 0.280153 0.475845
0.345529 0.334958 0.519688
0.434957 0.405814 0.568181
0.538784 0.483627 0.616145
0.646793 0.559945 0.659016
0.740651 0.622388 0.690186
0.821784 0.669848 0.708736
0.877203 0.701190 0.719569
0.309572 0.306098 0.499821
0.374069 0.360318 0.539692
0.465118 0.431772 0.585207
0.571096 0.509725 0.630554
0.680121 0.584467 0.670694
0.771293 0.642573 0.698793
0.837382 0.681270 0.714150
0.881797 0.706746 0.723059
0.345249 0.337396 0.532004
0.406448 0.388254 0.564845
0.496894 0.458160 0.605250
0.602978 0.534816 0.646664
0.711168 0.607303 0.683418
0.798861 0.661320 0.708177
0.854049 0.693862 0.721288
0.888695 0.714094 0.728324
