Assets/1__3DArt/KimSe/artstation_asset/LUTs_subway_asset/CUBE/LoFi Chill 01_S.cube
# LUT by SparkleStock. Enhanced with VOXCOLOR algorithms.
LUT_3D_SIZE 5
DOMAIN_MIN 0.000000 0.000000 0.000000
DOMAIN_MAX 0.903226 0.903226 0.903226
0.085958 0.070330 0.085958
0.188207 0.082398 0.087369
0.398235 0.113766 0.093529
0.630950 0.164890 0.115333
0.766080 0.218874 0.155792
0.089149 0.080830 0.096506
0.207611 0.136696 0.103386
0.426227 0.190364 0.111246
0.655285 0.237284 0.146765
0.785941 0.286461 0.225679
0.089621 0.095246 0.115979
0.204603 0.162560 0.148384
0.443662 0.282371 0.194775
0.677059 0.356843 0.250678
0.809720 0.410410 0.360691
0.088180 0.120485 0.156666
0.195405 0.185640 0.216898
0.438577 0.320989 0.309589
0.703890 0.474916 0.408114
0.837348 0.545524 0.515726
0.082114 0.151908 0.238536
0.186321 0.230501 0.325578
0.428816 0.376309 0.447218
0.711079 0.538734 0.560819
0.863915 0.639329 0.635372
0.082965 0.090228 0.130403
0.175671 0.103239 0.147420
0.395047 0.128881 0.163406
0.637507 0.183231 0.183440
0.778224 0.256018 0.223973
0.087502 0.099524 0.140059
0.219457 0.183852 0.207093
0.440744 0.239689 0.239040
0.669844 0.281490 0.260330
0.809223 0.330094 0.298358
0.090358 0.116394 0.164809
0.217588 0.222180 0.234280
0.457218 0.358424 0.292110
0.689761 0.423949 0.327549
0.837709 0.462366 0.388318
0.091001 0.139122 0.204083
0.203671 0.230394 0.275943
0.446638 0.387517 0.364217
0.705596 0.545799 0.437359
0.857807 0.599846 0.499786
0.091304 0.166604 0.273230
0.194977 0.247896 0.349471
0.433881 0.401164 0.464877
0.713144 0.570634 0.565548
0.870217 0.673446 0.618232
0.081074 0.113577 0.199393
0.150797 0.137160 0.226509
0.361405 0.185288 0.262915
0.632077 0.251125 0.294380
0.789641 0.337702 0.337837
0.084671 0.123391 0.207600
0.198082 0.200440 0.289521
0.423336 0.275425 0.362909
0.669361 0.331539 0.394770
0.821500 0.395240 0.420370
0.092033 0.140239 0.224952
0.218426 0.244592 0.316174
0.462649 0.388574 0.418064
0.697736 0.459340 0.460543
0.856113 0.499235 0.490678
0.097455 0.164382 0.260843
0.220039 0.262817 0.344387
0.459076 0.424809 0.448087
0.710621 0.587073 0.516104
0.873670 0.635639 0.550533
0.103976 0.188484 0.312689
0.225578 0.278634 0.394624
0.450559 0.423492 0.498271
0.716172 0.593214 0.588527
0.876033 0.700965 0.627209
0.084288 0.135358 0.274757
0.137098 0.169297 0.310897
0.309610 0.247790 0.369877
0.614248 0.359139 0.428124
0.804757 0.458887 0.482355
0.085784 0.145004 0.280944
0.177036 0.213898 0.355194
0.368390 0.309505 0.439563
0.654956 0.416867 0.510165
0.829083 0.497414 0.546858
0.092796 0.164299 0.294495
0.206900 0.253143 0.380694
0.431221 0.389140 0.491988
0.691686 0.499840 0.576801
0.857789 0.554393 0.608178
0.107084 0.187956 0.316314
0.239356 0.287551 0.404679
0.481937 0.441397 0.516685
0.719768 0.587111 0.609499
0.877164 0.637980 0.641454
0.122406 0.215263 0.360055
0.263602 0.311498 0.441466
0.506481 0.457271 0.542195
0.729201 0.595385 0.624130
0.877073 0.697645 0.661548
0.090653 0.150900 0.328764
0.136608 0.191068 0.372260
0.290620 0.290350 0.452013
0.569045 0.441518 0.543018
0.820684 0.585483 0.614340
0.090689 0.158398 0.334459
0.172871 0.226296 0.403642
0.342895 0.333641 0.488426
0.606276 0.476095 0.575612
0.836270 0.603676 0.638423
0.096995 0.177338 0.345810
0.204673 0.260927 0.426286
0.413020 0.390660 0.525555
0.657174 0.523673 0.610088
0.853198 0.626562 0.665363
0.111960 0.204008 0.364912
0.242288 0.297033 0.447915
0.476600 0.439062 0.549647
0.710613 0.574225 0.634531
0.867745 0.655537 0.683936
0.141469 0.239978 0.404472
0.290218 0.334158 0.477279
0.548497 0.481189 0.572904
0.771760 0.609916 0.647787
0.876480 0.675735 0.683210
