Assets/1__3DArt/KimSe/artstation_asset/LUTs_subway_asset/CUBE/LoFi Chill 02_S.cube
# LUT by SparkleStock. Enhanced with VOXCOLOR algorithms.
LUT_3D_SIZE 32
0.050794 0.046886 0.089866
0.061712 0.048021 0.091331
0.072630 0.049155 0.092796
0.083548 0.050289 0.094261
0.094466 0.051424 0.095726
0.105384 0.052558 0.097192
0.129261 0.055189 0.098657
0.155729 0.058120 0.100122
0.182197 0.061050 0.101587
0.208665 0.063980 0.103053
0.235133 0.066911 0.104518
0.268943 0.071511 0.107212
0.306424 0.076947 0.110520
0.343905 0.082382 0.113829
0.381386 0.087818 0.117137
0.418866 0.093253 0.120446
0.455804 0.099586 0.124936
0.492197 0.106818 0.130608
0.528591 0.114049 0.136279
0.564985 0.121281 0.141951
0.601379 0.128512 0.147623
0.633802 0.135949 0.153925
0.658285 0.143795 0.161487
0.682768 0.151640 0.169050
0.707251 0.159486 0.176612
0.731734 0.167332 0.184174
0.753854 0.175202 0.191902
0.764158 0.183190 0.200457
0.774461 0.191177 0.209012
0.784765 0.199165 0.217567
0.795069 0.207153 0.226122
0.805372 0.215140 0.234676
0.051597 0.048635 0.092371
0.063000 0.050950 0.093863
0.074403 0.053264 0.095356
0.085806 0.055579 0.096849
0.097209 0.057893 0.098341
0.108612 0.060207 0.099834
0.132813 0.063447 0.100984
0.159574 0.066871 0.102065
0.186335 0.070296 0.103146
0.213096 0.073720 0.104226
0.239857 0.077144 0.105307
0.273715 0.082001 0.107825
0.311123 0.087574 0.111060
0.348531 0.093146 0.114295
0.385938 0.098719 0.117531
0.423346 0.104292 0.120766
0.460169 0.110671 0.125393
0.496407 0.117856 0.131413
0.532645 0.125042 0.137432
0.568883 0.132228 0.143452
0.605122 0.139414 0.149471
0.637426 0.146813 0.156285
0.661863 0.154641 0.164689
0.686301 0.162469 0.173093
0.710738 0.170296 0.181497
0.735175 0.178124 0.189901
0.757256 0.186006 0.198543
0.767550 0.194158 0.208379
0.777845 0.202310 0.218215
0.788139 0.210463 0.228050
0.798434 0.218615 0.237886
0.808728 0.226767 0.247721
0.052401 0.050384 0.094876
0.064288 0.053879 0.096396
0.076176 0.057373 0.097916
0.088064 0.060868 0.099436
0.099952 0.064362 0.100956
0.111840 0.067857 0.102476
0.136366 0.071704 0.103310
0.163419 0.075623 0.104007
0.190473 0.079541 0.104704
0.217527 0.083460 0.105400
0.244580 0.087378 0.106097
0.278488 0.092491 0.108438
0.315822 0.098201 0.111600
0.353156 0.103910 0.114762
0.390491 0.109620 0.117924
0.427825 0.115330 0.121086
0.464534 0.121755 0.125851
0.500617 0.128895 0.132218
0.536699 0.136035 0.138585
0.572782 0.143175 0.144952
0.608865 0.150315 0.151319
0.641050 0.157678 0.158645
0.665442 0.165487 0.167891
0.689833 0.173297 0.177136
0.714225 0.181106 0.186382
0.738617 0.188915 0.195628
0.760657 0.196809 0.205185
0.770942 0.205126 0.216301
0.781228 0.213443 0.227418
0.791513 0.221761 0.238534
0.801799 0.230078 0.249650
0.812084 0.238395 0.260766
0.053204 0.052133 0.097381
0.065577 0.056807 0.098928
0.077949 0.061482 0.100476
0.090322 0.066157 0.102023
0.102695 0.070831 0.103571
0.115067 0.075506 0.105118
0.139918 0.079962 0.105637
0.167264 0.084374 0.105949
0.194611 0.088787 0.106262
0.221957 0.093199 0.106574
0.249304 0.097611 0.106887
0.283260 0.102980 0.109051
0.320521 0.108827 0.112139
0.357782 0.114675 0.115228
0.395044 0.120522 0.118317
0.432305 0.126369 0.121406
0.468899 0.132839 0.126308
0.504826 0.139934 0.133023
0.540753 0.147028 0.139737
0.576681 0.154122 0.146452
0.612608 0.161216 0.153167
0.644674 0.168543 0.161005
0.669020 0.176334 0.171093
0.693366 0.184125 0.181180
0.717712 0.191916 0.191267
0.742058 0.199707 0.201354
0.764059 0.207613 0.211826
0.774335 0.216095 0.224223
0.784611 0.224577 0.236620
0.794887 0.233058 0.249017
0.805164 0.241540 0.261414
0.815440 0.250022 0.273811
0.054008 0.053882 0.099886
0.066865 0.059736 0.101461
0.079723 0.065591 0.103036
0.092580 0.071446 0.104611
0.105438 0.077300 0.106186
0.118295 0.083155 0.107761
0.143471 0.088220 0.107963
0.171110 0.093126 0.107892
0.198749 0.098032 0.107820
0.226388 0.102939 0.107748
0.254027 0.107845 0.107677
0.288032 0.113470 0.109663
0.325220 0.119454 0.112679
0.362408 0.125439 0.115695
0.399596 0.131423 0.118711
0.436784 0.137407 0.121727
0.473264 0.143924 0.126766
0.509036 0.150972 0.133828
0.544807 0.158021 0.140890
0.580579 0.165069 0.147952
0.616351 0.172118 0.155015
0.648299 0.179408 0.163366
0.672599 0.187180 0.174294
0.696899 0.194953 0.185223
0.721199 0.202726 0.196152
0.745499 0.210499 0.207081
0.767460 0.218417 0.218468
0.777727 0.227063 0.232145
0.787994 0.235710 0.245823
0.798261 0.244356 0.259501
0.808528 0.253002 0.273179
0.818796 0.261649 0.286857
0.054811 0.055630 0.102391
0.068153 0.062665 0.103993
0.081496 0.069700 0.105596
0.094838 0.076735 0.107198
0.108180 0.083770 0.108800
0.121523 0.090804 0.110403
0.147023 0.096477 0.110290
0.174955 0.101877 0.109834
0.202887 0.107278 0.109378
0.230819 0.112678 0.108922
0.258750 0.118079 0.108467
0.292804 0.123960 0.110276
0.329919 0.130081 0.113219
0.367034 0.136203 0.116162
0.404149 0.142324 0.119104
0.441264 0.148446 0.122047
0.477629 0.155008 0.127223
0.513245 0.162011 0.134633
0.548862 0.169014 0.142043
0.584478 0.176016 0.149453
0.620094 0.183019 0.156862
0.651923 0.190272 0.165726
0.676177 0.198027 0.177496
0.700431 0.205781 0.189267
0.724686 0.213536 0.201037
0.748940 0.221290 0.212807
0.770862 0.229221 0.225109
0.781120 0.238032 0.240068
0.791378 0.246843 0.255026
0.801635 0.255654 0.269985
0.811893 0.264465 0.284943
0.822151 0.273276 0.299902
0.055063 0.056946 0.105093
0.068402 0.064299 0.107096
0.081742 0.071653 0.109100
0.095081 0.079006 0.111103
0.108420 0.086360 0.113106
0.121760 0.093713 0.115110
0.147872 0.101197 0.115703
0.176538 0.108708 0.116014
0.205205 0.116218 0.116325
0.233872 0.123729 0.116636
0.262539 0.131239 0.116947
0.296865 0.138195 0.119020
0.334021 0.144873 0.121973
0.371177 0.151551 0.124926
0.408333 0.158229 0.127879
0.445489 0.164907 0.130833
0.481862 0.171854 0.136211
0.517452 0.179070 0.144014
0.553043 0.186287 0.151817
0.588633 0.193503 0.159621
0.624223 0.200719 0.167424
0.656065 0.208154 0.176820
0.680411 0.216028 0.189401
0.704757 0.223901 0.201983
0.729103 0.231774 0.214564
0.753448 0.239648 0.227146
0.775475 0.247719 0.240322
0.785907 0.256778 0.256469
0.796339 0.265838 0.272617
0.806771 0.274898 0.288765
0.817202 0.283957 0.304913
0.827634 0.293017 0.321060
0.055205 0.058175 0.107834
0.068444 0.065675 0.110313
0.081682 0.073174 0.112792
0.094921 0.080674 0.115271
0.108160 0.088174 0.117751
0.121398 0.095674 0.120230
0.148180 0.105210 0.121733
0.177670 0.115154 0.123041
0.207160 0.125098 0.124349
0.236650 0.135042 0.125657
0.266140 0.144986 0.126966
0.300783 0.153179 0.129389
0.338003 0.160498 0.132369
0.375223 0.167816 0.135350
0.412444 0.175135 0.138331
0.449664 0.182453 0.141312
0.486069 0.189853 0.146905
0.521659 0.197334 0.155111
0.557249 0.204816 0.163316
0.592839 0.212297 0.171522
0.628430 0.219779 0.179728
0.660311 0.227440 0.189660
0.684776 0.235460 0.203047
0.709241 0.243479 0.216434
0.733706 0.251499 0.229820
0.758170 0.259519 0.243207
0.780331 0.267756 0.257249
0.790973 0.277081 0.274567
0.801616 0.286406 0.291886
0.812258 0.295731 0.309205
0.822900 0.305055 0.326523
0.833542 0.314380 0.343842
0.055347 0.059404 0.110575
0.068485 0.067050 0.113530
0.081623 0.074696 0.116485
0.094761 0.082342 0.119440
0.107899 0.089988 0.122395
0.121037 0.097635 0.125349
0.148488 0.109223 0.127763
0.178801 0.121601 0.130068
0.209114 0.133978 0.132374
0.239428 0.146355 0.134679
0.269741 0.158732 0.136984
0.304702 0.168164 0.139758
0.341986 0.176123 0.142766
0.379270 0.184081 0.145774
0.416554 0.192040 0.148782
0.453838 0.199999 0.151791
0.490275 0.207852 0.157599
0.525866 0.215598 0.166207
0.561456 0.223345 0.174815
0.597046 0.231092 0.183424
0.632636 0.238839 0.192032
0.664558 0.246725 0.202501
0.689141 0.254891 0.216693
0.713725 0.263058 0.230884
0.738309 0.271224 0.245076
0.762892 0.279390 0.259267
0.785187 0.287793 0.274175
0.796040 0.297383 0.292665
0.806892 0.306973 0.311155
0.817745 0.316564 0.329644
0.828598 0.326154 0.348134
0.839450 0.335744 0.366623
0.055489 0.060633 0.113317
0.068526 0.068425 0.116747
0.081563 0.076218 0.120178
0.094601 0.084010 0.123608
0.107638 0.091803 0.127039
0.120676 0.099595 0.130469
0.148796 0.113236 0.133793
0.179932 0.128047 0.137095
0.211069 0.142857 0.140398
0.242206 0.157668 0.143700
0.273342 0.172479 0.147003
0.308620 0.183148 0.150127
0.345968 0.191747 0.153163
0.383316 0.200346 0.156198
0.420665 0.208945 0.159234
0.458013 0.217545 0.162270
0.494482 0.225850 0.168293
0.530072 0.233862 0.177304
0.565662 0.241874 0.186314
0.601253 0.249886 0.195325
0.636843 0.257899 0.204336
0.668804 0.266011 0.215342
0.693506 0.274323 0.230339
0.718209 0.282636 0.245335
0.742912 0.290948 0.260332
0.767614 0.299261 0.275328
0.790043 0.307830 0.291102
0.801106 0.317686 0.310763
0.812169 0.327541 0.330423
0.823232 0.337397 0.350084
0.834295 0.347252 0.369744
0.845358 0.357107 0.389405
0.055630 0.061861 0.116058
0.068567 0.069800 0.119964
0.081504 0.077739 0.123871
0.094441 0.085678 0.127777
0.107377 0.093617 0.131683
0.120314 0.101556 0.135589
0.149104 0.117249 0.139823
0.181064 0.134493 0.144123
0.213024 0.151737 0.148422
0.244984 0.168981 0.152722
0.276944 0.186225 0.157021
0.312538 0.198133 0.160496
0.349951 0.207372 0.163560
0.387363 0.216611 0.166623
0.424775 0.225851 0.169686
0.462187 0.235090 0.172749
0.498688 0.243849 0.178987
0.534279 0.252126 0.188400
0.569869 0.260404 0.197813
0.605459 0.268681 0.207227
0.641049 0.276958 0.216640
0.673050 0.285296 0.228183
0.697871 0.293755 0.243984
0.722693 0.302214 0.259786
0.747514 0.310673 0.275587
0.772336 0.319132 0.291389
0.794899 0.327867 0.308029
0.806173 0.337988 0.328860
0.817446 0.348109 0.349692
0.828720 0.358230 0.370523
0.839993 0.368350 0.391355
0.851266 0.378471 0.412186
0.055898 0.063437 0.119902
0.068679 0.071419 0.124351
0.081461 0.079400 0.128800
0.094242 0.087382 0.133249
0.107023 0.095363 0.137698
0.119804 0.103345 0.142147
0.148726 0.119884 0.147374
0.180875 0.138134 0.152756
0.213024 0.156384 0.158138
0.245173 0.174634 0.163520
0.277322 0.192885 0.168902
0.313575 0.206656 0.173423
0.351881 0.218189 0.177514
0.390187 0.229722 0.181604
0.428492 0.241254 0.185695
0.466798 0.252787 0.189786
0.503752 0.262946 0.196623
0.539354 0.271733 0.206207
0.574957 0.280520 0.215791
0.610559 0.289306 0.225375
0.646161 0.298093 0.234959
0.678200 0.306851 0.246770
0.703110 0.315554 0.263035
0.728020 0.324257 0.279301
0.752930 0.332960 0.295566
0.777840 0.341663 0.311831
0.800512 0.350641 0.328968
0.811996 0.360996 0.350464
0.823479 0.371352 0.371960
0.834963 0.381707 0.393456
0.846447 0.392063 0.414953
0.857931 0.402418 0.436449
0.056229 0.065186 0.124298
0.068827 0.073158 0.129323
0.081426 0.081131 0.134349
0.094024 0.089103 0.139374
0.106622 0.097076 0.144399
0.119221 0.105048 0.149424
0.148004 0.121829 0.155685
0.180025 0.140372 0.162192
0.212046 0.158915 0.168699
0.244067 0.177458 0.175206
0.276088 0.196001 0.181714
0.313171 0.211950 0.187628
0.352785 0.226602 0.193247
0.392399 0.241254 0.198865
0.432013 0.255906 0.204484
0.471626 0.270558 0.210102
0.509244 0.282593 0.217731
0.544864 0.292011 0.227369
0.580485 0.301429 0.237008
0.616106 0.310847 0.246647
0.651726 0.320264 0.256286
0.683801 0.329541 0.268231
0.708784 0.338537 0.284789
0.733768 0.347533 0.301347
0.758751 0.356528 0.317905
0.783734 0.365524 0.334463
0.806502 0.374782 0.351912
0.818196 0.385357 0.373820
0.829891 0.395932 0.395728
0.841585 0.406508 0.417636
0.853279 0.417083 0.439544
0.864973 0.427658 0.461452
0.056560 0.066934 0.128694
0.068975 0.074898 0.134295
0.081391 0.082861 0.139897
0.093806 0.090824 0.145498
0.106221 0.098788 0.151100
0.118637 0.106751 0.156702
0.147283 0.123775 0.163996
0.179176 0.142610 0.171628
0.211069 0.161446 0.179261
0.242962 0.180282 0.186893
0.274855 0.199117 0.194525
0.312767 0.217244 0.201834
0.353689 0.235015 0.208980
0.394611 0.252787 0.216126
0.435533 0.270558 0.223272
0.476455 0.288330 0.230418
0.514735 0.302240 0.238838
0.550374 0.312289 0.248532
0.586014 0.322338 0.258226
0.621653 0.332387 0.267919
0.657292 0.342436 0.277613
0.689403 0.352232 0.289693
0.714459 0.361520 0.306543
0.739516 0.370808 0.323394
0.764572 0.380096 0.340244
0.789628 0.389385 0.357095
0.812493 0.398924 0.374857
0.824397 0.409718 0.397177
0.836302 0.420513 0.419496
0.848206 0.431308 0.441816
0.860111 0.442102 0.464135
0.872015 0.452897 0.486455
0.056891 0.068683 0.133089
0.069123 0.076637 0.139267
0.081356 0.084592 0.145445
0.093588 0.092546 0.151623
0.105820 0.100500 0.157801
0.118053 0.108454 0.163979
0.146562 0.125720 0.172307
0.178327 0.144849 0.181064
0.210092 0.163977 0.189822
0.241857 0.183105 0.198580
0.273621 0.202234 0.207337
0.312363 0.222537 0.216039
0.354593 0.243428 0.224713
0.396823 0.264319 0.233387
0.439053 0.285210 0.242060
0.481284 0.306101 0.250734
0.520227 0.321887 0.259945
0.555885 0.332567 0.269694
0.591542 0.343247 0.279443
0.627199 0.353927 0.289192
0.662857 0.364608 0.298940
0.695005 0.374922 0.311154
0.720134 0.384503 0.328297
0.745264 0.394084 0.345440
0.770393 0.403665 0.362584
0.795523 0.413246 0.379727
0.818483 0.423065 0.397802
0.830598 0.434080 0.420533
0.842713 0.445094 0.443264
0.854828 0.456108 0.465995
0.866943 0.467122 0.488727
0.879058 0.478136 0.511458
0.057222 0.070432 0.137485
0.069271 0.078377 0.144239
0.081320 0.086322 0.150993
0.093370 0.094267 0.157748
0.105419 0.102212 0.164502
0.117469 0.110157 0.171256
0.145841 0.127666 0.180617
0.177478 0.147087 0.190500
0.209114 0.166508 0.200383
0.240751 0.185929 0.210266
0.272388 0.205350 0.220149
0.311959 0.227831 0.230244
0.355497 0.251841 0.240446
0.399036 0.275852 0.250647
0.442574 0.299862 0.260849
0.486112 0.323873 0.271050
0.525719 0.341533 0.281053
0.561395 0.352845 0.290856
0.597070 0.364156 0.300660
0.632746 0.375468 0.310464
0.668422 0.386779 0.320267
0.700606 0.397612 0.332615
0.725809 0.407485 0.350051
0.751012 0.417359 0.367487
0.776214 0.427233 0.384923
0.801417 0.437106 0.402359
0.824473 0.447207 0.420746
0.836799 0.458441 0.443889
0.849124 0.469674 0.467032
0.861450 0.480908 0.490175
0.873775 0.492142 0.513318
0.886100 0.503375 0.536461
0.057718 0.072606 0.143440
0.069603 0.080588 0.150775
0.081487 0.088569 0.158110
0.093372 0.096551 0.165446
0.105257 0.104533 0.172781
0.117142 0.112514 0.180116
0.145364 0.130235 0.190481
0.176855 0.149903 0.201453
0.208345 0.169571 0.212424
0.239836 0.189239 0.223396
0.271326 0.208907 0.234367
0.311348 0.232660 0.245713
0.355637 0.258454 0.257245
0.399925 0.284248 0.268778
0.444214 0.310042 0.280310
0.488502 0.335837 0.291843
0.528820 0.355245 0.302733
0.565168 0.368267 0.312980
0.601516 0.381289 0.323227
0.637864 0.394311 0.333475
0.674212 0.407333 0.343722
0.706839 0.419414 0.356329
0.732023 0.429613 0.373655
0.757208 0.439811 0.390981
0.782392 0.450010 0.408308
0.807577 0.460208 0.425634
0.830636 0.470596 0.443915
0.843071 0.481930 0.466971
0.855506 0.493265 0.490027
0.867942 0.504599 0.513083
0.880377 0.515933 0.536139
0.892812 0.527268 0.559195
0.058380 0.075206 0.150955
0.070118 0.083270 0.158876
0.081856 0.091334 0.166796
0.093595 0.099398 0.174717
0.105333 0.107462 0.182638
0.117072 0.115526 0.190558
0.145133 0.133427 0.201898
0.176458 0.153297 0.213921
0.207784 0.173166 0.225945
0.239110 0.193036 0.237968
0.270436 0.212905 0.249992
0.310531 0.237023 0.262444
0.355012 0.263266 0.275111
0.399492 0.289508 0.287778
0.443973 0.315751 0.300445
0.488453 0.341993 0.313112
0.529531 0.363021 0.324985
0.567205 0.378833 0.336065
0.604880 0.394645 0.347145
0.642554 0.410457 0.358224
0.680229 0.426270 0.369304
0.713703 0.440330 0.382295
0.738778 0.450885 0.399109
0.763852 0.461440 0.415923
0.788927 0.471995 0.432737
0.814001 0.482551 0.449551
0.836971 0.493233 0.467308
0.849415 0.504549 0.489779
0.861860 0.515865 0.512249
0.874304 0.527181 0.534720
0.886748 0.538497 0.557190
0.899193 0.549813 0.579660
0.059041 0.077805 0.158470
0.070633 0.085952 0.166976
0.082225 0.094098 0.175482
0.093817 0.102244 0.183988
0.105409 0.110390 0.192495
0.117001 0.118537 0.201001
0.144901 0.136620 0.213315
0.176062 0.156691 0.226390
0.207223 0.176761 0.239466
0.238384 0.196832 0.252541
0.269545 0.216903 0.265617
0.309714 0.241387 0.279176
0.354387 0.268077 0.292977
0.399059 0.294768 0.306779
0.443732 0.321459 0.320580
0.488405 0.348150 0.334381
0.530241 0.370796 0.347238
0.569242 0.389399 0.359150
0.608243 0.408001 0.371062
0.647244 0.426604 0.382974
0.686245 0.445206 0.394887
0.720567 0.461245 0.408262
0.745532 0.472157 0.424564
0.770497 0.483069 0.440865
0.795462 0.493981 0.457167
0.820426 0.504893 0.473469
0.843306 0.515869 0.490701
0.855759 0.527167 0.512586
0.868213 0.538465 0.534471
0.880666 0.549763 0.556356
0.893120 0.561060 0.578241
0.905573 0.572358 0.600126
0.059703 0.080405 0.165985
0.071149 0.088634 0.175077
0.082594 0.096862 0.184168
0.094040 0.105091 0.193260
0.105486 0.113319 0.202352
0.116931 0.121548 0.211443
0.144669 0.139813 0.224731
0.175666 0.160085 0.238859
0.206662 0.180356 0.252986
0.237658 0.200628 0.267114
0.268655 0.220900 0.281241
0.308897 0.245750 0.295908
0.353762 0.272889 0.310843
0.398626 0.300028 0.325779
0.443491 0.327167 0.340714
0.488356 0.354306 0.355650
0.530952 0.378572 0.369490
0.571279 0.399965 0.382235
0.611606 0.421357 0.394980
0.651934 0.442750 0.407724
0.692261 0.464142 0.420469
0.727431 0.482160 0.434228
0.752286 0.493429 0.450018
0.777141 0.504698 0.465807
0.801996 0.515967 0.481597
0.826851 0.527235 0.497386
0.849641 0.538506 0.514094
0.862104 0.549785 0.535393
0.874566 0.561065 0.556693
0.887029 0.572344 0.577993
0.899491 0.583624 0.599292
0.911954 0.594903 0.620592
0.060365 0.083004 0.173500
0.071664 0.091315 0.183177
0.082963 0.099626 0.192854
0.094263 0.107937 0.202531
0.105562 0.116248 0.212208
0.116861 0.124559 0.221886
0.144437 0.143005 0.236148
0.175269 0.163478 0.251328
0.206101 0.183952 0.266507
0.236933 0.204425 0.281687
0.267764 0.224898 0.296866
0.308080 0.250114 0.312639
0.353136 0.277701 0.328709
0.398193 0.305288 0.344779
0.443250 0.332876 0.360849
0.488307 0.360463 0.376919
0.531662 0.386348 0.391743
0.573316 0.410531 0.405320
0.614970 0.434713 0.418897
0.656624 0.458896 0.432474
0.698278 0.483079 0.446051
0.734295 0.503076 0.460195
0.759040 0.514701 0.475472
0.783786 0.526327 0.490749
0.808531 0.537952 0.506026
0.833276 0.549578 0.521303
0.855976 0.561143 0.537487
0.868448 0.572404 0.558201
0.880919 0.583665 0.578915
0.893391 0.594926 0.599629
0.905863 0.606187 0.620343
0.918335 0.617449 0.641057
0.060979 0.085699 0.182496
0.072156 0.094162 0.192768
0.083334 0.102625 0.203040
0.094511 0.111089 0.213311
0.105688 0.119552 0.223583
0.116866 0.128016 0.233855
0.144310 0.146729 0.249019
0.175007 0.167491 0.265162
0.205705 0.188254 0.281305
0.236403 0.209017 0.297449
0.267100 0.229780 0.313592
0.307482 0.255379 0.330337
0.352707 0.283396 0.347382
0.397932 0.311414 0.364428
0.443156 0.339431 0.381474
0.488381 0.367448 0.398520
0.532335 0.394528 0.414173
0.575020 0.420672 0.428433
0.617704 0.446815 0.442693
0.660389 0.472958 0.456953
0.703073 0.499102 0.471213
0.739827 0.520631 0.485604
0.764718 0.532930 0.500256
0.789610 0.545230 0.514908
0.814502 0.557529 0.529560
0.839393 0.569828 0.544212
0.862198 0.581935 0.559728
0.874566 0.593077 0.579564
0.886934 0.604220 0.599400
0.899302 0.615362 0.619236
0.911670 0.626504 0.639072
0.924038 0.637646 0.658907
0.061499 0.088582 0.194454
0.072603 0.097338 0.205339
0.083707 0.106094 0.216223
0.094811 0.114850 0.227108
0.105916 0.123606 0.237993
0.117020 0.132362 0.248877
0.144391 0.151513 0.264799
0.175015 0.172742 0.281729
0.205639 0.193972 0.298659
0.236264 0.215201 0.315589
0.266888 0.236431 0.332519
0.307325 0.262447 0.349965
0.352669 0.290858 0.367670
0.398012 0.319269 0.385374
0.443356 0.347679 0.403078
0.488699 0.376090 0.420783
0.532933 0.403518 0.436957
0.576056 0.429963 0.451601
0.619180 0.456408 0.466246
0.662304 0.482854 0.480890
0.705427 0.509299 0.495535
0.742693 0.531465 0.509898
0.768243 0.545072 0.523699
0.793794 0.558680 0.537500
0.819344 0.572288 0.551302
0.844894 0.585895 0.565103
0.868193 0.599039 0.579666
0.880231 0.609861 0.598038
0.892270 0.620683 0.616410
0.904309 0.631505 0.634783
0.916348 0.642327 0.653155
0.928386 0.653149 0.671527
0.062019 0.091465 0.206412
0.073050 0.100514 0.217910
0.084081 0.109563 0.229407
0.095112 0.118611 0.240905
0.106143 0.127660 0.252402
0.117174 0.136709 0.263900
0.144472 0.156297 0.280580
0.175023 0.177993 0.298296
0.205574 0.199689 0.316013
0.236125 0.221385 0.333729
0.266676 0.243081 0.351446
0.307168 0.269516 0.369594
0.352631 0.298320 0.387957
0.398093 0.327124 0.406320
0.443556 0.355928 0.424683
0.489018 0.384732 0.443046
0.533531 0.412507 0.459742
0.577093 0.439254 0.474770
0.620656 0.466001 0.489799
0.664219 0.492749 0.504827
0.707781 0.519496 0.519856
0.745559 0.542299 0.534192
0.771768 0.557215 0.547142
0.797977 0.572131 0.560093
0.824186 0.587046 0.573043
0.850395 0.601962 0.585994
0.874188 0.616142 0.599604
0.885897 0.626644 0.616513
0.897606 0.637146 0.633421
0.909316 0.647648 0.650330
0.921025 0.658150 0.667238
0.932735 0.668652 0.684147
0.062539 0.094348 0.218370
0.073497 0.103690 0.230481
0.084454 0.113031 0.242591
0.095412 0.122373 0.254701
0.106370 0.131714 0.266812
0.117328 0.141056 0.278922
0.144552 0.161082 0.296360
0.175030 0.183244 0.314863
0.205508 0.205407 0.333367
0.235986 0.227569 0.351870
0.266464 0.249732 0.370373
0.307011 0.276584 0.389222
0.352593 0.305781 0.408244
0.398174 0.334979 0.427266
0.443755 0.364176 0.446287
0.489337 0.393373 0.465309
0.534128 0.421496 0.482526
0.578130 0.448546 0.497939
0.622132 0.475595 0.513352
0.666134 0.502644 0.528765
0.710135 0.529693 0.544178
0.748426 0.553133 0.558486
0.775293 0.569357 0.570586
0.802161 0.585581 0.582685
0.829029 0.601805 0.594785
0.855896 0.618029 0.606885
0.880183 0.633246 0.619542
0.891563 0.643428 0.634987
0.902943 0.653609 0.650432
0.914323 0.663791 0.665877
0.925703 0.673973 0.681321
0.937083 0.684155 0.696766
0.063059 0.097231 0.230328
0.073943 0.106865 0.243051
0.084828 0.116500 0.255775
0.095713 0.126134 0.268498
0.106597 0.135768 0.281221
0.117482 0.145403 0.293945
0.144633 0.165866 0.312140
0.175038 0.188495 0.331430
0.205443 0.211124 0.350720
0.235848 0.233753 0.370010
0.266252 0.256382 0.389300
0.306854 0.283652 0.408851
0.352555 0.313243 0.428531
0.398255 0.342834 0.448211
0.443955 0.372424 0.467892
0.489655 0.402015 0.487572
0.534726 0.430486 0.505311
0.579167 0.457837 0.521108
0.623608 0.485188 0.536905
0.668049 0.512539 0.552702
0.712489 0.539890 0.568499
0.751292 0.563968 0.582780
0.778818 0.581500 0.594029
0.806345 0.599032 0.605278
0.833871 0.616564 0.616527
0.861397 0.634096 0.627776
0.886178 0.650350 0.639480
0.897228 0.660211 0.653461
0.908279 0.670073 0.667442
0.919330 0.679934 0.681424
0.930381 0.689796 0.695405
0.941431 0.699657 0.709386
0.063461 0.099823 0.243263
0.074286 0.109786 0.256613
0.085111 0.119750 0.269963
0.095936 0.129714 0.283313
0.106761 0.139677 0.296663
0.117586 0.149641 0.310013
0.144683 0.170593 0.328919
0.175035 0.193742 0.348936
0.205386 0.216890 0.368953
0.235738 0.240039 0.388971
0.266089 0.263188 0.408988
0.306755 0.290925 0.429142
0.352579 0.320954 0.449366
0.398403 0.350984 0.469589
0.444227 0.381014 0.489812
0.490050 0.411044 0.510035
0.535389 0.439877 0.528165
0.580241 0.467513 0.544201
0.625094 0.495149 0.560238
0.669946 0.522785 0.576274
0.714799 0.550421 0.592310
0.754074 0.575036 0.606473
0.782193 0.593609 0.616890
0.810312 0.612183 0.627306
0.838432 0.630756 0.637723
0.866551 0.649330 0.648139
0.891770 0.666388 0.658891
0.902485 0.675872 0.671317
0.913200 0.685355 0.683743
0.923916 0.694838 0.696169
0.934631 0.704322 0.708595
0.945346 0.713805 0.721021
0.063271 0.100957 0.261082
0.074106 0.111433 0.275127
0.084940 0.121909 0.289172
0.095774 0.132385 0.303217
0.106609 0.142861 0.317262
0.117443 0.153337 0.331308
0.144580 0.175029 0.350688
0.174977 0.198965 0.371135
0.205374 0.222901 0.391582
0.235771 0.246836 0.412030
0.266168 0.270772 0.432477
0.306948 0.299216 0.452750
0.352918 0.329913 0.472937
0.398888 0.360611 0.493123
0.444858 0.391308 0.513310
0.490828 0.422006 0.533496
0.536377 0.451273 0.551366
0.581504 0.479111 0.566917
0.626631 0.506948 0.582469
0.671758 0.534785 0.598020
0.716885 0.562623 0.613572
0.756431 0.587274 0.627165
