Assets/1__3DArt/KimSe/artstation_asset/LUTs_subway_asset/CUBE/LoFi Chill 05_S.cube
# LUT by SparkleStock. Enhanced with VOXCOLOR algorithms.
LUT_3D_SIZE 8
DOMAIN_MIN 0.000000 0.000000 0.000000
DOMAIN_MAX 0.903226 0.903226 0.903226
0.074237 0.054701 0.093773
0.124715 0.061129 0.097176
0.215503 0.073181 0.107677
0.333050 0.092040 0.126850
0.462956 0.118059 0.155469
0.579794 0.150199 0.193848
0.663862 0.183284 0.236480
0.720895 0.213691 0.280066
0.075749 0.061696 0.099256
0.133693 0.085688 0.103976
0.228731 0.107736 0.110403
0.348656 0.131218 0.124685
0.480155 0.158335 0.151291
0.598456 0.189011 0.194061
0.683622 0.221486 0.248281
0.739856 0.254070 0.308224
0.076324 0.066816 0.108220
0.136860 0.096553 0.118405
0.238766 0.140572 0.130927
0.364483 0.183536 0.148560
0.497871 0.216689 0.174916
0.618570 0.249115 0.221663
0.706371 0.282294 0.285587
0.764419 0.317090 0.359091
0.076986 0.071952 0.122084
0.137924 0.101409 0.139075
0.245477 0.161623 0.162982
0.378446 0.228563 0.191864
0.517773 0.284604 0.225854
0.640643 0.322544 0.274759
0.731510 0.358288 0.344491
0.792657 0.395548 0.426330
0.078451 0.078593 0.142384
0.139682 0.106238 0.165504
0.249679 0.167440 0.201917
0.389599 0.253681 0.247888
0.539734 0.349333 0.299431
0.664928 0.400885 0.349928
0.758362 0.442023 0.420337
0.822542 0.482063 0.503314
0.080909 0.088046 0.173768
0.143457 0.114520 0.201865
0.256016 0.175173 0.247815
0.400229 0.263927 0.307643
0.556786 0.371013 0.376018
0.691347 0.468964 0.440273
0.785855 0.522348 0.506023
0.850559 0.565029 0.579706
0.084155 0.098759 0.220907
0.148630 0.126258 0.252150
0.264705 0.188817 0.304081
0.413700 0.280866 0.372073
0.575871 0.393792 0.450069
0.715896 0.505330 0.524180
0.810928 0.580536 0.585128
0.873967 0.632479 0.645039
0.087455 0.106140 0.284304
0.154217 0.137006 0.317932
0.274295 0.204538 0.372995
0.428420 0.302464 0.444135
0.596092 0.421567 0.524749
0.740088 0.539021 0.600641
0.834887 0.625819 0.656269
0.893341 0.681343 0.700367
0.074804 0.062452 0.122699
0.125722 0.067709 0.129615
0.218711 0.078176 0.141866
0.338941 0.096010 0.161210
0.471135 0.122450 0.188731
0.589875 0.157956 0.225500
0.675480 0.197945 0.267986
0.733263 0.237549 0.313780
0.076902 0.066081 0.128328
0.143443 0.103633 0.151859
0.241297 0.129356 0.167307
0.361413 0.151897 0.183602
0.492960 0.177424 0.207283
0.612711 0.207274 0.241757
0.699999 0.240382 0.285934
0.757469 0.275171 0.337055
0.078996 0.071567 0.139305
0.149144 0.121248 0.167465
0.253192 0.174381 0.188276
0.377697 0.218645 0.206847
0.509829 0.248356 0.228461
0.631684 0.277047 0.263677
0.722554 0.306810 0.313254
0.783379 0.338878 0.373579
0.081133 0.077813 0.155157
0.149710 0.127846 0.183116
0.258556 0.201112 0.211089
0.389504 0.272717 0.238258
0.526294 0.325656 0.265533
0.649858 0.357954 0.301473
0.744496 0.387815 0.355234
0.810122 0.419151 0.422431
0.083440 0.084362 0.175988
0.150199 0.129567 0.203886
0.261134 0.205007 0.240170
0.398605 0.299233 0.281560
0.544711 0.395100 0.324402
0.669465 0.440387 0.361211
0.766706 0.474418 0.414702
0.836600 0.506850 0.481884
0.086483 0.093083 0.205469
0.151954 0.131225 0.233244
0.265091 0.203515 0.277018
0.407658 0.300895 0.331518
0.560738 0.411540 0.390667
0.691347 0.506965 0.441802
0.788887 0.554148 0.490728
0.859938 0.589438 0.548186
0.090436 0.103065 0.247289
0.155416 0.136149 0.274812
0.271298 0.206150 0.324083
0.419103 0.304823 0.387945
0.578964 0.421641 0.458682
0.715773 0.533449 0.522316
0.810545 0.606193 0.570028
0.878328 0.653630 0.615630
0.095182 0.110904 0.302625
0.159763 0.141358 0.329472
0.278703 0.212289 0.382184
0.431897 0.314410 0.451531
0.598272 0.436392 0.528249
0.740577 0.555064 0.597889
0.834071 0.641692 0.645736
0.894878 0.695670 0.680871
0.077380 0.068731 0.164347
0.124175 0.073853 0.172080
0.217374 0.088031 0.185662
0.340953 0.110508 0.206992
0.478194 0.140803 0.236745
0.600600 0.181024 0.273148
0.689159 0.227450 0.315004
0.749320 0.275140 0.361390
0.079338 0.072103 0.169085
0.145019 0.110286 0.199019
0.244599 0.140848 0.224729
0.367357 0.168272 0.248448
0.501342 0.196435 0.272726
0.623583 0.229776 0.303359
0.713889 0.267962 0.341625
0.774438 0.309228 0.386987
0.082591 0.077394 0.177734
0.155105 0.129731 0.213688
0.262458 0.190326 0.249773
0.388727 0.240282 0.279099
0.520136 0.270441 0.299924
0.642726 0.299616 0.328035
0.736442 0.330634 0.366402
0.801069 0.364783 0.414621
0.086343 0.083929 0.191945
0.159312 0.138656 0.226331
0.271925 0.221570 0.268907
0.403271 0.300166 0.305879
0.536509 0.353170 0.330558
0.659382 0.383080 0.357161
0.756782 0.410461 0.396410
0.827026 0.439492 0.447777
0.090113 0.091281 0.212594
0.161643 0.142336 0.244230
0.275103 0.227761 0.288855
0.411097 0.330272 0.334452
0.551937 0.428794 0.372316
0.675068 0.470648 0.398936
0.775140 0.500301 0.437566
0.850529 0.527924 0.488986
0.094364 0.099892 0.239550
0.165048 0.143851 0.269255
0.278683 0.223812 0.315845
0.418469 0.328246 0.369887
0.566896 0.443344 0.422843
0.692851 0.538513 0.463311
0.792528 0.581530 0.498032
0.869576 0.611332 0.540660
0.099474 0.108986 0.275171
0.170300 0.147532 0.303779
0.284334 0.221636 0.352074
0.427618 0.324137 0.412788
0.583633 0.444880 0.478029
0.716472 0.558532 0.532663
0.810637 0.630353 0.568828
0.883100 0.674523 0.601831
0.105855 0.116016 0.320949
0.176907 0.151548 0.348622
0.291452 0.222563 0.397871
0.438142 0.324634 0.462943
0.601400 0.449219 0.536376
0.741142 0.570223 0.600323
0.833273 0.658205 0.640780
0.896725 0.711830 0.667645
0.082359 0.073851 0.215408
0.123640 0.079327 0.222849
0.212916 0.098032 0.237028
0.338110 0.129142 0.260195
0.483525 0.170881 0.292966
0.612152 0.218811 0.332077
0.705213 0.272193 0.374140
0.769084 0.327020 0.420425
0.083694 0.077760 0.218525
0.144731 0.111169 0.248005
0.241765 0.145177 0.279201
0.366504 0.181919 0.310453
0.507218 0.222191 0.340923
0.633498 0.262816 0.372300
0.727565 0.308312 0.407936
0.792123 0.357144 0.449514
0.087129 0.083475 0.223961
0.157854 0.130025 0.260592
0.265408 0.192967 0.306857
0.393855 0.251183 0.348558
0.528746 0.292298 0.377852
0.652613 0.326184 0.403919
0.748917 0.361996 0.435321
0.817469 0.401117 0.474286
0.092216 0.090475 0.233976
0.166755 0.141451 0.270425
0.281951 0.226785 0.324661
0.414910 0.312090 0.375208
0.547675 0.373280 0.408734
0.669069 0.404618 0.431034
0.767861 0.433191 0.459925
0.841871 0.463389 0.497926
0.098385 0.098380 0.250215
0.174238 0.149469 0.284740
0.291116 0.238857 0.337928
0.427149 0.346848 0.393373
0.563859 0.449915 0.437898
0.683138 0.490757 0.459178
0.783668 0.518495 0.486502
0.862827 0.543818 0.523749
0.104405 0.107321 0.274512
0.181017 0.154023 0.306700
0.297201 0.238223 0.357420
0.435156 0.347009 0.415345
0.577576 0.465393 0.469777
0.697555 0.561317 0.503952
0.797107 0.601831 0.528287
0.878225 0.627907 0.558535
0.111263 0.115850 0.303998
0.189812 0.159315 0.335265
0.305412 0.237108 0.384586
0.444482 0.341474 0.444744
0.592165 0.462449 0.507638
0.719649 0.577803 0.556332
0.811880 0.649441 0.583942
0.887562 0.691266 0.607029
0.119686 0.121746 0.339926
0.200379 0.164086 0.371052
0.315447 0.237617 0.419455
0.455314 0.338334 0.481129
0.607682 0.459362 0.550116
0.743240 0.581998 0.609964
0.833184 0.671614 0.644720
0.898462 0.725427 0.665124
0.089897 0.077939 0.272055
0.126495 0.083928 0.279221
0.207523 0.105296 0.293307
0.330702 0.146664 0.317119
0.485084 0.207322 0.352029
0.624103 0.269046 0.397232
0.723638 0.331269 0.441424
0.792317 0.392666 0.487805
0.090318 0.081666 0.273122
0.147011 0.110374 0.299566
0.236368 0.145225 0.328740
0.359887 0.193257 0.363825
0.510055 0.255073 0.405019
0.643781 0.308983 0.442063
0.742591 0.363199 0.478092
0.811413 0.418627 0.517325
0.092799 0.088830 0.276574
0.160163 0.128036 0.309614
0.262922 0.187166 0.354469
0.391608 0.253786 0.403691
0.534099 0.316918 0.449986
0.661994 0.362646 0.480664
0.760923 0.406349 0.510326
0.832808 0.451622 0.544044
0.098518 0.097053 0.281346
0.172370 0.141689 0.316009
0.286781 0.221128 0.370950
0.421080 0.310464 0.431831
0.557642 0.388227 0.485383
0.678815 0.428429 0.511241
0.777754 0.462348 0.536061
0.853920 0.496551 0.565650
0.107534 0.104993 0.288494
0.187013 0.154223 0.324617
0.307083 0.240986 0.380896
0.444534 0.349426 0.447254
0.579903 0.457588 0.510502
0.694156 0.502838 0.534528
0.792298 0.531675 0.555791
0.872455 0.557017 0.582022
0.116225 0.114464 0.308967
0.198248 0.162736 0.342952
0.319669 0.248450 0.396559
0.458134 0.358371 0.460980
0.594358 0.477418 0.525093
0.706859 0.574223 0.560272
0.803049 0.613656 0.579282
0.884982 0.637662 0.600530
0.125693 0.123066 0.332967
0.211225 0.170549 0.366194
0.333863 0.253201 0.418264
0.471824 0.358529 0.480868
0.607530 0.475032 0.544981
0.727010 0.589463 0.592453
0.814998 0.660693 0.615630
0.891191 0.700782 0.632257
0.136833 0.128231 0.359896
0.226223 0.176418 0.393567
0.350225 0.257583 0.445263
0.487195 0.358391 0.506560
0.621382 0.469026 0.570053
0.748672 0.589011 0.627561
0.834540 0.678964 0.659199
0.899789 0.732819 0.675788
0.099917 0.080208 0.326882
0.132856 0.087221 0.333901
0.207840 0.111584 0.348567
0.323261 0.158343 0.373440
0.472667 0.229722 0.410088
0.633348 0.323940 0.459975
0.743690 0.401214 0.509582
0.818389 0.470052 0.557720
0.099167 0.083495 0.325900
0.152541 0.108809 0.348345
0.235793 0.144643 0.374727
0.352036 0.197801 0.408550
0.498346 0.271416 0.451552
0.652375 0.360879 0.501779
0.759121 0.429712 0.543885
0.832325 0.491570 0.583845
0.100892 0.090947 0.327095
0.165356 0.124906 0.355333
0.263451 0.180574 0.395768
0.386761 0.249167 0.442275
0.526604 0.324450 0.490519
0.670792 0.407507 0.540631
0.774212 0.464978 0.576188
0.848244 0.515734 0.609085
0.105598 0.100669 0.329708
0.177524 0.139503 0.360070
0.289179 0.211938 0.410429
0.420751 0.298746 0.468439
0.556720 0.384964 0.524707
0.688615 0.461805 0.574476
0.788361 0.507913 0.604441
0.864316 0.546549 0.631354
0.113956 0.111061 0.333545
0.193491 0.154942 0.366358
0.312839 0.234814 0.419417
0.450437 0.337197 0.484338
0.587869 0.445614 0.551708
0.705932 0.520902 0.601670
0.801097 0.558823 0.627046
0.878865 0.587140 0.648935
0.128648 0.120678 0.340845
0.214694 0.168813 0.375486
0.339760 0.254615 0.430562
0.481204 0.363305 0.496879
0.618428 0.479676 0.565157
0.723068 0.577509 0.619472
0.811786 0.617696 0.641746
0.889254 0.641651 0.659237
0.142775 0.130037 0.359722
0.233275 0.180046 0.393983
0.361104 0.266345 0.448020
0.503241 0.374244 0.512675
0.639238 0.489671 0.579188
0.742680 0.592553 0.634465
0.821880 0.660756 0.659536
0.893674 0.699326 0.674503
0.158147 0.135366 0.380443
0.253458 0.187864 0.415237
0.383943 0.275270 0.469077
0.526116 0.381925 0.532546
0.659943 0.493561 0.597037
0.762733 0.592275 0.651154
0.839123 0.676924 0.682775
0.900553 0.729300 0.699133
0.111040 0.081059 0.370838
0.140930 0.089341 0.377955
0.211776 0.116855 0.393790
0.322235 0.169229 0.420964
0.466984 0.249469 0.460996
0.628836 0.358739 0.515079
0.756531 0.462998 0.570529
0.842860 0.547504 0.621099
0.109241 0.083907 0.368417
0.160283 0.107675 0.387767
0.239245 0.144850 0.412140
0.350331 0.202706 0.445469
0.492254 0.285113 0.489932
0.647888 0.390799 0.544827
0.769809 0.487520 0.596348
0.852504 0.564638 0.640867
0.110073 0.091040 0.367793
0.172736 0.122339 0.392460
0.267434 0.175986 0.428689
0.386552 0.246461 0.472174
0.522777 0.329964 0.520151
0.668697 0.429933 0.575096
0.783200 0.516360 0.622452
0.863185 0.582458 0.661075
0.113980 0.100952 0.368358
0.184723 0.136906 0.395643
0.294051 0.204827 0.441085
0.422910 0.289868 0.494689
0.556853 0.380823 0.549244
0.690677 0.474390 0.603741
0.796313 0.549619 0.647134
0.873970 0.603365 0.680319
0.121679 0.112286 0.369859
0.200952 0.153493 0.399961
0.318826 0.228697 0.448982
0.455226 0.326144 0.509718
0.592851 0.432664 0.574447
0.713260 0.521926 0.628683
0.808822 0.587042 0.668641
0.883966 0.629260 0.697030
0.136395 0.123635 0.373500
0.223596 0.170343 0.406373
0.349006 0.252951 0.458812
0.490676 0.357398 0.522293
0.628660 0.469648 0.588634
0.735684 0.567366 0.645713
0.820287 0.627726 0.682992
0.891614 0.662571 0.707223
0.157642 0.135742 0.384876
0.251153 0.186640 0.418739
0.381562 0.274096 0.472586
0.525549 0.382427 0.537042
0.662273 0.496603 0.603339
0.763997 0.594629 0.659192
0.833462 0.661711 0.693915
0.895869 0.699504 0.714083
0.180601 0.142847 0.399785
0.279590 0.198039 0.434377
0.413863 0.289800 0.489115
0.558864 0.400697 0.553804
0.693235 0.514393 0.619022
0.790442 0.607714 0.671721
0.852012 0.676245 0.705157
0.902126 0.719073 0.723319
0.121564 0.081626 0.401867
0.149082 0.090829 0.409368
0.217231 0.121411 0.426952
0.324853 0.179544 0.457297
0.467022 0.268561 0.501856
0.628166 0.390028 0.561544
0.766370 0.515174 0.623437
0.861537 0.614675 0.676462
0.118979 0.083956 0.398763
0.168196 0.107073 0.416236
0.244438 0.145813 0.440016
0.352484 0.208099 0.474194
0.491695 0.298264 0.521037
0.646432 0.415897 0.580097
0.777529 0.533837 0.639147
0.867568 0.626228 0.687784
0.118846 0.090514 0.397153
0.180426 0.120767 0.419940
0.272936 0.173618 0.453548
0.389473 0.246182 0.495305
0.523437 0.336348 0.543547
0.668737 0.447736 0.600991
0.790147 0.555750 0.656270
0.874395 0.637951 0.699872
0.121872 0.100062 0.396355
0.192217 0.135019 0.422392
0.299995 0.200586 0.464418
0.427042 0.285042 0.514552
0.559686 0.379658 0.567190
0.693739 0.483834 0.622431
0.803665 0.580487 0.673623
0.881636 0.650963 0.712128
0.128912 0.111462 0.396131
0.208297 0.151711 0.425188
0.325115 0.224661 0.471495
0.460484 0.319283 0.528475
0.598032 0.424356 0.589371
0.720094 0.522166 0.642666
0.817504 0.607351 0.689925
0.888854 0.666047 0.723682
0.143012 0.123592 0.398016
0.230924 0.169734 0.429877
0.355975 0.250399 0.479992
0.497123 0.352033 0.540432
0.635408 0.461374 0.603629
0.745789 0.558500 0.658576
0.830684 0.634541 0.702333
0.895067 0.683682 0.731775
0.167932 0.136784 0.404784
0.263018 0.188536 0.438128
0.394397 0.276496 0.491083
0.538914 0.384585 0.554236
0.676051 0.497436 0.618810
0.779217 0.592484 0.672510
0.846344 0.659362 0.710669
0.899361 0.701306 0.734868
0.199423 0.148062 0.417059
0.299877 0.204701 0.450222
0.435550 0.298889 0.504548
0.581352 0.412031 0.569129
0.715565 0.526720 0.633924
0.811518 0.618016 0.685132
0.866235 0.676157 0.718056
0.905714 0.712479 0.737210
