Assets/1__3DArt/KimSe/artstation_asset/LUTs_subway_asset/CUBE/LoFi Chill 04.cube
# LUT by SparkleStock. Enhanced with VOXCOLOR algorithms.
LUT_3D_SIZE 32
0.066422 0.070330 0.097680
0.076112 0.072173 0.098247
0.085801 0.074016 0.098814
0.095490 0.075860 0.099382
0.105179 0.077703 0.099949
0.114869 0.079546 0.100516
0.134444 0.082217 0.100374
0.155997 0.085053 0.100091
0.177549 0.087888 0.099807
0.199102 0.090724 0.099523
0.220655 0.093560 0.099240
0.247879 0.098003 0.099807
0.277939 0.103249 0.100800
0.308000 0.108496 0.101792
0.338060 0.113742 0.102785
0.368120 0.118989 0.103777
0.398228 0.125086 0.105786
0.428382 0.132034 0.108811
0.458537 0.138981 0.111836
0.488692 0.145929 0.114861
0.518847 0.152877 0.117886
0.546339 0.159904 0.121620
0.568506 0.167088 0.126771
0.590673 0.174272 0.131923
0.612840 0.181457 0.137075
0.635007 0.188641 0.142227
0.655355 0.195667 0.147725
0.666604 0.201906 0.154957
0.677853 0.208145 0.162188
0.689102 0.214384 0.169420
0.700351 0.220623 0.176651
0.711600 0.226862 0.183883
0.067273 0.071937 0.099902
0.077338 0.074365 0.101191
0.087402 0.076794 0.102481
0.097466 0.079223 0.103771
0.107530 0.081652 0.105061
0.117595 0.084081 0.106351
0.137309 0.086971 0.106429
0.158953 0.089953 0.106264
0.180597 0.092935 0.106099
0.202241 0.095917 0.105935
0.223885 0.098900 0.105770
0.251226 0.103501 0.106499
0.281414 0.108912 0.107674
0.311602 0.114323 0.108850
0.341791 0.119734 0.110025
0.371979 0.125145 0.111201
0.402201 0.131453 0.113475
0.432456 0.138657 0.116847
0.462712 0.145861 0.120220
0.492967 0.153065 0.123593
0.523223 0.160269 0.126965
0.550828 0.167603 0.131117
0.573132 0.175199 0.136827
0.595436 0.182795 0.142536
0.617740 0.190391 0.148246
0.640045 0.197987 0.153956
0.660543 0.205457 0.160039
0.672012 0.212300 0.167984
0.683480 0.219143 0.175929
0.694949 0.225985 0.183874
0.706417 0.232828 0.191819
0.717886 0.239671 0.199764
0.068124 0.073544 0.102123
0.078563 0.076558 0.104136
0.089003 0.079572 0.106148
0.099442 0.082586 0.108161
0.109881 0.085601 0.110173
0.120321 0.088615 0.112186
0.140174 0.091725 0.112483
0.161909 0.094853 0.112437
0.183645 0.097982 0.112392
0.205381 0.101110 0.112346
0.227116 0.104239 0.112300
0.254572 0.108999 0.113190
0.284889 0.114575 0.114549
0.315205 0.120150 0.115907
0.345521 0.125726 0.117266
0.375838 0.131302 0.118624
0.406174 0.137820 0.121164
0.436530 0.145280 0.124884
0.466886 0.152740 0.128604
0.497242 0.160200 0.132324
0.527598 0.167660 0.136044
0.555316 0.175303 0.140614
0.577758 0.183311 0.146882
0.600199 0.191318 0.153150
0.622641 0.199326 0.159418
0.645082 0.207333 0.165685
0.665732 0.215247 0.172352
0.677420 0.222694 0.181010
0.689108 0.230140 0.189669
0.700796 0.237587 0.198327
0.712484 0.245033 0.206986
0.724172 0.252479 0.215645
0.068975 0.075151 0.104344
0.079789 0.078750 0.107080
0.090604 0.082350 0.109815
0.101418 0.085950 0.112550
0.112233 0.089550 0.115285
0.123047 0.093149 0.118021
0.143039 0.096478 0.118537
0.164866 0.099753 0.118611
0.186693 0.103028 0.118684
0.208520 0.106303 0.118757
0.230347 0.109578 0.118830
0.257919 0.114497 0.119882
0.288363 0.120237 0.121424
0.318808 0.125978 0.122965
0.349252 0.131718 0.124507
0.379697 0.137458 0.126048
0.410147 0.144187 0.128853
0.440604 0.151903 0.132920
0.471061 0.159619 0.136988
0.501517 0.167336 0.141056
0.531974 0.175052 0.145124
0.559805 0.183003 0.150111
0.582384 0.191422 0.156937
0.604962 0.199841 0.163763
0.627541 0.208260 0.170589
0.650120 0.216679 0.177415
0.670920 0.225037 0.184665
0.682828 0.233087 0.194037
0.694735 0.241137 0.203409
0.706643 0.249188 0.212781
0.718550 0.257238 0.222153
0.730458 0.265288 0.231525
0.069826 0.076758 0.106566
0.081015 0.080943 0.110024
0.092205 0.085128 0.113482
0.103394 0.089313 0.116940
0.114584 0.093498 0.120398
0.125773 0.097684 0.123856
0.145903 0.101232 0.124592
0.167822 0.104654 0.124784
0.189741 0.108075 0.124976
0.211659 0.111496 0.125168
0.233578 0.114918 0.125360
0.261266 0.119995 0.126574
0.291838 0.125900 0.128298
0.322411 0.131805 0.130023
0.352983 0.137710 0.131747
0.383556 0.143615 0.133472
0.414121 0.150554 0.136541
0.444678 0.158526 0.140957
0.475235 0.166499 0.145372
0.505793 0.174471 0.149788
0.536350 0.182444 0.154203
0.564293 0.190702 0.159608
0.587009 0.199533 0.166992
0.609725 0.208364 0.174376
0.632441 0.217195 0.181760
0.655157 0.226025 0.189144
0.676108 0.234827 0.196978
0.688236 0.243481 0.207064
0.700363 0.252135 0.217149
0.712490 0.260789 0.227235
0.724617 0.269443 0.237321
0.736744 0.278097 0.247406
0.070676 0.078365 0.108787
0.082241 0.083135 0.112968
0.093805 0.087906 0.117149
0.105370 0.092677 0.121329
0.116935 0.097447 0.125510
0.128499 0.102218 0.129690
0.148768 0.105986 0.130646
0.170778 0.109554 0.130957
0.192788 0.113122 0.131268
0.214798 0.116689 0.131579
0.236808 0.120257 0.131890
0.264612 0.125493 0.133266
0.295313 0.131562 0.135173
0.326013 0.137632 0.137080
0.356714 0.143702 0.138988
0.387415 0.149771 0.140895
0.418094 0.156921 0.144230
0.448752 0.165149 0.148993
0.479410 0.173378 0.153756
0.510068 0.181606 0.158520
0.540726 0.189835 0.163283
0.568782 0.198402 0.169105
0.591635 0.207644 0.177047
0.614488 0.216887 0.184989
0.637342 0.226129 0.192931
0.660195 0.235372 0.200873
0.681297 0.244617 0.209291
0.693644 0.253874 0.220090
0.705990 0.263132 0.230890
0.718337 0.272390 0.241689
0.730684 0.281648 0.252488
0.743030 0.290906 0.263287
0.071488 0.079932 0.111718
0.083313 0.085197 0.116545
0.095138 0.090462 0.121372
0.106964 0.095726 0.126199
0.118789 0.100991 0.131026
0.130614 0.106256 0.135853
0.151460 0.111130 0.137988
0.174111 0.115927 0.139584
0.196761 0.120723 0.141181
0.219412 0.125520 0.142777
0.242062 0.130317 0.144373
0.270119 0.136112 0.146355
0.300879 0.142408 0.148529
0.331639 0.148703 0.150703
0.362399 0.154998 0.152877
0.393159 0.161294 0.155051
0.423945 0.168748 0.158743
0.454757 0.177363 0.163953
0.485569 0.185977 0.169163
0.516381 0.194592 0.174373
0.547193 0.203206 0.179582
0.575415 0.212220 0.185930
0.598459 0.222034 0.194552
0.621503 0.231849 0.203174
0.644547 0.241663 0.211796
0.667590 0.251477 0.220418
0.688894 0.261320 0.229543
0.701499 0.271303 0.241185
0.714103 0.281287 0.252828
0.726707 0.291270 0.264470
0.739312 0.301254 0.276112
0.751916 0.311237 0.287755
0.072291 0.081492 0.114790
0.084354 0.087232 0.120248
0.096417 0.092973 0.125706
0.108481 0.098713 0.131165
0.120544 0.104453 0.136623
0.132607 0.110194 0.142081
0.154118 0.116352 0.145587
0.177518 0.122594 0.148702
0.200919 0.128836 0.151817
0.224319 0.135078 0.154931
0.247720 0.141320 0.158046
0.276057 0.147756 0.160723
0.306863 0.154289 0.163181
0.337669 0.160823 0.165639
0.368475 0.167356 0.168096
0.399281 0.173889 0.170554
0.430172 0.181668 0.174621
0.461148 0.190694 0.180298
0.492125 0.199720 0.185974
0.523102 0.208746 0.191650
0.554078 0.217772 0.197327
0.582478 0.227263 0.204220
0.605723 0.237681 0.213546
0.628968 0.248099 0.222872
0.652213 0.258517 0.232199
0.675458 0.268935 0.241525
0.696973 0.279405 0.251382
0.709843 0.290139 0.263894
0.722713 0.300872 0.276405
0.735582 0.311606 0.288916
0.748452 0.322340 0.301428
0.761322 0.333073 0.313939
0.073095 0.083052 0.117862
0.085396 0.089268 0.123952
0.097697 0.095484 0.130041
0.109998 0.101700 0.136131
0.122299 0.107916 0.142220
0.134600 0.114132 0.148310
0.156775 0.121574 0.153186
0.180926 0.129261 0.157819
0.205077 0.136949 0.162453
0.229227 0.144636 0.167086
0.253378 0.152324 0.171720
0.281996 0.159400 0.175092
0.312847 0.166171 0.177833
0.343699 0.172942 0.180574
0.374551 0.179713 0.183316
0.405402 0.186484 0.186057
0.436399 0.194588 0.190499
0.467540 0.204026 0.196642
0.498681 0.213464 0.202785
0.529822 0.222901 0.208928
0.560964 0.232339 0.215071
0.589540 0.242305 0.222509
0.612986 0.253327 0.232540
0.636432 0.264348 0.242571
0.659879 0.275370 0.252602
0.683325 0.286392 0.262632
0.705053 0.297491 0.273221
0.718188 0.308975 0.286602
0.731323 0.320458 0.299982
0.744458 0.331942 0.313363
0.757593 0.343426 0.326743
0.770727 0.354910 0.340124
0.073898 0.084611 0.120934
0.086437 0.091303 0.127655
0.098976 0.097995 0.134376
0.111515 0.104687 0.141096
0.124053 0.111378 0.147817
0.136592 0.118070 0.154538
0.159433 0.126796 0.160785
0.184334 0.135929 0.166937
0.209234 0.145062 0.173089
0.234135 0.154194 0.179241
0.259036 0.163327 0.185393
0.287934 0.171044 0.189460
0.318832 0.178053 0.192485
0.349729 0.185062 0.195510
0.380626 0.192070 0.198535
0.411524 0.199079 0.201560
0.442625 0.207508 0.206377
0.473931 0.217358 0.212986
0.505237 0.227207 0.219596
0.536543 0.237056 0.226205
0.567849 0.246906 0.232815
0.596602 0.257347 0.240799
0.620250 0.268973 0.251534
0.643897 0.280598 0.262270
0.667545 0.292224 0.273005
0.691192 0.303849 0.283740
0.713132 0.315576 0.295061
0.726532 0.327810 0.309310
0.739932 0.340044 0.323560
0.753333 0.352278 0.337809
0.766733 0.364512 0.352059
0.780133 0.376746 0.366308
0.074702 0.086171 0.124006
0.087478 0.093339 0.131358
0.100255 0.100506 0.138710
0.113032 0.107674 0.146062
0.125808 0.114841 0.153414
0.138585 0.122008 0.160766
0.162090 0.132018 0.168384
0.187741 0.142596 0.176054
0.213392 0.153174 0.183725
0.239043 0.163752 0.191395
0.264694 0.174331 0.199066
0.293873 0.182688 0.203828
0.324816 0.189934 0.207137
0.355759 0.197181 0.210445
0.386702 0.204428 0.213754
0.417645 0.211675 0.217063
0.448852 0.220428 0.222255
0.480323 0.230689 0.229331
0.511793 0.240950 0.236407
0.543264 0.251211 0.243483
0.574734 0.261472 0.250559
0.603664 0.272389 0.259089
0.627513 0.284619 0.270529
0.651362 0.296848 0.281968
0.675211 0.309077 0.293408
0.699059 0.321307 0.304847
0.721211 0.333662 0.316900
0.734877 0.346646 0.332019
0.748542 0.359630 0.347137
0.762208 0.372614 0.362256
0.775873 0.385598 0.377374
0.789539 0.398582 0.392493
0.076198 0.088424 0.128528
0.089231 0.096043 0.136487
0.102264 0.103662 0.144446
0.115297 0.111280 0.152404
0.128330 0.118899 0.160363
0.141362 0.126518 0.168322
0.165368 0.137573 0.177108
0.191568 0.149316 0.186059
0.217767 0.161059 0.195010
0.243967 0.172802 0.203962
0.270167 0.184545 0.212913
0.299848 0.194108 0.218861
0.331270 0.202580 0.223307
0.362692 0.211053 0.227752
0.394114 0.219526 0.232198
0.425535 0.227998 0.236644
0.456991 0.237498 0.242547
0.488480 0.248024 0.249907
0.519968 0.258550 0.257266
0.551457 0.269076 0.264626
0.582946 0.279603 0.271985
0.611925 0.290839 0.280856
0.635883 0.303495 0.292750
0.659842 0.316151 0.304644
0.683801 0.328808 0.316538
0.707759 0.341464 0.328432
0.730025 0.354263 0.340957
0.743828 0.367778 0.356640
0.757631 0.381292 0.372323
0.771433 0.394807 0.388005
0.785236 0.408322 0.403688
0.799039 0.421836 0.419371
0.078042 0.091024 0.133774
0.091340 0.099082 0.142328
0.104638 0.107139 0.150881
0.117936 0.115197 0.159435
0.131234 0.123255 0.167988
0.144532 0.131313 0.176541
0.168955 0.143295 0.186394
0.195603 0.156063 0.196508
0.222251 0.168831 0.206621
0.248900 0.181598 0.216734
0.275548 0.194366 0.226847
0.305842 0.205416 0.234225
0.337959 0.215609 0.240235
0.370076 0.225801 0.246245
0.402193 0.235993 0.252255
0.434310 0.246186 0.258266
0.466085 0.256641 0.265046
0.497519 0.267360 0.272598
0.528953 0.278078 0.280150
0.560387 0.288796 0.287701
0.591821 0.299515 0.295253
0.620785 0.310992 0.304362
0.644807 0.323987 0.316585
0.668830 0.336981 0.328808
0.692853 0.349976 0.341032
0.716875 0.362971 0.353255
0.739207 0.376122 0.366123
0.753083 0.390058 0.382218
0.766959 0.403993 0.398312
0.780834 0.417929 0.414406
0.794710 0.431864 0.430501
0.808586 0.445799 0.446595
0.079885 0.093623 0.139021
0.093448 0.102120 0.148169
0.107012 0.110617 0.157317
0.120575 0.119114 0.166465
0.134139 0.127611 0.175613
0.147702 0.136108 0.184761
0.172543 0.149018 0.195681
0.199639 0.162810 0.206956
0.226735 0.176602 0.218231
0.253832 0.190394 0.229506
0.280928 0.204186 0.240781
0.311835 0.216725 0.249589
0.344647 0.228637 0.257163
0.377460 0.240549 0.264738
0.410272 0.252461 0.272312
0.443084 0.264374 0.279887
0.475180 0.275785 0.287546
0.506559 0.286695 0.295290
0.537938 0.297606 0.303033
0.569317 0.308516 0.310777
0.600696 0.319427 0.318521
0.629645 0.331145 0.327868
0.653731 0.344478 0.340420
0.677818 0.357811 0.352973
0.701904 0.371144 0.365525
0.725991 0.384478 0.378078
0.748388 0.397981 0.391289
0.762337 0.412338 0.407795
0.776286 0.426694 0.424301
0.790236 0.441050 0.440807
0.804185 0.455406 0.457313
0.818134 0.469762 0.473819
0.081728 0.096223 0.144267
0.095557 0.105159 0.154010
0.109386 0.114095 0.163752
0.123214 0.123031 0.173495
0.137043 0.131967 0.183238
0.150872 0.140903 0.192980
0.176130 0.154740 0.204968
0.203675 0.169556 0.217405
0.231220 0.184373 0.229841
0.258764 0.199190 0.242278
0.286309 0.214006 0.254715
0.317829 0.228033 0.264953
0.351336 0.241665 0.274092
0.384844 0.255297 0.283230
0.418351 0.268929 0.292369
0.451859 0.282561 0.301508
0.484274 0.294929 0.310045
0.515599 0.306031 0.317981
0.546923 0.317134 0.325917
0.578247 0.328236 0.333853
0.609571 0.339339 0.341789
0.638504 0.351298 0.351373
0.662655 0.364970 0.364255
0.686806 0.378641 0.377137
0.710956 0.392313 0.390019
0.735107 0.405985 0.402901
0.757570 0.419840 0.416455
0.771592 0.434617 0.433373
0.785614 0.449395 0.450291
0.799637 0.464172 0.467208
0.813659 0.478949 0.484126
0.827681 0.493726 0.501044
0.083572 0.098822 0.149514
0.097666 0.108197 0.159851
0.111760 0.117573 0.170188
0.125854 0.126948 0.180525
0.139948 0.136323 0.190862
0.154042 0.145698 0.201200
0.179718 0.160462 0.214255
0.207711 0.176303 0.227853
0.235704 0.192144 0.241452
0.263696 0.207985 0.255050
0.291689 0.223827 0.268648
0.323822 0.239342 0.280317
0.358025 0.254693 0.291020
0.392228 0.270045 0.301723
0.426430 0.285397 0.312426
0.460633 0.300749 0.323129
0.493369 0.314072 0.332545
0.524638 0.325367 0.340673
0.555908 0.336662 0.348801
0.587177 0.347956 0.356929
0.618446 0.359251 0.365057
0.647364 0.371451 0.374879
0.671579 0.385461 0.388090
0.695794 0.399471 0.401302
0.720008 0.413481 0.414513
0.744223 0.427491 0.427724
0.766751 0.441700 0.441622
0.780847 0.456897 0.458951
0.794942 0.472095 0.476280
0.809038 0.487293 0.493610
0.823133 0.502491 0.510939
0.837229 0.517689 0.528268
0.086384 0.102438 0.156627
0.100761 0.112234 0.167508
0.115139 0.122030 0.178390
0.129517 0.131826 0.189271
0.143894 0.141622 0.200153
0.158272 0.151418 0.211034
0.184308 0.166991 0.224992
0.212676 0.183720 0.239565
0.241044 0.200448 0.254137
0.269412 0.217177 0.268710
0.297779 0.233905 0.283283
0.330388 0.250658 0.296148
0.365117 0.267424 0.308159
0.399846 0.284189 0.320171
0.434574 0.300954 0.332182
0.469303 0.317719 0.344193
0.502343 0.332074 0.354476
0.533695 0.344018 0.363029
0.565047 0.355962 0.371582
0.596398 0.367907 0.380136
0.627750 0.379851 0.388689
0.656689 0.392507 0.398801
0.680803 0.406585 0.412031
0.704917 0.420664 0.425260
0.729031 0.434743 0.438490
0.753145 0.448821 0.451719
0.775577 0.463106 0.465637
0.789600 0.478418 0.482993
0.803622 0.493730 0.500350
0.817644 0.509042 0.517707
0.831667 0.524355 0.535064
0.845689 0.539667 0.552420
0.090165 0.107070 0.165607
0.104844 0.117268 0.176983
0.119524 0.127467 0.188358
0.134203 0.137665 0.199734
0.148883 0.147864 0.211109
0.163562 0.158062 0.222485
0.189900 0.174328 0.237180
0.218570 0.191806 0.252540
0.247240 0.209285 0.267899
0.275910 0.226764 0.283259
0.304579 0.244243 0.298618
0.337526 0.261984 0.312447
0.372612 0.279856 0.325510
0.407698 0.297728 0.338573
0.442783 0.315600 0.351637
0.477869 0.333472 0.364700
0.511197 0.348934 0.375838
0.542768 0.361985 0.385050
0.574339 0.375036 0.394262
0.605911 0.388087 0.403474
0.637482 0.401138 0.412686
0.666479 0.414465 0.423139
0.690328 0.428342 0.436076
0.714176 0.442220 0.449013
0.738025 0.456097 0.461950
0.761874 0.469975 0.474886
0.784048 0.484059 0.488500
0.797851 0.499179 0.505500
0.811654 0.514299 0.522500
0.825457 0.529420 0.539500
0.839260 0.544540 0.556500
0.853062 0.559660 0.573500
0.093946 0.111702 0.174587
0.108928 0.122303 0.186457
0.123909 0.132904 0.198326
0.138890 0.143505 0.210196
0.153872 0.154106 0.222065
0.168853 0.164707 0.233935
0.195493 0.181664 0.249368
0.224464 0.199893 0.265515
0.253436 0.218122 0.281661
0.282408 0.236351 0.297807
0.311379 0.254580 0.313953
0.344665 0.273309 0.328745
0.380107 0.292288 0.342861
0.415550 0.311267 0.356976
0.450992 0.330246 0.371091
0.486434 0.349225 0.385207
0.520051 0.365793 0.397200
0.551841 0.379951 0.407070
0.583632 0.394109 0.416941
0.615423 0.408267 0.426812
0.647214 0.422426 0.436682
0.676269 0.436423 0.447478
0.699852 0.450099 0.460122
0.723436 0.463775 0.472766
0.747019 0.477452 0.485410
0.770603 0.491128 0.498054
0.792519 0.505013 0.511364
0.806103 0.519941 0.528007
0.819686 0.534869 0.544651
0.833269 0.549797 0.561294
0.846852 0.564725 0.577937
0.860436 0.579653 0.594580
0.097727 0.116334 0.183568
0.113011 0.127337 0.195931
0.128294 0.138341 0.208295
0.143577 0.149344 0.220658
0.158860 0.160348 0.233022
0.174143 0.171351 0.245385
0.201085 0.189001 0.261557
0.230359 0.207980 0.278489
0.259632 0.226959 0.295422
0.288906 0.245938 0.312355
0.318179 0.264917 0.329288
0.351803 0.284634 0.345044
0.387602 0.304720 0.360211
0.423402 0.324806 0.375379
0.459201 0.344892 0.390546
0.495000 0.364978 0.405713
0.528904 0.382653 0.418562
0.560915 0.397918 0.429091
0.592925 0.413183 0.439620
0.624935 0.428448 0.450150
0.656946 0.443713 0.460679
0.686059 0.458381 0.471816
0.709377 0.471856 0.484167
0.732695 0.485331 0.496518
0.756013 0.498806 0.508870
0.779331 0.512281 0.521221
0.800991 0.525966 0.534228
0.814354 0.540702 0.550515
0.827718 0.555438 0.566801
0.841082 0.570174 0.583087
0.854445 0.584910 0.599374
0.867809 0.599646 0.615660
0.101509 0.120966 0.192548
0.117094 0.132372 0.205405
0.132679 0.143778 0.218263
0.148264 0.155184 0.231120
0.163849 0.166590 0.243978
0.179434 0.177996 0.256835
0.206678 0.196338 0.273745
0.236253 0.216067 0.291464
0.265829 0.235796 0.309184
0.295404 0.255525 0.326904
0.324979 0.275254 0.344623
0.358942 0.295959 0.361343
0.395098 0.317152 0.377562
0.431254 0.338345 0.393781
0.467409 0.359538 0.410001
0.503565 0.380731 0.426220
0.537758 0.399513 0.439924
0.569988 0.415885 0.451112
0.602218 0.432257 0.462300
0.634448 0.448628 0.473488
0.666678 0.465000 0.484676
0.695848 0.480339 0.496154
0.718901 0.493613 0.508212
0.741954 0.506887 0.520271
0.765007 0.520160 0.532330
0.788060 0.533434 0.544388
0.809462 0.546920 0.557092
0.822606 0.561463 0.573022
0.835750 0.576007 0.588951
0.848894 0.590551 0.604881
0.862038 0.605095 0.620811
0.875182 0.619638 0.636740
0.106125 0.126448 0.203230
0.122027 0.138257 0.216551
0.137929 0.150065 0.229872
0.153831 0.161874 0.243193
0.169734 0.173683 0.256514
0.185636 0.185491 0.269835
0.213123 0.204439 0.287345
0.242927 0.224814 0.305692
0.272731 0.245190 0.324040
0.302535 0.265566 0.342388
0.332340 0.285941 0.360736
0.366539 0.307480 0.378210
0.402935 0.329599 0.395246
0.439332 0.351719 0.412283
0.475729 0.373839 0.429319
0.512126 0.395959 0.446356
0.546524 0.415683 0.460753
0.578925 0.433013 0.472511
0.611326 0.450342 0.484270
0.643726 0.467671 0.496028
0.676127 0.485001 0.507786
0.705310 0.500920 0.519494
0.728058 0.514020 0.531101
0.750806 0.527120 0.542708
0.773554 0.540220 0.554316
0.796302 0.553320 0.565923
0.817396 0.566592 0.578153
0.830220 0.580724 0.593494
0.843044 0.594856 0.608835
0.855868 0.608988 0.624176
0.868692 0.623120 0.639517
0.881516 0.637252 0.654858
0.112411 0.133633 0.217315
0.128661 0.145844 0.231038
0.144911 0.158055 0.244762
0.161160 0.170266 0.258485
0.177410 0.182477 0.272209
0.193660 0.194688 0.285932
0.221274 0.214069 0.303768
0.251160 0.234883 0.322427
0.281047 0.255698 0.341086
0.310933 0.276513 0.359745
0.340820 0.297327 0.378404
0.375052 0.319390 0.396213
0.411458 0.342077 0.413597
0.447864 0.364764 0.430981
0.484270 0.387451 0.448365
0.520676 0.410138 0.465750
0.555116 0.430476 0.480517
0.587590 0.448464 0.492669
0.620064 0.466452 0.504821
0.652537 0.484440 0.516972
0.685011 0.502428 0.529124
0.714115 0.518747 0.540838
0.736479 0.531728 0.551677
0.758842 0.544709 0.562515
0.781206 0.557690 0.573354
0.803570 0.570671 0.584193
0.824257 0.583702 0.595607
0.836559 0.596983 0.609896
0.848862 0.610264 0.624185
0.861164 0.623546 0.638474
0.873467 0.636827 0.652764
0.885769 0.650108 0.667053
0.118697 0.140817 0.231399
0.135295 0.153430 0.245525
0.151892 0.166044 0.259651
0.168490 0.178658 0.273777
0.185087 0.191271 0.287903
0.201684 0.203885 0.302029
0.229425 0.223698 0.320192
0.259394 0.244952 0.339162
0.289362 0.266206 0.358132
0.319331 0.287460 0.377102
0.349300 0.308714 0.396071
0.383566 0.331301 0.414216
0.419981 0.354555 0.431948
0.456396 0.377809 0.449680
0.492811 0.401063 0.467411
0.529226 0.424318 0.485143
0.563707 0.445268 0.500282
0.596254 0.463915 0.512827
0.628801 0.482561 0.525372
0.661348 0.501208 0.537916
0.693895 0.519855 0.550461
0.722920 0.536573 0.562181
0.744899 0.549435 0.572252
0.766879 0.562297 0.582322
0.788859 0.575159 0.592393
0.810838 0.588021 0.602463
0.831118 0.600811 0.613061
0.842899 0.613242 0.626298
0.854680 0.625673 0.639536
0.866461 0.638103 0.652773
0.878242 0.650534 0.666010
0.890023 0.662964 0.679247
0.124983 0.148001 0.245484
0.141928 0.161017 0.260013
0.158873 0.174033 0.274541
0.175819 0.187049 0.289070
0.192764 0.200065 0.303598
0.209709 0.213081 0.318127
0.237576 0.233328 0.336616
0.267627 0.255021 0.355897
0.297678 0.276714 0.375177
0.327729 0.298407 0.394458
0.357780 0.320100 0.413739
0.392080 0.343212 0.432219
0.428504 0.367033 0.450299
0.464928 0.390854 0.468378
0.501353 0.414676 0.486458
0.537777 0.438497 0.504537
0.572299 0.460060 0.520046
0.604919 0.479366 0.532984
0.637539 0.498671 0.545922
0.670159 0.517976 0.558861
0.702780 0.537281 0.571799
0.731725 0.554399 0.583525
0.753320 0.567142 0.592827
0.774915 0.579886 0.602129
0.796511 0.592629 0.611431
0.818106 0.605372 0.620733
0.837979 0.617921 0.630516
0.849238 0.629501 0.642701
0.860498 0.641081 0.654886
0.871758 0.652661 0.667071
0.883017 0.664240 0.679256
0.894277 0.675820 0.691441
0.131269 0.155185 0.259569
0.148562 0.168604 0.274500
0.165855 0.182022 0.289431
0.183148 0.195441 0.304362
0.200440 0.208860 0.319293
0.217733 0.222278 0.334224
0.245726 0.242958 0.353039
0.275860 0.265090 0.372631
0.305993 0.287222 0.392223
0.336127 0.309354 0.411815
0.366260 0.331486 0.431407
0.400594 0.355122 0.450222
0.437027 0.379511 0.468649
0.473460 0.403899 0.487077
0.509894 0.428288 0.505504
0.546327 0.452676 0.523931
0.580890 0.474853 0.539810
0.613584 0.494817 0.553142
0.646277 0.514780 0.566473
0.678970 0.534744 0.579805
0.711664 0.554708 0.593137
0.740530 0.572226 0.604869
0.761741 0.584850 0.613403
0.782952 0.597474 0.621936
0.804163 0.610098 0.630470
0.825374 0.622723 0.639003
0.844840 0.635031 0.647970
0.855578 0.645760 0.659103
0.866316 0.656489 0.670236
0.877054 0.667218 0.681369
0.887793 0.677947 0.692502
0.898531 0.688676 0.703635
0.138036 0.162787 0.274662
0.155683 0.176611 0.289981
0.173329 0.190435 0.305299
0.190976 0.204259 0.320617
0.208622 0.218084 0.335935
0.226268 0.231908 0.351254
0.254345 0.252971 0.370318
0.284507 0.275483 0.390131
0.314670 0.297995 0.409944
0.344832 0.320506 0.429757
0.374995 0.343018 0.449570
0.409292 0.367093 0.468601
0.445657 0.391950 0.487241
0.482021 0.416806 0.505882
0.518386 0.441663 0.524523
0.554751 0.466519 0.543163
0.589279 0.489200 0.559275
0.621971 0.509705 0.572858
0.654663 0.530211 0.586441
0.687355 0.550716 0.600025
0.720046 0.571221 0.613608
0.748796 0.589062 0.625269
0.769661 0.601573 0.633086
0.790526 0.614084 0.640903
0.811391 0.626596 0.648720
0.832256 0.639107 0.656537
0.851344 0.651175 0.664714
0.861549 0.661022 0.674693
0.871753 0.670870 0.684672
0.881958 0.680718 0.694651
0.892163 0.690566 0.704630
0.902367 0.700414 0.714609
0.147205 0.172476 0.294797
0.165236 0.186721 0.310426
0.183267 0.200966 0.326056
0.201297 0.215211 0.341685
0.219328 0.229456 0.357314
0.237359 0.243701 0.372944
0.265301 0.264903 0.391869
0.295226 0.287497 0.411453
0.325150 0.310091 0.431037
0.355075 0.332685 0.450622
0.384999 0.355279 0.470206
0.418912 0.379363 0.488856
0.454820 0.404193 0.507039
0.490727 0.429022 0.525222
0.526634 0.453851 0.543406
0.562542 0.478680 0.561589
0.596654 0.501324 0.577243
0.628971 0.521784 0.590369
0.661287 0.542243 0.603495
0.693604 0.562703 0.616621
0.725921 0.583162 0.629746
0.754369 0.600945 0.640950
