Assets/1__3DArt/KimSe/artstation_asset/LUTs_subway_asset/CUBE/LoFi Chill 05_S.cube
# LUT by SparkleStock. Enhanced with VOXCOLOR algorithms.
LUT_3D_SIZE 32
0.074237 0.054701 0.093773
0.086857 0.056308 0.094624
0.099476 0.057915 0.095474
0.112096 0.059522 0.096325
0.124715 0.061129 0.097176
0.137335 0.062736 0.098027
0.161810 0.065997 0.100965
0.188657 0.069589 0.104321
0.215503 0.073181 0.107677
0.242349 0.076773 0.111032
0.269195 0.080366 0.114388
0.300106 0.085754 0.120044
0.333050 0.092040 0.126850
0.365993 0.098326 0.133656
0.398937 0.104612 0.140462
0.431880 0.110898 0.147269
0.462956 0.118059 0.155469
0.492166 0.126094 0.165064
0.521375 0.134129 0.174658
0.550585 0.142164 0.184253
0.579794 0.150199 0.193848
0.605727 0.158328 0.203868
0.625105 0.166647 0.214739
0.644484 0.174966 0.225610
0.663862 0.183284 0.236480
0.683241 0.191603 0.247351
0.701044 0.199701 0.258230
0.710969 0.206696 0.269148
0.720895 0.213691 0.280066
0.730820 0.220686 0.290984
0.740746 0.227681 0.301902
0.750672 0.234676 0.312821
0.074615 0.056450 0.095144
0.087701 0.059154 0.096077
0.100787 0.061859 0.097010
0.113874 0.064564 0.097943
0.126960 0.067269 0.098876
0.140046 0.069973 0.099809
0.164751 0.073776 0.102433
0.191781 0.077798 0.105396
0.218810 0.081820 0.108358
0.245839 0.085842 0.111320
0.272868 0.089864 0.114283
0.303907 0.095457 0.119686
0.336951 0.101834 0.126309
0.369995 0.108212 0.132932
0.403039 0.114590 0.139555
0.436083 0.120967 0.146178
0.467256 0.128128 0.154425
0.496557 0.136071 0.164294
0.525858 0.144015 0.174163
0.555159 0.151958 0.184032
0.584460 0.159902 0.193901
0.610475 0.167961 0.204376
0.629917 0.176252 0.216061
0.649360 0.184543 0.227746
0.668802 0.192835 0.239431
0.688245 0.201126 0.251116
0.706077 0.209247 0.262873
0.715856 0.216516 0.274989
0.725635 0.223786 0.287106
0.735414 0.231055 0.299222
0.745193 0.238325 0.311339
0.754973 0.245595 0.323455
0.074993 0.058198 0.096514
0.088546 0.062001 0.097530
0.102099 0.065803 0.098545
0.115651 0.069606 0.099561
0.129204 0.073408 0.100576
0.142757 0.077211 0.101591
0.167692 0.081555 0.103901
0.194905 0.086007 0.106471
0.222117 0.090459 0.109040
0.249329 0.094911 0.111609
0.276541 0.099363 0.114178
0.307708 0.105160 0.119328
0.340853 0.111629 0.125768
0.373998 0.118098 0.132208
0.407142 0.124567 0.138648
0.440287 0.131036 0.145088
0.471555 0.138197 0.153380
0.500948 0.146049 0.163524
0.530340 0.153901 0.173667
0.559733 0.161753 0.183811
0.589125 0.169605 0.193954
0.615222 0.177594 0.204883
0.634729 0.185858 0.217382
0.654236 0.194121 0.229882
0.673742 0.202385 0.242381
0.693249 0.210649 0.254880
0.711110 0.218792 0.267515
0.720742 0.226337 0.280830
0.730375 0.233881 0.294145
0.740008 0.241425 0.307460
0.749641 0.248969 0.320775
0.759274 0.256513 0.334090
0.075371 0.059947 0.097885
0.089391 0.064847 0.098983
0.103410 0.069748 0.100080
0.117429 0.074648 0.101178
0.131448 0.079548 0.102276
0.145468 0.084449 0.103374
0.170633 0.089334 0.105370
0.198029 0.094216 0.107545
0.225424 0.099098 0.109721
0.252819 0.103979 0.111897
0.280214 0.108861 0.114073
0.311509 0.114863 0.118969
0.344755 0.121423 0.125226
0.378000 0.127984 0.131484
0.411245 0.134544 0.137741
0.444490 0.141105 0.143998
0.475855 0.148266 0.152336
0.505339 0.156026 0.162754
0.534823 0.163787 0.173172
0.564307 0.171547 0.183590
0.593791 0.179308 0.194008
0.619970 0.187227 0.205391
0.639541 0.195463 0.218704
0.659111 0.203699 0.232018
0.678682 0.211936 0.245331
0.698253 0.220172 0.258644
0.716143 0.228338 0.272158
0.725629 0.236157 0.286671
0.735115 0.243975 0.301184
0.744602 0.251794 0.315698
0.754088 0.259612 0.330211
0.763575 0.267431 0.344724
0.075749 0.061696 0.099256
0.090235 0.067694 0.100436
0.104721 0.073692 0.101616
0.119207 0.079690 0.102796
0.133693 0.085688 0.103976
0.148178 0.091686 0.105156
0.173575 0.097112 0.106838
0.201153 0.102424 0.108620
0.228731 0.107736 0.110403
0.256309 0.113048 0.112185
0.283887 0.118360 0.113967
0.315310 0.124566 0.118611
0.348656 0.131218 0.124685
0.382002 0.137870 0.130759
0.415348 0.144522 0.136834
0.448694 0.151174 0.142908
0.480155 0.158335 0.151291
0.509730 0.166004 0.161984
0.539305 0.173673 0.172676
0.568881 0.181342 0.183369
0.598456 0.189011 0.194061
0.624718 0.196860 0.205899
0.644353 0.205068 0.220026
0.663987 0.213277 0.234154
0.683622 0.221486 0.248281
0.703257 0.229695 0.262409
0.721175 0.237884 0.276800
0.730516 0.245977 0.292512
0.739856 0.254070 0.308224
0.749196 0.262163 0.323935
0.758536 0.270256 0.339647
0.767876 0.278349 0.355359
0.076127 0.063445 0.100626
0.091080 0.070541 0.101889
0.106032 0.077636 0.103151
0.120985 0.084732 0.104414
0.135937 0.091828 0.105676
0.150889 0.098924 0.106938
0.176516 0.104891 0.108306
0.204277 0.110633 0.109695
0.232038 0.116375 0.111084
0.259799 0.122117 0.112473
0.287560 0.127859 0.113862
0.319111 0.134268 0.118253
0.352558 0.141012 0.124144
0.386004 0.147756 0.130035
0.419451 0.154499 0.135927
0.452897 0.161243 0.141818
0.484454 0.168403 0.150247
0.514121 0.175981 0.161214
0.543788 0.183559 0.172181
0.573455 0.191136 0.183148
0.603122 0.198714 0.194115
0.629466 0.206493 0.206406
0.649165 0.214674 0.221348
0.668863 0.222855 0.236290
0.688562 0.231037 0.251231
0.708260 0.239218 0.266173
0.726208 0.247430 0.281443
0.735402 0.255798 0.298353
0.744596 0.264165 0.315263
0.753789 0.272532 0.332173
0.762983 0.280900 0.349083
0.772177 0.289267 0.365993
0.076230 0.064642 0.103021
0.091290 0.071967 0.104671
0.106351 0.079291 0.106320
0.121412 0.086616 0.107970
0.136472 0.093940 0.109620
0.151533 0.101265 0.111269
0.177679 0.108963 0.113149
0.206042 0.116735 0.115075
0.234406 0.124508 0.117000
0.262769 0.132281 0.118926
0.291132 0.140054 0.120852
0.322962 0.147455 0.125401
0.356524 0.154672 0.131262
0.390087 0.161888 0.137122
0.423649 0.169104 0.142983
0.457211 0.176320 0.148844
0.488906 0.183790 0.157380
0.518733 0.191512 0.168591
0.548560 0.199234 0.179802
0.578387 0.206957 0.191012
0.608214 0.214679 0.202223
0.634727 0.222568 0.214896
0.654612 0.230791 0.230491
0.674496 0.239013 0.246087
0.694381 0.247236 0.261683
0.714266 0.255458 0.277279
0.732386 0.263742 0.293253
0.741685 0.272330 0.311117
0.750984 0.280919 0.328982
0.760283 0.289507 0.346846
0.769582 0.298096 0.364711
0.778881 0.306684 0.382575
0.076277 0.065729 0.105621
0.091374 0.073109 0.107718
0.106472 0.080488 0.109816
0.121569 0.087867 0.111914
0.136666 0.095247 0.114012
0.151763 0.102626 0.116110
0.178487 0.112292 0.118667
0.207537 0.122416 0.121315
0.236586 0.132540 0.123964
0.265635 0.142664 0.126612
0.294685 0.152788 0.129260
0.326822 0.161339 0.134050
0.360504 0.169104 0.139911
0.394185 0.176869 0.145772
0.427866 0.184634 0.151633
0.461548 0.192399 0.157493
0.493389 0.200239 0.166148
0.523389 0.208154 0.177597
0.553390 0.216068 0.189046
0.583391 0.223983 0.200494
0.613392 0.231897 0.211943
0.640091 0.239933 0.224981
0.660186 0.248210 0.241199
0.680281 0.256488 0.257417
0.700376 0.264765 0.273635
0.720471 0.273042 0.289853
0.738793 0.281407 0.306496
0.748247 0.290205 0.325266
0.757702 0.299004 0.344036
0.767156 0.307803 0.362806
0.776610 0.316602 0.381576
0.786065 0.325401 0.400347
0.076324 0.066816 0.108220
0.091458 0.074251 0.110766
0.106592 0.081685 0.113312
0.121726 0.089119 0.115859
0.136860 0.096553 0.118405
0.151993 0.103988 0.120951
0.179295 0.115622 0.124185
0.209031 0.128097 0.127556
0.238766 0.140572 0.130927
0.268502 0.153047 0.134298
0.298237 0.165522 0.137669
0.330683 0.175222 0.142700
0.364483 0.183536 0.148560
0.398283 0.191850 0.154421
0.432083 0.200164 0.160282
0.465884 0.208478 0.166143
0.497871 0.216689 0.174916
0.528046 0.224795 0.186603
0.558220 0.232902 0.198290
0.588395 0.241009 0.209976
0.618570 0.249115 0.221663
0.645455 0.257297 0.235067
0.665760 0.265629 0.251907
0.686065 0.273962 0.268747
0.706371 0.282294 0.285587
0.726676 0.290626 0.302427
0.745199 0.299071 0.319739
0.754809 0.308081 0.339415
0.764419 0.317090 0.359091
0.774029 0.326099 0.378767
0.783639 0.335108 0.398442
0.793249 0.344118 0.418118
0.076372 0.067903 0.110820
0.091542 0.075393 0.113814
0.106712 0.082882 0.116809
0.121883 0.090371 0.119803
0.137053 0.097860 0.122797
0.152224 0.105349 0.125792
0.180103 0.118952 0.129702
0.210525 0.133778 0.133796
0.240947 0.148604 0.137890
0.271368 0.163430 0.141984
0.301790 0.178256 0.146077
0.334543 0.189106 0.151349
0.368462 0.197969 0.157210
0.402382 0.206832 0.163071
0.436301 0.215695 0.168931
0.470220 0.224557 0.174792
0.502354 0.233138 0.183685
0.532702 0.241437 0.195609
0.563051 0.249736 0.207534
0.593399 0.258035 0.219458
0.623747 0.266333 0.231382
0.650818 0.274661 0.245153
0.671334 0.283049 0.262615
0.691850 0.291436 0.280077
0.712366 0.299823 0.297539
0.732882 0.308210 0.315001
0.751606 0.316736 0.332982
0.761371 0.325956 0.353564
0.771137 0.335175 0.374145
0.780902 0.344395 0.394727
0.790668 0.353615 0.415308
0.800433 0.362834 0.435890
0.076419 0.068991 0.113419
0.091626 0.076535 0.116862
0.106833 0.084079 0.120305
0.122040 0.091623 0.123747
0.137247 0.099167 0.127190
0.152454 0.106711 0.130633
0.180911 0.122282 0.135220
0.212019 0.139459 0.140037
0.243127 0.156636 0.144853
0.274235 0.173813 0.149669
0.305342 0.190989 0.154486
0.338404 0.202990 0.159998
0.372442 0.212401 0.165859
0.406480 0.221813 0.171720
0.440518 0.231225 0.177581
0.474556 0.240637 0.183442
0.506836 0.249588 0.192453
0.537358 0.258079 0.204615
0.567881 0.266570 0.216778
0.598403 0.275060 0.228940
0.628925 0.283551 0.241102
0.656182 0.292026 0.255238
0.676908 0.300468 0.273322
0.697635 0.308910 0.291406
0.718361 0.317352 0.309490
0.739087 0.325794 0.327574
0.758013 0.334401 0.346226
0.767934 0.343831 0.367713
0.777855 0.353261 0.389200
0.787776 0.362691 0.410687
0.797696 0.372121 0.432174
0.807617 0.381551 0.453661
0.076655 0.070393 0.117405
0.091881 0.077876 0.121260
0.107106 0.085359 0.125114
0.122331 0.092842 0.128968
0.137556 0.100325 0.132823
0.152782 0.107808 0.136677
0.181550 0.124109 0.142078
0.213026 0.142173 0.147787
0.244503 0.160237 0.153497
0.275980 0.178301 0.159207
0.307456 0.196365 0.164917
0.341025 0.210133 0.171289
0.375639 0.221753 0.177991
0.410254 0.233372 0.184693
0.444868 0.244992 0.191396
0.479483 0.256611 0.198098
0.512107 0.266884 0.207567
0.542743 0.275811 0.219803
0.573378 0.284738 0.232038
0.604013 0.293665 0.244273
0.634648 0.302592 0.256509
0.662046 0.311412 0.270787
0.682970 0.320019 0.289152
0.703895 0.328625 0.307516
0.724819 0.337232 0.325881
0.745744 0.345839 0.344246
0.764868 0.354610 0.363204
0.774994 0.364201 0.385134
0.785119 0.373793 0.407063
0.795244 0.383385 0.428992
0.805370 0.392976 0.450921
0.815495 0.402568 0.472850
0.076986 0.071952 0.122084
0.092221 0.079317 0.126332
0.107455 0.086681 0.130580
0.122689 0.094045 0.134828
0.137924 0.101409 0.139075
0.153158 0.108773 0.143323
0.182103 0.125183 0.149605
0.213790 0.143403 0.156293
0.245477 0.161623 0.162982
0.277164 0.179843 0.169671
0.308852 0.198062 0.176360
0.343027 0.213907 0.183899
0.378446 0.228563 0.191864
0.413866 0.243220 0.199829
0.449285 0.257876 0.207794
0.484705 0.272533 0.215758
0.517773 0.284604 0.225854
0.548491 0.294089 0.238080
0.579208 0.303574 0.250307
0.609925 0.313059 0.262533
0.640643 0.322544 0.274759
0.668160 0.331809 0.289068
0.689276 0.340635 0.307542
0.710393 0.349461 0.326017
0.731510 0.358288 0.344491
0.752626 0.367114 0.362965
0.771949 0.376091 0.382051
0.782303 0.385820 0.404190
0.792657 0.395548 0.426330
0.803011 0.405277 0.448470
0.813365 0.415006 0.470609
0.823719 0.424735 0.492749
0.077317 0.073512 0.126764
0.092561 0.080757 0.131405
0.107804 0.088003 0.136046
0.123048 0.095248 0.140687
0.138291 0.102493 0.145328
0.153535 0.109738 0.149969
0.182657 0.126258 0.157132
0.214554 0.144634 0.164800
0.246452 0.163009 0.172467
0.278349 0.181384 0.180135
0.310247 0.199759 0.187802
0.345029 0.217680 0.196510
0.381253 0.235374 0.205737
0.417478 0.253068 0.214964
0.453702 0.270761 0.224191
0.489927 0.288455 0.233419
0.523439 0.302323 0.244141
0.554239 0.312366 0.256358
0.585038 0.322409 0.268575
0.615838 0.332452 0.280792
0.646638 0.342495 0.293009
0.674274 0.352206 0.307349
0.695582 0.361252 0.325933
0.716891 0.370298 0.344517
0.738200 0.379343 0.363101
0.759508 0.388389 0.381685
0.779030 0.397572 0.400897
0.789612 0.407438 0.423247
0.800195 0.417304 0.445597
0.810778 0.427170 0.467947
0.821360 0.437036 0.490297
0.831943 0.446902 0.512647
0.077648 0.075072 0.131443
0.092901 0.082198 0.136477
0.108153 0.089324 0.141512
0.123406 0.096451 0.146546
0.138659 0.103577 0.151581
0.153911 0.110703 0.156615
0.183210 0.127333 0.164659
0.215318 0.145864 0.173306
0.247426 0.164395 0.181952
0.279534 0.182926 0.190598
0.311642 0.201456 0.199245
0.347031 0.221454 0.209120
0.384060 0.242185 0.219610
0.421090 0.262915 0.230099
0.458119 0.283646 0.240589
0.495149 0.304377 0.251079
0.529104 0.320043 0.262428
0.559986 0.330644 0.274636
0.590869 0.341245 0.286844
0.621751 0.351846 0.299052
0.652633 0.362447 0.311260
0.680388 0.372603 0.325629
0.701888 0.381868 0.344323
0.723389 0.391134 0.363017
0.744890 0.400399 0.381711
0.766391 0.409664 0.400405
0.786110 0.419053 0.419743
0.796921 0.429056 0.442304
0.807733 0.439059 0.464864
0.818544 0.449063 0.487425
0.829356 0.459066 0.509985
0.840167 0.469069 0.532546
0.077979 0.076632 0.136122
0.093241 0.083639 0.141550
0.108502 0.090646 0.146978
0.123764 0.097654 0.152405
0.139026 0.104661 0.157833
0.154288 0.111668 0.163261
0.183764 0.128408 0.172187
0.216082 0.147094 0.181812
0.248400 0.165781 0.191437
0.280718 0.184467 0.201062
0.313037 0.203153 0.210687
0.349033 0.225227 0.221731
0.386867 0.248995 0.233483
0.424702 0.272763 0.245235
0.462536 0.296531 0.256987
0.500371 0.320299 0.268739
0.534770 0.337763 0.280714
0.565734 0.348922 0.292913
0.596699 0.360081 0.305112
0.627663 0.371240 0.317311
0.658628 0.382399 0.329510
0.686502 0.393000 0.343910
0.708194 0.402485 0.362714
0.729887 0.411970 0.381518
0.751580 0.421455 0.400321
0.773273 0.430939 0.419125
0.793191 0.440534 0.438590
0.804231 0.450674 0.461361
0.815271 0.460815 0.484131
0.826311 0.470955 0.506902
0.837351 0.481096 0.529673
0.848391 0.491236 0.552444
0.078451 0.078593 0.142384
0.093759 0.085504 0.148164
0.109067 0.092416 0.153944
0.124374 0.099327 0.159724
0.139682 0.106238 0.165504
0.154989 0.113150 0.171284
0.184640 0.129931 0.180974
0.217160 0.148685 0.191445
0.249679 0.167440 0.201917
0.282199 0.186195 0.212388
0.314718 0.204950 0.222860
0.351175 0.228194 0.234965
0.389599 0.253681 0.247888
0.428024 0.279169 0.260811
0.466448 0.304657 0.273734
0.504873 0.330145 0.286658
0.539734 0.349333 0.299431
0.571033 0.362221 0.312055
0.602331 0.375109 0.324680
0.633629 0.387997 0.337304
0.664928 0.400885 0.349928
0.693050 0.412731 0.364543
0.714821 0.422495 0.383141
0.736591 0.432259 0.401739
0.758362 0.442023 0.420337
0.780133 0.451787 0.438935
0.800142 0.461627 0.458193
0.811342 0.471845 0.480754
0.822542 0.482063 0.503314
0.833742 0.492282 0.525874
0.844942 0.502500 0.548435
0.856142 0.512718 0.570995
0.079066 0.080956 0.150230
0.094456 0.087794 0.156321
0.109846 0.094633 0.162412
0.125236 0.101471 0.168504
0.140626 0.108309 0.174595
0.156015 0.115147 0.180686
0.185840 0.131900 0.191022
0.218552 0.150637 0.202206
0.251264 0.169374 0.213391
0.283975 0.188110 0.224576
0.316687 0.206847 0.235761
0.353457 0.230352 0.248825
0.392257 0.256243 0.262827
0.431056 0.282133 0.276830
0.469856 0.308023 0.290832
0.508656 0.333914 0.304835
0.543997 0.354753 0.318578
0.575881 0.370541 0.332062
0.607765 0.386329 0.345546
0.639649 0.402116 0.359030
0.671532 0.417904 0.372514
0.700033 0.431797 0.387529
0.721767 0.441900 0.405606
0.743501 0.452002 0.423682
0.765235 0.462104 0.441758
0.786969 0.472207 0.459835
0.806963 0.482332 0.478553
0.818255 0.492568 0.500483
0.829546 0.502805 0.522412
0.840838 0.513041 0.544341
0.852130 0.523278 0.566270
0.863421 0.533515 0.588200
0.079680 0.083320 0.158076
0.095152 0.090084 0.164478
0.110625 0.096849 0.170880
0.126097 0.103614 0.177283
0.141569 0.110379 0.183685
0.157042 0.117144 0.190087
0.187040 0.133870 0.201069
0.219944 0.152589 0.212968
0.252848 0.171307 0.224866
0.285751 0.190025 0.236764
0.318655 0.208743 0.248663
0.355740 0.232511 0.262684
0.394914 0.258804 0.277766
0.434089 0.285097 0.292848
0.473264 0.311390 0.307930
0.512438 0.337683 0.323012
0.548260 0.360173 0.337725
0.580730 0.378861 0.352069
0.613199 0.397549 0.366413
0.645668 0.416236 0.380757
0.678137 0.434924 0.395101
0.707016 0.450863 0.410515
0.728713 0.461304 0.428070
0.750411 0.471745 0.445625
0.772108 0.482186 0.463180
0.793806 0.492627 0.480735
0.813784 0.503036 0.498914
0.825167 0.513291 0.520212
0.836551 0.523546 0.541510
0.847934 0.533801 0.562808
0.859317 0.544056 0.584106
0.870700 0.554311 0.605404
0.080295 0.085683 0.165922
0.095849 0.092375 0.172635
0.111404 0.099066 0.179348
0.126958 0.105758 0.186062
0.142513 0.112450 0.192775
0.158068 0.119142 0.199488
0.188240 0.135840 0.211117
0.221336 0.154540 0.223729
0.254432 0.173240 0.236341
0.287528 0.191940 0.248953
0.320623 0.210640 0.261565
0.358022 0.234670 0.276543
0.397572 0.261366 0.292704
0.437121 0.288061 0.308866
0.476671 0.314756 0.325027
0.516221 0.341452 0.341189
0.552523 0.365593 0.356871
0.585578 0.387181 0.372075
0.618633 0.408769 0.387279
0.651687 0.430356 0.402483
0.684742 0.451944 0.417687
0.713999 0.469929 0.433501
0.735660 0.480708 0.450534
0.757321 0.491488 0.467568
0.778981 0.502267 0.484602
0.800642 0.513046 0.501635
0.820606 0.523741 0.519274
0.832080 0.534015 0.539941
0.843555 0.544288 0.560608
0.855029 0.554561 0.581275
0.866504 0.564834 0.601941
0.877979 0.575107 0.622608
0.080909 0.088046 0.173768
0.096546 0.094665 0.180792
0.112183 0.101283 0.187816
0.127820 0.107902 0.194841
0.143457 0.114520 0.201865
0.159094 0.121139 0.208889
0.189440 0.137810 0.221164
0.222728 0.156492 0.234490
0.256016 0.175173 0.247815
0.289304 0.193855 0.261141
0.322592 0.212537 0.274466
0.360304 0.236829 0.290402
0.400229 0.263927 0.307643
0.440154 0.291025 0.324884
0.480079 0.318123 0.342125
0.520004 0.345221 0.359366
0.556786 0.371013 0.376018
0.590426 0.395501 0.392082
0.624067 0.419989 0.408146
0.657707 0.444476 0.424210
0.691347 0.468964 0.440273
0.720982 0.488995 0.456487
0.742606 0.500113 0.472999
0.764230 0.511231 0.489511
0.785855 0.522348 0.506023
0.807479 0.533466 0.522535
0.827427 0.544446 0.539635
0.838993 0.554738 0.559670
0.850559 0.565029 0.579706
0.862125 0.575321 0.599741
0.873691 0.585612 0.619777
0.885257 0.595904 0.639813
0.081602 0.090535 0.183190
0.097337 0.097136 0.190479
0.113071 0.103736 0.197768
0.128806 0.110336 0.205058
0.144540 0.116936 0.212347
0.160275 0.123537 0.219637
0.190820 0.140243 0.232462
0.224328 0.158970 0.246394
0.257835 0.177698 0.260327
0.291343 0.196425 0.274259
0.324850 0.215153 0.288191
0.362880 0.239700 0.304921
0.403171 0.267158 0.323049
0.443462 0.294616 0.341177
0.483752 0.322073 0.359306
0.524043 0.349531 0.377434
0.561252 0.376543 0.394911
0.595381 0.403111 0.411737
0.629509 0.429678 0.428564
0.663637 0.456245 0.445390
0.697765 0.482812 0.462216
0.727714 0.504493 0.478769
0.749304 0.516401 0.494775
0.770895 0.528308 0.510781
0.792486 0.540216 0.526786
0.814077 0.552124 0.542792
0.833995 0.563752 0.559328
0.845549 0.573986 0.578513
0.857102 0.584219 0.597698
0.868656 0.594453 0.616883
0.880210 0.604686 0.636067
0.891764 0.614920 0.655252
0.082453 0.093277 0.195762
0.098316 0.099968 0.203225
0.114178 0.106660 0.210688
0.130041 0.113352 0.218152
0.145903 0.120044 0.225615
0.161766 0.126735 0.233078
0.192561 0.143602 0.246260
0.226343 0.162503 0.260586
0.260125 0.181404 0.274912
0.293907 0.200305 0.289237
0.327689 0.219207 0.303563
0.366042 0.243995 0.320759
0.406681 0.271727 0.339391
0.447319 0.299459 0.358022
0.487957 0.327191 0.376653
0.528596 0.354924 0.395285
0.566125 0.382293 0.413297
0.600546 0.409299 0.430690
0.634967 0.436306 0.448084
0.669388 0.463312 0.465477
0.703808 0.490318 0.482871
0.733943 0.512856 0.499643
0.755507 0.526456 0.515173
0.777070 0.540056 0.530703
0.798633 0.553656 0.546234
0.820197 0.567256 0.561764
0.840055 0.580260 0.577688
0.851390 0.590283 0.595583
0.862724 0.600306 0.613478
0.874058 0.610329 0.631373
0.885393 0.620352 0.649268
0.896727 0.630375 0.667163
0.083304 0.096018 0.208334
0.099294 0.102801 0.215971
0.115285 0.109584 0.223608
0.131276 0.116368 0.231245
0.147266 0.123151 0.238882
0.163257 0.129934 0.246520
0.194303 0.146961 0.260058
0.228359 0.166036 0.274777
0.262415 0.185111 0.289496
0.296472 0.204186 0.304216
0.330528 0.223261 0.318935
0.369204 0.248290 0.336597
0.410190 0.276297 0.355732
0.451176 0.304303 0.374866
0.492162 0.332310 0.394001
0.533148 0.360316 0.413135
0.570998 0.388042 0.431683
0.605712 0.415488 0.449644
0.640425 0.442933 0.467604
0.675139 0.470379 0.485565
0.709852 0.497824 0.503525
0.740173 0.521219 0.520517
0.761709 0.536511 0.535572
0.783245 0.551803 0.550626
0.804781 0.567096 0.565681
0.826317 0.582388 0.580735
0.846116 0.596767 0.596048
0.857231 0.606580 0.612653
0.868345 0.616393 0.629258
0.879460 0.626205 0.645863
0.890575 0.636018 0.662469
0.901690 0.645831 0.679074
0.084155 0.098759 0.220907
0.100273 0.105634 0.228718
0.116392 0.112509 0.236528
0.132511 0.119383 0.244339
0.148630 0.126258 0.252150
0.164748 0.133133 0.259961
0.196044 0.150319 0.273856
0.230375 0.169568 0.288969
0.264705 0.188817 0.304081
0.299036 0.208066 0.319194
0.333367 0.227315 0.334306
0.372366 0.252585 0.352436
0.413700 0.280866 0.372073
0.455034 0.309147 0.391711
0.496367 0.337428 0.411349
0.537701 0.365709 0.430986
0.575871 0.393792 0.450069
0.610877 0.421676 0.468597
0.645883 0.449561 0.487124
0.680890 0.477446 0.505652
0.715896 0.505330 0.524180
0.746403 0.529581 0.541391
0.767911 0.546566 0.555970
0.789420 0.563551 0.570549
0.810928 0.580536 0.585128
0.832437 0.597520 0.599707
0.852176 0.613275 0.614408
0.863072 0.622877 0.629723
0.873967 0.632479 0.645039
0.884862 0.642082 0.660354
0.895757 0.651684 0.675669
0.906652 0.661286 0.690984
0.085005 0.101501 0.233479
0.101252 0.108467 0.241464
0.117499 0.115433 0.249448
0.133746 0.122399 0.257433
0.149993 0.129365 0.265418
0.166239 0.136332 0.273402
0.197785 0.153678 0.287655
0.232390 0.173101 0.303161
0.266995 0.192524 0.318666
0.301601 0.211946 0.334172
0.336206 0.231369 0.349678
0.375529 0.256880 0.368274
0.417210 0.285436 0.388415
0.458891 0.313991 0.408555
0.500572 0.342546 0.428696
0.542254 0.371102 0.448837
0.580744 0.399541 0.468455
0.616043 0.427865 0.487550
0.651342 0.456189 0.506645
0.686641 0.484512 0.525739
0.721940 0.512836 0.544834
0.752633 0.537944 0.562265
0.774114 0.556621 0.576368
0.795595 0.575298 0.590472
0.817076 0.593976 0.604575
0.838557 0.612653 0.618678
0.858237 0.629782 0.632768
0.868912 0.639174 0.646793
0.879588 0.648566 0.660819
0.890264 0.657958 0.674844
0.900940 0.667350 0.688870
0.911615 0.676742 0.702895
0.085848 0.103966 0.247060
0.102228 0.111061 0.255211
0.118607 0.118155 0.263361
0.134987 0.125249 0.271512
0.151366 0.132343 0.279663
0.167745 0.139438 0.287814
0.199547 0.156996 0.302376
0.234433 0.176647 0.318220
0.269319 0.196299 0.334065
0.304204 0.215950 0.349909
0.339090 0.235602 0.365753
0.378740 0.261395 0.384729
0.420772 0.290260 0.405271
0.462804 0.319125 0.425813
0.504836 0.347990 0.446355
0.546868 0.376855 0.466896
0.585673 0.405658 0.486928
0.621251 0.434400 0.506450
0.656829 0.463141 0.525972
0.692407 0.491883 0.545494
0.727985 0.520624 0.565015
0.758851 0.546483 0.582578
0.780292 0.566576 0.596222
0.801733 0.586670 0.609866
0.823175 0.606763 0.623511
0.844616 0.626857 0.637155
0.864213 0.645129 0.650638
0.874592 0.654296 0.663319
0.884970 0.663462 0.676000
0.895349 0.672628 0.688680
0.905727 0.681794 0.701361
0.916105 0.690961 0.714042
0.086652 0.105053 0.265682
0.103187 0.112459 0.273961
0.119722 0.119864 0.282240
0.136257 0.127269 0.290519
0.152792 0.134675 0.298798
0.169327 0.142080 0.307077
0.201413 0.160109 0.321713
0.236610 0.180264 0.337622
0.271807 0.200419 0.353530
0.307004 0.220573 0.369438
0.342201 0.240728 0.385347
0.382198 0.267012 0.404271
0.424596 0.296362 0.424703
0.466994 0.325712 0.445135
0.509392 0.355062 0.465567
0.551789 0.384411 0.485999
0.590883 0.413612 0.505839
0.626671 0.442665 0.525086
0.662459 0.471717 0.544333
0.698248 0.500770 0.563581
0.734036 0.529822 0.582828
0.765009 0.555901 0.600083
