Assets/1__3DArt/KimSe/artstation_asset/LUTs_subway_asset/CUBE/LoFi Chill 04_S.cube
# LUT by SparkleStock. Enhanced with VOXCOLOR algorithms.
LUT_3D_SIZE 8
DOMAIN_MIN 0.000000 0.000000 0.000000
DOMAIN_MAX 0.903226 0.903226 0.903226
0.066422 0.070330 0.097680
0.105558 0.077136 0.099571
0.178707 0.086352 0.098783
0.279964 0.100579 0.098940
0.400914 0.121446 0.103100
0.521533 0.149427 0.115199
0.614581 0.179298 0.135492
0.678562 0.207294 0.161621
0.069826 0.076947 0.106566
0.119645 0.103073 0.112408
0.199955 0.121761 0.109767
0.305517 0.139452 0.107448
0.428553 0.160868 0.112394
0.549465 0.188117 0.130788
0.642318 0.219330 0.163716
0.705371 0.252492 0.207556
0.073095 0.083698 0.117728
0.127586 0.119710 0.132914
0.217194 0.161053 0.139611
0.330224 0.196758 0.142998
0.455436 0.222014 0.149392
0.578092 0.250916 0.175012
0.673152 0.284818 0.220992
0.738432 0.323556 0.282348
0.077884 0.092631 0.133373
0.134876 0.133608 0.160182
0.231987 0.194957 0.183480
0.353187 0.254284 0.201085
0.484005 0.297476 0.215061
0.607966 0.329744 0.245243
0.705592 0.366707 0.300786
0.774145 0.410065 0.375070
0.085801 0.105676 0.155752
0.145885 0.150165 0.194089
0.246671 0.219719 0.237129
0.374668 0.300221 0.276016
0.515023 0.376400 0.306465
0.639460 0.416169 0.337543
0.738323 0.456182 0.396132
0.809208 0.501986 0.475042
0.100169 0.126661 0.190539
0.164498 0.174664 0.239121
0.268388 0.248974 0.297902
0.399447 0.337246 0.357109
0.543607 0.426945 0.408818
0.672874 0.495988 0.445020
0.769859 0.540758 0.496900
0.838952 0.584830 0.566498
0.123361 0.155051 0.242814
0.192666 0.207664 0.299446
0.298491 0.285843 0.367971
0.429897 0.378397 0.438666
0.574128 0.474040 0.502990
0.704810 0.553573 0.549437
0.798127 0.605560 0.588856
0.861981 0.647935 0.638702
0.155382 0.186561 0.313230
0.229810 0.245114 0.376443
0.335709 0.326520 0.448943
0.464125 0.420923 0.522277
0.604170 0.518169 0.588895
0.731937 0.600153 0.637812
0.821745 0.654973 0.667966
0.879258 0.692682 0.696851
0.072850 0.082240 0.125850
0.114620 0.097828 0.143694
0.189679 0.105978 0.147145
0.292545 0.115630 0.145925
0.415050 0.133296 0.147632
0.536841 0.162301 0.157536
0.631304 0.198442 0.178073
0.697461 0.237166 0.208502
0.078010 0.087979 0.134004
0.136244 0.129460 0.165772
0.219746 0.151165 0.174532
0.325502 0.165830 0.174621
0.447699 0.183053 0.177130
0.568875 0.207360 0.188682
0.663276 0.238516 0.212487
0.727434 0.274563 0.247859
0.084798 0.097584 0.148685
0.147623 0.151189 0.185722
0.238748 0.199336 0.202167
0.350027 0.234192 0.207227
0.473120 0.254053 0.210014
0.595616 0.277171 0.225351
0.692770 0.306482 0.257455
0.760137 0.342362 0.304743
0.093344 0.109872 0.168562
0.155893 0.167194 0.208073
0.252347 0.237646 0.235606
0.369842 0.298691 0.251596
0.496770 0.337057 0.259711
0.620344 0.361823 0.277513
0.720742 0.391256 0.316824
0.793162 0.427827 0.374740
0.104097 0.124508 0.193338
0.166509 0.181406 0.236387
0.265515 0.260077 0.278203
0.388454 0.344761 0.311579
0.522297 0.419260 0.333300
0.645596 0.451414 0.351163
0.747744 0.482544 0.392094
0.824166 0.519294 0.453015
0.119636 0.144908 0.227832
0.182666 0.199200 0.274327
0.283960 0.280040 0.329018
0.410773 0.372966 0.381375
0.549158 0.463947 0.423023
0.672867 0.530020 0.445669
0.772873 0.567248 0.480118
0.848867 0.602331 0.531453
0.143388 0.172225 0.276643
0.206447 0.223970 0.324767
0.309076 0.304985 0.388318
0.437741 0.401021 0.453741
0.578030 0.498615 0.509919
0.704212 0.578030 0.545304
0.796949 0.627451 0.570823
0.866271 0.664654 0.604765
0.176642 0.203832 0.341772
0.238015 0.253476 0.388841
0.340303 0.334390 0.456506
0.468250 0.431289 0.528116
0.606692 0.530262 0.590495
0.732235 0.613271 0.632698
0.820385 0.668651 0.654588
0.880758 0.705091 0.673656
0.085305 0.098302 0.166206
0.125873 0.117592 0.189741
0.200987 0.139863 0.210225
0.305032 0.158238 0.220111
0.429610 0.171575 0.218123
0.553816 0.199842 0.224587
0.651197 0.239885 0.243778
0.720694 0.286286 0.276230
0.091495 0.104718 0.174768
0.150534 0.149972 0.216741
0.234674 0.182073 0.245433
0.340720 0.202943 0.258750
0.462978 0.217002 0.259082
0.585342 0.240378 0.265598
0.682404 0.274353 0.283880
0.750212 0.316295 0.314910
0.100929 0.115501 0.189042
0.166335 0.173619 0.236813
0.258047 0.229397 0.272584
0.368170 0.268023 0.290618
0.489054 0.284461 0.291691
0.610968 0.304222 0.299440
0.710204 0.332192 0.320509
0.781053 0.368588 0.355822
0.112731 0.129821 0.209557
0.178623 0.192176 0.257428
0.274583 0.268296 0.299539
0.388816 0.331845 0.324738
0.511194 0.367498 0.329986
0.632829 0.386627 0.338104
0.734996 0.410718 0.362429
0.811215 0.442621 0.403392
0.126462 0.147086 0.236471
0.191656 0.208720 0.283874
0.288012 0.291459 0.331940
0.405141 0.378715 0.367413
0.532435 0.453250 0.383609
0.653044 0.479634 0.390952
0.757156 0.503772 0.416107
0.838623 0.533338 0.459728
0.143587 0.167938 0.270050
0.208583 0.225823 0.317873
0.305068 0.307662 0.371874
0.424669 0.401471 0.420592
0.556539 0.494234 0.455104
0.674825 0.559023 0.466890
0.776610 0.590105 0.486191
0.858729 0.617726 0.521172
0.167538 0.193836 0.314343
0.231694 0.247862 0.361748
0.327469 0.326286 0.419544
0.447934 0.420397 0.477971
0.582841 0.519698 0.527869
0.704470 0.600051 0.553817
0.796492 0.648065 0.567274
0.871102 0.681098 0.587566
0.200438 0.223739 0.372089
0.261956 0.274252 0.416778
0.355524 0.348998 0.475084
0.474749 0.441069 0.538211
0.609683 0.541230 0.596996
0.732473 0.626032 0.633087
0.819288 0.683051 0.647398
0.882870 0.719040 0.657789
0.104730 0.118752 0.217567
0.142823 0.139835 0.242260
0.215331 0.175969 0.276665
0.318765 0.211444 0.303005
0.445753 0.237185 0.311476
0.573434 0.261976 0.313074
0.674546 0.302526 0.328994
0.747883 0.352651 0.360793
0.110921 0.125936 0.225971
0.167748 0.170141 0.269999
0.248885 0.211771 0.313153
0.353755 0.246196 0.343448
0.477830 0.271527 0.354926
0.601838 0.293400 0.357180
0.701861 0.329220 0.371096
0.774006 0.375633 0.398917
0.121348 0.137307 0.238565
0.186125 0.193392 0.289617
0.275862 0.254049 0.340332
0.384282 0.301461 0.375551
0.504598 0.326608 0.387892
0.625795 0.344165 0.390605
0.726722 0.372004 0.403675
0.801351 0.409979 0.429963
0.135259 0.152515 0.257070
0.202313 0.213603 0.308821
0.297142 0.291193 0.363671
0.408572 0.358784 0.403384
0.527224 0.399276 0.418298
0.645813 0.414640 0.420457
0.748390 0.435579 0.433500
0.827714 0.465070 0.460478
0.151959 0.171212 0.282493
0.219496 0.233575 0.333181
0.314337 0.316318 0.388036
0.426718 0.403838 0.431395
0.547224 0.478742 0.453283
0.662897 0.500760 0.454350
0.766530 0.519545 0.467181
0.851003 0.543623 0.495401
0.171145 0.193612 0.315328
0.238682 0.253180 0.364916
0.332239 0.333777 0.419651
0.444975 0.425607 0.468823
0.568002 0.517129 0.503109
0.680115 0.581262 0.508468
0.781365 0.607436 0.516427
0.867328 0.628979 0.537825
0.195348 0.218721 0.355044
0.262637 0.275415 0.403726
0.354286 0.351109 0.457694
0.466206 0.440571 0.511006
0.591174 0.536267 0.556662
0.707124 0.617340 0.576487
0.797301 0.664448 0.581188
0.875578 0.694057 0.590934
0.227161 0.246344 0.404614
0.292957 0.300650 0.450991
0.381455 0.371182 0.502397
0.490968 0.456011 0.556766
0.615874 0.550292 0.609408
0.734174 0.636086 0.641227
0.818947 0.694806 0.649977
0.884861 0.730716 0.653836
0.131482 0.143519 0.277829
0.167525 0.166505 0.303126
0.234900 0.207120 0.339508
0.334919 0.261761 0.380765
0.463203 0.320956 0.417260
0.595879 0.345711 0.417395
0.701101 0.383816 0.428740
0.778135 0.433016 0.456909
0.136520 0.150538 0.284495
0.191298 0.193586 0.327965
0.265977 0.239076 0.372608
0.366949 0.290490 0.417004
0.493331 0.344469 0.455237
0.620210 0.368218 0.457472
0.723033 0.403161 0.467173
0.798739 0.449445 0.490731
0.146041 0.162457 0.295740
0.208969 0.214968 0.345735
0.293718 0.276038 0.399078
0.398753 0.335509 0.448866
0.519703 0.383794 0.486824
0.641315 0.403996 0.490320
0.743334 0.431803 0.498766
0.820957 0.470112 0.519001
0.160435 0.177721 0.310768
0.226702 0.235166 0.362204
0.319221 0.310164 0.420482
0.427852 0.382898 0.474068
0.543873 0.437059 0.512180
0.659646 0.454232 0.515572
0.761150 0.474251 0.522774
0.842201 0.502803 0.540700
0.179447 0.195732 0.330183
0.248097 0.257111 0.382240
0.343120 0.336818 0.439726
0.452647 0.422177 0.493455
0.566588 0.497251 0.533440
0.675699 0.518887 0.535959
0.775959 0.534168 0.541437
0.860447 0.554143 0.557368
0.201122 0.219944 0.361701
0.269900 0.279873 0.411454
0.364287 0.359160 0.466733
0.472915 0.447220 0.519728
0.585543 0.533152 0.561299
0.689975 0.596337 0.567570
0.787476 0.618594 0.569421
0.873758 0.635290 0.580798
0.226029 0.245477 0.397478
0.294780 0.303323 0.445450
0.388054 0.379097 0.498574
0.494913 0.463624 0.550401
0.606145 0.549180 0.593918
0.713792 0.628501 0.612761
0.799976 0.674349 0.613208
0.879003 0.701005 0.616198
0.256841 0.271343 0.439313
0.324672 0.327527 0.484749
0.415897 0.399654 0.535072
0.520052 0.478851 0.584555
0.628988 0.559140 0.628096
0.739090 0.642110 0.658008
0.819981 0.701280 0.664131
0.886201 0.736952 0.664359
0.165513 0.172256 0.341731
0.199507 0.196120 0.366735
0.262655 0.239376 0.403654
0.355416 0.299213 0.447008
0.476016 0.370666 0.490749
0.618938 0.439185 0.522206
0.729039 0.477876 0.532307
0.808530 0.520056 0.553036
0.168501 0.177958 0.345762
0.221230 0.219617 0.386787
0.290639 0.267569 0.430134
0.383400 0.325189 0.475400
0.501957 0.392149 0.520142
0.639534 0.455129 0.551774
0.745612 0.491319 0.561515
0.822964 0.531362 0.578945
0.176492 0.189181 0.354580
0.237290 0.238680 0.401340
0.317295 0.299206 0.452693
0.414944 0.363145 0.503067
0.528508 0.424621 0.547489
0.658062 0.479923 0.578376
0.760774 0.509637 0.587531
0.838576 0.542753 0.602053
0.189203 0.204555 0.367327
0.253510 0.257770 0.415444
0.342337 0.329066 0.471747
0.445487 0.402739 0.526385
0.555817 0.466893 0.571691
0.674981 0.514067 0.601047
0.774311 0.536150 0.609240
0.853940 0.560518 0.621193
0.206605 0.222969 0.383632
0.273919 0.279678 0.432653
0.366324 0.354501 0.488548
0.472817 0.436852 0.543995
0.583963 0.514350 0.591914
0.690884 0.557190 0.619263
0.786116 0.573495 0.625968
0.867672 0.589971 0.635545
0.230767 0.244253 0.405636
0.299229 0.303138 0.453826
0.393384 0.380286 0.508104
0.501828 0.464884 0.561345
0.613023 0.546426 0.606840
0.707105 0.607245 0.632843
0.796047 0.626031 0.637148
0.877158 0.639102 0.643989
0.257553 0.271128 0.438241
0.325780 0.328440 0.483479
0.419442 0.403440 0.534619
0.526988 0.485909 0.584990
0.636741 0.566637 0.628636
0.728523 0.633337 0.656540
0.806205 0.675169 0.659268
0.880731 0.698922 0.660712
0.288774 0.297287 0.474764
0.355688 0.352763 0.516504
0.447851 0.425101 0.564106
0.553507 0.503995 0.611235
0.661106 0.580605 0.652556
0.751953 0.645020 0.681523
0.824308 0.699622 0.688543
0.886621 0.733590 0.689044
0.200646 0.200362 0.397755
0.232225 0.224251 0.421979
0.291645 0.268602 0.458860
0.378663 0.331095 0.503194
0.491564 0.408007 0.549789
0.627533 0.490649 0.590248
0.748693 0.551820 0.612461
0.834230 0.599559 0.633292
0.201463 0.204503 0.399761
0.251966 0.244582 0.437947
0.317060 0.293509 0.479184
0.403455 0.354566 0.523707
0.514194 0.428061 0.570107
0.645460 0.505448 0.609758
0.761241 0.562749 0.631321
0.843598 0.607521 0.649929
0.207456 0.214182 0.406243
0.266204 0.261271 0.449738
0.342136 0.320718 0.497698
0.433867 0.386941 0.545974
0.540295 0.455701 0.591098
0.664113 0.525693 0.629075
0.773310 0.576086 0.649560
0.853551 0.614063 0.665909
0.218331 0.228416 0.416385
0.280687 0.278773 0.461387
0.365916 0.346904 0.513846
0.464196 0.420317 0.565772
0.568934 0.489789 0.611265
0.683264 0.551630 0.647065
0.784719 0.593749 0.666245
0.863344 0.623279 0.680422
0.234016 0.246302 0.429762
0.299459 0.299868 0.475704
0.388673 0.370649 0.528033
0.491551 0.449688 0.580969
0.599250 0.527235 0.629005
0.702721 0.582863 0.662550
0.795345 0.617210 0.680321
0.872235 0.638659 0.692470
0.256398 0.267464 0.447985
0.323630 0.323434 0.493247
0.415597 0.396618 0.544364
0.521564 0.477136 0.595242
0.630446 0.555608 0.640540
0.722363 0.617356 0.672739
0.805008 0.648571 0.688850
0.878723 0.665259 0.698987
0.285367 0.294014 0.475020
0.352016 0.349376 0.516883
0.444695 0.422358 0.564903
0.551591 0.502367 0.612780
0.660543 0.579799 0.655113
0.749603 0.641406 0.684901
0.817188 0.680628 0.697803
0.881935 0.701460 0.704515
0.318943 0.320944 0.507095
0.383332 0.374243 0.544095
0.475067 0.445607 0.587974
0.581271 0.523590 0.632232
0.689031 0.598044 0.671333
0.776240 0.655805 0.698380
0.835822 0.698062 0.710595
0.887435 0.724422 0.715232
0.230880 0.225476 0.440529
0.259970 0.248108 0.464192
0.316436 0.292529 0.501126
0.399230 0.356481 0.546275
0.506122 0.436470 0.594648
0.634157 0.525249 0.638614
0.758310 0.602825 0.670351
0.849004 0.659048 0.692313
0.229739 0.227372 0.441188
0.278103 0.265642 0.477018
0.339869 0.314320 0.516521
0.421631 0.376924 0.560252
0.526387 0.454038 0.607140
0.650215 0.538255 0.649504
0.768677 0.611271 0.679783
0.855303 0.664222 0.700239
0.233597 0.234760 0.446076
0.290642 0.280115 0.487194
0.363396 0.338051 0.531945
0.450790 0.404900 0.577666
0.551956 0.477659 0.621998
0.669437 0.555225 0.661759
0.780124 0.621317 0.689993
0.862072 0.668201 0.708456
0.242447 0.246982 0.454240
0.303431 0.295810 0.497304
0.385794 0.361406 0.545949
0.480395 0.433848 0.594210
0.581087 0.505914 0.637725
0.690745 0.575926 0.674331
0.792108 0.633728 0.700231
0.868895 0.673132 0.716600
0.256394 0.263431 0.465222
0.320582 0.315443 0.509250
0.407180 0.383537 0.558179
0.507092 0.459839 0.607421
0.612139 0.536450 0.652610
0.713085 0.599669 0.686146
0.804105 0.648927 0.709646
0.875359 0.680719 0.724060
0.277252 0.284239 0.480889
0.343243 0.338324 0.524001
0.432942 0.408622 0.572008
0.536352 0.486006 0.619705
0.643152 0.561992 0.662642
0.734980 0.624144 0.695055
0.815297 0.666921 0.716175
0.880669 0.692740 0.728607
0.306998 0.310262 0.503936
0.372039 0.364000 0.543173
0.463158 0.435054 0.588199
0.568657 0.512814 0.633214
0.676572 0.587680 0.673258
0.765701 0.646440 0.701977
0.829506 0.685027 0.719419
0.884001 0.707998 0.729286
0.343913 0.339792 0.534108
0.405361 0.390449 0.566620
0.495788 0.460166 0.606741
0.601578 0.536775 0.647947
0.709166 0.609463 0.684609
0.795740 0.664071 0.709531
0.849049 0.698193 0.723664
0.890023 0.719472 0.730602
