Assets/1__3DArt/KimSe/artstation_asset/LUTs_subway_asset/CUBE/LoFi Chill 01.cube
# LUT by SparkleStock. Enhanced with VOXCOLOR algorithms.
LUT_3D_SIZE 32
0.085958 0.070330 0.085958
0.096735 0.071653 0.086337
0.107511 0.072976 0.086715
0.118287 0.074300 0.087093
0.129064 0.075623 0.087471
0.139840 0.076947 0.087849
0.162354 0.080003 0.088345
0.187215 0.083406 0.088865
0.212076 0.086809 0.089385
0.236937 0.090212 0.089905
0.261798 0.093615 0.090425
0.293056 0.098783 0.091764
0.327512 0.104833 0.093513
0.361968 0.110883 0.095262
0.396424 0.116933 0.097011
0.430880 0.122982 0.098759
0.464910 0.129859 0.101335
0.498515 0.137564 0.104738
0.532120 0.145268 0.108141
0.565725 0.152972 0.111544
0.599330 0.160676 0.114947
0.629548 0.168396 0.118870
0.652991 0.176147 0.123833
0.676435 0.183899 0.128796
0.699878 0.191650 0.133759
0.723321 0.199401 0.138721
0.744622 0.206916 0.143928
0.755209 0.213250 0.150356
0.765796 0.219583 0.156784
0.776383 0.225917 0.163212
0.786971 0.232250 0.169640
0.797558 0.238584 0.176068
0.086526 0.071795 0.087376
0.097421 0.073557 0.088130
0.108316 0.075320 0.088883
0.119211 0.077082 0.089636
0.130107 0.078845 0.090389
0.141002 0.080607 0.091142
0.163627 0.083821 0.091846
0.188598 0.087325 0.092540
0.213569 0.090828 0.093233
0.238540 0.094332 0.093927
0.263511 0.097836 0.094621
0.294841 0.103104 0.096140
0.329352 0.109254 0.098072
0.363863 0.115405 0.100003
0.398374 0.121555 0.101935
0.432884 0.127706 0.103867
0.466961 0.134711 0.106662
0.500602 0.142571 0.110322
0.534244 0.150430 0.113981
0.567886 0.158290 0.117640
0.601527 0.166149 0.121299
0.631770 0.174037 0.125527
0.655213 0.181981 0.130892
0.678656 0.189924 0.136258
0.702099 0.197868 0.141623
0.725543 0.205811 0.146988
0.746837 0.213520 0.152613
0.757388 0.220054 0.159535
0.767938 0.226589 0.166457
0.778489 0.233124 0.173379
0.789040 0.239659 0.180301
0.799590 0.246193 0.187223
0.087093 0.073260 0.088794
0.098107 0.075462 0.089923
0.109121 0.077663 0.091051
0.120135 0.079865 0.092179
0.131150 0.082067 0.093307
0.142164 0.084268 0.094436
0.164900 0.087639 0.095347
0.189981 0.091243 0.096214
0.215061 0.094847 0.097082
0.240142 0.098452 0.097949
0.265223 0.102056 0.098817
0.296627 0.107425 0.100516
0.331192 0.113676 0.102630
0.365758 0.119927 0.104745
0.400324 0.126178 0.106860
0.434889 0.132429 0.108975
0.469011 0.139562 0.111990
0.502690 0.147578 0.115905
0.536368 0.155593 0.119820
0.570046 0.163608 0.123736
0.603724 0.171623 0.127651
0.633991 0.179678 0.132184
0.657434 0.187814 0.137952
0.680878 0.195949 0.143719
0.704321 0.204085 0.149487
0.727764 0.212221 0.155255
0.749052 0.220123 0.161297
0.759566 0.226859 0.168713
0.770081 0.233595 0.176129
0.780595 0.240331 0.183545
0.791109 0.247067 0.190961
0.801623 0.253803 0.198377
0.087660 0.074725 0.090212
0.098793 0.077366 0.091716
0.109926 0.080007 0.093219
0.121059 0.082647 0.094722
0.132192 0.085288 0.096226
0.143325 0.087929 0.097729
0.166173 0.091456 0.098847
0.191364 0.095161 0.099889
0.216554 0.098866 0.100930
0.241745 0.102571 0.101971
0.266935 0.106276 0.103013
0.298412 0.111746 0.104892
0.333033 0.118097 0.107189
0.367653 0.124449 0.109487
0.402274 0.130801 0.111785
0.436894 0.137153 0.114082
0.471062 0.144414 0.117317
0.504777 0.152584 0.121488
0.538492 0.160755 0.125660
0.572207 0.168926 0.129831
0.605922 0.177097 0.134003
0.636213 0.185320 0.138840
0.659656 0.193647 0.145011
0.683099 0.201975 0.151181
0.706542 0.210303 0.157351
0.729985 0.218630 0.163522
0.751268 0.226726 0.169982
0.761745 0.233664 0.177892
0.772223 0.240601 0.185802
0.782700 0.247538 0.193712
0.793178 0.254475 0.201622
0.803655 0.261412 0.209532
0.088227 0.076190 0.091630
0.099479 0.079270 0.093509
0.110731 0.082350 0.095387
0.121983 0.085430 0.097265
0.133235 0.088510 0.099144
0.144487 0.091590 0.101022
0.167446 0.095274 0.102348
0.192746 0.099080 0.103563
0.218047 0.102885 0.104778
0.243347 0.106691 0.105993
0.268647 0.110496 0.107208
0.300198 0.116067 0.109267
0.334873 0.122519 0.111748
0.369548 0.128971 0.114229
0.404224 0.135424 0.116709
0.438899 0.141876 0.119190
0.473113 0.149265 0.122644
0.506864 0.157591 0.127072
0.540616 0.165918 0.131499
0.574367 0.174244 0.135927
0.608119 0.182570 0.140354
0.638434 0.190961 0.145497
0.661877 0.199481 0.152070
0.685320 0.208000 0.158643
0.708764 0.216520 0.165216
0.732207 0.225040 0.171788
0.753483 0.233330 0.178666
0.763924 0.240468 0.187070
0.774365 0.247607 0.195474
0.784806 0.254745 0.203878
0.795247 0.261884 0.212282
0.805688 0.269022 0.220686
0.088794 0.077656 0.093048
0.100165 0.081175 0.095302
0.111536 0.084694 0.097555
0.122907 0.088212 0.099809
0.134278 0.091731 0.102062
0.145649 0.095250 0.104315
0.168719 0.099092 0.105848
0.194129 0.102998 0.107237
0.219539 0.106904 0.108626
0.244949 0.110810 0.110015
0.270359 0.114717 0.111404
0.301983 0.120387 0.113643
0.336713 0.126940 0.116307
0.371444 0.133493 0.118970
0.406174 0.140046 0.121634
0.440904 0.146599 0.124297
0.475163 0.154117 0.127971
0.508951 0.162598 0.132655
0.542739 0.171080 0.137339
0.576528 0.179562 0.142022
0.610316 0.188044 0.146706
0.640655 0.196602 0.152154
0.664099 0.205314 0.159129
0.687542 0.214026 0.166104
0.710985 0.222738 0.173080
0.734428 0.231450 0.180055
0.755698 0.239933 0.187351
0.766103 0.247273 0.196249
0.776507 0.254612 0.205147
0.786911 0.261952 0.214045
0.797316 0.269292 0.222943
0.807720 0.276632 0.231841
0.089046 0.079003 0.094860
0.100361 0.082709 0.097435
0.111675 0.086416 0.100010
0.122990 0.090122 0.102585
0.134305 0.093829 0.105161
0.145619 0.097535 0.107736
0.169032 0.102178 0.110083
0.194864 0.107008 0.112386
0.220697 0.111838 0.114688
0.246529 0.116668 0.116990
0.272361 0.121498 0.119292
0.304147 0.127651 0.122064
0.338909 0.134465 0.125071
0.373672 0.141278 0.128078
0.408434 0.148092 0.131084
0.443196 0.154906 0.134091
0.477490 0.162704 0.138144
0.511314 0.171486 0.143244
0.545139 0.180268 0.148344
0.578964 0.189050 0.153444
0.612788 0.197832 0.158544
0.643170 0.206718 0.164457
0.666667 0.215813 0.171995
0.690164 0.224907 0.179533
0.713660 0.234002 0.187071
0.737157 0.243097 0.194609
0.758475 0.251976 0.202490
0.768904 0.259776 0.212088
0.779333 0.267576 0.221685
0.789761 0.275376 0.231283
0.800190 0.283176 0.240881
0.810619 0.290976 0.250479
0.089235 0.080326 0.096751
0.100459 0.084170 0.099637
0.111682 0.088013 0.102523
0.122905 0.091857 0.105409
0.134128 0.095701 0.108295
0.145351 0.099545 0.111181
0.169152 0.105117 0.114465
0.195469 0.111036 0.117829
0.221787 0.116955 0.121192
0.248104 0.122874 0.124556
0.274421 0.128792 0.127919
0.306387 0.135503 0.131295
0.341176 0.142609 0.134676
0.375966 0.149716 0.138058
0.410756 0.156822 0.141440
0.445546 0.163929 0.144821
0.479871 0.172038 0.149286
0.513733 0.181149 0.154835
0.547594 0.190260 0.160383
0.581455 0.199372 0.165931
0.615316 0.208483 0.171479
0.645744 0.217729 0.177889
0.669305 0.227245 0.186022
0.692865 0.236760 0.194154
0.716426 0.246276 0.202287
0.739986 0.255791 0.210419
0.761365 0.265106 0.218920
0.771830 0.273418 0.229258
0.782295 0.281731 0.239597
0.792760 0.290043 0.249936
0.803226 0.298356 0.260275
0.813691 0.306668 0.270613
0.089425 0.081650 0.098641
0.100556 0.085630 0.101838
0.111688 0.089611 0.105036
0.122819 0.093592 0.108233
0.133951 0.097573 0.111430
0.145082 0.101554 0.114627
0.169273 0.108057 0.118847
0.196075 0.115064 0.123272
0.222877 0.122072 0.127696
0.249679 0.129079 0.132121
0.276481 0.136086 0.136546
0.308626 0.143355 0.140525
0.343444 0.150754 0.144282
0.378261 0.158153 0.148038
0.413078 0.165553 0.151795
0.447895 0.172952 0.155552
0.482253 0.181372 0.160429
0.516151 0.190812 0.166425
0.550048 0.200253 0.172422
0.583946 0.209694 0.178418
0.617844 0.219135 0.184415
0.648318 0.228740 0.191321
0.671942 0.238677 0.200049
0.695567 0.248613 0.208776
0.719192 0.258549 0.217503
0.742816 0.268485 0.226230
0.764254 0.278236 0.235349
0.774756 0.287061 0.246429
0.785258 0.295886 0.257509
0.795759 0.304711 0.268589
0.806261 0.313535 0.279668
0.816763 0.322360 0.290748
0.089614 0.082973 0.100532
0.100654 0.087091 0.104040
0.111694 0.091209 0.107548
0.122734 0.095327 0.111056
0.133774 0.099445 0.114565
0.144814 0.103564 0.118073
0.169393 0.110997 0.123229
0.196680 0.119092 0.128715
0.223967 0.127188 0.134201
0.251254 0.135284 0.139686
0.278541 0.143380 0.145172
0.310866 0.151207 0.149755
0.345711 0.158899 0.153887
0.380555 0.166591 0.158019
0.415400 0.174283 0.162151
0.450245 0.181975 0.166283
0.484634 0.190706 0.171571
0.518569 0.200476 0.178016
0.552503 0.210246 0.184460
0.586438 0.220016 0.190905
0.620372 0.229786 0.197350
0.650891 0.239752 0.204754
0.674580 0.250109 0.214075
0.698269 0.260466 0.223397
0.721957 0.270823 0.232719
0.745646 0.281180 0.242041
0.767143 0.291367 0.251779
0.777681 0.300704 0.263600
0.788220 0.310041 0.275421
0.798758 0.319378 0.287241
0.809297 0.328715 0.299062
0.819835 0.338052 0.310883
0.089803 0.084296 0.102422
0.100751 0.088552 0.106242
0.111700 0.092807 0.110061
0.122648 0.097062 0.113880
0.133597 0.101318 0.117699
0.144546 0.105573 0.121519
0.169514 0.113936 0.127611
0.197285 0.123121 0.134158
0.225057 0.132305 0.140705
0.252829 0.141490 0.147252
0.280601 0.150674 0.153799
0.313106 0.159059 0.158986
0.347978 0.167044 0.163492
0.382850 0.175028 0.167999
0.417722 0.183013 0.172506
0.452594 0.190998 0.177013
0.487016 0.200040 0.182713
0.520987 0.210139 0.189606
0.554958 0.220238 0.196499
0.588929 0.230338 0.203392
0.622900 0.240437 0.210285
0.653465 0.250763 0.218186
0.677218 0.261540 0.228102
0.700970 0.272318 0.238019
0.724723 0.283096 0.247935
0.748476 0.293874 0.257852
0.770032 0.304497 0.268209
0.780607 0.314346 0.280771
0.791182 0.324196 0.293332
0.801757 0.334045 0.305894
0.812332 0.343894 0.318456
0.822908 0.353744 0.331017
0.089929 0.086124 0.105510
0.100792 0.090523 0.109659
0.111655 0.094921 0.113807
0.122518 0.099320 0.117956
0.133382 0.103719 0.122105
0.144245 0.108117 0.126253
0.169308 0.117025 0.133021
0.197211 0.126835 0.140311
0.225113 0.136644 0.147602
0.253016 0.146454 0.154893
0.280919 0.156264 0.162184
0.313832 0.165690 0.168390
0.349250 0.174925 0.174052
0.384668 0.184160 0.179715
0.420086 0.193395 0.185377
0.455504 0.202630 0.191040
0.490198 0.212471 0.197539
0.524169 0.222918 0.204874
0.558140 0.233365 0.212209
0.592111 0.243812 0.219544
0.626082 0.254259 0.226880
0.656661 0.264954 0.235247
0.680453 0.276147 0.245679
0.704245 0.287339 0.256110
0.728038 0.298532 0.266542
0.751830 0.309724 0.276974
0.773429 0.320772 0.287866
0.784059 0.331097 0.301059
0.794689 0.341422 0.314252
0.805319 0.351747 0.327445
0.815948 0.362072 0.340637
0.826578 0.372397 0.353830
0.090023 0.088204 0.109197
0.100804 0.092749 0.113684
0.111585 0.097294 0.118171
0.122366 0.101839 0.122658
0.133147 0.106384 0.127145
0.143928 0.110929 0.131632
0.168939 0.120189 0.138944
0.196796 0.130392 0.146820
0.224653 0.140595 0.154697
0.252510 0.150798 0.162573
0.280367 0.161001 0.170449
0.313802 0.171711 0.177881
0.350025 0.182675 0.185089
0.386248 0.193639 0.192298
0.422470 0.204603 0.199507
0.458693 0.215567 0.206715
0.493781 0.226450 0.214207
0.527734 0.237254 0.221981
0.561687 0.248058 0.229755
0.595639 0.258862 0.237529
0.629592 0.269665 0.245304
0.660167 0.280736 0.254122
0.683987 0.292340 0.265030
0.707807 0.303944 0.275937
0.731627 0.315549 0.286845
0.755447 0.327153 0.297752
0.777079 0.338620 0.309136
0.787773 0.349403 0.322906
0.798467 0.360185 0.336675
0.809161 0.370967 0.350444
0.819855 0.381750 0.364213
0.830549 0.392532 0.377983
0.090118 0.090283 0.112884
0.100816 0.094975 0.117709
0.111515 0.099666 0.122535
0.122213 0.104357 0.127360
0.132912 0.109049 0.132186
0.143611 0.113740 0.137011
0.168570 0.123352 0.144867
0.196381 0.133949 0.153329
0.224193 0.144545 0.161791
0.252004 0.155142 0.170253
0.279815 0.165738 0.178715
0.313771 0.177732 0.187372
0.350799 0.190425 0.196126
0.387827 0.203118 0.204881
0.424855 0.215811 0.213636
0.461883 0.228503 0.222390
0.497364 0.240430 0.230874
0.531299 0.251591 0.239088
0.565233 0.262751 0.247301
0.599168 0.273912 0.255514
0.633102 0.285072 0.263728
0.663674 0.296518 0.272998
0.687521 0.308534 0.284381
0.711369 0.320550 0.295764
0.735216 0.332565 0.307147
0.759063 0.344581 0.318530
0.780729 0.356468 0.330407
0.791487 0.367708 0.344753
0.802245 0.378947 0.359098
0.813003 0.390187 0.373444
0.823761 0.401427 0.387789
0.834519 0.412667 0.402135
0.090212 0.092363 0.116570
0.100829 0.097201 0.121734
0.111445 0.102038 0.126898
0.122061 0.106876 0.132062
0.132677 0.111714 0.137226
0.143293 0.116552 0.142390
0.168201 0.126516 0.150790
0.195967 0.137506 0.159838
0.223732 0.148496 0.168885
0.251498 0.159485 0.177933
0.279263 0.170475 0.186980
0.313741 0.183753 0.196863
0.351574 0.198175 0.207163
0.389407 0.212597 0.217464
0.427240 0.227018 0.227765
0.465073 0.241440 0.238065
0.500947 0.254410 0.247542
0.534863 0.265927 0.256194
0.568779 0.277444 0.264847
0.602696 0.288962 0.273499
0.636612 0.300479 0.282152
0.667181 0.312300 0.291873
0.691055 0.324727 0.303732
0.714930 0.337155 0.315591
0.738805 0.349582 0.327449
0.762680 0.362010 0.339308
0.784379 0.374316 0.351678
0.795201 0.386013 0.366599
0.806023 0.397710 0.381521
0.816845 0.409407 0.396443
0.827667 0.421104 0.411365
0.838489 0.432802 0.426287
0.090307 0.094442 0.120257
0.100841 0.099427 0.125759
0.111375 0.104411 0.131262
0.121909 0.109395 0.136764
0.132442 0.114379 0.142267
0.142976 0.119363 0.147769
0.167832 0.129680 0.156714
0.195552 0.141063 0.166347
0.223272 0.152446 0.175979
0.250992 0.163829 0.185612
0.278712 0.175212 0.195245
0.313710 0.189774 0.206354
0.352348 0.205925 0.218200
0.390986 0.222075 0.230047
0.429624 0.238226 0.241894
0.468262 0.254377 0.253740
0.504530 0.268389 0.264209
0.538428 0.280263 0.273301
0.572326 0.292137 0.282393
0.606224 0.304012 0.291484
0.640122 0.315886 0.300576
0.670687 0.328081 0.310748
0.694590 0.340921 0.323083
0.718492 0.353760 0.335417
0.742394 0.366599 0.347752
0.766296 0.379438 0.360086
0.788029 0.392163 0.372948
0.798915 0.404318 0.388446
0.809801 0.416472 0.403945
0.820687 0.428627 0.419443
0.831573 0.440782 0.434941
0.842459 0.452936 0.450439
0.090307 0.097042 0.125243
0.100763 0.102218 0.131116
0.111219 0.107394 0.136989
0.121675 0.112571 0.142862
0.132131 0.117747 0.148735
0.142588 0.122923 0.154608
0.167400 0.133611 0.164091
0.195083 0.145401 0.174295
0.222766 0.157192 0.184500
0.250450 0.168982 0.194705
0.278133 0.180772 0.204909
0.313449 0.196232 0.216940
0.352581 0.213526 0.229885
0.391713 0.230820 0.242829
0.430845 0.248114 0.255773
0.469977 0.265409 0.268718
0.506695 0.280510 0.280154
0.541000 0.293417 0.290083
0.575305 0.306325 0.300012
0.609610 0.319233 0.309940
0.643915 0.332141 0.319869
0.674746 0.345122 0.330700
0.698630 0.358249 0.343336
0.722514 0.371376 0.355973
0.746398 0.384504 0.368609
0.770282 0.397631 0.381246
0.792005 0.410646 0.394411
0.802928 0.423098 0.410220
0.813851 0.435550 0.426029
0.824773 0.448002 0.441839
0.835696 0.460454 0.457648
0.846619 0.472906 0.473457
0.090212 0.100161 0.131529
0.100595 0.105576 0.137805
0.110978 0.110990 0.144080
0.121361 0.116404 0.150356
0.131744 0.121818 0.156631
0.142127 0.127232 0.162907
0.166904 0.138310 0.172922
0.194560 0.150521 0.183684
0.222216 0.162732 0.194447
0.249872 0.174943 0.205210
0.277528 0.187154 0.215972
0.312956 0.203126 0.228622
0.352271 0.220978 0.242216
0.391586 0.238831 0.255810
0.430901 0.256683 0.269404
0.470216 0.274535 0.282998
0.507442 0.290771 0.295377
0.542580 0.305389 0.306540
0.577717 0.320008 0.317704
0.612854 0.334626 0.328867
0.647992 0.349244 0.340031
0.679357 0.363421 0.351728
0.703177 0.376713 0.364493
0.726996 0.390005 0.377257
0.750816 0.403297 0.390022
0.774636 0.416589 0.402786
0.796308 0.429764 0.416066
0.807240 0.442353 0.431921
0.818171 0.454942 0.447776
0.829103 0.467531 0.463631
0.840035 0.480120 0.479486
0.850967 0.492709 0.495341
0.090118 0.103281 0.137816
0.100428 0.108933 0.144494
0.110737 0.114585 0.151172
0.121047 0.120237 0.157850
0.131357 0.125889 0.164528
0.141667 0.131541 0.171206
0.166409 0.143009 0.181753
0.194037 0.155641 0.193073
0.221665 0.168273 0.204394
0.249294 0.180905 0.215714
0.276922 0.193536 0.227035
0.312464 0.210021 0.240304
0.351962 0.228431 0.254548
0.391460 0.246841 0.268791
0.430958 0.265252 0.283034
0.470455 0.283662 0.297278
0.508189 0.301032 0.310599
0.544159 0.317361 0.322997
0.580129 0.333690 0.335396
0.616099 0.350019 0.347795
0.652069 0.366348 0.360193
0.683967 0.381720 0.372756
0.707723 0.395176 0.385649
0.731479 0.408633 0.398541
0.755235 0.422090 0.411434
0.778990 0.435547 0.424327
0.800610 0.448881 0.437720
0.811551 0.461608 0.453621
0.822492 0.474334 0.469522
0.833433 0.487061 0.485423
0.844374 0.499787 0.501323
0.855315 0.512513 0.517224
0.090023 0.106400 0.144102
0.100260 0.112290 0.151182
0.110496 0.118180 0.158263
0.120733 0.124070 0.165343
0.130970 0.129960 0.172424
0.141206 0.135849 0.179504
0.165913 0.147708 0.190583
0.193514 0.160761 0.202462
0.221115 0.173813 0.214341
0.248716 0.186866 0.226219
0.276317 0.199919 0.238098
0.311971 0.216915 0.251986
0.351652 0.235883 0.266879
0.391333 0.254852 0.281772
0.431014 0.273820 0.296665
0.470695 0.292788 0.311558
0.508936 0.311293 0.325821
0.545739 0.329332 0.339455
0.582541 0.347372 0.353088
0.619343 0.365412 0.366722
0.656146 0.383452 0.380355
0.688578 0.400019 0.393784
0.712270 0.413640 0.406805
0.735961 0.427261 0.419826
0.759653 0.440883 0.432846
0.783345 0.454504 0.445867
0.804913 0.467999 0.459375
0.815863 0.480863 0.475322
0.826813 0.493726 0.491268
0.837763 0.506590 0.507215
0.848714 0.519454 0.523161
0.859664 0.532317 0.539107
0.089929 0.109520 0.150388
0.100092 0.115647 0.157871
0.110256 0.121775 0.165354
0.120419 0.127903 0.172837
0.130582 0.134030 0.180320
0.140746 0.140158 0.187803
0.165418 0.152407 0.199414
0.192991 0.165881 0.211851
0.220565 0.179354 0.224288
0.248138 0.192827 0.236724
0.275712 0.206301 0.249161
0.311479 0.223810 0.263668
0.351343 0.243336 0.279211
0.391207 0.262862 0.294753
0.431070 0.282389 0.310295
0.470934 0.301915 0.325838
0.509684 0.321554 0.341043
0.547318 0.341304 0.355912
0.584953 0.361055 0.370780
0.622588 0.380805 0.385649
0.660223 0.400555 0.400517
0.693188 0.418318 0.414813
0.716816 0.432104 0.427961
0.740444 0.445890 0.441110
0.764072 0.459676 0.454259
0.787699 0.473462 0.467407
0.809216 0.487117 0.481030
0.820175 0.500118 0.497022
0.831134 0.513119 0.513014
0.842093 0.526119 0.529007
0.853053 0.539120 0.544999
0.864012 0.552121 0.560991
0.089677 0.113049 0.157919
0.099785 0.119448 0.165820
0.109894 0.125847 0.173720
0.120002 0.132246 0.181621
0.130111 0.138645 0.189522
0.140219 0.145044 0.197423
0.164851 0.157714 0.209571
0.192388 0.171639 0.222569
0.219925 0.185564 0.235567
0.247462 0.199489 0.248564
0.274999 0.213413 0.261562
0.310874 0.231430 0.276636
0.350918 0.251493 0.292749
0.390962 0.271557 0.308862
0.431005 0.291620 0.324974
0.471049 0.311683 0.341087
0.510231 0.332228 0.357030
0.548552 0.353256 0.372805
0.586873 0.374285 0.388579
0.625194 0.395313 0.404353
0.663515 0.416341 0.420127
0.696981 0.435070 0.435044
0.720737 0.449200 0.448248
0.744492 0.463331 0.461452
0.768248 0.477462 0.474655
0.792004 0.491592 0.487859
0.813621 0.505531 0.501496
0.824547 0.518514 0.517302
0.835473 0.531496 0.533108
0.846399 0.544479 0.548915
0.857324 0.557461 0.564721
0.868250 0.570444 0.580527
0.089109 0.117397 0.167939
0.099200 0.124135 0.176288
0.109290 0.130872 0.184637
0.119380 0.137610 0.192986
0.129470 0.144347 0.201335
0.139561 0.151085 0.209684
0.164144 0.164239 0.222380
0.191626 0.178676 0.235945
0.219108 0.193113 0.249510
0.246590 0.207550 0.263075
0.274072 0.221987 0.276639
0.310045 0.240504 0.292177
0.350262 0.261061 0.308702
0.390480 0.281618 0.325226
0.430697 0.302175 0.341750
0.470915 0.322732 0.358275
0.510381 0.343730 0.374547
0.549095 0.365170 0.390568
0.587809 0.386610 0.406590
0.626524 0.408050 0.422611
0.665238 0.429490 0.438632
0.699137 0.448728 0.453683
0.723405 0.463563 0.466796
0.747673 0.478398 0.479908
0.771941 0.493233 0.493020
0.796209 0.508068 0.506132
0.818233 0.522539 0.519585
0.829040 0.535192 0.534741
0.839847 0.547845 0.549898
0.850654 0.560499 0.565055
0.861461 0.573152 0.580211
0.872268 0.585805 0.595368
0.088542 0.121746 0.177959
0.098614 0.128822 0.186756
0.108686 0.135898 0.195554
0.118758 0.142974 0.204351
0.128830 0.150049 0.213148
0.138902 0.157125 0.221945
0.163437 0.170763 0.235188
0.190864 0.185712 0.249321
0.218291 0.200661 0.263453
0.245718 0.215611 0.277585
0.273145 0.230560 0.291717
0.309215 0.249577 0.307718
0.349607 0.270628 0.324654
0.389998 0.291679 0.341590
0.430389 0.312730 0.358526
0.470781 0.333781 0.375462
0.510530 0.355232 0.392064
0.549638 0.377084 0.408332
0.588745 0.398935 0.424600
0.627853 0.420787 0.440869
0.666961 0.442638 0.457137
0.701293 0.462386 0.472322
0.726073 0.477925 0.485343
0.750853 0.493464 0.498364
0.775634 0.509004 0.511384
0.800414 0.524543 0.524405
0.822846 0.539547 0.537673
0.833533 0.551870 0.552180
0.844221 0.564194 0.566688
0.854909 0.576518 0.581195
0.865597 0.588842 0.595702
0.876285 0.601166 0.610209
0.087975 0.126094 0.187979
0.098029 0.133508 0.197225
0.108082 0.140923 0.206470
0.118136 0.148337 0.215716
0.128190 0.155752 0.224961
0.138243 0.163166 0.234207
0.162729 0.177287 0.247997
0.190101 0.192748 0.262696
0.217474 0.208210 0.277396
0.244846 0.223671 0.292095
0.272218 0.239133 0.306794
0.308386 0.258650 0.323259
0.348951 0.280195 0.340607
0.389516 0.301740 0.357954
0.430081 0.323285 0.375302
0.470647 0.344830 0.392650
0.510680 0.366734 0.409581
0.550181 0.388998 0.426096
0.589682 0.411261 0.442611
0.629183 0.433524 0.459126
0.668684 0.455787 0.475642
0.703448 0.476044 0.490961
0.728741 0.492287 0.503891
0.754034 0.508531 0.516820
0.779326 0.524775 0.529749
0.804619 0.541019 0.542678
0.827458 0.556554 0.555762
0.838027 0.568549 0.569620
0.848596 0.580543 0.583477
0.859165 0.592538 0.597335
0.869734 0.604532 0.611193
0.880302 0.616527 0.625050
0.087408 0.130442 0.197999
0.097443 0.138195 0.207693
0.107479 0.145948 0.217387
0.117514 0.153701 0.227081
0.127549 0.161454 0.236774
0.137585 0.169207 0.246468
0.162022 0.183811 0.260806
0.189339 0.199785 0.276072
0.216656 0.215758 0.291339
0.243974 0.231732 0.306605
0.271291 0.247706 0.321872
0.307556 0.267724 0.338800
0.348295 0.289763 0.356559
0.389034 0.311802 0.374319
0.429773 0.333841 0.392078
0.470512 0.355880 0.409837
0.510829 0.378236 0.427098
0.550723 0.400911 0.443860
0.590618 0.423586 0.460622
0.630512 0.446261 0.477384
0.670406 0.468936 0.494146
0.705604 0.489702 0.509600
0.731409 0.506650 0.522438
0.757214 0.523598 0.535276
0.783019 0.540546 0.548113
0.808824 0.557494 0.560951
0.832070 0.573562 0.573850
0.842520 0.585227 0.587059
0.852970 0.596892 0.600267
0.863420 0.608557 0.613475
0.873870 0.620223 0.626683
0.884320 0.631888 0.639891
0.086652 0.135035 0.208901
0.096687 0.143137 0.219048
0.106722 0.151239 0.229195
0.116758 0.159341 0.239341
0.126793 0.167443 0.249488
0.136828 0.175545 0.259635
0.161225 0.190642 0.274505
0.188493 0.207137 0.290321
0.215762 0.223632 0.306136
0.243031 0.240128 0.321951
0.270299 0.256623 0.337767
0.306657 0.277138 0.355124
0.347559 0.299664 0.373252
0.388461 0.322189 0.391380
0.429363 0.344714 0.409509
0.470265 0.367240 0.427637
0.510856 0.390023 0.445159
0.551134 0.413064 0.462075
0.591413 0.436104 0.478991
0.631691 0.459145 0.495907
0.671970 0.482186 0.512824
0.707589 0.503382 0.528319
0.733890 0.520888 0.540974
0.760190 0.538394 0.553629
0.786490 0.555900 0.566283
0.812791 0.573406 0.578938
0.836433 0.589869 0.591546
0.846780 0.601113 0.603920
0.857128 0.612358 0.616294
0.867476 0.623602 0.628668
0.877824 0.634846 0.641043
0.888172 0.646091 0.653417
0.084950 0.140848 0.224215
0.095077 0.149353 0.234838
0.105204 0.157858 0.245460
0.115331 0.166362 0.256082
0.125457 0.174867 0.266705
0.135584 0.183371 0.277327
0.159981 0.199007 0.292658
0.187231 0.216070 0.308931
0.214481 0.233132 0.325203
0.241732 0.250195 0.341476
0.268982 0.267257 0.357749
0.305407 0.288261 0.375362
0.346419 0.311234 0.393646
0.387430 0.334208 0.411930
0.428442 0.357182 0.430213
0.469454 0.380155 0.448497
0.510269 0.403231 0.465942
0.550886 0.426409 0.482547
0.591503 0.449587 0.499152
0.632120 0.472765 0.515757
0.672737 0.495943 0.532362
0.708719 0.517172 0.547437
