Assets/1__3DArt/KimSe/artstation_asset/LUTs_subway_asset/CUBE/LoFi Chill 02.cube
# LUT by SparkleStock. Enhanced with VOXCOLOR algorithms.
LUT_3D_SIZE 5
DOMAIN_MIN 0.000000 0.000000 0.000000
DOMAIN_MAX 0.903226 0.903226 0.903226
0.050794 0.046886 0.089866
0.155067 0.058293 0.101217
0.380236 0.089172 0.120548
0.633329 0.137839 0.157446
0.774320 0.191744 0.209863
0.055205 0.057915 0.107921
0.164535 0.088365 0.141079
0.398173 0.139091 0.177525
0.654686 0.205436 0.231472
0.799411 0.281507 0.310003
0.056891 0.066218 0.133853
0.168440 0.119561 0.195402
0.422034 0.229453 0.284731
0.689196 0.331673 0.365980
0.840712 0.433884 0.469729
0.060979 0.078215 0.184741
0.171112 0.153658 0.272155
0.435068 0.310545 0.401364
0.733538 0.481600 0.521277
0.886553 0.592369 0.620434
0.063082 0.096420 0.280602
0.174150 0.198741 0.395914
0.444254 0.395113 0.541519
0.757832 0.591860 0.655240
0.918587 0.698143 0.714715
0.053803 0.059616 0.148356
0.140312 0.081503 0.167320
0.368229 0.124094 0.186504
0.635669 0.185216 0.224773
0.789191 0.255231 0.288351
0.057890 0.067756 0.162137
0.166917 0.130871 0.225126
0.399810 0.196739 0.265307
0.663614 0.269808 0.311681
0.813446 0.346406 0.379955
0.062895 0.078978 0.192405
0.176187 0.161667 0.273402
0.426228 0.281925 0.362514
0.696166 0.383746 0.430236
0.848436 0.477124 0.512248
0.067163 0.090999 0.240746
0.179714 0.186146 0.332405
0.439555 0.347550 0.455206
0.732686 0.510369 0.559754
0.886857 0.611768 0.639387
0.071167 0.108070 0.321484
0.184437 0.214105 0.420830
0.450064 0.410158 0.560127
0.760066 0.602605 0.666815
0.917280 0.702622 0.718300
0.059459 0.069952 0.238662
0.126704 0.101607 0.269112
0.335096 0.180818 0.306198
0.635006 0.274489 0.349283
0.814429 0.367826 0.420508
0.061875 0.077977 0.244956
0.162113 0.156725 0.322184
0.383197 0.262689 0.385008
0.667610 0.356870 0.427077
0.835976 0.445577 0.490713
0.069140 0.091533 0.264599
0.189773 0.196856 0.359761
0.438084 0.348241 0.459399
0.707806 0.451355 0.511413
0.861809 0.535735 0.570549
0.077552 0.107268 0.308224
0.204956 0.223618 0.408177
0.459160 0.398127 0.521395
0.741256 0.550684 0.607270
0.890890 0.637008 0.662683
0.086814 0.124231 0.371782
0.221254 0.250989 0.475092
0.470700 0.435986 0.588421
0.764653 0.616473 0.681370
0.917285 0.708499 0.723482
0.067108 0.076072 0.337942
0.123746 0.116348 0.378864
0.303993 0.231139 0.448088
0.622972 0.387636 0.502507
0.846805 0.513707 0.572844
0.068089 0.084617 0.337382
0.161350 0.167861 0.418230
0.358344 0.305162 0.502611
0.661350 0.458977 0.561600
0.864059 0.566886 0.615729
0.074801 0.100832 0.347274
0.194960 0.212867 0.445783
0.433916 0.385483 0.553498
0.710936 0.534220 0.616244
0.882249 0.620372 0.655784
0.090306 0.123138 0.375424
0.233550 0.256127 0.479163
0.497347 0.447553 0.588931
0.759390 0.598241 0.658699
0.900101 0.667689 0.690783
0.108635 0.146951 0.432988
0.265687 0.291477 0.532751
0.536294 0.486650 0.633725
0.780334 0.636265 0.700210
0.920366 0.716355 0.731374
0.077089 0.078002 0.409193
0.127845 0.125941 0.455397
0.295928 0.265384 0.544762
0.598119 0.473108 0.634658
0.870431 0.644260 0.693195
0.076397 0.086513 0.405933
0.166533 0.171879 0.484787
0.351666 0.325436 0.575686
0.637837 0.520416 0.658796
0.883797 0.669316 0.708690
0.082308 0.103692 0.411358
0.201042 0.217475 0.506726
0.433376 0.395215 0.608688
0.695850 0.573774 0.683554
0.898879 0.693648 0.722260
0.097916 0.129912 0.432820
0.242070 0.266090 0.533115
0.503325 0.461274 0.635816
0.762566 0.621786 0.704901
0.913920 0.713696 0.733262
0.129443 0.172482 0.492158
0.296018 0.320815 0.576584
0.583835 0.521631 0.665820
0.826643 0.669225 0.722926
0.928114 0.727238 0.742202
