Assets/1__3DArt/KimSe/artstation_asset/LUTs_subway_asset/CUBE/LoFi Chill 01.cube
# LUT by SparkleStock. Enhanced with VOXCOLOR algorithms.
LUT_3D_SIZE 8
DOMAIN_MIN 0.000000 0.000000 0.000000
DOMAIN_MAX 0.903226 0.903226 0.903226
0.085958 0.070330 0.085958
0.129064 0.075623 0.087471
0.212076 0.086809 0.089385
0.327512 0.104833 0.093513
0.464910 0.129859 0.101335
0.599330 0.160676 0.114947
0.699878 0.191650 0.133759
0.765796 0.219583 0.156784
0.088227 0.076190 0.091630
0.133235 0.088510 0.099144
0.218047 0.102885 0.104778
0.334873 0.122519 0.111748
0.473113 0.149265 0.122644
0.608119 0.182570 0.140354
0.708764 0.216520 0.165216
0.774365 0.247607 0.195474
0.089425 0.081650 0.098641
0.133951 0.097573 0.111430
0.222877 0.122072 0.127696
0.343444 0.150754 0.144282
0.482253 0.181372 0.160429
0.617844 0.219135 0.184415
0.719192 0.258549 0.217503
0.785258 0.295886 0.257509
0.090023 0.088204 0.109197
0.133147 0.106384 0.127145
0.224653 0.140595 0.154697
0.350025 0.182675 0.185089
0.493781 0.226450 0.214207
0.629592 0.269665 0.245304
0.731627 0.315549 0.286845
0.798467 0.360185 0.336675
0.090307 0.097042 0.125243
0.132131 0.117747 0.148735
0.222766 0.157192 0.184500
0.352581 0.213526 0.229885
0.506695 0.280510 0.280154
0.643915 0.332141 0.319869
0.746398 0.384504 0.368609
0.813851 0.435550 0.426029
0.089929 0.109520 0.150388
0.130582 0.134030 0.180320
0.220565 0.179354 0.224288
0.351343 0.243336 0.279211
0.509684 0.321554 0.341043
0.660223 0.400555 0.400517
0.764072 0.459676 0.454259
0.831134 0.513119 0.513014
0.087975 0.126094 0.187979
0.128190 0.155752 0.224961
0.217474 0.208210 0.277396
0.348951 0.280195 0.340607
0.510680 0.366734 0.409581
0.668684 0.455787 0.475642
0.779326 0.524775 0.529749
0.848596 0.580543 0.583477
0.083249 0.146662 0.239529
0.124122 0.182290 0.283921
0.213201 0.242633 0.344271
0.345278 0.322805 0.414040
0.509682 0.416439 0.486724
0.673504 0.509700 0.551901
0.791220 0.582438 0.600677
0.863288 0.634453 0.640729
0.084446 0.081106 0.107889
0.120965 0.088742 0.111304
0.203611 0.099885 0.113359
0.321608 0.117372 0.116962
0.462135 0.142709 0.124492
0.600068 0.174989 0.138836
0.703641 0.208281 0.160331
0.771931 0.239258 0.187857
0.087007 0.085357 0.111805
0.132455 0.105344 0.129040
0.217906 0.123076 0.138138
0.335537 0.144118 0.145632
0.474724 0.171983 0.156476
0.610863 0.206072 0.173672
0.712531 0.240526 0.197703
0.778824 0.272002 0.226901
0.089016 0.092316 0.120895
0.135870 0.116498 0.144001
0.224886 0.144779 0.164721
0.345324 0.175271 0.182390
0.484956 0.207342 0.198123
0.621147 0.245370 0.220589
0.722827 0.284238 0.250981
0.788977 0.320411 0.287203
0.090273 0.100553 0.134195
0.135215 0.125915 0.160128
0.226375 0.163294 0.191506
0.351141 0.206617 0.222869
0.495274 0.251156 0.251147
0.632147 0.294465 0.279959
0.734638 0.339192 0.317794
0.801501 0.381710 0.362502
0.090722 0.109410 0.151413
0.133472 0.136503 0.180523
0.224303 0.178744 0.218622
0.353323 0.235414 0.264228
0.506073 0.301485 0.313407
0.644709 0.353083 0.350312
0.748097 0.403902 0.394681
0.815695 0.452207 0.446077
0.090636 0.121010 0.175679
0.131422 0.150322 0.208170
0.221610 0.197979 0.253339
0.352264 0.262250 0.307907
0.509893 0.339129 0.367827
0.659129 0.415492 0.424265
0.763901 0.473012 0.473598
0.831492 0.523982 0.526391
0.090073 0.135974 0.210684
0.129438 0.167808 0.245750
0.218748 0.221901 0.298040
0.350347 0.294301 0.360957
0.511708 0.379655 0.428260
0.668522 0.466106 0.491624
0.778612 0.532776 0.542166
0.847812 0.586094 0.591091
0.088067 0.155102 0.258831
0.126640 0.188724 0.295135
0.215359 0.249648 0.353802
0.347658 0.330672 0.423834
0.511877 0.423851 0.495707
0.674821 0.515322 0.559316
0.791171 0.586008 0.606119
0.862507 0.636200 0.643531
0.082398 0.093489 0.139194
0.113263 0.102534 0.145860
0.189280 0.116373 0.150945
0.306054 0.136624 0.156296
0.453377 0.164138 0.163973
0.597312 0.199023 0.178945
0.705792 0.235859 0.202674
0.777881 0.271291 0.234183
0.085252 0.097478 0.142701
0.127175 0.121230 0.165949
0.207450 0.143623 0.180438
0.323949 0.168438 0.190748
0.468533 0.198344 0.201208
0.609498 0.234678 0.218347
0.715209 0.271720 0.243067
0.784656 0.306309 0.273932
0.088072 0.104348 0.150592
0.133909 0.133724 0.180479
0.221713 0.168581 0.207981
0.342532 0.203872 0.229293
0.484808 0.237399 0.244191
0.623084 0.276450 0.265247
0.726553 0.315741 0.293715
0.794097 0.352040 0.327582
0.090290 0.113110 0.163483
0.136226 0.144028 0.195524
0.228975 0.188617 0.233423
0.354808 0.236654 0.268156
0.498971 0.281422 0.294982
0.636117 0.324662 0.321131
0.738710 0.368003 0.354883
0.805568 0.408199 0.394050
0.091616 0.123022 0.181560
0.136425 0.155099 0.215276
0.228444 0.203353 0.257831
0.357284 0.263117 0.305094
0.508689 0.327714 0.351953
0.647722 0.378634 0.385510
0.751136 0.427492 0.424978
0.818520 0.472808 0.469934
0.092445 0.134055 0.204638
0.136102 0.167968 0.240521
0.226193 0.219992 0.287731
0.355752 0.285945 0.341948
0.512527 0.360795 0.398848
0.660403 0.434515 0.451551
0.765248 0.489723 0.495850
0.832715 0.537579 0.542185
0.093203 0.147720 0.235882
0.136397 0.183537 0.273382
0.224424 0.239543 0.324769
0.353660 0.311834 0.385274
0.514059 0.395325 0.449876
0.669653 0.479077 0.509819
0.778935 0.543025 0.556378
0.847594 0.593325 0.600040
0.093541 0.165102 0.278267
0.136805 0.201865 0.315948
0.223086 0.261629 0.370354
0.351645 0.340422 0.435895
0.514454 0.432273 0.506132
0.676285 0.521877 0.567622
0.791353 0.590433 0.612224
0.861796 0.638564 0.646749
0.081074 0.106771 0.177746
0.107158 0.117083 0.188035
0.173633 0.135293 0.198842
0.285507 0.161252 0.209224
0.437828 0.194411 0.219533
0.591350 0.233894 0.235579
0.706958 0.275491 0.261133
0.784155 0.316146 0.295682
0.083612 0.110869 0.181094
0.121244 0.136409 0.207984
0.193225 0.163765 0.228863
0.305653 0.194750 0.244903
0.454961 0.230438 0.258219
0.604644 0.270813 0.275648
0.717055 0.312074 0.301519
0.791470 0.351277 0.334717
0.086892 0.117373 0.187082
0.130140 0.149632 0.220957
0.213832 0.190824 0.255536
0.332735 0.232978 0.283044
0.477517 0.271718 0.300565
0.621575 0.313203 0.320317
0.729521 0.354609 0.347568
0.800420 0.392909 0.380519
0.090282 0.126236 0.197752
0.136050 0.160970 0.233955
0.228609 0.212657 0.278593
0.354426 0.267291 0.318648
0.499090 0.315631 0.346739
0.638547 0.359419 0.370032
0.742785 0.402379 0.400040
0.810876 0.441528 0.434722
0.093289 0.137058 0.214244
0.140514 0.173278 0.251813
0.233999 0.227971 0.299250
0.363363 0.292574 0.349239
0.514494 0.358144 0.394842
0.653038 0.407901 0.424550
0.755753 0.454442 0.458694
0.822614 0.496489 0.496916
0.095534 0.148200 0.236248
0.143174 0.186229 0.275295
0.234914 0.243185 0.325046
0.363835 0.312082 0.379550
0.518221 0.386269 0.433680
0.664439 0.456843 0.481798
0.768396 0.509254 0.520517
0.835161 0.553601 0.560018
0.097880 0.161192 0.263695
0.146671 0.201151 0.304495
0.236593 0.260113 0.355999
0.363737 0.332920 0.414060
0.519057 0.414050 0.474447
0.672821 0.494436 0.530060
0.780709 0.555323 0.572227
0.848360 0.602269 0.610273
0.100480 0.177091 0.299537
0.150993 0.218391 0.341215
0.239523 0.278847 0.393316
0.364550 0.355237 0.453664
0.519427 0.442802 0.518621
0.679001 0.529710 0.577078
0.792328 0.595856 0.619125
0.861565 0.641725 0.650525
0.081358 0.120217 0.221064
0.103508 0.132159 0.234628
0.160412 0.155418 0.253064
0.263992 0.189284 0.272007
0.415179 0.232140 0.289065
0.582422 0.279654 0.307617
0.707712 0.327453 0.334794
0.791315 0.373658 0.371135
0.082761 0.124169 0.223790
0.117423 0.150913 0.253020
0.180545 0.182743 0.280313
0.285477 0.221712 0.304827
0.434446 0.267923 0.326217
0.596774 0.315409 0.345146
0.718345 0.362389 0.372071
0.799108 0.406790 0.406740
0.085943 0.130813 0.228767
0.126472 0.164361 0.264619
0.203096 0.209673 0.304933
0.316126 0.259531 0.340490
0.460765 0.308667 0.365993
0.615529 0.355650 0.385739
0.731334 0.401389 0.412488
0.807830 0.443636 0.445550
0.090448 0.139824 0.236665
0.134895 0.176666 0.275190
0.223671 0.232601 0.324865
0.346433 0.294108 0.371341
0.491353 0.350986 0.405177
0.637209 0.397908 0.426861
0.746074 0.442522 0.454060
0.817536 0.482752 0.485995
0.095640 0.150768 0.248603
0.144770 0.190437 0.289272
0.239058 0.249924 0.340677
0.368910 0.319980 0.394093
0.520624 0.390455 0.441202
0.659066 0.440270 0.467783
0.761432 0.484858 0.496599
0.828131 0.523877 0.528214
0.099860 0.162880 0.269272
0.151332 0.204286 0.310597
0.247246 0.265635 0.362983
0.376909 0.338448 0.418762
0.527286 0.414540 0.471515
0.671261 0.481688 0.514466
0.773452 0.531105 0.547246
0.839072 0.571801 0.579752
0.104349 0.176033 0.293752
0.158357 0.219158 0.336351
0.255298 0.282245 0.389666
0.382902 0.356973 0.446690
0.529170 0.436040 0.501994
0.678837 0.511960 0.552146
0.784305 0.569394 0.589461
0.850452 0.612774 0.621654
0.109395 0.191199 0.323735
0.166459 0.235785 0.367245
0.264837 0.300370 0.420988
0.390152 0.376416 0.478300
0.531124 0.457177 0.534371
0.684403 0.539341 0.588083
0.794665 0.602407 0.626942
0.862194 0.645760 0.654949
0.083627 0.132506 0.264548
0.102996 0.146204 0.280746
0.153386 0.173915 0.305445
0.245684 0.215538 0.334647
0.385234 0.270012 0.364713
0.570042 0.334652 0.391023
0.708748 0.391770 0.420590
0.800738 0.443988 0.457138
0.084151 0.136312 0.266396
0.116599 0.163792 0.297126
0.174015 0.198974 0.328988
0.268429 0.244661 0.361881
0.406173 0.301669 0.394777
0.585385 0.366054 0.422145
0.719504 0.421654 0.451007
0.808422 0.471643 0.485633
0.086767 0.142912 0.270287
0.125568 0.176900 0.307149
0.197610 0.224447 0.350296
0.301637 0.279764 0.392165
0.436283 0.338744 0.427594
0.605968 0.401917 0.455815
0.732837 0.454828 0.483272
0.816731 0.501480 0.515282
0.091137 0.151924 0.276587
0.134262 0.189393 0.316038
0.219365 0.247030 0.367571
0.335143 0.312910 0.418723
0.472563 0.378160 0.460568
0.630280 0.439610 0.489746
0.748102 0.489356 0.515821
0.825658 0.532254 0.545141
0.097024 0.163069 0.285909
0.145569 0.203890 0.327673
0.237312 0.265482 0.381016
0.362961 0.339308 0.438088
0.510850 0.415985 0.490659
0.656436 0.476547 0.521900
0.764506 0.523524 0.547362
0.835114 0.562928 0.574459
0.104757 0.176791 0.301015
0.159157 0.220369 0.344002
0.258607 0.285003 0.398170
0.390262 0.361795 0.455925
0.539732 0.441596 0.510117
0.680086 0.508272 0.549343
0.780332 0.555186 0.576521
0.844737 0.592518 0.602569
0.112394 0.191066 0.323958
0.170480 0.236250 0.366897
0.273876 0.302536 0.420820
0.407157 0.380796 0.478462
0.554479 0.462036 0.533259
0.690043 0.531930 0.576022
0.790607 0.584883 0.607612
0.854454 0.624226 0.633881
0.120434 0.206940 0.350989
0.182318 0.253121 0.393693
0.289410 0.320747 0.447174
0.423728 0.400082 0.504223
0.567931 0.481892 0.558542
0.696927 0.552814 0.602268
0.799692 0.610532 0.636032
0.864404 0.650591 0.660111
0.086841 0.142589 0.301414
0.104283 0.157921 0.319515
0.150655 0.189444 0.349227
0.235960 0.237615 0.386766
0.365917 0.301817 0.428316
0.543650 0.380410 0.468116
0.704779 0.455670 0.503977
0.812894 0.518449 0.540834
0.086853 0.145883 0.302384
0.117846 0.174166 0.334168
0.171689 0.211914 0.369296
0.259639 0.262906 0.408497
0.388401 0.328654 0.451045
0.560803 0.406105 0.490600
0.715925 0.478565 0.525051
0.820092 0.538483 0.560034
0.089008 0.152420 0.305276
0.126813 0.186835 0.342983
0.195971 0.235655 0.387563
0.294426 0.294713 0.433402
0.421074 0.361048 0.476437
0.584467 0.436119 0.515234
0.730059 0.504339 0.547635
0.827633 0.559772 0.579649
0.093092 0.161503 0.310405
0.135665 0.199399 0.350624
0.218503 0.257559 0.402501
0.329825 0.325723 0.455602
0.460835 0.396378 0.502421
0.612986 0.468197 0.540311
0.746540 0.531327 0.570466
0.835623 0.581414 0.599059
0.099049 0.172696 0.318239
0.147520 0.214209 0.360540
0.237521 0.276427 0.414223
0.359977 0.351587 0.471986
0.503543 0.431356 0.526488
0.644418 0.500098 0.564117
0.764586 0.557943 0.592319
0.844021 0.602493 0.617606
0.107855 0.186809 0.330833
0.162956 0.231344 0.374356
0.262201 0.297161 0.428811
0.392238 0.375518 0.486976
0.538521 0.457512 0.542064
0.674919 0.527949 0.583352
0.782636 0.581657 0.610991
0.852272 0.621237 0.633769
0.119553 0.204036 0.351629
0.179980 0.249937 0.393924
0.287112 0.317940 0.447546
0.423781 0.398381 0.505018
0.572375 0.481654 0.559509
0.703448 0.552071 0.601111
0.798955 0.602826 0.628732
0.859818 0.639037 0.649873
0.132108 0.222792 0.377802
0.196877 0.268921 0.417923
0.310300 0.338162 0.469881
0.451847 0.419827 0.525873
0.601170 0.503509 0.578915
0.725639 0.572841 0.619522
0.812716 0.622098 0.646898
0.867745 0.655818 0.665735
0.090653 0.150900 0.328764
0.106577 0.167129 0.348463
0.150455 0.201621 0.382106
0.231698 0.255385 0.426322
0.355731 0.328192 0.477465
0.525902 0.419154 0.529761
0.697460 0.510791 0.574917
0.820108 0.585895 0.613435
0.090227 0.152815 0.329252
0.120093 0.181938 0.361534
0.171840 0.221814 0.399095
0.256144 0.277165 0.443201
0.379403 0.350185 0.493452
0.544574 0.438616 0.543864
0.709393 0.526046 0.586609
0.827171 0.597441 0.623088
0.091942 0.158830 0.331278
0.129143 0.194125 0.369634
0.196561 0.244056 0.414921
0.291820 0.305946 0.463432
0.413640 0.377930 0.512304
0.570476 0.462439 0.560080
0.724703 0.544026 0.599675
0.834509 0.609817 0.632909
0.095676 0.167978 0.335388
0.138119 0.206717 0.376655
0.219608 0.265278 0.428251
0.328317 0.334894 0.482040
0.455397 0.409294 0.532203
0.601890 0.488829 0.577170
0.742736 0.563493 0.613283
0.842264 0.622532 0.642668
0.101479 0.179566 0.342237
0.150122 0.221735 0.385543
0.239231 0.284209 0.439084
0.359782 0.359935 0.496332
0.500411 0.441499 0.551141
0.636745 0.515996 0.593860
0.762638 0.583239 0.626585
0.850392 0.635020 0.652055
0.110633 0.194063 0.354038
0.166009 0.239183 0.398024
0.264737 0.305376 0.452222
0.393291 0.384244 0.509831
0.537154 0.467360 0.564648
0.670844 0.541045 0.607698
0.782564 0.601357 0.637964
0.858175 0.645936 0.660123
0.124686 0.213326 0.373940
0.186083 0.259414 0.415627
0.294727 0.328117 0.468590
0.432576 0.409530 0.525295
0.581266 0.493898 0.578970
0.710317 0.565645 0.620254
0.803093 0.617101 0.647022
0.864554 0.654065 0.665864
0.142201 0.236520 0.401659
0.207816 0.281350 0.438496
0.324466 0.350892 0.488327
0.469980 0.433672 0.542809
0.622404 0.518565 0.594512
0.746269 0.588225 0.633630
0.824242 0.633440 0.657661
0.872726 0.663315 0.673026
