Assets/1__3DArt/KimSe/artstation_asset/LUTs_subway_asset/CUBE/LoFi Chill 04_S.cube
# LUT by SparkleStock. Enhanced with VOXCOLOR algorithms.
LUT_3D_SIZE 5
DOMAIN_MIN 0.000000 0.000000 0.000000
DOMAIN_MAX 0.903226 0.903226 0.903226
0.066422 0.070330 0.097680
0.156918 0.083800 0.099256
0.340462 0.110505 0.100453
0.548931 0.156611 0.119044
0.678562 0.207294 0.161621
0.072291 0.081996 0.114703
0.188122 0.142270 0.130341
0.386649 0.192206 0.133041
0.598600 0.240280 0.168833
0.729523 0.303127 0.260680
0.081382 0.098586 0.143676
0.209907 0.188229 0.201351
0.432555 0.310328 0.248441
0.652006 0.382434 0.300635
0.792057 0.456674 0.425664
0.104644 0.132648 0.200985
0.244495 0.235477 0.297344
0.479621 0.394350 0.406806
0.710234 0.529513 0.482245
0.845716 0.603567 0.587436
0.155382 0.186561 0.313230
0.305994 0.303816 0.429862
0.535025 0.470636 0.556850
0.760083 0.617933 0.648165
0.879258 0.692682 0.696851
0.081571 0.093860 0.154862
0.175800 0.125806 0.190063
0.363962 0.151010 0.197697
0.577571 0.196144 0.208367
0.714440 0.272025 0.257151
0.093931 0.107471 0.173627
0.224077 0.199692 0.242909
0.418864 0.248891 0.260530
0.629615 0.284293 0.273992
0.767890 0.344273 0.328258
0.113701 0.132511 0.211381
0.247712 0.252077 0.289291
0.455476 0.380476 0.332551
0.668847 0.433954 0.351876
0.821434 0.485196 0.423864
0.142035 0.167412 0.268623
0.276079 0.282447 0.356673
0.494731 0.450226 0.445987
0.708586 0.582701 0.485305
0.860807 0.632976 0.538003
0.194228 0.218491 0.364327
0.322835 0.322595 0.452253
0.541774 0.489762 0.566633
0.759661 0.641170 0.639670
0.882279 0.715395 0.661001
0.117586 0.130852 0.247438
0.203684 0.180151 0.298045
0.390561 0.261108 0.356509
0.614395 0.310305 0.366317
0.762999 0.392357 0.408850
0.130332 0.146368 0.263582
0.254587 0.240349 0.351535
0.445197 0.325180 0.421335
0.656629 0.366163 0.435046
0.804922 0.431573 0.468112
0.156495 0.173756 0.294067
0.292299 0.292454 0.388017
0.488226 0.428025 0.467870
0.688330 0.474265 0.481670
0.845937 0.513316 0.512328
0.191669 0.212994 0.347372
0.327606 0.329717 0.437269
0.523087 0.488540 0.525562
0.715442 0.618188 0.550936
0.873656 0.651685 0.567196
0.241840 0.258776 0.421909
0.373992 0.366130 0.505747
0.563199 0.510615 0.595740
0.761629 0.658077 0.654474
0.885597 0.734520 0.658086
0.174131 0.179377 0.356918
0.251228 0.234162 0.408301
0.418363 0.344748 0.485695
0.656015 0.473929 0.551403
0.815660 0.541062 0.575481
0.181741 0.192371 0.366024
0.296208 0.281869 0.447728
0.466211 0.392365 0.532388
0.687140 0.502463 0.597100
0.839094 0.558472 0.615715
0.204399 0.220005 0.388157
0.334819 0.326257 0.476920
0.518311 0.462256 0.572009
0.712789 0.555153 0.633579
0.863209 0.586596 0.646632
0.244160 0.256050 0.422648
0.380629 0.370410 0.509231
0.572134 0.516966 0.599357
0.737858 0.630671 0.655059
0.879445 0.654258 0.661148
0.296581 0.303544 0.483315
0.429651 0.411138 0.558514
0.616425 0.548710 0.638586
0.776430 0.660948 0.691798
0.886765 0.732168 0.695366
0.230880 0.225476 0.440529
0.299501 0.279181 0.490526
0.451166 0.395848 0.570777
0.665778 0.546323 0.648382
0.849004 0.659048 0.692313
0.232118 0.232348 0.444419
0.338764 0.317047 0.517021
0.492692 0.433742 0.595825
0.693483 0.569298 0.667512
0.860331 0.667329 0.706372
0.248927 0.254895 0.459396
0.372782 0.353859 0.539197
0.544926 0.484792 0.623891
0.727368 0.603015 0.688156
0.872209 0.676609 0.720538
0.283355 0.289963 0.485544
0.414767 0.395669 0.563296
0.598772 0.531511 0.644799
0.762571 0.643431 0.703904
0.881799 0.696069 0.729357
0.343913 0.339792 0.534108
0.470198 0.440774 0.595927
0.656873 0.574410 0.667117
0.814057 0.675674 0.714683
0.890023 0.719472 0.730602
