Assets/1__3DArt/KimSe/artstation_asset/LUTs_subway_asset/CUBE/LoFi Chill 05.cube
# LUT by SparkleStock. Enhanced with VOXCOLOR algorithms.
LUT_3D_SIZE 32
0.074237 0.054701 0.093773
0.086809 0.056402 0.094765
0.099382 0.058104 0.095758
0.111954 0.059805 0.096751
0.124526 0.061507 0.097743
0.137099 0.063208 0.098736
0.161369 0.066722 0.101934
0.187979 0.070598 0.105573
0.214589 0.074473 0.109213
0.241199 0.078349 0.112852
0.267809 0.082225 0.116491
0.298578 0.087896 0.122399
0.331427 0.094466 0.129442
0.364276 0.101036 0.136484
0.397125 0.107606 0.143527
0.429974 0.114175 0.150569
0.461003 0.121478 0.158888
0.490212 0.129513 0.168482
0.519422 0.137548 0.178077
0.548631 0.145583 0.187672
0.577841 0.153618 0.197267
0.603852 0.161637 0.207145
0.623467 0.169625 0.217590
0.643082 0.177612 0.228036
0.662696 0.185600 0.238481
0.682311 0.193588 0.248927
0.700335 0.201355 0.259412
0.710402 0.208019 0.270093
0.720469 0.214684 0.280775
0.730537 0.221348 0.291457
0.740604 0.228012 0.302139
0.750672 0.234676 0.312821
0.074615 0.056450 0.095144
0.087407 0.058462 0.096694
0.100199 0.060475 0.098245
0.112991 0.062487 0.099795
0.125783 0.064500 0.101346
0.138575 0.066512 0.102896
0.162958 0.070245 0.106355
0.189659 0.074322 0.110196
0.216361 0.078399 0.114037
0.243062 0.082476 0.117877
0.269764 0.086553 0.121718
0.300630 0.092444 0.127858
0.333580 0.099243 0.135147
0.366529 0.106041 0.142437
0.399479 0.112840 0.149726
0.432428 0.119638 0.157015
0.463576 0.127188 0.165599
0.492923 0.135488 0.175478
0.522270 0.143788 0.185356
0.551617 0.152088 0.195234
0.580963 0.160389 0.205112
0.607103 0.168692 0.215293
0.626827 0.176999 0.226077
0.646552 0.185307 0.236861
0.666276 0.193615 0.247644
0.686001 0.201923 0.258428
0.704131 0.210032 0.269246
0.714290 0.217144 0.280229
0.724449 0.224257 0.291213
0.734608 0.231369 0.302197
0.744767 0.238482 0.313180
0.754925 0.245595 0.324164
0.074993 0.058198 0.096514
0.088005 0.060522 0.098623
0.101016 0.062846 0.100731
0.114028 0.065169 0.102840
0.127039 0.067493 0.104949
0.140050 0.069816 0.107057
0.164546 0.073769 0.110777
0.191339 0.078047 0.114819
0.218132 0.082325 0.118861
0.244925 0.086603 0.122903
0.271718 0.090882 0.126944
0.302683 0.096992 0.133316
0.335733 0.104020 0.140852
0.368783 0.111047 0.148389
0.401833 0.118074 0.155925
0.434883 0.125101 0.163462
0.466150 0.132898 0.172311
0.495634 0.141463 0.182473
0.525118 0.150029 0.192635
0.554602 0.158594 0.202796
0.584086 0.167160 0.212958
0.610353 0.175746 0.223440
0.630188 0.184374 0.234563
0.650022 0.193002 0.245685
0.669856 0.201630 0.256808
0.689691 0.210258 0.267930
0.707928 0.218709 0.279080
0.718178 0.226269 0.290365
0.728428 0.233830 0.301651
0.738679 0.241391 0.312936
0.748929 0.248952 0.324222
0.759179 0.256513 0.335508
0.075371 0.059947 0.097885
0.088602 0.062582 0.100552
0.101833 0.065216 0.103218
0.115064 0.067851 0.105885
0.128295 0.070486 0.108551
0.141526 0.073120 0.111218
0.166135 0.077292 0.115198
0.193020 0.081772 0.119442
0.219904 0.086251 0.123685
0.246788 0.090731 0.127928
0.273673 0.095210 0.132171
0.304735 0.101541 0.138774
0.337885 0.108796 0.146558
0.371036 0.116052 0.154341
0.404187 0.123308 0.162125
0.437338 0.130564 0.169908
0.468724 0.138607 0.179022
0.498345 0.147438 0.189468
0.527966 0.156269 0.199913
0.557587 0.165100 0.210359
0.587208 0.173931 0.220804
0.613604 0.182801 0.231588
0.633548 0.191749 0.243049
0.653492 0.200697 0.254510
0.673436 0.209646 0.265971
0.693380 0.218594 0.277432
0.711724 0.227385 0.288914
0.722066 0.235395 0.300501
0.732408 0.243404 0.312089
0.742749 0.251413 0.323676
0.753091 0.259422 0.335264
0.763433 0.267431 0.346851
0.075749 0.061696 0.099256
0.089200 0.064642 0.102480
0.102651 0.067587 0.105705
0.116101 0.070533 0.108930
0.129552 0.073479 0.112154
0.143002 0.076424 0.115379
0.167724 0.080816 0.119620
0.194700 0.085497 0.124064
0.221676 0.090177 0.128509
0.248651 0.094858 0.132953
0.275627 0.099539 0.137398
0.306787 0.106089 0.144233
0.340038 0.113573 0.152263
0.373290 0.121058 0.160293
0.406541 0.128542 0.168324
0.439792 0.136027 0.176354
0.471297 0.144317 0.185734
0.501056 0.153413 0.196463
0.530814 0.162510 0.207192
0.560572 0.171606 0.217921
0.590331 0.180702 0.228650
0.616854 0.189855 0.239736
0.636908 0.199124 0.251535
0.656962 0.208392 0.263335
0.677016 0.217661 0.275134
0.697070 0.226929 0.286934
0.715520 0.236062 0.298748
0.725954 0.244520 0.310637
0.736387 0.252977 0.322527
0.746820 0.261434 0.334416
0.757254 0.269892 0.346305
0.767687 0.278349 0.358194
0.076127 0.063445 0.100626
0.089798 0.066701 0.104409
0.103468 0.069958 0.108192
0.117138 0.073215 0.111974
0.130808 0.076472 0.115757
0.144478 0.079728 0.119540
0.169313 0.084339 0.124042
0.196380 0.089221 0.128687
0.223447 0.094103 0.133333
0.250515 0.098985 0.137978
0.277582 0.103867 0.142624
0.308839 0.110637 0.149691
0.342191 0.118350 0.157968
0.375543 0.126063 0.166246
0.408895 0.133777 0.174523
0.442247 0.141490 0.182801
0.473871 0.150027 0.192446
0.503767 0.159389 0.203458
0.533662 0.168750 0.214471
0.563558 0.178111 0.225483
0.593453 0.187473 0.236496
0.620105 0.196910 0.247884
0.640269 0.206499 0.260022
0.660432 0.216087 0.272160
0.680596 0.225676 0.284297
0.700760 0.235264 0.296435
0.719317 0.244739 0.308582
0.729842 0.253645 0.320773
0.740366 0.262550 0.332964
0.750891 0.271456 0.345156
0.761416 0.280361 0.357347
0.771941 0.289267 0.369538
0.076230 0.064524 0.103060
0.090020 0.067962 0.107188
0.103811 0.071400 0.111315
0.117602 0.074838 0.115442
0.131392 0.078276 0.119569
0.145183 0.081715 0.123697
0.170438 0.087254 0.129059
0.197985 0.093214 0.134668
0.225533 0.099174 0.140277
0.253080 0.105134 0.145887
0.280628 0.111094 0.151496
0.312148 0.118507 0.159125
0.345654 0.126647 0.167764
0.379160 0.134788 0.176402
0.412666 0.142928 0.185041
0.446172 0.151068 0.193680
0.477957 0.160043 0.203693
0.508020 0.169853 0.215081
0.538083 0.179662 0.226468
0.568146 0.189472 0.237856
0.598210 0.199282 0.249244
0.625030 0.209180 0.261025
0.645365 0.219257 0.273593
0.665699 0.229333 0.286161
0.686033 0.239410 0.298728
0.706368 0.249486 0.311296
0.725094 0.259458 0.323873
0.735779 0.268903 0.336496
0.746464 0.278348 0.349118
0.757149 0.287793 0.361741
0.767833 0.297239 0.374364
0.778518 0.306684 0.386986
0.076277 0.065469 0.105707
0.090168 0.069063 0.110136
0.104060 0.072657 0.114565
0.117951 0.076250 0.118995
0.131842 0.079844 0.123424
0.145733 0.083437 0.127853
0.171470 0.090047 0.134196
0.199575 0.097261 0.140921
0.227681 0.104474 0.147646
0.255787 0.111687 0.154371
0.283892 0.118900 0.161097
0.315708 0.127042 0.169354
0.349379 0.135649 0.178377
0.383049 0.144256 0.187400
0.416720 0.152862 0.196423
0.450391 0.161469 0.205446
0.482345 0.170920 0.215848
0.512582 0.181214 0.227629
0.542819 0.191509 0.239410
0.573056 0.201803 0.251191
0.603293 0.212098 0.262972
0.630290 0.222494 0.275165
0.650808 0.233092 0.288181
0.671325 0.243689 0.301197
0.691842 0.254287 0.314213
0.712360 0.264885 0.327229
0.731267 0.275384 0.340256
0.742126 0.285387 0.353336
0.752985 0.295391 0.366416
0.763843 0.305394 0.379496
0.774702 0.315397 0.392576
0.785561 0.325401 0.405656
0.076324 0.066415 0.108354
0.090316 0.070164 0.113085
0.104308 0.073913 0.117816
0.118300 0.077662 0.122547
0.132292 0.081411 0.127278
0.146284 0.085160 0.132009
0.172502 0.092841 0.139332
0.201166 0.101307 0.147173
0.229829 0.109773 0.155015
0.258493 0.118240 0.162856
0.287157 0.126706 0.170697
0.319268 0.135577 0.179583
0.353103 0.144651 0.188990
0.386939 0.153724 0.198397
0.420774 0.162797 0.207804
0.454609 0.171870 0.217211
0.486733 0.181797 0.228002
0.517143 0.192576 0.240177
0.547554 0.203356 0.252351
0.577965 0.214135 0.264526
0.608376 0.224914 0.276700
0.635550 0.235807 0.289304
0.656251 0.246926 0.302769
0.676951 0.258046 0.316233
0.697651 0.269165 0.329697
0.718352 0.280284 0.343162
0.737441 0.291311 0.356638
0.748473 0.301872 0.370176
0.759506 0.312434 0.383713
0.770538 0.322995 0.397251
0.781571 0.333556 0.410788
0.792603 0.344118 0.424325
0.076372 0.067360 0.111001
0.090464 0.071265 0.116034
0.104557 0.075169 0.121067
0.118649 0.079074 0.126100
0.132742 0.082979 0.131132
0.146834 0.086883 0.136165
0.173534 0.095634 0.144469
0.202756 0.105353 0.153426
0.231978 0.115073 0.162384
0.261199 0.124793 0.171341
0.290421 0.134513 0.180298
0.322828 0.144112 0.189812
0.356828 0.153652 0.199603
0.390828 0.163192 0.209394
0.424828 0.172732 0.219186
0.458828 0.182272 0.228977
0.491120 0.192674 0.240157
0.521705 0.203938 0.252725
0.552290 0.215202 0.265292
0.582875 0.226466 0.277860
0.613459 0.237731 0.290428
0.640810 0.249120 0.303444
0.661694 0.260761 0.317357
0.682577 0.272402 0.331269
0.703460 0.284043 0.345182
0.724344 0.295684 0.359094
0.743614 0.307237 0.373021
0.754820 0.318357 0.387015
0.766027 0.329476 0.401010
0.777233 0.340596 0.415005
0.788439 0.351715 0.429000
0.799646 0.362834 0.442995
0.076419 0.068305 0.113648
0.090612 0.072365 0.118982
0.104805 0.076426 0.124317
0.118998 0.080486 0.129652
0.133191 0.084546 0.134987
0.147384 0.088606 0.140322
0.174566 0.098427 0.149605
0.204346 0.109400 0.159679
0.234126 0.120373 0.169752
0.263906 0.131346 0.179826
0.293685 0.142319 0.189899
0.326388 0.152648 0.200041
0.360553 0.162654 0.210216
0.394718 0.172660 0.220392
0.428882 0.182667 0.230567
0.463047 0.192673 0.240743
0.495508 0.203551 0.252311
0.526267 0.215300 0.265273
0.557026 0.227049 0.278234
0.587784 0.238798 0.291195
0.618543 0.250547 0.304156
0.646070 0.262434 0.317584
0.667137 0.274596 0.331945
0.688203 0.286758 0.346305
0.709269 0.298920 0.360666
0.730336 0.311083 0.375027
0.749788 0.323164 0.389403
0.761168 0.334841 0.403855
0.772548 0.346519 0.418308
0.783928 0.358196 0.432760
0.795308 0.369874 0.447212
0.806688 0.381551 0.461665
0.076750 0.069345 0.117681
0.091019 0.073561 0.123287
0.105288 0.077776 0.128893
0.119558 0.081992 0.134499
0.133827 0.086208 0.140106
0.148096 0.090423 0.145712
0.175604 0.100908 0.155661
0.205758 0.112646 0.166478
0.235913 0.124385 0.177296
0.266068 0.136123 0.188113
0.296223 0.147862 0.198931
0.329417 0.159468 0.210032
0.364130 0.171008 0.221275
0.398844 0.182548 0.232518
0.433557 0.194088 0.243760
0.468271 0.205629 0.255003
0.501085 0.217522 0.267268
0.531999 0.229768 0.280556
0.562913 0.242014 0.293843
0.593827 0.254260 0.307131
0.624741 0.266506 0.320418
0.652425 0.278882 0.334170
0.673650 0.291517 0.348851
0.694875 0.304152 0.363532
0.716100 0.316786 0.378213
0.737325 0.329421 0.392894
0.756930 0.341970 0.407587
0.768435 0.354090 0.422338
0.779940 0.366209 0.437089
0.791445 0.378329 0.451840
0.802950 0.390448 0.466591
0.814455 0.402568 0.481342
0.077222 0.070432 0.122407
0.091556 0.074803 0.128270
0.105889 0.079174 0.134132
0.120222 0.083546 0.139994
0.134556 0.087917 0.145857
0.148889 0.092288 0.151719
0.176643 0.103233 0.162176
0.207082 0.115493 0.173551
0.237520 0.127753 0.184927
0.267959 0.140013 0.196302
0.298397 0.152272 0.207678
0.332179 0.165431 0.219904
0.367634 0.179038 0.232556
0.403088 0.192646 0.245207
0.438543 0.206254 0.257859
0.473998 0.219861 0.270511
0.507255 0.233040 0.283627
0.538315 0.245789 0.297207
0.569376 0.258538 0.310787
0.600436 0.271287 0.324367
0.631497 0.284037 0.337947
0.659327 0.296897 0.351980
0.680699 0.309980 0.366917
0.702070 0.323063 0.381854
0.723441 0.336147 0.396791
0.744812 0.349230 0.411728
0.764556 0.362216 0.426671
0.776162 0.374720 0.441642
0.787767 0.387224 0.456612
0.799373 0.399728 0.471583
0.810979 0.412231 0.486554
0.822585 0.424735 0.501524
0.077695 0.071519 0.127134
0.092092 0.076046 0.133252
0.106490 0.080573 0.139371
0.120887 0.085099 0.145489
0.135285 0.089626 0.151608
0.149682 0.094153 0.157726
0.177683 0.105558 0.168691
0.208405 0.118340 0.180624
0.239127 0.131121 0.192558
0.269849 0.143902 0.204491
0.300571 0.156683 0.216425
0.334942 0.171394 0.229776
0.371138 0.187069 0.243837
0.407333 0.202744 0.257897
0.443529 0.218419 0.271958
0.479724 0.234094 0.286018
0.513425 0.248558 0.299985
0.544632 0.261810 0.313858
0.575839 0.275062 0.327730
0.607046 0.288315 0.341603
0.638253 0.301567 0.355476
0.666230 0.314913 0.369789
0.687747 0.328444 0.384983
0.709265 0.341975 0.400176
0.730782 0.355507 0.415369
0.752300 0.369038 0.430562
0.772182 0.382462 0.445755
0.783889 0.395350 0.460945
0.795595 0.408238 0.476136
0.807301 0.421126 0.491326
0.819008 0.434014 0.506516
0.830714 0.446902 0.521706
0.078168 0.072606 0.131860
0.092629 0.077288 0.138235
0.107091 0.081971 0.144609
0.121552 0.086653 0.150984
0.136013 0.091335 0.157359
0.150475 0.096017 0.163733
0.178723 0.107883 0.175205
0.209729 0.121186 0.187697
0.240734 0.134489 0.200189
0.271740 0.147791 0.212680
0.302745 0.161094 0.225172
0.337705 0.177357 0.239648
0.374641 0.195099 0.255118
0.411578 0.212842 0.270587
0.448514 0.230584 0.286056
0.485451 0.248327 0.301525
0.519596 0.264076 0.316343
0.550949 0.277831 0.330508
0.582302 0.291587 0.344674
0.613655 0.305342 0.358840
0.645008 0.319098 0.373005
0.673132 0.332928 0.387599
0.694796 0.346908 0.403048
0.716460 0.360887 0.418498
0.738124 0.374867 0.433947
0.759788 0.388847 0.449397
0.779809 0.402708 0.464839
0.791616 0.415981 0.480249
0.803423 0.429253 0.495659
0.815230 0.442525 0.511069
0.827037 0.455797 0.526478
0.838844 0.469069 0.541888
0.078640 0.073693 0.136587
0.093166 0.078531 0.143217
0.107691 0.083369 0.149848
0.122217 0.088207 0.156479
0.136742 0.093044 0.163110
0.151268 0.097882 0.169741
0.179763 0.110209 0.181720
0.211052 0.124033 0.194770
0.242341 0.137857 0.207819
0.273630 0.151681 0.220869
0.304919 0.165505 0.233919
0.340467 0.183320 0.249521
0.378145 0.203130 0.266399
0.415822 0.222940 0.283277
0.453500 0.242750 0.300155
0.491177 0.262559 0.317033
0.525766 0.279594 0.332701
0.557265 0.293852 0.347159
0.588765 0.308111 0.361618
0.620265 0.322370 0.376076
0.651764 0.336628 0.390534
0.680034 0.350943 0.405408
0.701844 0.365371 0.421114
0.723655 0.379799 0.436820
0.745465 0.394227 0.452525
0.767275 0.408655 0.468231
0.787435 0.422954 0.483924
0.799343 0.436611 0.499553
0.811250 0.450267 0.515182
0.823158 0.463924 0.530812
0.835065 0.477580 0.546441
0.846973 0.491236 0.562070
0.079278 0.074993 0.143015
0.093891 0.080009 0.149860
0.108503 0.085025 0.156706
0.123116 0.090042 0.163552
0.137728 0.095058 0.170398
0.152340 0.100074 0.177243
0.181094 0.112861 0.189648
0.212676 0.127202 0.203164
0.244258 0.141543 0.216680
0.275840 0.155884 0.230196
0.307421 0.170225 0.243712
0.343445 0.189166 0.260116
0.381690 0.210408 0.277964
0.419934 0.231649 0.295812
0.458179 0.252891 0.313659
0.496424 0.274132 0.331507
0.531463 0.292511 0.347971
0.563296 0.308028 0.363052
0.595130 0.323544 0.378132
0.626963 0.339061 0.393212
0.658797 0.354577 0.408293
0.687310 0.369835 0.423611
0.709185 0.384574 0.439403
0.731059 0.399313 0.455196
0.752933 0.414052 0.470988
0.774808 0.428790 0.486781
0.795024 0.443382 0.502545
0.806950 0.457235 0.518170
0.818876 0.471088 0.533795
0.830802 0.484941 0.549419
0.842728 0.498794 0.565044
0.854654 0.512647 0.580669
0.080082 0.076506 0.151144
0.094804 0.081723 0.158164
0.109526 0.086940 0.165183
0.124248 0.092158 0.172203
0.138971 0.097375 0.179222
0.153693 0.102593 0.186242
0.182716 0.115840 0.198988
0.214600 0.130693 0.212879
0.246484 0.145546 0.226770
0.278367 0.160400 0.240662
0.310251 0.175253 0.254553
0.346638 0.194896 0.271435
0.385276 0.216933 0.289814
0.423914 0.238971 0.308192
0.462552 0.261008 0.326570
0.501190 0.283046 0.344948
0.536686 0.302829 0.362154
0.569041 0.320358 0.378185
0.601396 0.337887 0.394217
0.633751 0.355416 0.410249
0.666106 0.372945 0.426281
0.694961 0.389602 0.442205
0.716817 0.404515 0.457916
0.738673 0.419428 0.473626
0.760529 0.434340 0.489336
0.782385 0.449253 0.505046
0.802576 0.463991 0.520704
0.814438 0.477853 0.536100
0.826299 0.491715 0.551496
0.838161 0.505577 0.566892
0.850023 0.519440 0.582288
0.861885 0.533302 0.597684
0.080885 0.078018 0.159274
0.095717 0.083437 0.166467
0.110549 0.088855 0.173660
0.125381 0.094274 0.180854
0.140213 0.099693 0.188047
0.155045 0.105111 0.195241
0.184338 0.118819 0.208328
0.216524 0.134185 0.222594
0.248710 0.149550 0.236861
0.280895 0.164916 0.251127
0.313081 0.180281 0.265393
0.349830 0.200625 0.282754
0.388862 0.223459 0.301663
0.427893 0.246292 0.320572
0.466925 0.269125 0.339481
0.505956 0.291959 0.358390
0.541910 0.313146 0.376336
0.574786 0.332688 0.393319
0.607662 0.352230 0.410302
0.640539 0.371771 0.427286
0.673415 0.391313 0.444269
0.702612 0.409369 0.460800
0.724450 0.424456 0.476428
0.746287 0.439542 0.492056
0.768125 0.454629 0.507684
0.789963 0.469715 0.523311
0.810127 0.484600 0.538863
0.821925 0.498471 0.554030
0.833723 0.512342 0.569197
0.845521 0.526214 0.584365
0.857319 0.540085 0.599532
0.869117 0.553956 0.614699
0.081689 0.079531 0.167403
0.096631 0.085150 0.174770
0.111572 0.090770 0.182138
0.126514 0.096390 0.189505
0.141456 0.102010 0.196872
0.156397 0.107630 0.204239
0.185961 0.121798 0.217668
0.218448 0.137676 0.232309
0.250936 0.153554 0.246951
0.283423 0.169432 0.261592
0.315911 0.185310 0.276233
0.353023 0.206355 0.294074
0.392448 0.229984 0.313513
0.431873 0.253614 0.332952
0.471297 0.277243 0.352392
0.510722 0.300872 0.371831
0.547133 0.323464 0.390518
0.580531 0.345018 0.408453
0.613929 0.366572 0.426388
0.647327 0.388126 0.444322
0.680724 0.409680 0.462257
0.710263 0.429137 0.479395
0.732082 0.444397 0.494941
0.753902 0.459657 0.510486
0.775721 0.474918 0.526031
0.797540 0.490178 0.541577
0.817679 0.505208 0.557021
0.829413 0.519089 0.571960
0.841147 0.532969 0.586899
0.852880 0.546850 0.601837
0.864614 0.560731 0.616776
0.876348 0.574611 0.631715
0.082492 0.081043 0.175533
0.097544 0.086864 0.183074
0.112595 0.092685 0.190615
0.127647 0.098506 0.198156
0.142698 0.104328 0.205697
0.157750 0.110149 0.213238
0.187583 0.124777 0.227008
0.220372 0.141168 0.242025
0.253162 0.157558 0.257041
0.285951 0.173948 0.272057
0.318741 0.190338 0.287074
0.356216 0.212085 0.305393
0.396034 0.236510 0.325363
0.435852 0.260935 0.345333
0.475670 0.285360 0.365303
0.515488 0.309785 0.385273
0.552357 0.333781 0.404701
0.586276 0.357348 0.423587
0.620195 0.380915 0.442473
0.654114 0.404481 0.461359
0.688034 0.428048 0.480245
0.717913 0.448904 0.497990
0.739715 0.464338 0.513453
0.761516 0.479772 0.528916
0.783317 0.495206 0.544379
0.805118 0.510640 0.559842
0.825231 0.525817 0.575180
0.836900 0.539707 0.589890
0.848570 0.553597 0.604600
0.860240 0.567486 0.619310
0.871910 0.581376 0.634020
0.883580 0.595266 0.648730
0.083312 0.082823 0.185175
0.098491 0.088858 0.192871
0.113671 0.094893 0.200568
0.128850 0.100927 0.208264
0.144030 0.106962 0.215961
0.159209 0.112996 0.223657
0.189326 0.128087 0.237715
0.222429 0.144990 0.253046
0.255533 0.161892 0.268376
0.288636 0.178795 0.283707
0.321740 0.195697 0.299037
0.359578 0.218117 0.317733
0.399783 0.243295 0.338112
0.439988 0.268473 0.358491
0.480194 0.293652 0.378869
0.520399 0.318830 0.399248
0.557681 0.343986 0.419225
0.592039 0.369120 0.438800
0.626398 0.394254 0.458375
0.660756 0.419388 0.477950
0.695114 0.444522 0.497525
0.725275 0.466559 0.515684
0.747043 0.482402 0.531010
0.768811 0.498245 0.546336
0.790578 0.514088 0.561662
0.812346 0.529931 0.576988
0.832408 0.545422 0.592150
0.843940 0.559156 0.606490
0.855473 0.572890 0.620831
0.867005 0.586624 0.635172
0.878538 0.600359 0.649513
0.890071 0.614093 0.663854
0.084162 0.085139 0.197842
0.099507 0.091412 0.205657
0.114851 0.097684 0.213472
0.130195 0.103957 0.221288
0.145539 0.110229 0.229103
0.160883 0.116502 0.236919
0.191309 0.132059 0.251157
0.224751 0.149474 0.266679
0.258193 0.166889 0.282202
0.291635 0.184303 0.297725
0.325077 0.201718 0.313247
0.363278 0.224754 0.332117
0.403858 0.250600 0.352660
0.444439 0.276446 0.373204
0.485019 0.302292 0.393747
0.525600 0.328138 0.414290
0.563206 0.353967 0.434432
0.597839 0.379778 0.454172
0.632472 0.405589 0.473911
0.667104 0.431400 0.493651
0.701737 0.457211 0.513391
0.732060 0.479992 0.531577
0.753764 0.496713 0.546656
0.775467 0.513434 0.561735
0.797171 0.530155 0.576814
0.818875 0.546876 0.591893
0.838836 0.563018 0.606741
0.850085 0.576267 0.620432
0.861334 0.589517 0.634123
0.872583 0.602766 0.647815
0.883832 0.616015 0.661506
0.895081 0.629265 0.675198
0.085013 0.087455 0.210508
0.100522 0.093966 0.218443
0.116031 0.100476 0.226377
0.131540 0.106986 0.234312
0.147049 0.113496 0.242246
0.162558 0.120007 0.250180
0.193293 0.136031 0.264598
0.227073 0.153958 0.280313
0.260854 0.171885 0.296028
0.294634 0.189812 0.311742
0.328415 0.207739 0.327457
0.366978 0.231391 0.346501
0.407934 0.257904 0.367209
0.448889 0.284418 0.387917
0.489845 0.310932 0.408625
0.530800 0.337446 0.429332
0.568732 0.363947 0.449639
0.603639 0.390435 0.469543
0.638546 0.416923 0.489448
0.673453 0.443411 0.509352
0.708360 0.469899 0.529257
0.738845 0.493424 0.547470
0.760485 0.511023 0.562302
0.782124 0.528622 0.577134
0.803764 0.546222 0.591966
0.825403 0.563821 0.606798
0.845264 0.580614 0.621332
0.856229 0.593379 0.634374
0.867194 0.606143 0.647416
0.878160 0.618908 0.660457
0.889125 0.631672 0.673499
0.900091 0.644437 0.686541
0.085864 0.089771 0.223175
0.101537 0.096519 0.231229
0.117211 0.103267 0.239282
0.132885 0.110016 0.247335
0.148558 0.116764 0.255388
0.164232 0.123512 0.263442
0.195276 0.140003 0.278040
0.229395 0.158442 0.293946
0.263514 0.176881 0.309853
0.297633 0.195321 0.325760
0.331752 0.213760 0.341667
0.370679 0.238027 0.360884
0.412009 0.265209 0.381757
0.453340 0.292391 0.402630
0.494670 0.319572 0.423502
0.536001 0.346754 0.444375
0.574257 0.373927 0.464846
0.609439 0.401092 0.484915
0.644620 0.428257 0.504984
0.679802 0.455422 0.525053
0.714984 0.482587 0.545122
0.745630 0.506856 0.563363
0.767205 0.525334 0.577948
0.788781 0.543811 0.592533
0.810356 0.562288 0.607118
0.831932 0.580766 0.621703
0.851692 0.598210 0.635923
0.862373 0.610490 0.648315
0.873055 0.622770 0.660708
0.883737 0.635049 0.673100
0.894419 0.647329 0.685492
0.905101 0.659608 0.697885
0.086715 0.092087 0.235842
0.102553 0.099073 0.244014
0.118391 0.106059 0.252187
0.134229 0.113045 0.260359
0.150068 0.120031 0.268531
0.165906 0.127017 0.276703
0.197260 0.143974 0.291481
0.231717 0.162926 0.307580
0.266175 0.181878 0.323679
0.300632 0.200829 0.339778
0.335089 0.219781 0.355877
0.374379 0.244664 0.375268
0.416085 0.272514 0.396305
0.457790 0.300363 0.417343
0.499496 0.328213 0.438380
0.541202 0.356062 0.459417
0.579782 0.383908 0.480053
0.615239 0.411750 0.500287
0.650695 0.439592 0.520520
0.686151 0.467434 0.540754
0.721607 0.495275 0.560988
0.752414 0.520289 0.579256
0.773926 0.539644 0.593594
0.795437 0.559000 0.607932
0.816949 0.578355 0.622270
0.838460 0.597711 0.636608
0.858120 0.615806 0.650514
0.868518 0.627601 0.662257
0.878916 0.639396 0.674000
0.889314 0.651191 0.685742
0.899712 0.662986 0.697485
0.910111 0.674780 0.709228
0.087502 0.094513 0.249423
0.103516 0.101745 0.257711
0.119530 0.108976 0.265999
0.135543 0.116208 0.274287
0.151557 0.123439 0.282575
0.167570 0.130671 0.290863
0.199234 0.148100 0.305791
0.234029 0.167568 0.322047
0.268823 0.187037 0.338303
0.303617 0.206505 0.354559
0.338412 0.225973 0.370815
0.378062 0.251462 0.390325
0.420139 0.279961 0.411461
0.462217 0.308460 0.432598
0.504295 0.336959 0.453734
0.546372 0.365458 0.474870
0.585269 0.393941 0.495587
0.620984 0.422408 0.515885
0.656699 0.450875 0.536183
0.692414 0.479342 0.556481
0.728130 0.507809 0.576779
0.759087 0.533482 0.594995
0.780528 0.553568 0.609048
0.801970 0.573654 0.623101
0.823411 0.593740 0.637154
0.844852 0.613826 0.651206
0.864396 0.632440 0.664745
0.874455 0.643694 0.675714
0.884513 0.654947 0.686682
0.894571 0.666201 0.697650
0.904629 0.677454 0.708619
0.914687 0.688708 0.719587
0.087975 0.097491 0.267573
0.104217 0.105006 0.275961
0.120460 0.112521 0.284350
0.136702 0.120036 0.292739
0.152944 0.127551 0.301127
0.169186 0.135066 0.309516
0.201163 0.152992 0.324446
0.236287 0.173000 0.340683
0.271410 0.193009 0.356921
0.306534 0.213017 0.373159
0.341658 0.233025 0.389396
0.381655 0.259066 0.408747
0.424090 0.288123 0.429655
0.466524 0.317180 0.450563
0.508959 0.346237 0.471470
0.551393 0.375294 0.492378
0.590559 0.404239 0.512761
0.626457 0.433072 0.532620
0.662356 0.461905 0.552479
0.698254 0.490738 0.572338
0.734152 0.519570 0.592196
0.765198 0.545485 0.609961
