Assets/1__3DArt/KimSe/artstation_asset/LUTs_subway_asset/CUBE/LoFi Chill 04.cube
# LUT by SparkleStock. Enhanced with VOXCOLOR algorithms.
LUT_3D_SIZE 5
DOMAIN_MIN 0.000000 0.000000 0.000000
DOMAIN_MAX 0.903226 0.903226 0.903226
0.066422 0.070330 0.097680
0.155997 0.085053 0.100091
0.338060 0.113742 0.102785
0.546339 0.159904 0.121620
0.677853 0.208145 0.162188
0.072291 0.081492 0.114790
0.177518 0.122594 0.148702
0.368475 0.167356 0.168096
0.582478 0.227263 0.204220
0.722713 0.300872 0.276405
0.081728 0.096223 0.144267
0.203675 0.169556 0.217405
0.418351 0.268929 0.292369
0.638504 0.351298 0.351373
0.785614 0.449395 0.450291
0.106125 0.126448 0.203230
0.242927 0.224814 0.305692
0.475729 0.373839 0.429319
0.705310 0.500920 0.519494
0.843044 0.594856 0.608835
0.156375 0.182166 0.314932
0.305944 0.299512 0.432775
0.534883 0.466039 0.562288
0.759941 0.612828 0.656631
0.878819 0.689361 0.704398
0.081571 0.093860 0.154862
0.170496 0.133199 0.186057
0.352386 0.168581 0.188585
0.567355 0.214427 0.200562
0.711169 0.278067 0.255079
0.094043 0.107273 0.173398
0.217765 0.189245 0.249812
0.403075 0.246886 0.276891
0.609786 0.298205 0.295758
0.746557 0.363851 0.353256
0.114155 0.131007 0.211381
0.246525 0.228475 0.302781
0.453112 0.339831 0.385373
0.660334 0.410314 0.424654
0.796939 0.488550 0.495204
0.143445 0.162602 0.268877
0.277257 0.266031 0.364831
0.498926 0.415541 0.483495
0.715897 0.536564 0.564656
0.844467 0.611884 0.627774
0.195179 0.214997 0.364693
0.323555 0.317321 0.454557
0.544071 0.479088 0.577229
0.763782 0.622079 0.666937
0.877213 0.692334 0.707138
0.117586 0.130852 0.247438
0.201379 0.183915 0.296176
0.382892 0.275724 0.349239
0.605276 0.329354 0.355442
0.760058 0.399186 0.405287
0.130797 0.145531 0.262740
0.253380 0.239635 0.349592
0.439430 0.346862 0.420030
0.645711 0.403877 0.432971
0.786553 0.465713 0.475958
0.157143 0.172612 0.293255
0.294519 0.280602 0.389541
0.497888 0.416707 0.487046
0.690410 0.485160 0.515276
0.815500 0.543538 0.556124
0.193417 0.208360 0.346451
0.330163 0.317443 0.439382
0.534085 0.462446 0.542706
0.735055 0.578230 0.614066
0.849536 0.634195 0.650943
0.243176 0.255273 0.421507
0.375194 0.361535 0.506258
0.567092 0.501196 0.600518
0.769757 0.633069 0.679076
0.876633 0.696455 0.711577
0.174131 0.179377 0.356918
0.250904 0.234801 0.408057
0.416616 0.348091 0.484188
0.652415 0.482989 0.547700
0.814297 0.545000 0.573198
0.182672 0.191292 0.364735
0.296619 0.282215 0.445099
0.465684 0.402983 0.527788
0.686377 0.531598 0.591054
0.830973 0.585859 0.611863
0.206801 0.216954 0.385046
0.337022 0.322143 0.473923
0.525184 0.461781 0.569884
0.723748 0.579397 0.630184
0.845900 0.625702 0.647036
0.245591 0.253061 0.420084
0.382950 0.364323 0.507489
0.580691 0.507260 0.600719
0.761143 0.619820 0.661508
0.860901 0.662680 0.679115
0.298122 0.300320 0.481860
0.430933 0.407648 0.557812
0.619446 0.543491 0.639099
0.785321 0.649184 0.694626
0.880423 0.704005 0.718564
0.230880 0.225476 0.440529
0.299501 0.279231 0.490526
0.450964 0.396091 0.570676
0.665476 0.547078 0.648089
0.848675 0.659872 0.692066
0.233577 0.231549 0.441788
0.339241 0.317103 0.514911
0.493074 0.435974 0.593243
0.693811 0.575093 0.664474
0.858981 0.675299 0.703392
0.251697 0.252291 0.454413
0.374317 0.352356 0.535080
0.547060 0.484848 0.619763
0.730296 0.608838 0.682465
0.868991 0.690013 0.712841
0.286377 0.285739 0.480624
0.416825 0.392557 0.559512
0.601799 0.529030 0.641483
0.768960 0.641066 0.698888
0.878475 0.702816 0.720558
0.345249 0.337396 0.532004
0.471272 0.438723 0.594370
0.658537 0.572379 0.665898
0.817533 0.672677 0.713202
0.888695 0.714094 0.728324
