Assets/1__3DArt/KimSe/artstation_asset/LUTs_subway_asset/CUBE/LoFi Chill 01_S.cube
# LUT by SparkleStock. Enhanced with VOXCOLOR algorithms.
LUT_3D_SIZE 8
DOMAIN_MIN 0.000000 0.000000 0.000000
DOMAIN_MAX 0.903226 0.903226 0.903226
0.085958 0.070330 0.085958
0.129631 0.075245 0.086715
0.213210 0.085517 0.087605
0.329135 0.102328 0.090598
0.466816 0.126196 0.097452
0.600859 0.157013 0.111253
0.700713 0.189562 0.131356
0.766080 0.218874 0.155792
0.088227 0.076380 0.091441
0.139657 0.100908 0.092929
0.228506 0.120841 0.091752
0.346662 0.140896 0.092806
0.483612 0.164343 0.100135
0.615898 0.191793 0.118766
0.713996 0.220977 0.148823
0.776972 0.249221 0.186773
0.089291 0.082295 0.098397
0.140910 0.113063 0.104557
0.236639 0.153516 0.109878
0.360475 0.191045 0.115792
0.497431 0.218815 0.125178
0.628790 0.246009 0.149676
0.726566 0.273727 0.190204
0.789100 0.301945 0.241971
0.089621 0.090047 0.108795
0.138191 0.120205 0.121615
0.237195 0.175107 0.137760
0.367413 0.233835 0.155283
0.510490 0.281313 0.174329
0.641203 0.312398 0.203963
0.739236 0.341282 0.253305
0.802493 0.370955 0.316671
0.089503 0.101060 0.124463
0.134981 0.129004 0.144528
0.231256 0.183467 0.172558
0.366068 0.258101 0.206857
0.522135 0.340117 0.244890
0.654311 0.383167 0.279774
0.752787 0.416897 0.334611
0.817154 0.449724 0.404918
0.088558 0.116373 0.149230
0.131840 0.144025 0.177052
0.225194 0.197159 0.216572
0.359103 0.271560 0.265118
0.519323 0.360291 0.319287
0.668332 0.443739 0.371589
0.768637 0.489934 0.427012
0.833260 0.527500 0.494617
0.086195 0.134523 0.186443
0.128257 0.165053 0.222266
0.219493 0.220288 0.272484
0.352621 0.296216 0.332633
0.515317 0.387057 0.397923
0.672864 0.479189 0.459959
0.781748 0.543746 0.513466
0.849977 0.591076 0.571158
0.082114 0.151908 0.238536
0.123866 0.187537 0.282489
0.213745 0.248268 0.342089
0.346408 0.329081 0.410888
0.511086 0.423469 0.482461
0.674798 0.517389 0.546430
0.792039 0.589963 0.594365
0.863915 0.639329 0.635372
0.084446 0.081106 0.107889
0.124020 0.086900 0.114939
0.209929 0.093903 0.120257
0.329854 0.106774 0.125690
0.470043 0.128666 0.132964
0.605695 0.161093 0.145009
0.706915 0.198546 0.163844
0.773203 0.234926 0.189170
0.087007 0.085546 0.111762
0.144764 0.122058 0.138241
0.237458 0.144449 0.151038
0.356896 0.162660 0.158328
0.493023 0.183863 0.166474
0.624880 0.209977 0.179383
0.724381 0.239323 0.199106
0.789100 0.269414 0.225467
0.088882 0.092755 0.121047
0.149146 0.140912 0.152835
0.248668 0.189537 0.172033
0.372791 0.228376 0.183772
0.508065 0.253100 0.193328
0.638720 0.276814 0.209904
0.738566 0.301492 0.236544
0.804326 0.327325 0.272287
0.089872 0.101836 0.134422
0.145500 0.150601 0.166118
0.247834 0.217776 0.191782
0.378189 0.281387 0.212306
0.519326 0.326676 0.229602
0.649788 0.352940 0.250359
0.750857 0.376728 0.284852
0.819042 0.400966 0.331276
0.089955 0.112409 0.151389
0.140083 0.157133 0.183701
0.239437 0.225184 0.216718
0.374475 0.307866 0.250520
0.528014 0.391141 0.283915
0.659997 0.429286 0.309625
0.762402 0.456854 0.349268
0.833235 0.482540 0.402180
0.089595 0.126259 0.175277
0.134921 0.165592 0.209115
0.230273 0.229862 0.250680
0.364852 0.312794 0.297189
0.523692 0.405970 0.345333
0.669787 0.488592 0.387668
0.774041 0.529495 0.428709
0.846065 0.560024 0.479683
0.088671 0.142823 0.209782
0.130549 0.178802 0.245389
0.222544 0.240987 0.295580
0.356133 0.323355 0.353892
0.518136 0.418629 0.414224
0.673638 0.512221 0.467954
0.783232 0.575832 0.510190
0.857317 0.619330 0.554027
0.087152 0.159471 0.258168
0.126689 0.194027 0.294689
0.216353 0.257549 0.352469
0.349275 0.342236 0.420583
0.513625 0.439617 0.489507
0.676327 0.535325 0.548613
0.792545 0.609276 0.590185
0.867281 0.658248 0.623229
0.082398 0.093489 0.139194
0.116111 0.100783 0.149428
0.197153 0.110501 0.160763
0.317649 0.124987 0.171685
0.465126 0.146537 0.181661
0.605809 0.180573 0.193504
0.710781 0.222238 0.211503
0.779829 0.264970 0.237646
0.084941 0.097874 0.143012
0.139476 0.135514 0.179332
0.231267 0.160837 0.206513
0.352542 0.181116 0.224673
0.492810 0.202338 0.235426
0.627417 0.229925 0.245853
0.729798 0.262823 0.260236
0.797491 0.298160 0.280899
0.087830 0.104773 0.150968
0.147592 0.156059 0.194954
0.249503 0.209413 0.233323
0.376305 0.251290 0.259556
0.512929 0.275809 0.272030
0.644457 0.299615 0.284472
0.746900 0.325303 0.301663
0.816490 0.352910 0.325443
0.090022 0.114095 0.163975
0.147168 0.168097 0.206662
0.253224 0.242092 0.250957
0.386006 0.310392 0.285389
0.526556 0.356203 0.304565
0.656945 0.381071 0.320081
0.760825 0.403246 0.342633
0.834006 0.425658 0.373432
0.090980 0.125629 0.182332
0.143579 0.176291 0.222056
0.245523 0.252380 0.267758
0.381458 0.341716 0.310025
0.533626 0.427827 0.342248
0.665422 0.464140 0.361948
0.771129 0.488688 0.389319
0.848131 0.510354 0.426599
0.091517 0.139052 0.205342
0.139998 0.183718 0.243971
0.236056 0.254603 0.292240
0.370090 0.343801 0.341903
0.527903 0.441526 0.386593
0.671975 0.525271 0.421723
0.779496 0.563434 0.451036
0.858470 0.589304 0.487469
0.091998 0.154290 0.236189
0.137826 0.194533 0.274769
0.228739 0.260085 0.326169
0.360016 0.345913 0.383444
0.520835 0.445128 0.440179
0.674794 0.541472 0.487296
0.785210 0.605678 0.520145
0.865022 0.646776 0.552035
0.092768 0.169292 0.278322
0.137020 0.207021 0.316308
0.224173 0.269938 0.370490
0.353221 0.354349 0.434402
0.516012 0.454148 0.500928
0.677563 0.552683 0.555745
0.793327 0.629155 0.591586
0.871282 0.678726 0.617439
0.081074 0.106771 0.177746
0.108811 0.116004 0.190005
0.179997 0.131514 0.207010
0.296516 0.152679 0.224637
0.450872 0.179528 0.240228
0.601167 0.216089 0.254645
0.712670 0.261529 0.273255
0.786333 0.309422 0.300589
0.083105 0.111436 0.181723
0.130578 0.145868 0.219690
0.215159 0.174588 0.256036
0.335385 0.201238 0.285200
0.483189 0.228797 0.304210
0.624461 0.259929 0.316002
0.731796 0.297779 0.329182
0.803757 0.339133 0.348281
0.086380 0.118227 0.188014
0.140944 0.165353 0.235035
0.239290 0.219885 0.286761
0.367070 0.266582 0.328341
0.509743 0.297451 0.351484
0.644896 0.324203 0.363975
0.750941 0.353644 0.376671
0.824743 0.385613 0.393692
0.089883 0.127514 0.198820
0.145089 0.179174 0.246015
0.250729 0.253814 0.305060
0.385207 0.325409 0.355912
0.529191 0.376040 0.386215
0.660623 0.402495 0.400786
0.767035 0.426199 0.416103
0.844584 0.450105 0.435761
0.092825 0.139373 0.215448
0.146819 0.190745 0.260031
0.250018 0.269041 0.317286
0.386938 0.360999 0.372100
0.539612 0.449208 0.412943
0.670637 0.485936 0.431048
0.778156 0.509963 0.450256
0.859840 0.530245 0.474947
0.094630 0.153345 0.237946
0.146593 0.200203 0.280206
0.244113 0.273768 0.334907
0.377599 0.365527 0.390893
0.533228 0.465286 0.439141
0.675245 0.550522 0.470844
0.784435 0.587769 0.492350
0.868616 0.611075 0.517493
0.096694 0.168013 0.265312
0.147973 0.211507 0.307233
0.240639 0.278923 0.360580
0.369690 0.365458 0.418495
0.525274 0.464830 0.474379
0.677020 0.563239 0.517394
0.787410 0.628627 0.543830
0.871636 0.668374 0.566737
0.099726 0.181437 0.300425
0.151226 0.223434 0.342287
0.240550 0.286604 0.394762
0.365932 0.368787 0.454614
0.520607 0.465842 0.517118
0.679611 0.566105 0.568725
0.794345 0.645028 0.600434
0.874798 0.695555 0.620870
0.081358 0.120217 0.221064
0.104191 0.131646 0.235500
0.163294 0.153629 0.256808
0.270804 0.185168 0.281137
0.426537 0.224445 0.305220
0.591816 0.266806 0.325712
0.713074 0.316262 0.347179
0.793245 0.367963 0.376399
0.082401 0.124718 0.224565
0.123157 0.156261 0.261295
0.194876 0.188645 0.299033
0.308571 0.225164 0.336006
0.463056 0.266523 0.369163
0.616636 0.304616 0.387157
0.731722 0.347832 0.402755
0.809326 0.394145 0.423066
0.085077 0.132485 0.230731
0.133298 0.173723 0.275519
0.220757 0.226452 0.328802
0.344453 0.279154 0.380489
0.495294 0.323687 0.421739
0.639374 0.357659 0.439847
0.750781 0.392796 0.453366
0.829118 0.430178 0.469234
0.089512 0.142074 0.238970
0.141062 0.188504 0.285734
0.240082 0.258181 0.347928
0.372682 0.330867 0.410593
0.522929 0.390513 0.460692
0.659159 0.423182 0.480480
0.768353 0.451381 0.494600
0.849311 0.479389 0.509574
0.095199 0.152920 0.250068
0.149914 0.203340 0.297906
0.252157 0.278435 0.359713
0.388909 0.367730 0.425956
0.543277 0.455877 0.485206
0.674561 0.496407 0.508397
0.782445 0.522307 0.524713
0.866647 0.543519 0.541188
0.098980 0.167880 0.271615
0.154073 0.215982 0.316379
0.254761 0.289204 0.374169
0.388504 0.379422 0.437148
0.540446 0.477202 0.496272
0.679818 0.562700 0.530129
0.788416 0.600167 0.548833
0.875024 0.622705 0.566838
0.103066 0.183002 0.296444
0.159316 0.228837 0.340153
0.258673 0.297988 0.395555
0.387953 0.383221 0.455762
0.534350 0.477895 0.513733
0.681267 0.575113 0.556147
0.789768 0.641118 0.579969
0.876018 0.680130 0.597589
0.108544 0.195723 0.325363
0.166575 0.240825 0.368973
0.265771 0.307275 0.423134
0.391412 0.387438 0.481340
0.531986 0.475824 0.538077
0.684045 0.573533 0.587475
0.795798 0.653308 0.617194
0.876979 0.704431 0.634674
0.083627 0.132506 0.264548
0.103094 0.146131 0.281032
0.154372 0.173315 0.306878
0.248379 0.213917 0.338294
0.390280 0.266806 0.371653
0.577076 0.328927 0.401804
0.713019 0.385580 0.429395
0.802229 0.440379 0.461415
0.083938 0.136714 0.267316
0.119515 0.166260 0.301790
0.181435 0.201579 0.339277
0.280769 0.246019 0.379107
0.422711 0.300664 0.419486
0.602566 0.360670 0.452919
0.730581 0.412102 0.475886
0.815760 0.462122 0.500073
0.086089 0.144603 0.272647
0.129084 0.181738 0.313923
0.207106 0.232675 0.364536
0.317614 0.289225 0.416266
0.457622 0.345815 0.462815
0.627119 0.403371 0.499814
0.748494 0.447263 0.520758
0.832317 0.488828 0.540093
0.089964 0.155156 0.280252
0.137344 0.196472 0.323692
0.228459 0.260424 0.382629
0.350556 0.331655 0.444301
0.492922 0.398470 0.498886
0.650027 0.454356 0.539585
0.765584 0.491067 0.560382
0.849673 0.523449 0.577264
0.095577 0.167502 0.290142
0.148035 0.212823 0.335492
0.244948 0.281605 0.395008
0.375301 0.365115 0.461036
0.525961 0.451698 0.525211
0.670457 0.510117 0.569752
0.780641 0.542828 0.591579
0.865590 0.567927 0.607785
0.103895 0.181144 0.304078
0.160924 0.229020 0.349867
0.264087 0.301042 0.408798
0.398881 0.388186 0.473357
0.549368 0.480960 0.536258
0.685860 0.562364 0.585460
0.790961 0.600427 0.608673
0.875804 0.623856 0.625181
0.111177 0.197511 0.327395
0.171006 0.244498 0.371297
0.276420 0.314737 0.427264
0.411102 0.399575 0.488114
0.558355 0.490616 0.547322
0.690739 0.575827 0.595865
0.793045 0.638954 0.622109
0.876930 0.677046 0.639003
0.119583 0.211354 0.353167
0.182264 0.257797 0.395884
0.290065 0.326611 0.449758
0.424719 0.408570 0.507641
0.568610 0.495116 0.563318
0.696047 0.575227 0.609293
0.799077 0.649984 0.638874
0.877134 0.699692 0.656365
0.086841 0.142589 0.301414
0.104283 0.157921 0.319582
0.150893 0.189215 0.349599
0.236774 0.237030 0.387837
0.367664 0.300757 0.430609
0.546458 0.378368 0.472373
0.707109 0.453093 0.508343
0.814038 0.516834 0.543299
0.086786 0.146383 0.303573
0.119091 0.175143 0.336651
0.174802 0.212868 0.374081
0.264900 0.263315 0.416314
0.395739 0.327976 0.462364
0.569235 0.403642 0.505634
0.722358 0.473915 0.539408
0.824803 0.533325 0.569614
0.088519 0.154012 0.308190
0.128294 0.189287 0.347306
0.200053 0.239217 0.395075
0.301466 0.298531 0.445483
0.430952 0.363613 0.494058
0.595398 0.436250 0.538864
0.738892 0.500171 0.571361
0.837180 0.552071 0.598072
0.092087 0.164583 0.314927
0.136896 0.203588 0.356349
0.222481 0.263832 0.411345
0.336712 0.333823 0.469486
0.470333 0.404969 0.523145
0.623488 0.474387 0.569400
0.755829 0.531515 0.601612
0.850071 0.574826 0.626075
0.097673 0.177362 0.323717
0.148398 0.220079 0.367176
0.240947 0.284610 0.423260
0.365524 0.363471 0.485452
0.510361 0.447551 0.546952
0.651908 0.515747 0.594690
0.772244 0.567247 0.627520
0.862295 0.602815 0.650829
0.106626 0.192249 0.336018
0.163470 0.237954 0.380407
0.264753 0.306400 0.436920
0.396297 0.388899 0.498602
0.542870 0.476636 0.559099
0.677415 0.555088 0.609552
0.786255 0.605775 0.643286
0.871324 0.637232 0.665941
0.118180 0.210693 0.356277
0.179971 0.257015 0.398862
0.288373 0.326594 0.453571
0.425779 0.410030 0.513073
0.574128 0.498151 0.570897
0.702921 0.577107 0.618918
0.797590 0.635869 0.651335
0.874522 0.671999 0.672471
0.131257 0.227005 0.380345
0.196724 0.273141 0.420467
0.310666 0.342980 0.472762
0.452428 0.426036 0.529507
0.601485 0.512226 0.583920
0.724602 0.586477 0.627534
0.810627 0.645791 0.657161
0.876294 0.686332 0.675657
0.090653 0.150900 0.328764
0.106577 0.167129 0.348463
0.150455 0.201544 0.382106
0.231790 0.255243 0.426414
0.356028 0.328023 0.477804
0.526309 0.418765 0.530539
0.698251 0.510183 0.576225
0.820684 0.585483 0.614340
0.089989 0.153541 0.331210
0.120625 0.182333 0.363355
0.172914 0.222052 0.401314
0.257748 0.277160 0.446166
0.381599 0.349708 0.497354
0.546988 0.437603 0.548800
0.711926 0.524407 0.592374
0.829345 0.595502 0.627462
0.091177 0.160627 0.335841
0.129639 0.195659 0.373857
0.198032 0.245431 0.419646
0.294168 0.306986 0.469207
0.416827 0.378279 0.519490
0.574033 0.461745 0.569230
0.728135 0.542181 0.610420
0.838670 0.606541 0.642313
0.094442 0.171060 0.342133
0.138377 0.209661 0.382959
0.221034 0.268096 0.434889
0.330663 0.337574 0.489800
0.458482 0.411677 0.541873
0.605567 0.489970 0.589662
0.746091 0.563019 0.628690
0.848327 0.619287 0.657743
0.100049 0.184009 0.349992
0.150186 0.225975 0.392926
0.240375 0.288360 0.446472
0.361536 0.364446 0.504756
0.502418 0.446743 0.561968
0.639446 0.520656 0.608069
0.764900 0.586186 0.645466
0.857871 0.634162 0.672313
0.109173 0.199701 0.361378
0.165897 0.244264 0.404945
0.265558 0.310413 0.459177
0.394539 0.389762 0.517514
0.538300 0.473971 0.574076
0.671457 0.549962 0.621022
0.782809 0.609944 0.657238
0.866031 0.651317 0.682188
0.123353 0.219240 0.379645
0.185900 0.264783 0.421079
0.295252 0.333541 0.474118
0.433344 0.415558 0.531391
0.581761 0.501173 0.586392
0.709669 0.575739 0.630808
0.801227 0.630819 0.663017
0.870925 0.667780 0.684853
0.141469 0.239978 0.404472
0.207696 0.284514 0.441217
0.324693 0.354151 0.491104
0.470300 0.437341 0.545881
0.622529 0.522994 0.598261
0.745600 0.594346 0.638972
0.822592 0.643016 0.666054
0.876480 0.675735 0.683210
