Assets/1__3DArt/KimSe/artstation_asset/LUTs_subway_asset/CUBE/LoFi Chill 02.cube
# LUT by SparkleStock. Enhanced with VOXCOLOR algorithms.
LUT_3D_SIZE 32
0.050794 0.046886 0.089866
0.061617 0.048021 0.091425
0.072441 0.049155 0.092985
0.083264 0.050289 0.094545
0.094088 0.051424 0.096105
0.104912 0.052558 0.097664
0.128694 0.055268 0.099421
0.155067 0.058293 0.101217
0.181441 0.061318 0.103013
0.207814 0.064343 0.104809
0.234188 0.067368 0.106605
0.267935 0.072157 0.109630
0.305368 0.077829 0.113270
0.342802 0.083501 0.116909
0.380236 0.089172 0.120548
0.417669 0.094844 0.124188
0.454654 0.101319 0.128820
0.491189 0.108598 0.134444
0.527725 0.115877 0.140069
0.564260 0.123156 0.145693
0.600796 0.130434 0.151317
0.633329 0.137839 0.157446
0.657860 0.145496 0.164583
0.682390 0.153153 0.171720
0.706920 0.160810 0.178857
0.731451 0.168467 0.185994
0.753618 0.176147 0.193320
0.763969 0.183946 0.201591
0.774320 0.191744 0.209863
0.784671 0.199543 0.218134
0.795021 0.207342 0.226405
0.805372 0.215140 0.234676
0.051597 0.048635 0.092371
0.062494 0.050145 0.094397
0.073391 0.051654 0.096423
0.084287 0.053163 0.098450
0.095184 0.054673 0.100476
0.106081 0.056182 0.102502
0.130005 0.059130 0.104436
0.156534 0.062365 0.106351
0.183063 0.065601 0.108266
0.209592 0.068836 0.110181
0.236121 0.072071 0.112096
0.269987 0.077083 0.115300
0.307521 0.082984 0.119150
0.345055 0.088884 0.123000
0.382590 0.094785 0.126850
0.420124 0.100685 0.130699
0.457177 0.107430 0.135601
0.493749 0.115020 0.141555
0.530321 0.122610 0.147509
0.566893 0.130200 0.153463
0.603465 0.137789 0.159417
0.636036 0.145536 0.165914
0.660603 0.153595 0.173499
0.685169 0.161654 0.181085
0.709736 0.169714 0.188670
0.734303 0.177773 0.196255
0.756512 0.185853 0.204047
0.766926 0.194036 0.212877
0.777341 0.202219 0.221706
0.787756 0.210402 0.230535
0.798171 0.218585 0.239365
0.808586 0.226767 0.248194
0.052401 0.050384 0.094876
0.063371 0.052269 0.097369
0.074341 0.054153 0.099861
0.085311 0.056037 0.102354
0.096280 0.057922 0.104847
0.107250 0.059806 0.107340
0.131316 0.062992 0.109450
0.158001 0.066438 0.111484
0.184685 0.069883 0.113518
0.211370 0.073329 0.115552
0.238055 0.076775 0.117586
0.272039 0.082010 0.120971
0.309674 0.088139 0.125031
0.347309 0.094268 0.129091
0.384944 0.100397 0.133151
0.422578 0.106526 0.137211
0.459700 0.113541 0.142383
0.496309 0.121442 0.148666
0.532918 0.129343 0.154949
0.569526 0.137244 0.161232
0.606135 0.145144 0.167516
0.638742 0.153232 0.174382
0.663345 0.161694 0.182416
0.687949 0.170156 0.190449
0.712552 0.178618 0.198482
0.737156 0.187080 0.206516
0.759405 0.195559 0.214775
0.769884 0.204126 0.224162
0.780363 0.212693 0.233550
0.790842 0.221260 0.242937
0.801321 0.229827 0.252324
0.811800 0.238395 0.261712
0.053204 0.052133 0.097381
0.064247 0.054392 0.100340
0.075290 0.056652 0.103299
0.086334 0.058911 0.106259
0.097377 0.061171 0.109218
0.108420 0.063431 0.112178
0.132627 0.066854 0.114465
0.159467 0.070510 0.116618
0.186308 0.074166 0.118771
0.213148 0.077822 0.120923
0.239988 0.081479 0.123076
0.274092 0.086936 0.126641
0.311827 0.093294 0.130911
0.349562 0.099651 0.135182
0.387298 0.106009 0.139453
0.425033 0.112367 0.143723
0.462224 0.119652 0.149165
0.498869 0.127864 0.155777
0.535514 0.136076 0.162390
0.572159 0.144288 0.169002
0.608805 0.152499 0.175615
0.641448 0.160929 0.182850
0.666088 0.169793 0.191332
0.690728 0.178658 0.199813
0.715368 0.187522 0.208295
0.740009 0.196386 0.216777
0.762299 0.205265 0.225503
0.772842 0.214216 0.235448
0.783385 0.223168 0.245393
0.793928 0.232119 0.255339
0.804471 0.241070 0.265284
0.815014 0.250022 0.275229
0.054008 0.053882 0.099886
0.065124 0.056516 0.103312
0.076240 0.059151 0.106738
0.087357 0.061785 0.110164
0.098473 0.064420 0.113589
0.109589 0.067055 0.117015
0.133938 0.070716 0.119479
0.160934 0.074582 0.121751
0.187930 0.078449 0.124023
0.214925 0.082316 0.126295
0.241921 0.086182 0.128566
0.276144 0.091862 0.132311
0.313980 0.098449 0.136792
0.351816 0.105035 0.141273
0.389652 0.111622 0.145754
0.427488 0.118208 0.150235
0.464747 0.125763 0.155946
0.501429 0.134286 0.162888
0.538111 0.142809 0.169830
0.574792 0.151331 0.176772
0.611474 0.159854 0.183714
0.644155 0.168625 0.191318
0.668831 0.177892 0.200248
0.693508 0.187159 0.209178
0.718185 0.196426 0.218108
0.742861 0.205693 0.227038
0.765193 0.214971 0.236230
0.775800 0.224307 0.246733
0.786407 0.233642 0.257237
0.797014 0.242978 0.267740
0.807621 0.252313 0.278244
0.818228 0.261649 0.288747
0.054811 0.055630 0.102391
0.066001 0.058640 0.106283
0.077190 0.061650 0.110176
0.088380 0.064659 0.114068
0.099569 0.067669 0.117961
0.110759 0.070679 0.121853
0.135250 0.074578 0.124494
0.162401 0.078655 0.126885
0.189552 0.082732 0.129275
0.216703 0.086809 0.131666
0.243854 0.090886 0.134057
0.278196 0.096788 0.137981
0.316133 0.103603 0.142673
0.354069 0.110419 0.147364
0.392006 0.117234 0.152055
0.429943 0.124049 0.156747
0.467270 0.131874 0.162728
0.503989 0.140708 0.169999
0.540707 0.149542 0.177270
0.577426 0.158375 0.184541
0.614144 0.167209 0.191813
0.646861 0.176322 0.199786
0.671574 0.185991 0.209164
0.696287 0.195661 0.218542
0.721001 0.205330 0.227921
0.745714 0.214999 0.237299
0.768087 0.224677 0.246958
0.778758 0.234397 0.258019
0.789429 0.244117 0.269080
0.800100 0.253836 0.280142
0.810771 0.263556 0.291203
0.821442 0.273276 0.302265
0.055063 0.056828 0.105132
0.066265 0.060113 0.109415
0.077467 0.063399 0.113698
0.088668 0.066685 0.117980
0.099870 0.069970 0.122263
0.111072 0.073256 0.126546
0.135923 0.078183 0.130234
0.163504 0.083439 0.133803
0.191085 0.088694 0.137373
0.218666 0.093950 0.140942
0.246248 0.099205 0.144511
0.280820 0.105816 0.149065
0.318888 0.113104 0.154112
0.356955 0.120391 0.159159
0.395023 0.127679 0.164205
0.433091 0.134967 0.169252
0.470537 0.143279 0.175633
0.507360 0.152614 0.183347
0.544184 0.161950 0.191062
0.581008 0.171286 0.198777
0.617831 0.180621 0.206492
0.650664 0.190255 0.214959
0.675513 0.200487 0.224930
0.700361 0.210719 0.234901
0.725210 0.220951 0.244873
0.750059 0.231183 0.254844
0.772573 0.241430 0.265123
0.783407 0.251747 0.276941
0.794241 0.262064 0.288758
0.805075 0.272382 0.300576
0.815910 0.282699 0.312394
0.826744 0.293017 0.324211
0.055205 0.057915 0.107921
0.066407 0.061457 0.112579
0.077608 0.064998 0.117236
0.088810 0.068540 0.121894
0.100012 0.072082 0.126552
0.111214 0.075624 0.131210
0.136469 0.081737 0.136119
0.164535 0.088365 0.141079
0.192601 0.094993 0.146039
0.220667 0.101620 0.150999
0.248733 0.108248 0.155958
0.283558 0.115664 0.161232
0.321763 0.123473 0.166663
0.359968 0.131282 0.172094
0.398173 0.139091 0.177525
0.436378 0.146901 0.182956
0.473952 0.155743 0.189762
0.510895 0.165618 0.197943
0.547837 0.175494 0.206124
0.584780 0.185369 0.214306
0.621722 0.195244 0.222487
0.654686 0.205436 0.231472
0.679690 0.216263 0.242066
0.704695 0.227090 0.252659
0.729699 0.237916 0.263252
0.754704 0.248743 0.273846
0.777377 0.259591 0.284776
0.788394 0.270549 0.297389
0.799411 0.281507 0.310003
0.810428 0.292465 0.322616
0.821446 0.303422 0.335230
0.832463 0.314380 0.347844
0.055347 0.059002 0.110709
0.066549 0.062800 0.115742
0.077750 0.066598 0.120775
0.088952 0.070396 0.125808
0.100154 0.074194 0.130841
0.111355 0.077992 0.135874
0.137015 0.085291 0.142005
0.165565 0.093291 0.148355
0.194116 0.101291 0.154705
0.222667 0.109291 0.161055
0.251218 0.117291 0.167405
0.286296 0.125511 0.173399
0.324639 0.133842 0.179214
0.362981 0.142173 0.185029
0.401323 0.150504 0.190844
0.439665 0.158834 0.196659
0.477367 0.168207 0.203891
0.514429 0.178622 0.212539
0.551490 0.189037 0.221186
0.588552 0.199452 0.229834
0.625613 0.209867 0.238482
0.658708 0.220618 0.247986
0.683868 0.232039 0.259201
0.709028 0.243460 0.270417
0.734188 0.254881 0.281632
0.759348 0.266303 0.292848
0.782181 0.277753 0.304429
0.793381 0.289351 0.317838
0.804581 0.300949 0.331248
0.815782 0.312548 0.344657
0.826982 0.324146 0.358066
0.838182 0.335744 0.371476
0.055489 0.060089 0.113498
0.066690 0.064143 0.118906
0.077892 0.068197 0.124314
0.089094 0.072251 0.129722
0.100295 0.076305 0.135130
0.111497 0.080359 0.140538
0.137560 0.088845 0.147890
0.166596 0.098217 0.155631
0.195632 0.107589 0.163371
0.224668 0.116961 0.171112
0.253703 0.126334 0.178853
0.289035 0.135359 0.185566
0.327514 0.144211 0.191765
0.365994 0.153063 0.197964
0.404473 0.161916 0.204164
0.442953 0.170768 0.210363
0.480783 0.180671 0.218020
0.517963 0.191626 0.227134
0.555143 0.202581 0.236249
0.592324 0.213535 0.245363
0.629504 0.224490 0.254477
0.662730 0.235799 0.264500
0.688045 0.247814 0.276337
0.713361 0.259830 0.288175
0.738676 0.271846 0.300012
0.763992 0.283862 0.311850
0.786985 0.295915 0.324082
0.798368 0.308154 0.338287
0.809751 0.320392 0.352492
0.821135 0.332630 0.366698
0.832518 0.344869 0.380903
0.843901 0.357107 0.395108
0.055630 0.061176 0.116287
0.066832 0.065486 0.122070
0.078034 0.069797 0.127853
0.089235 0.074107 0.133636
0.100437 0.078417 0.139419
0.111639 0.082727 0.145202
0.138106 0.092399 0.153775
0.167627 0.103143 0.162906
0.197147 0.113888 0.172037
0.226668 0.124632 0.181169
0.256188 0.135376 0.190300
0.291773 0.145207 0.197733
0.330390 0.154581 0.204316
0.369006 0.163954 0.210900
0.407623 0.173328 0.217483
0.446240 0.182701 0.224067
0.484198 0.193135 0.232149
0.521497 0.204630 0.241730
0.558796 0.216124 0.251311
0.596096 0.227619 0.260892
0.633395 0.239113 0.270473
0.666752 0.250980 0.281013
0.692223 0.263590 0.293473
0.717694 0.276201 0.305932
0.743165 0.288811 0.318392
0.768636 0.301422 0.330851
0.791789 0.314077 0.343735
0.803356 0.326956 0.358736
0.814922 0.339834 0.373737
0.826488 0.352713 0.388738
0.838054 0.365592 0.403739
0.849620 0.378471 0.418740
0.055898 0.062389 0.120241
0.067069 0.066980 0.126436
0.078241 0.071571 0.132630
0.089412 0.076162 0.138825
0.100583 0.080752 0.145020
0.111754 0.085343 0.151215
0.138361 0.095819 0.160680
0.168056 0.107472 0.170799
0.197750 0.119125 0.180918
0.227444 0.130778 0.191037
0.257139 0.142431 0.201156
0.293231 0.153648 0.209768
0.332521 0.164647 0.217626
0.371812 0.175646 0.225484
0.411102 0.186645 0.233343
0.450393 0.197644 0.241201
0.488750 0.209169 0.250117
0.526175 0.221222 0.260091
0.563599 0.233274 0.270066
0.601024 0.245327 0.280040
0.638448 0.257379 0.290014
0.671930 0.269791 0.300965
0.697526 0.282923 0.313870
0.723122 0.296055 0.326775
0.748718 0.309187 0.339680
0.774314 0.322319 0.352584
0.797596 0.335491 0.365927
0.809308 0.348864 0.381455
0.821021 0.362237 0.396984
0.832733 0.375610 0.412513
0.844446 0.388983 0.428041
0.856158 0.402355 0.443570
0.056229 0.063665 0.124778
0.067355 0.068549 0.131403
0.078480 0.073432 0.138028
0.089605 0.078316 0.144652
0.100731 0.083199 0.151277
0.111856 0.088083 0.157902
0.138471 0.099172 0.168094
0.168184 0.111502 0.179000
0.197896 0.123832 0.189906
0.227609 0.136162 0.200812
0.257322 0.148492 0.211718
0.294048 0.161386 0.221738
0.334281 0.174562 0.231316
0.374513 0.187738 0.240894
0.414746 0.200914 0.250472
0.454979 0.214090 0.260050
0.493872 0.226988 0.270005
0.531424 0.239608 0.280336
0.568977 0.252227 0.290667
0.606529 0.264847 0.300998
0.644082 0.277467 0.311329
0.677685 0.290419 0.322637
0.703391 0.304035 0.335899
0.729097 0.317652 0.349160
0.754803 0.331269 0.362422
0.780508 0.344886 0.375683
0.803903 0.358532 0.389388
0.815744 0.372326 0.405310
0.827584 0.386119 0.421232
0.839425 0.399913 0.437154
0.851266 0.413706 0.453076
0.863106 0.427500 0.468998
0.056560 0.064942 0.129316
0.067640 0.070118 0.136370
0.078719 0.075294 0.143425
0.089799 0.080470 0.150480
0.100879 0.085646 0.157534
0.111959 0.090823 0.164589
0.138581 0.102524 0.175509
0.168312 0.115531 0.187201
0.198043 0.128538 0.198894
0.227774 0.141545 0.210586
0.257505 0.154552 0.222279
0.294865 0.169123 0.233709
0.336040 0.184477 0.245006
0.377215 0.199830 0.256304
0.418390 0.215183 0.267602
0.459565 0.230537 0.278900
0.498993 0.244807 0.289892
0.536674 0.257994 0.300580
0.574354 0.271180 0.311268
0.612035 0.284367 0.321956
0.649715 0.297554 0.332644
0.683441 0.311046 0.344309
0.709256 0.325147 0.357927
0.735072 0.339249 0.371545
0.760888 0.353351 0.385164
0.786703 0.367452 0.398782
0.810211 0.381573 0.412850
0.822180 0.395787 0.429165
0.834148 0.410002 0.445480
0.846117 0.424216 0.461796
0.858085 0.438430 0.478111
0.870054 0.452645 0.494427
0.056891 0.066218 0.133853
0.067925 0.071687 0.141338
0.078959 0.077156 0.148822
0.089993 0.082625 0.156307
0.101027 0.088094 0.163792
0.112061 0.093562 0.171276
0.138691 0.105877 0.182923
0.168440 0.119561 0.195402
0.198189 0.133245 0.207882
0.227938 0.146929 0.220361
0.257688 0.160613 0.232840
0.295682 0.176861 0.245679
0.337800 0.194392 0.258696
0.379917 0.211922 0.271714
0.422034 0.229453 0.284731
0.464151 0.246983 0.297749
0.504114 0.262626 0.309780
0.541923 0.276380 0.320825
0.579732 0.290134 0.331869
0.617540 0.303888 0.342914
0.655349 0.317641 0.353959
0.689196 0.331673 0.365980
0.715122 0.346259 0.379955
0.741047 0.360846 0.393930
0.766972 0.375432 0.407905
0.792898 0.390019 0.421880
0.816518 0.404613 0.436311
0.828615 0.419249 0.453020
0.840712 0.433884 0.469729
0.852808 0.448519 0.486437
0.864905 0.463154 0.503146
0.877002 0.477790 0.519855
0.057222 0.067494 0.138391
0.068210 0.073255 0.146305
0.079198 0.079017 0.154220
0.090186 0.084779 0.162134
0.101175 0.090541 0.170049
0.112163 0.096302 0.177963
0.138801 0.109230 0.190337
0.168568 0.123591 0.203604
0.198336 0.137952 0.216870
0.228103 0.152312 0.230136
0.257871 0.166673 0.243402
0.296500 0.184599 0.257649
0.339559 0.204306 0.272386
0.382619 0.224014 0.287124
0.425678 0.243722 0.301861
0.468738 0.263430 0.316598
0.509236 0.280444 0.329668
0.547172 0.294765 0.341069
0.585109 0.309087 0.352471
0.623046 0.323408 0.363872
0.660982 0.337729 0.375274
0.694952 0.352300 0.387652
0.720987 0.367371 0.401984
0.747022 0.382443 0.416315
0.773057 0.397514 0.430647
0.799093 0.412585 0.444979
0.822826 0.427654 0.459773
0.835051 0.442710 0.476875
0.847275 0.457766 0.493977
0.859500 0.472822 0.511079
0.871725 0.487878 0.528181
0.883950 0.502934 0.545283
0.057718 0.069030 0.144535
0.068656 0.075116 0.152893
0.079594 0.081203 0.161251
0.090532 0.087289 0.169610
0.101470 0.093376 0.177968
0.112408 0.099462 0.186326
0.139060 0.113042 0.199403
0.168855 0.128121 0.213424
0.198650 0.143200 0.227445
0.228445 0.158279 0.241466
0.258240 0.173358 0.255486
0.297265 0.192541 0.270787
0.340905 0.213777 0.286727
0.384546 0.235012 0.302668
0.428186 0.256248 0.318608
0.471827 0.277483 0.334548
0.512887 0.295879 0.348558
0.551368 0.311435 0.360636
0.589849 0.326991 0.372714
0.628330 0.342548 0.384793
0.666811 0.358104 0.396871
0.701162 0.373605 0.409737
0.727252 0.388997 0.424179
0.753342 0.404388 0.438620
0.779432 0.419779 0.453062
0.805522 0.435171 0.467504
0.829310 0.450538 0.482396
0.841590 0.465781 0.499539
0.853870 0.481025 0.516682
0.866149 0.496269 0.533826
0.878429 0.511512 0.550969
0.890709 0.526756 0.568112
0.058380 0.070826 0.152286
0.069263 0.077269 0.161102
0.080146 0.083712 0.169918
0.091029 0.090156 0.178733
0.101912 0.096599 0.187549
0.112795 0.103042 0.196364
0.139468 0.117314 0.210120
0.169300 0.133153 0.224863
0.199131 0.148991 0.239607
0.228963 0.164829 0.254350
0.258795 0.180667 0.269094
0.297978 0.200689 0.285093
0.341838 0.222803 0.301719
0.385698 0.244917 0.318346
0.429558 0.267030 0.334972
0.473418 0.289144 0.351599
0.515069 0.308930 0.366450
0.554511 0.326389 0.379525
0.593952 0.343848 0.392601
0.633394 0.361307 0.405676
0.672835 0.378766 0.418752
0.707826 0.395588 0.432237
0.733916 0.411135 0.446541
0.760006 0.426682 0.460846
0.786096 0.442229 0.475150
0.812186 0.457776 0.489454
0.835972 0.473264 0.504180
0.848233 0.488462 0.521012
0.860494 0.503660 0.537845
0.872756 0.518858 0.554677
0.885017 0.534056 0.571509
0.897278 0.549254 0.588341
0.059041 0.072622 0.160038
0.069869 0.079422 0.169311
0.080698 0.086222 0.178584
0.091526 0.093022 0.187857
0.102354 0.099822 0.197130
0.113182 0.106622 0.206403
0.139877 0.121587 0.220837
0.169745 0.138184 0.236303
0.199613 0.154782 0.251769
0.229481 0.171379 0.267235
0.259350 0.187977 0.282702
0.298692 0.208837 0.299399
0.342772 0.231829 0.316711
0.386851 0.254821 0.334024
0.430931 0.277813 0.351336
0.475010 0.300805 0.368649
0.517251 0.321981 0.384341
0.557653 0.341343 0.398414
0.598055 0.360705 0.412487
0.638457 0.380067 0.426559
0.678859 0.399428 0.440632
0.714491 0.417570 0.454736
0.740581 0.433273 0.468903
0.766671 0.448975 0.483071
0.792761 0.464678 0.497238
0.818851 0.480380 0.511405
0.842633 0.495991 0.525964
0.854876 0.511143 0.542486
0.867119 0.526295 0.559007
0.879362 0.541447 0.575528
0.891605 0.556599 0.592049
0.903848 0.571752 0.608571
0.059703 0.074418 0.167789
0.070476 0.081575 0.177520
0.081250 0.088732 0.187250
0.092023 0.095888 0.196980
0.102796 0.103045 0.206711
0.113569 0.110202 0.216441
0.140286 0.125859 0.231554
0.170190 0.143215 0.247743
0.200095 0.160572 0.263931
0.230000 0.177929 0.280120
0.259905 0.195286 0.296309
0.299406 0.216985 0.313705
0.343705 0.240855 0.331703
0.388004 0.264725 0.349702
0.432303 0.288595 0.367701
0.476602 0.312465 0.385699
0.519433 0.335033 0.402233
0.560795 0.356297 0.417303
0.602158 0.377562 0.432373
0.643520 0.398826 0.447443
0.684883 0.420090 0.462512
0.721155 0.439553 0.477236
0.747245 0.455411 0.491266
0.773335 0.471269 0.505296
0.799425 0.487127 0.519325
0.825515 0.502985 0.533355
0.849294 0.518718 0.547749
0.861519 0.533824 0.563959
0.873744 0.548930 0.580169
0.885968 0.564037 0.596379
0.898193 0.579143 0.612590
0.910418 0.594249 0.628800
0.060365 0.076214 0.175541
0.071083 0.083728 0.185728
0.081801 0.091241 0.195916
0.092520 0.098755 0.206104
0.103238 0.106268 0.216292
0.113957 0.113782 0.226480
0.140694 0.130131 0.242271
0.170635 0.148247 0.259182
0.200577 0.166363 0.276094
0.230518 0.184479 0.293005
0.260460 0.202595 0.309917
0.300119 0.225133 0.328010
0.344638 0.249881 0.346695
0.389156 0.274629 0.365380
0.433675 0.299378 0.384065
0.478194 0.324126 0.402749
0.521615 0.348084 0.420125
0.563938 0.371251 0.436192
0.606261 0.394418 0.452259
0.648584 0.417585 0.468326
0.690907 0.440753 0.484393
0.727819 0.461535 0.499735
0.753909 0.477549 0.513628
0.779999 0.493562 0.527521
0.806089 0.509576 0.541413
0.832179 0.525590 0.555306
0.855955 0.541444 0.569533
0.868162 0.556505 0.585432
0.880368 0.571566 0.601332
0.892575 0.586626 0.617231
0.904781 0.601687 0.633130
0.916988 0.616747 0.649029
0.060979 0.078215 0.184741
0.071658 0.086113 0.195420
0.082337 0.094010 0.206099
0.093015 0.101908 0.216778
0.103694 0.109806 0.227456
0.114373 0.117704 0.238135
0.141134 0.134765 0.254569
0.171112 0.153658 0.272155
0.201090 0.172552 0.289740
0.231068 0.191446 0.307326
0.261046 0.210339 0.324911
0.300862 0.233711 0.343608
0.345597 0.259323 0.362860
0.390332 0.284934 0.382112
0.435068 0.310545 0.401364
0.479803 0.336157 0.420615
0.523714 0.361273 0.438612
0.566803 0.385895 0.455353
0.609892 0.410517 0.472093
0.652980 0.435138 0.488834
0.696069 0.459760 0.505575
0.733538 0.481600 0.521277
0.759768 0.497876 0.534901
0.785998 0.514152 0.548526
0.812229 0.530427 0.562150
0.838459 0.546703 0.575775
0.862336 0.562736 0.589690
0.874444 0.577552 0.605062
0.886553 0.592369 0.620434
0.898662 0.607186 0.635805
0.910771 0.622002 0.651177
0.922880 0.636819 0.666549
0.061499 0.080625 0.196841
0.072169 0.088962 0.208078
0.082838 0.097299 0.219315
0.093508 0.105636 0.230551
0.104177 0.113973 0.241788
0.114847 0.122310 0.253025
0.141637 0.140122 0.270033
0.171652 0.159830 0.288194
0.201666 0.179538 0.306356
0.231681 0.199246 0.324518
0.261696 0.218954 0.342680
0.301664 0.243152 0.361788
0.346610 0.269596 0.381369
0.391555 0.296040 0.400950
0.436501 0.322483 0.420532
0.481446 0.348927 0.440113
0.525651 0.374739 0.458288
0.569114 0.399919 0.475056
0.612578 0.425098 0.491824
0.656042 0.450278 0.508592
0.699505 0.475458 0.525361
0.737365 0.497828 0.540904
0.764016 0.514580 0.553998
0.790667 0.531331 0.567092
0.817318 0.548083 0.580185
0.843969 0.564834 0.593279
0.868154 0.581157 0.606593
0.880006 0.595333 0.621004
0.891859 0.609509 0.635415
0.903712 0.623686 0.649826
0.915565 0.637862 0.664237
0.927417 0.652038 0.678648
0.062019 0.083036 0.208941
0.072679 0.091812 0.220736
0.083340 0.100588 0.232530
0.094000 0.109364 0.244325
0.104661 0.118140 0.256120
0.115321 0.126916 0.267915
0.142141 0.145480 0.285496
0.172192 0.166002 0.304234
0.202243 0.186524 0.322972
0.232294 0.207046 0.341710
0.262345 0.227568 0.360448
0.302466 0.252593 0.379968
0.347622 0.279869 0.399879
0.392778 0.307145 0.419789
0.437934 0.334421 0.439700
0.483090 0.361698 0.459610
0.527587 0.388205 0.477963
0.571426 0.413943 0.494759
0.615264 0.439680 0.511555
0.659103 0.465418 0.528350
0.702942 0.491156 0.545146
0.741191 0.514057 0.560531
0.768263 0.531284 0.573094
0.795335 0.548511 0.585657
0.822407 0.565739 0.598221
0.849479 0.582966 0.610784
0.873972 0.599578 0.623495
0.885568 0.613114 0.636946
0.897165 0.626650 0.650396
0.908762 0.640186 0.663847
0.920358 0.653722 0.677297
0.931955 0.667257 0.690748
0.062539 0.085446 0.221041
0.073190 0.094662 0.233393
0.083841 0.103877 0.245746
0.094493 0.113092 0.258099
0.105144 0.122307 0.270452
0.115795 0.131522 0.282805
0.142644 0.150838 0.300959
0.172731 0.172174 0.320273
0.202819 0.193510 0.339588
0.232907 0.214846 0.358902
0.262995 0.236182 0.378217
0.303268 0.262033 0.398148
0.348634 0.290142 0.418388
0.394001 0.318251 0.438628
0.439367 0.346360 0.458868
0.484733 0.374468 0.479108
0.529523 0.401671 0.497639
0.573737 0.427966 0.514462
0.617951 0.454262 0.531285
0.662165 0.480558 0.548109
0.706378 0.506854 0.564932
0.745018 0.530286 0.580158
0.772511 0.547988 0.592191
0.800004 0.565691 0.604223
0.827497 0.583394 0.616256
0.854989 0.601097 0.628289
0.879790 0.617999 0.640397
0.891130 0.630894 0.652888
0.902471 0.643790 0.665378
0.913811 0.656685 0.677868
0.925152 0.669581 0.690358
0.936492 0.682477 0.702848
0.063059 0.087857 0.233140
0.073701 0.097511 0.246051
0.084343 0.107165 0.258962
0.094985 0.116819 0.271873
0.105627 0.126474 0.284784
0.116270 0.136128 0.297695
0.143147 0.156195 0.316422
0.173271 0.178346 0.336313
0.203395 0.200496 0.356204
0.233520 0.222646 0.376094
0.263644 0.244797 0.395985
0.304070 0.271474 0.416328
0.349647 0.300415 0.436897
0.395223 0.329357 0.457467
0.440800 0.358298 0.478036
0.486377 0.387239 0.498605
0.531460 0.415136 0.517315
0.576049 0.441990 0.534166
0.620637 0.468844 0.551016
0.665226 0.495698 0.567867
0.709815 0.522552 0.584717
0.748845 0.546514 0.599785
0.776759 0.564693 0.611287
0.804672 0.582871 0.622789
0.832586 0.601050 0.634291
0.860499 0.619228 0.645793
0.885608 0.636420 0.657300
0.896692 0.648675 0.668829
0.907777 0.660930 0.680359
0.918861 0.673185 0.691888
0.929945 0.685441 0.703418
0.941030 0.697696 0.714947
0.063461 0.090370 0.246099
0.074103 0.100471 0.259586
0.084745 0.110572 0.273073
0.095387 0.120673 0.286560
0.106029 0.130773 0.300047
0.116671 0.140874 0.313535
0.143585 0.161696 0.332807
0.173754 0.184662 0.353236
0.203922 0.207628 0.373664
0.234091 0.230594 0.394093
0.264259 0.253560 0.414522
0.304834 0.281051 0.435211
0.350612 0.310805 0.456028
0.396390 0.340559 0.476846
0.442168 0.370313 0.497664
0.487946 0.400067 0.518482
0.533307 0.428624 0.537273
0.578251 0.455986 0.554038
0.623195 0.483347 0.570803
0.668139 0.510709 0.587569
0.713084 0.538071 0.604334
0.752480 0.562486 0.619149
0.780783 0.581007 0.630062
0.809085 0.599529 0.640976
0.837387 0.618050 0.651889
0.865690 0.636572 0.662803
0.891076 0.653928 0.673638
0.901883 0.665453 0.684082
0.912690 0.676977 0.694526
0.923496 0.688502 0.704970
0.934303 0.700027 0.715414
0.945110 0.711552 0.725858
0.063271 0.093395 0.263350
0.073959 0.103981 0.277505
0.084647 0.114566 0.291660
0.095335 0.125152 0.305815
0.106023 0.135738 0.319970
0.116711 0.146323 0.334125
0.143701 0.167912 0.353798
0.173952 0.191702 0.374575
0.204203 0.215491 0.395351
0.234454 0.239280 0.416128
0.264705 0.263069 0.436904
0.305411 0.291311 0.457605
0.351344 0.321778 0.478267
0.397278 0.352246 0.498929
0.443211 0.382713 0.519592
0.489145 0.413180 0.540254
0.534712 0.442223 0.558643
0.579912 0.469841 0.574758
0.625112 0.497458 0.590874
0.670312 0.525076 0.606990
0.715512 0.552694 0.623106
0.755156 0.577173 0.637194
