Assets/1__3DArt/KimSe/artstation_asset/LUTs_subway_asset/CUBE/LoFi Chill 01_S.cube
# LUT by SparkleStock. Enhanced with VOXCOLOR algorithms.
LUT_3D_SIZE 32
0.085958 0.070330 0.085958
0.096877 0.071559 0.086148
0.107795 0.072787 0.086337
0.118713 0.074016 0.086526
0.129631 0.075245 0.086715
0.140549 0.076474 0.086904
0.163205 0.079278 0.087132
0.188207 0.082398 0.087369
0.213210 0.085517 0.087605
0.238213 0.088637 0.087841
0.263216 0.091756 0.088078
0.294584 0.096609 0.089133
0.329135 0.102328 0.090598
0.363685 0.108047 0.092063
0.398235 0.113766 0.093529
0.432786 0.119485 0.094994
0.466816 0.126196 0.097452
0.500327 0.133901 0.100902
0.533837 0.141605 0.104352
0.567348 0.149309 0.107803
0.600859 0.157013 0.111253
0.630950 0.164890 0.115333
0.654205 0.173114 0.120674
0.677459 0.181338 0.126015
0.700713 0.189562 0.131356
0.723967 0.197786 0.136697
0.745094 0.205735 0.142274
0.755587 0.212305 0.149033
0.766080 0.218874 0.155792
0.776573 0.225444 0.162551
0.787065 0.232014 0.169310
0.797558 0.238584 0.176068
0.086526 0.071842 0.087329
0.097929 0.074297 0.087564
0.109332 0.076752 0.087799
0.120735 0.079206 0.088034
0.132137 0.081661 0.088268
0.143540 0.084116 0.088503
0.166498 0.087414 0.088572
0.191766 0.090881 0.088607
0.217034 0.094348 0.088642
0.242303 0.097815 0.088677
0.267571 0.101282 0.088712
0.299003 0.106251 0.089694
0.333517 0.111970 0.091150
0.368030 0.117689 0.092606
0.402544 0.123408 0.094062
0.437058 0.129127 0.095518
0.471015 0.135733 0.098123
0.504416 0.143227 0.101875
0.537817 0.150721 0.105627
0.571218 0.158214 0.109379
0.604618 0.165708 0.113131
0.634600 0.173375 0.117642
0.657745 0.181389 0.123669
0.680889 0.189402 0.129696
0.704034 0.197416 0.135723
0.727178 0.205430 0.141750
0.748183 0.213212 0.148062
0.758493 0.219836 0.155800
0.768803 0.226461 0.163537
0.779113 0.233086 0.171275
0.789422 0.239710 0.179013
0.799732 0.246335 0.186750
0.087093 0.073355 0.088700
0.098981 0.077035 0.088980
0.110868 0.080716 0.089261
0.122756 0.084396 0.089541
0.134644 0.088077 0.089822
0.146532 0.091757 0.090103
0.169791 0.095550 0.090011
0.195325 0.099364 0.089845
0.220858 0.103179 0.089678
0.246392 0.106994 0.089512
0.271925 0.110808 0.089346
0.303421 0.115893 0.090255
0.337898 0.121612 0.091702
0.372376 0.127331 0.093149
0.406853 0.133050 0.094596
0.441330 0.138769 0.096043
0.475214 0.145270 0.098793
0.508505 0.152553 0.102847
0.541796 0.159837 0.106902
0.575087 0.167120 0.110956
0.608378 0.174403 0.115010
0.638250 0.181860 0.119950
0.661285 0.189663 0.126663
0.684320 0.197466 0.133376
0.707354 0.205269 0.140089
0.730389 0.213073 0.146802
0.751272 0.220689 0.153849
0.761399 0.227368 0.162566
0.771526 0.234048 0.171282
0.781653 0.240727 0.179999
0.791780 0.247407 0.188715
0.801906 0.254086 0.197432
0.087660 0.074867 0.090071
0.100033 0.079773 0.090397
0.112405 0.084680 0.090723
0.124778 0.089586 0.091049
0.137151 0.094493 0.091376
0.149523 0.099399 0.091702
0.173084 0.103685 0.091450
0.198883 0.107848 0.091083
0.224682 0.112010 0.090715
0.250481 0.116172 0.090348
0.276280 0.120335 0.089980
0.307840 0.125535 0.090816
0.342280 0.131254 0.092254
0.376721 0.136973 0.093692
0.411162 0.142692 0.095130
0.445602 0.148411 0.096567
0.479413 0.154807 0.099464
0.512594 0.161880 0.103820
0.545776 0.168953 0.108176
0.578957 0.176025 0.112532
0.612138 0.183098 0.116888
0.641901 0.190345 0.122258
0.664825 0.197937 0.129658
0.687750 0.205530 0.137057
0.710675 0.213123 0.144456
0.733600 0.220716 0.151855
0.754361 0.228166 0.159637
0.764305 0.234900 0.169332
0.774249 0.241634 0.179028
0.784193 0.248369 0.188723
0.794137 0.255103 0.198418
0.804081 0.261838 0.208114
0.088227 0.076380 0.091441
0.101085 0.082512 0.091813
0.113942 0.088644 0.092185
0.126800 0.094776 0.092557
0.139657 0.100908 0.092929
0.152515 0.107041 0.093301
0.176378 0.111821 0.092889
0.202442 0.116331 0.092321
0.228506 0.120841 0.091752
0.254570 0.125351 0.091183
0.280634 0.129861 0.090615
0.312258 0.135177 0.091377
0.346662 0.140896 0.092806
0.381066 0.146615 0.094235
0.415470 0.152334 0.095663
0.449874 0.158053 0.097092
0.483612 0.164343 0.100135
0.516684 0.171206 0.104793
0.549755 0.178068 0.109451
0.582826 0.184931 0.114109
0.615898 0.191793 0.118766
0.645551 0.198829 0.124567
0.668366 0.206212 0.132652
0.691181 0.213594 0.140737
0.713996 0.220977 0.148823
0.736811 0.228359 0.156908
0.757450 0.235643 0.165425
0.767211 0.242432 0.176099
0.776972 0.249221 0.186773
0.786733 0.256011 0.197447
0.796494 0.262800 0.208121
0.806255 0.269589 0.218796
0.088794 0.077892 0.092812
0.102137 0.085250 0.093230
0.115479 0.092608 0.093647
0.128821 0.099966 0.094065
0.142164 0.107324 0.094483
0.155506 0.114682 0.094901
0.179671 0.119956 0.094329
0.206000 0.124814 0.093559
0.232330 0.129672 0.092789
0.258659 0.134529 0.092019
0.284989 0.139387 0.091249
0.316677 0.144819 0.091938
0.351044 0.150538 0.093358
0.385412 0.156257 0.094777
0.419779 0.161976 0.096197
0.454146 0.167695 0.097616
0.487811 0.173880 0.100806
0.520773 0.180532 0.105766
0.553734 0.187184 0.110725
0.586696 0.193837 0.115685
0.619658 0.200489 0.120645
0.649201 0.207314 0.126875
0.671906 0.214486 0.135647
0.694611 0.221658 0.144418
0.717316 0.228830 0.153189
0.740022 0.236002 0.161961
0.760539 0.243120 0.171212
0.770117 0.249964 0.182865
0.779695 0.256808 0.194518
0.789273 0.263652 0.206171
0.798851 0.270496 0.217824
0.808429 0.277341 0.229477
0.089007 0.079365 0.094616
0.102278 0.086966 0.095369
0.115548 0.094566 0.096122
0.128819 0.102166 0.096875
0.142090 0.109767 0.097629
0.155360 0.117367 0.098382
0.180065 0.124249 0.098340
0.207056 0.130986 0.098138
0.234047 0.137724 0.097937
0.261038 0.144461 0.097736
0.288029 0.151199 0.097534
0.319949 0.157501 0.098489
0.354333 0.163586 0.100021
0.388717 0.169671 0.101554
0.423102 0.175756 0.103086
0.457486 0.181841 0.104618
0.491134 0.188218 0.108053
0.524047 0.194889 0.113391
0.556960 0.201559 0.118729
0.589873 0.208230 0.124067
0.622786 0.214900 0.129405
0.652298 0.221708 0.136126
0.675008 0.228792 0.145614
0.697718 0.235875 0.155102
0.720428 0.242959 0.164590
0.743137 0.250042 0.174078
0.763656 0.257102 0.184092
0.773219 0.264039 0.196739
0.782781 0.270976 0.209386
0.792344 0.277913 0.222033
0.801907 0.284851 0.234681
0.811470 0.291788 0.247328
0.089149 0.080830 0.096506
0.102237 0.088476 0.097653
0.115324 0.096123 0.098799
0.128412 0.103769 0.099946
0.141500 0.111415 0.101093
0.154587 0.119061 0.102239
0.179879 0.127772 0.102865
0.207611 0.136696 0.103386
0.235343 0.145620 0.103908
0.263075 0.154544 0.104429
0.290807 0.163468 0.104950
0.322992 0.170792 0.106237
0.357404 0.177316 0.107907
0.391816 0.183840 0.109576
0.426227 0.190364 0.111246
0.460639 0.196888 0.112915
0.494283 0.203517 0.116616
0.527159 0.210251 0.122347
0.560036 0.216986 0.128078
0.592912 0.223720 0.133809
0.625788 0.230455 0.139540
0.655285 0.237284 0.146765
0.678022 0.244304 0.156976
0.700759 0.251323 0.167186
0.723497 0.258343 0.177397
0.746234 0.265362 0.187608
0.766779 0.272385 0.198390
0.776360 0.279423 0.212035
0.785941 0.286461 0.225679
0.795522 0.293498 0.239323
0.805103 0.300536 0.252967
0.814684 0.307574 0.266612
0.089291 0.082295 0.098397
0.102195 0.089987 0.099937
0.115100 0.097679 0.101477
0.128005 0.105371 0.103017
0.140910 0.113063 0.104557
0.153814 0.120755 0.106096
0.179693 0.131296 0.107390
0.208166 0.142406 0.108634
0.236639 0.153516 0.109878
0.265112 0.164626 0.111122
0.293585 0.175737 0.112366
0.326036 0.184082 0.113986
0.360475 0.191045 0.115792
0.394914 0.198008 0.117599
0.429353 0.204971 0.119406
0.463792 0.211935 0.121213
0.497431 0.218815 0.125178
0.530271 0.225614 0.131303
0.563111 0.232412 0.137427
0.595950 0.239211 0.143552
0.628790 0.246009 0.149676
0.658272 0.252860 0.157404
0.681036 0.259816 0.168337
0.703801 0.266771 0.179271
0.726566 0.273727 0.190204
0.749331 0.280682 0.201137
0.769901 0.287668 0.212689
0.779500 0.294807 0.227330
0.789100 0.301945 0.241971
0.798699 0.309084 0.256613
0.808298 0.316222 0.271254
0.817898 0.323361 0.285895
0.089432 0.083761 0.100288
0.102154 0.091498 0.102221
0.114876 0.099236 0.104154
0.127598 0.106974 0.106087
0.140320 0.114711 0.108021
0.153041 0.122449 0.109954
0.179507 0.134819 0.111915
0.208721 0.148116 0.113882
0.237935 0.161412 0.115849
0.267149 0.174709 0.117816
0.296363 0.188005 0.119782
0.329079 0.197372 0.121734
0.363545 0.204775 0.123678
0.398012 0.212177 0.125622
0.432478 0.219579 0.127566
0.466945 0.226981 0.129510
0.500580 0.234114 0.133741
0.533383 0.240976 0.140259
0.566186 0.247839 0.146777
0.598989 0.254701 0.153294
0.631792 0.261564 0.159812
0.661258 0.268436 0.168043
0.684051 0.275328 0.179699
0.706843 0.282219 0.191355
0.729635 0.289110 0.203011
0.752427 0.296002 0.214667
0.773024 0.302951 0.226987
0.782641 0.310190 0.242626
0.792259 0.317430 0.258264
0.801876 0.324669 0.273902
0.811494 0.331908 0.289541
0.821112 0.339147 0.305179
0.089574 0.085226 0.102178
0.102113 0.093009 0.104505
0.114652 0.100793 0.106831
0.127191 0.108576 0.109158
0.139730 0.116360 0.111485
0.152268 0.124143 0.113811
0.179321 0.138343 0.116440
0.209276 0.153826 0.119130
0.239231 0.169309 0.121819
0.269186 0.184791 0.124509
0.299141 0.200274 0.127198
0.332122 0.210663 0.129482
0.366616 0.218504 0.131563
0.401110 0.226346 0.133645
0.435604 0.234187 0.135726
0.470098 0.242028 0.137807
0.503728 0.249412 0.142303
0.536495 0.256339 0.149214
0.569261 0.263265 0.156126
0.602028 0.270192 0.163037
0.634794 0.277118 0.169948
0.664245 0.284012 0.178682
0.687065 0.290839 0.191061
0.709885 0.297667 0.203440
0.732704 0.304494 0.215818
0.755524 0.311322 0.228197
0.776146 0.318235 0.241285
0.785782 0.325574 0.257921
0.795418 0.332914 0.274557
0.805054 0.340254 0.291192
0.814690 0.347594 0.307828
0.824325 0.354933 0.324463
0.089621 0.087447 0.105203
0.101965 0.095142 0.107960
0.114309 0.102837 0.110716
0.126653 0.110532 0.113473
0.138996 0.118227 0.116229
0.151340 0.125922 0.118986
0.178479 0.140735 0.122370
0.208578 0.156971 0.125880
0.238676 0.173207 0.129390
0.268774 0.189443 0.132900
0.298873 0.205679 0.136409
0.332363 0.217608 0.139599
0.367549 0.227382 0.142628
0.402735 0.237157 0.145658
0.437921 0.246932 0.148687
0.473108 0.256706 0.151717
0.507063 0.265232 0.156826
0.539786 0.272509 0.164015
0.572510 0.279787 0.171204
0.605234 0.287064 0.178392
0.637958 0.294341 0.185581
0.667390 0.301502 0.194674
0.690237 0.308430 0.207574
0.713084 0.315358 0.220474
0.735931 0.322286 0.233374
0.758778 0.329214 0.246275
0.779437 0.336237 0.259920
0.789159 0.343732 0.277290
0.798880 0.351227 0.294661
0.808601 0.358723 0.312031
0.818322 0.366218 0.329402
0.828044 0.373713 0.346772
0.089621 0.090047 0.108795
0.101764 0.097586 0.112000
0.113906 0.105126 0.115205
0.126049 0.112665 0.118410
0.138191 0.120205 0.121615
0.150334 0.127744 0.124819
0.177310 0.142561 0.129003
0.207253 0.158834 0.133381
0.237195 0.175107 0.137760
0.267138 0.191380 0.142139
0.297081 0.207652 0.146518
0.331203 0.221380 0.150900
0.367413 0.233835 0.155283
0.403624 0.246290 0.159667
0.439835 0.258745 0.164050
0.476046 0.271200 0.168433
0.510490 0.281313 0.174329
0.543168 0.289084 0.181738
0.575846 0.296855 0.189146
0.608524 0.304626 0.196554
0.641203 0.312398 0.203963
0.670613 0.319949 0.213342
0.693487 0.327060 0.226663
0.716362 0.334171 0.239984
0.739236 0.341282 0.253305
0.762111 0.348393 0.266626
0.782813 0.355599 0.280722
0.792653 0.363277 0.298697
0.802493 0.370955 0.316671
0.812334 0.378633 0.334645
0.822174 0.386311 0.352619
0.832014 0.393990 0.370594
0.089621 0.092646 0.112387
0.101563 0.100030 0.116040
0.113504 0.107414 0.119693
0.125445 0.114798 0.123347
0.137386 0.122182 0.127000
0.149327 0.129566 0.130653
0.176140 0.144388 0.135635
0.205928 0.160697 0.140883
0.235715 0.177007 0.146131
0.265502 0.193316 0.151378
0.295290 0.209625 0.156626
0.330042 0.225152 0.162201
0.367278 0.240287 0.167938
0.404513 0.255423 0.173675
0.441748 0.270558 0.179412
0.478984 0.285693 0.185150
0.513918 0.297393 0.191832
0.546550 0.305659 0.199460
0.579182 0.313924 0.207088
0.611815 0.322189 0.214716
0.644447 0.330454 0.222344
0.673836 0.338396 0.232010
0.696738 0.345690 0.245752
0.719640 0.352984 0.259493
0.742542 0.360278 0.273235
0.765444 0.367572 0.286977
0.786189 0.374960 0.301525
0.796148 0.382821 0.320103
0.806107 0.390683 0.338681
0.816066 0.398544 0.357259
0.826025 0.406405 0.375837
0.835984 0.414266 0.394415
0.089621 0.095246 0.115979
0.101361 0.102474 0.120081
0.113101 0.109703 0.124182
0.124841 0.116931 0.128283
0.136581 0.124160 0.132385
0.148321 0.131388 0.136486
0.174971 0.146214 0.142267
0.204603 0.162560 0.148384
0.234235 0.178906 0.154501
0.263866 0.195252 0.160618
0.293498 0.211598 0.166735
0.328882 0.228924 0.173501
0.367142 0.246740 0.180593
0.405402 0.264555 0.187684
0.443662 0.282371 0.194775
0.481922 0.300187 0.201866
0.517345 0.313474 0.209336
0.549932 0.322233 0.217183
0.582518 0.330992 0.225030
0.615105 0.339752 0.232878
0.647691 0.348511 0.240725
0.677059 0.356843 0.250678
0.699988 0.364320 0.264840
0.722918 0.371797 0.279003
0.745847 0.379273 0.293166
0.768777 0.386750 0.307328
0.789564 0.394322 0.322327
0.799642 0.402366 0.341509
0.809720 0.410410 0.360691
0.819798 0.418454 0.379873
0.829876 0.426498 0.399054
0.839954 0.434543 0.418236
0.089621 0.097846 0.119571
0.101160 0.104918 0.124121
0.112699 0.111991 0.128671
0.124237 0.119064 0.133220
0.135776 0.126137 0.137770
0.147315 0.133210 0.142319
0.173801 0.148041 0.148899
0.203278 0.164424 0.155885
0.232754 0.180806 0.162871
0.262230 0.197189 0.169857
0.291707 0.213571 0.176843
0.327722 0.232696 0.184802
0.367006 0.253192 0.193247
0.406291 0.273688 0.201692
0.445575 0.294184 0.210137
0.484860 0.314680 0.218583
0.520772 0.329555 0.226839
0.553313 0.338808 0.234906
0.585854 0.348061 0.242973
0.618395 0.357314 0.251040
0.650936 0.366567 0.259107
0.680282 0.375290 0.269346
0.703239 0.382949 0.283929
0.726196 0.390609 0.298513
0.749153 0.398269 0.313096
0.772110 0.405929 0.327679
0.792940 0.413684 0.343130
0.803137 0.421911 0.362915
0.813334 0.430138 0.382701
0.823531 0.438365 0.402486
0.833728 0.446592 0.422272
0.843925 0.454819 0.442058
0.089503 0.101060 0.124463
0.100873 0.108046 0.129479
0.112242 0.115032 0.134496
0.123612 0.122018 0.139512
0.134981 0.129004 0.144528
0.146350 0.135990 0.149544
0.172660 0.150775 0.156903
0.201958 0.167121 0.164731
0.231256 0.183467 0.172558
0.260554 0.199813 0.180386
0.289852 0.216159 0.188214
0.326198 0.236205 0.197237
0.366068 0.258101 0.206857
0.405938 0.279996 0.216478
0.445808 0.301892 0.226098
0.485678 0.323788 0.235719
0.522135 0.340117 0.244890
0.555179 0.350879 0.253611
0.588223 0.361642 0.262332
0.621267 0.372405 0.271053
0.654311 0.383167 0.279774
0.683985 0.392998 0.290491
0.706919 0.400964 0.305197
0.729853 0.408930 0.319904
0.752787 0.416897 0.334611
0.775721 0.424863 0.349318
0.796549 0.432904 0.364908
0.806852 0.441314 0.384913
0.817154 0.449724 0.404918
0.827456 0.458134 0.424923
0.837758 0.466544 0.444929
0.848060 0.474954 0.464934
0.089267 0.104888 0.130655
0.100499 0.111856 0.136156
0.111731 0.118823 0.141657
0.122964 0.125791 0.147158
0.134196 0.132759 0.152659
0.145428 0.139727 0.158160
0.171547 0.154418 0.166278
0.200644 0.170654 0.174920
0.229741 0.186890 0.183562
0.258837 0.203126 0.192204
0.287934 0.219362 0.200845
0.324310 0.239451 0.210805
0.364327 0.261466 0.221422
0.404343 0.283480 0.232040
0.444359 0.305495 0.242658
0.484376 0.327509 0.253276
0.521432 0.345160 0.263489
0.555528 0.358448 0.273299
0.589624 0.371735 0.283109
0.623720 0.385023 0.292918
0.657816 0.398310 0.302728
0.688167 0.409967 0.314112
0.711028 0.418364 0.328645
0.733889 0.426760 0.343178
0.756749 0.435156 0.357711
0.779610 0.443553 0.372245
0.800393 0.451982 0.387662
0.810787 0.460575 0.407503
0.821180 0.469168 0.427343
0.831574 0.477761 0.447184
0.841968 0.486354 0.467024
0.852361 0.494947 0.486864
0.089031 0.108716 0.136847
0.100126 0.115666 0.142832
0.111221 0.122615 0.148818
0.122316 0.129565 0.154804
0.133411 0.136514 0.160790
0.144506 0.143463 0.166776
0.170434 0.158060 0.175653
0.199330 0.174187 0.185109
0.228225 0.190313 0.194565
0.257120 0.206439 0.204021
0.286016 0.222566 0.213477
0.322423 0.242697 0.224373
0.362586 0.264830 0.235987
0.402748 0.286964 0.247602
0.442911 0.309098 0.259217
0.483074 0.331231 0.270832
0.520729 0.350204 0.282089
0.555877 0.366016 0.292987
0.591025 0.381829 0.303885
0.626173 0.397641 0.314784
0.661321 0.413453 0.325682
0.692349 0.426937 0.337734
0.715137 0.435763 0.352093
0.737924 0.444589 0.366452
0.760712 0.453416 0.380812
0.783500 0.462242 0.395171
0.804237 0.471060 0.410416
0.814722 0.479836 0.430092
0.825207 0.488612 0.449768
0.835692 0.497388 0.469444
0.846177 0.506164 0.489119
0.856662 0.514940 0.508795
0.088794 0.112545 0.143038
0.099752 0.119476 0.149509
0.110710 0.126407 0.155980
0.121668 0.133338 0.162450
0.132625 0.140269 0.168921
0.143583 0.147200 0.175392
0.169321 0.161703 0.185029
0.198015 0.177719 0.195299
0.226710 0.193736 0.205569
0.255404 0.209753 0.215839
0.284098 0.225769 0.226109
0.320535 0.245943 0.237940
0.360844 0.268195 0.250552
0.401153 0.290448 0.263165
0.441462 0.312700 0.275777
0.481772 0.334953 0.288389
0.520026 0.355248 0.300688
0.556226 0.373585 0.312675
0.592426 0.391922 0.324662
0.628626 0.410259 0.336649
0.664826 0.428596 0.348636
0.696531 0.443906 0.361355
0.719246 0.453162 0.375541
0.741960 0.462419 0.389726
0.764675 0.471675 0.403912
0.787389 0.480931 0.418097
0.808080 0.490138 0.433170
0.818657 0.499097 0.452681
0.829234 0.508056 0.472193
0.839810 0.517015 0.491704
0.850387 0.525974 0.511215
0.860963 0.534932 0.530726
0.088558 0.116373 0.149230
0.099379 0.123286 0.156185
0.110199 0.130199 0.163141
0.121020 0.137112 0.170097
0.131840 0.144025 0.177052
0.142661 0.150937 0.184008
0.168208 0.165345 0.194404
0.196701 0.181252 0.205488
0.225194 0.197159 0.216572
0.253687 0.213066 0.227657
0.282180 0.228972 0.238741
0.318648 0.249189 0.251508
0.359103 0.271560 0.265118
0.399559 0.293932 0.278727
0.440014 0.316303 0.292336
0.480469 0.338674 0.305945
0.519323 0.360291 0.319287
0.556575 0.381153 0.332363
0.593827 0.402015 0.345438
0.631079 0.422877 0.358514
0.668332 0.443739 0.371589
0.700713 0.460876 0.384977
0.723355 0.470562 0.398989
0.745996 0.480248 0.413000
0.768637 0.489934 0.427012
0.791278 0.499620 0.441024
0.811924 0.509216 0.455924
0.822592 0.518358 0.475271
0.833260 0.527500 0.494617
0.843928 0.536642 0.513964
0.854596 0.545783 0.533310
0.865264 0.554925 0.552657
0.088180 0.120485 0.156666
0.098888 0.127459 0.164113
0.109595 0.134433 0.171559
0.120303 0.141407 0.179006
0.131011 0.148380 0.186452
0.141718 0.155354 0.193899
0.167095 0.169754 0.205030
0.195405 0.185640 0.216898
0.223715 0.201525 0.228766
0.252025 0.217411 0.240634
0.280335 0.233296 0.252502
0.316827 0.253573 0.266118
0.357410 0.276045 0.280608
0.397994 0.298517 0.295099
0.438577 0.320989 0.309589
0.479161 0.343461 0.324079
0.518501 0.365994 0.338311
0.556598 0.388588 0.352283
0.594694 0.411182 0.366255
0.632791 0.433776 0.380227
0.670888 0.456370 0.394199
0.703890 0.474916 0.408114
0.726702 0.485368 0.421915
0.749514 0.495820 0.435716
0.772326 0.506271 0.449518
0.795138 0.516723 0.463319
0.815932 0.526978 0.477966
0.826640 0.536251 0.496846
0.837348 0.545524 0.515726
0.848056 0.554797 0.534606
0.858763 0.564070 0.553486
0.869471 0.573343 0.572366
0.087518 0.125164 0.166592
0.098162 0.132358 0.174541
0.108806 0.139551 0.182491
0.119449 0.146745 0.190441
0.130093 0.153938 0.198390
0.140737 0.161131 0.206340
0.165980 0.175698 0.218157
0.194144 0.191739 0.230748
0.222307 0.207780 0.243338
0.250471 0.223821 0.255929
0.278635 0.239862 0.268520
0.315139 0.260233 0.282810
0.355814 0.282769 0.297950
0.396489 0.305305 0.313090
0.437164 0.327841 0.328230
0.477839 0.350377 0.343369
0.517440 0.373015 0.358182
0.555966 0.395755 0.372666
0.594493 0.418496 0.387150
0.633020 0.441236 0.401634
0.671547 0.463976 0.416119
0.705055 0.483099 0.430281
0.728525 0.494987 0.443798
0.751996 0.506875 0.457316
0.775467 0.518763 0.470834
0.798937 0.530650 0.484351
0.820270 0.542107 0.498584
0.830914 0.551407 0.516394
0.841557 0.560708 0.534204
0.852201 0.570008 0.552013
0.862845 0.579309 0.569823
0.873489 0.588609 0.587632
0.086857 0.129844 0.176517
0.097436 0.137257 0.184970
0.108016 0.144669 0.193423
0.118595 0.152082 0.201876
0.129175 0.159495 0.210328
0.139755 0.166908 0.218781
0.164866 0.181641 0.231284
0.192883 0.197837 0.244598
0.220900 0.214034 0.257911
0.248917 0.230230 0.271224
0.276935 0.246427 0.284538
0.313451 0.266892 0.299502
0.354218 0.289492 0.315291
0.394984 0.312092 0.331081
0.435751 0.334693 0.346870
0.476517 0.357293 0.362659
0.516379 0.380036 0.378052
0.555335 0.402923 0.393049
0.594292 0.425810 0.408046
0.633249 0.448696 0.423042
0.672205 0.471583 0.438039
0.706219 0.491282 0.452448
0.730349 0.504606 0.465682
0.754478 0.517930 0.478916
0.778607 0.531254 0.492150
0.802737 0.544578 0.505384
0.824608 0.557236 0.519202
0.835187 0.566564 0.535942
0.845767 0.575892 0.552681
0.856347 0.585220 0.569420
0.866926 0.594548 0.586160
0.877506 0.603876 0.602899
0.086195 0.134523 0.186443
0.096710 0.142155 0.195399
0.107226 0.149788 0.204355
0.117742 0.157420 0.213311
0.128257 0.165053 0.222266
0.138773 0.172685 0.231222
0.163751 0.187584 0.244412
0.191622 0.203936 0.258448
0.219493 0.220288 0.272484
0.247364 0.236640 0.286520
0.275235 0.252992 0.300556
0.311763 0.273552 0.316194
0.352621 0.296216 0.332633
0.393479 0.318880 0.349072
0.434337 0.341544 0.365511
0.475195 0.364209 0.381950
0.515317 0.387057 0.397923
0.554704 0.410090 0.413432
0.594091 0.433123 0.428941
0.633477 0.456156 0.444450
0.672864 0.479189 0.459959
0.707384 0.499465 0.474615
0.732172 0.514225 0.487565
0.756960 0.528986 0.500516
0.781748 0.543746 0.513466
0.806536 0.558506 0.526417
0.828945 0.572365 0.539821
0.839461 0.581721 0.555489
0.849977 0.591076 0.571158
0.860492 0.600431 0.586827
0.871008 0.609787 0.602496
0.881523 0.619142 0.618165
0.085533 0.139202 0.196369
0.095985 0.147054 0.205828
0.106436 0.154906 0.215287
0.116888 0.162758 0.224746
0.127339 0.170610 0.234205
0.137791 0.178462 0.243664
0.162637 0.193527 0.257539
0.190361 0.210035 0.272298
0.218086 0.226542 0.287056
0.245810 0.243050 0.301815
0.273535 0.259557 0.316574
0.310076 0.280212 0.332886
0.351025 0.302940 0.349974
0.391974 0.325668 0.367063
0.432924 0.348396 0.384151
0.473873 0.371124 0.401240
0.514256 0.394078 0.417794
0.554073 0.417258 0.433816
0.593889 0.440437 0.449837
0.633706 0.463617 0.465858
0.673523 0.486796 0.481879
0.708549 0.507648 0.496782
0.733996 0.523844 0.509449
0.759442 0.540041 0.522116
0.784889 0.556237 0.534783
0.810336 0.572434 0.547450
0.833283 0.587495 0.560439
0.843735 0.596877 0.575037
0.854186 0.606260 0.589636
0.864638 0.615643 0.604234
0.875089 0.625026 0.618833
0.885541 0.634409 0.633432
0.084761 0.143779 0.207247
0.095162 0.151881 0.217211
0.105564 0.159983 0.227175
0.115965 0.168085 0.237138
0.126366 0.176187 0.247102
0.136767 0.184289 0.257066
0.161492 0.199576 0.271601
0.189080 0.216300 0.287050
0.216669 0.233024 0.302500
0.244258 0.249748 0.317949
0.271847 0.266472 0.333398
0.308403 0.287277 0.350329
0.349442 0.310123 0.368000
0.390481 0.332968 0.385670
0.431521 0.355814 0.403341
0.472560 0.378660 0.421012
0.513196 0.401740 0.438054
0.553429 0.425055 0.454467
0.593662 0.448370 0.470880
0.633895 0.471685 0.487293
0.674127 0.495001 0.503706
0.709640 0.516334 0.518760
0.735712 0.533703 0.531094
0.761783 0.551072 0.543429
0.787855 0.568440 0.555763
0.813927 0.585809 0.568098
0.837386 0.601837 0.580607
0.847779 0.611161 0.593987
0.858173 0.620484 0.607367
0.868566 0.629807 0.620748
0.878960 0.639131 0.634128
0.889354 0.648454 0.647509
0.083438 0.147844 0.222892
0.093857 0.156348 0.233368
0.104277 0.164853 0.243844
0.114696 0.173357 0.254320
0.125116 0.181862 0.264796
0.135535 0.190366 0.275272
0.160194 0.206155 0.290334
0.187701 0.223401 0.306314
0.215207 0.240646 0.322294
0.242713 0.257891 0.338274
0.270220 0.275137 0.354254
0.306803 0.296372 0.371526
0.347925 0.319602 0.389444
0.389047 0.342831 0.407362
0.430168 0.366061 0.425280
0.471290 0.389291 0.443198
0.512141 0.412605 0.460258
0.552721 0.436002 0.476460
0.593302 0.459400 0.492663
0.633882 0.482797 0.508866
0.674463 0.506195 0.525068
0.710359 0.527534 0.539789
