Assets/1__3DArt/KimSe/artstation_asset/LUTs_subway_asset/CUBE/LoFi Chill 03_S.cube
# LUT by SparkleStock. Enhanced with VOXCOLOR algorithms.
LUT_3D_SIZE 8
DOMAIN_MIN 0.000000 0.000000 0.000000
DOMAIN_MAX 0.903226 0.903226 0.903226
0.152381 0.125031 0.160195
0.192083 0.126543 0.162464
0.271826 0.131002 0.166608
0.383497 0.138879 0.173729
0.516192 0.150482 0.184836
0.644752 0.166552 0.202229
0.740069 0.184355 0.225767
0.802521 0.202095 0.254118
0.155595 0.129001 0.165678
0.199835 0.145589 0.165605
0.281834 0.158177 0.163674
0.393846 0.169799 0.165502
0.525627 0.182720 0.175621
0.654040 0.198058 0.199454
0.750430 0.215861 0.237117
0.813724 0.235492 0.284776
0.156934 0.132034 0.172366
0.203223 0.154159 0.177830
0.290646 0.186048 0.180716
0.406291 0.214331 0.184887
0.537312 0.231874 0.195094
0.665371 0.248969 0.224538
0.763060 0.267791 0.273768
0.827843 0.289476 0.336934
0.157895 0.135311 0.182701
0.204782 0.158254 0.197070
0.297165 0.204827 0.211797
0.418556 0.254017 0.226519
0.553197 0.291036 0.243301
0.679903 0.312558 0.276002
0.777965 0.334060 0.332717
0.843930 0.358497 0.405931
0.159715 0.139895 0.199055
0.206528 0.162729 0.222425
0.301262 0.210993 0.252270
0.429096 0.277474 0.284493
0.572988 0.349205 0.316619
0.698266 0.381778 0.350911
0.795100 0.408613 0.409949
0.861055 0.436795 0.486328
0.163685 0.147458 0.226657
0.209913 0.171462 0.258517
0.306031 0.220794 0.301517
0.437768 0.289763 0.350279
0.588045 0.370624 0.399878
0.720350 0.444472 0.443831
0.814695 0.483066 0.498746
0.877924 0.515754 0.568245
0.168916 0.157541 0.272063
0.215168 0.184667 0.310704
0.312416 0.237364 0.362732
0.447091 0.310143 0.422250
0.602351 0.396154 0.483421
0.740705 0.481151 0.536790
0.833619 0.540406 0.584493
0.893009 0.584137 0.640150
0.175013 0.166489 0.338233
0.221728 0.198160 0.381649
0.320093 0.256553 0.438306
0.457135 0.335626 0.502435
0.616245 0.427934 0.568062
0.759185 0.518053 0.624377
0.851857 0.588322 0.665557
0.906680 0.637043 0.703680
0.154272 0.128623 0.181748
0.191486 0.131013 0.191335
0.272265 0.133655 0.197509
0.385875 0.139458 0.204240
0.519760 0.150659 0.214652
0.649637 0.169657 0.231607
0.746759 0.194412 0.257145
0.810797 0.221337 0.290283
0.157046 0.131129 0.187670
0.205710 0.159814 0.208060
0.288034 0.174981 0.215124
0.398368 0.185360 0.218998
0.528307 0.197368 0.227416
0.656791 0.213141 0.245145
0.756101 0.232948 0.274514
0.823242 0.255710 0.314269
0.159916 0.134876 0.197700
0.211281 0.174778 0.222164
0.297739 0.214357 0.232882
0.409956 0.244114 0.238017
0.537981 0.260215 0.245126
0.665828 0.275652 0.265288
0.767108 0.293002 0.301831
0.837365 0.313365 0.352244
0.162670 0.139519 0.211841
0.212801 0.181419 0.238060
0.303458 0.239638 0.256207
0.420632 0.293627 0.268949
0.551026 0.329805 0.280273
0.677632 0.348593 0.302058
0.779817 0.366523 0.344366
0.852565 0.386674 0.403295
0.165368 0.145036 0.230646
0.213825 0.184447 0.259323
0.307138 0.245761 0.288592
0.430471 0.319848 0.315676
0.568125 0.393052 0.339206
0.692851 0.423259 0.361676
0.794228 0.445757 0.405059
0.868106 0.468139 0.465819
0.169192 0.152891 0.258395
0.216156 0.187921 0.290008
0.311152 0.248040 0.330412
0.439747 0.325456 0.373422
0.585119 0.410934 0.413716
0.712451 0.484570 0.444940
0.810603 0.519846 0.483860
0.882246 0.547221 0.536961
0.174520 0.162901 0.300897
0.220414 0.194934 0.334118
0.316848 0.254519 0.382910
0.449678 0.333918 0.438210
0.601777 0.424598 0.492059
0.736028 0.511252 0.534815
0.828565 0.570130 0.569598
0.893917 0.610986 0.610344
0.181240 0.172259 0.360859
0.226218 0.203093 0.393449
0.324182 0.264554 0.447199
0.460680 0.347717 0.510051
0.618133 0.443114 0.571745
0.758467 0.535047 0.621516
0.849091 0.606350 0.654782
0.906342 0.654555 0.683524
0.158037 0.132884 0.216826
0.190378 0.136879 0.228963
0.268048 0.143936 0.241799
0.382612 0.153619 0.253530
0.521833 0.166517 0.264102
0.654997 0.188546 0.280203
0.754684 0.219061 0.305599
0.820714 0.253550 0.340418
0.160373 0.135586 0.222772
0.207384 0.166177 0.251552
0.289185 0.186289 0.271988
0.400162 0.200550 0.284911
0.531703 0.213424 0.292985
0.661666 0.231661 0.307084
0.763157 0.256213 0.331383
0.832779 0.285299 0.366118
0.164112 0.139502 0.232352
0.215900 0.183352 0.266216
0.304013 0.229230 0.293312
0.416502 0.263359 0.309652
0.542360 0.279844 0.315905
0.669476 0.296159 0.329647
0.772833 0.315489 0.355989
0.847054 0.338582 0.394745
0.168072 0.144967 0.246972
0.219924 0.192556 0.280708
0.312922 0.258689 0.313369
0.429357 0.318355 0.335547
0.554743 0.355580 0.344334
0.679146 0.373922 0.357791
0.783551 0.391117 0.386548
0.861781 0.410285 0.429859
0.171609 0.152104 0.267477
0.222675 0.197403 0.300598
0.317136 0.267698 0.337931
0.437981 0.349278 0.368477
0.569404 0.425590 0.386438
0.691424 0.455308 0.399815
0.795248 0.475703 0.429031
0.875543 0.494831 0.474030
0.175701 0.160667 0.294439
0.226295 0.200928 0.327994
0.321023 0.268058 0.370668
0.446283 0.352335 0.412553
0.586283 0.442952 0.446219
0.708336 0.518332 0.466881
0.808439 0.552003 0.491870
0.887041 0.575665 0.529842
0.181110 0.170241 0.332155
0.231664 0.206751 0.365929
0.326677 0.270065 0.412651
0.455417 0.353433 0.463964
0.603191 0.448659 0.512157
0.733072 0.538539 0.545769
0.824766 0.598486 0.568912
0.895544 0.637521 0.596366
0.188067 0.178702 0.383330
0.238755 0.213470 0.415695
0.334250 0.274951 0.464376
0.466016 0.358346 0.521918
0.620327 0.456560 0.580368
0.757770 0.551567 0.624170
0.846681 0.625418 0.649717
0.906768 0.674262 0.669655
0.163756 0.137579 0.263382
0.191035 0.143599 0.275982
0.262217 0.157329 0.294586
0.375409 0.175777 0.313041
0.521194 0.197076 0.327944
0.660591 0.223215 0.343691
0.763970 0.258562 0.367920
0.832377 0.298920 0.402342
0.165531 0.141098 0.268389
0.208660 0.169380 0.299096
0.286699 0.194626 0.329065
0.397907 0.217544 0.352514
0.534887 0.239042 0.366983
0.668099 0.261191 0.379519
0.771690 0.291148 0.400545
0.843057 0.326789 0.431564
0.169228 0.145675 0.276243
0.219144 0.186313 0.313197
0.306879 0.235282 0.353133
0.420640 0.276412 0.383325
0.548872 0.300983 0.397606
0.675959 0.320076 0.408035
0.780261 0.343394 0.427313
0.856579 0.371299 0.457017
0.173856 0.151733 0.288773
0.226267 0.197694 0.326126
0.321361 0.266240 0.371699
0.439072 0.331134 0.407783
0.563414 0.374527 0.424688
0.684798 0.394347 0.433504
0.789267 0.413278 0.452084
0.870369 0.434353 0.482143
0.178636 0.159546 0.307215
0.232715 0.206095 0.343674
0.329967 0.280129 0.389621
0.450907 0.365950 0.429589
0.578568 0.445430 0.453473
0.695327 0.475930 0.461647
0.798541 0.496052 0.479733
0.882482 0.514200 0.510417
0.183106 0.169414 0.332701
0.238574 0.212331 0.368678
0.335892 0.283103 0.414957
0.459665 0.371069 0.460155
0.593735 0.464745 0.494927
0.709517 0.542275 0.508876
0.808866 0.575532 0.523474
0.891689 0.597007 0.548731
0.188832 0.178931 0.364957
0.246136 0.219520 0.401180
0.343627 0.285569 0.447760
0.469313 0.370416 0.497545
0.609115 0.466439 0.543236
0.733586 0.559209 0.570632
0.823133 0.620739 0.584989
0.897496 0.658728 0.601888
0.196107 0.186243 0.406366
0.255598 0.226562 0.442073
0.353528 0.289451 0.488150
0.480816 0.371283 0.540856
0.625425 0.466880 0.594801
0.758697 0.564261 0.634311
0.845309 0.640886 0.653853
0.907454 0.690817 0.666801
0.171295 0.142471 0.318445
0.194823 0.150668 0.331246
0.257628 0.170411 0.351685
0.366187 0.200607 0.375924
0.516127 0.238260 0.400101
0.665843 0.272284 0.417421
0.774525 0.312377 0.440556
0.845735 0.357059 0.473389
0.172356 0.146667 0.321311
0.212131 0.172706 0.351610
0.282692 0.201865 0.382975
0.391462 0.236651 0.414225
0.535399 0.276117 0.442647
0.675261 0.305769 0.456714
0.781667 0.340938 0.475635
0.854513 0.381411 0.503270
0.175132 0.152777 0.327673
0.222723 0.188368 0.364152
0.305881 0.236704 0.406561
0.419436 0.286343 0.447165
0.554370 0.328196 0.478984
0.684569 0.354219 0.490921
0.789336 0.382792 0.506820
0.865809 0.415841 0.530872
0.179852 0.159514 0.336614
0.231993 0.201206 0.374315
0.326374 0.266468 0.423524
0.445608 0.334992 0.471710
0.574105 0.390255 0.508110
0.694332 0.415846 0.518462
0.796995 0.438870 0.532055
0.877628 0.463924 0.553591
0.186136 0.166634 0.348668
0.242948 0.213414 0.386983
0.343375 0.285734 0.436756
0.466626 0.370892 0.488223
0.594276 0.452533 0.530755
0.705017 0.486820 0.540374
0.804429 0.508592 0.551920
0.888272 0.527764 0.571309
0.191247 0.178002 0.371337
0.251543 0.223148 0.408944
0.354775 0.294915 0.457677
0.480126 0.382836 0.509127
0.608804 0.475946 0.553621
0.717265 0.554488 0.567698
0.812524 0.588046 0.576787
0.895715 0.608777 0.592673
0.197689 0.188349 0.398336
0.261659 0.232526 0.436021
0.367292 0.301651 0.484313
0.493484 0.386195 0.535754
0.622657 0.478054 0.582522
0.739331 0.570676 0.608516
0.824539 0.633190 0.618252
0.899486 0.670593 0.628180
0.205686 0.195177 0.430482
0.273850 0.240286 0.468117
0.382112 0.308126 0.516051
0.508889 0.388729 0.567150
0.637926 0.475384 0.615221
0.763149 0.571052 0.652655
0.845742 0.649039 0.668982
0.908082 0.699758 0.677687
0.179991 0.147198 0.375162
0.201178 0.157443 0.387524
0.258738 0.181621 0.409701
0.358661 0.220586 0.438039
0.500606 0.273041 0.468656
0.668325 0.331216 0.494466
0.785618 0.379724 0.518405
0.860469 0.428011 0.549158
0.180467 0.151686 0.375248
0.217901 0.176149 0.403408
0.283296 0.208362 0.434490
0.384347 0.251370 0.468251
0.522172 0.305354 0.502973
0.680831 0.361650 0.529948
0.792864 0.405273 0.550317
0.867024 0.449143 0.575759
0.182450 0.158400 0.378932
0.228261 0.190473 0.413098
0.307920 0.237964 0.454557
0.416077 0.292562 0.496869
0.546843 0.347968 0.534795
0.693180 0.401602 0.563098
0.800015 0.438546 0.580657
0.875256 0.475032 0.601778
0.186109 0.166479 0.385543
0.237452 0.203595 0.421431
0.330239 0.264533 0.469830
0.447021 0.333433 0.519751
0.574146 0.397934 0.562665
0.705770 0.449729 0.592110
0.806988 0.480583 0.607426
0.884074 0.509099 0.624975
0.191625 0.175355 0.394780
0.249140 0.217574 0.431948
0.349695 0.284962 0.481486
0.473570 0.366504 0.535290
0.603291 0.449277 0.585163
0.719070 0.503522 0.615633
0.813841 0.531445 0.629041
0.892447 0.553682 0.643499
0.199810 0.185406 0.408228
0.264095 0.231657 0.446047
0.371946 0.303676 0.495745
0.501442 0.390087 0.549202
0.632079 0.479768 0.598727
0.734359 0.555264 0.631842
0.821218 0.589346 0.643246
0.898748 0.610927 0.654617
0.207374 0.197606 0.430396
0.277203 0.244116 0.468143
0.389926 0.315710 0.516954
0.522346 0.401165 0.569158
0.653364 0.490369 0.617859
0.754622 0.571202 0.653428
0.831072 0.631302 0.664894
0.901466 0.668026 0.672643
0.216578 0.205813 0.455974
0.292250 0.253779 0.493463
0.409688 0.325505 0.541605
0.544384 0.409211 0.592798
0.674999 0.494807 0.640549
0.776459 0.572118 0.677303
0.850082 0.645487 0.693922
0.908850 0.695134 0.702146
0.188058 0.150191 0.421639
0.207634 0.162242 0.433806
0.262323 0.190177 0.457792
0.357574 0.236093 0.490279
0.493460 0.299857 0.527550
0.657959 0.376450 0.562702
0.790186 0.445532 0.591147
0.874233 0.504634 0.621513
0.187948 0.155094 0.420163
0.223960 0.178869 0.446145
0.286352 0.213658 0.476599
0.382995 0.263038 0.512175
0.515830 0.327883 0.551827
0.672817 0.402446 0.587843
0.798185 0.467577 0.614775
0.879292 0.522483 0.641593
0.189311 0.162015 0.421612
0.234050 0.192326 0.453476
0.311710 0.239464 0.492895
0.416741 0.297868 0.535147
0.543806 0.363180 0.576347
0.689713 0.434342 0.612893
0.806281 0.493652 0.638502
0.884929 0.541583 0.662051
0.192254 0.170419 0.425609
0.243130 0.205393 0.459885
0.335061 0.263599 0.505919
0.450453 0.332798 0.554701
0.575994 0.403557 0.599422
0.708310 0.471252 0.636252
0.814476 0.524321 0.660804
0.890781 0.564362 0.681433
0.197033 0.179939 0.432014
0.254992 0.219946 0.468293
0.355487 0.284179 0.516085
0.479697 0.362776 0.568606
0.610671 0.445219 0.619193
0.728241 0.511584 0.656337
0.822801 0.559579 0.680087
0.896438 0.592591 0.698142
0.205120 0.190868 0.442095
0.271058 0.235946 0.479536
0.380459 0.305635 0.528171
0.511586 0.388925 0.580817
0.644129 0.475437 0.630991
0.749069 0.550532 0.669721
0.831455 0.598208 0.692599
0.900979 0.627945 0.708182
0.216022 0.205695 0.459799
0.289735 0.253062 0.496718
0.406932 0.325280 0.544669
0.543290 0.410447 0.596219
0.676652 0.497770 0.644878
0.776733 0.573565 0.682550
0.843650 0.629557 0.703298
0.903991 0.664666 0.715553
0.228406 0.217156 0.480984
0.309538 0.266498 0.516787
0.433661 0.340489 0.563672
0.574127 0.426161 0.613863
0.707423 0.511962 0.660695
0.803828 0.583671 0.696337
0.863132 0.641381 0.716743
0.910771 0.682017 0.727608
0.194974 0.151814 0.455008
0.213325 0.165304 0.467583
0.266585 0.196376 0.493723
0.359721 0.248191 0.530376
0.492502 0.321537 0.574026
0.652866 0.413261 0.618375
0.792134 0.502082 0.654853
0.882950 0.575881 0.686604
0.194120 0.156839 0.453404
0.229256 0.180646 0.477571
0.290298 0.217767 0.507951
0.384932 0.272302 0.545547
0.515040 0.345710 0.589607
0.668794 0.434294 0.633267
0.800822 0.518827 0.668477
0.887254 0.588575 0.698093
0.194683 0.163908 0.453783
0.239193 0.193774 0.483926
0.316106 0.241182 0.521594
0.419769 0.302755 0.563630
0.544876 0.375607 0.607238
0.688685 0.459366 0.649430
0.810499 0.537724 0.682915
0.891563 0.600930 0.709854
0.196974 0.172427 0.455908
0.248221 0.206930 0.489353
0.340042 0.263834 0.533077
0.455035 0.333630 0.580082
0.580022 0.409029 0.625104
0.711614 0.487701 0.665558
0.821060 0.558870 0.697208
0.896025 0.614221 0.721410
0.201367 0.182041 0.459853
0.260068 0.221654 0.495932
0.360858 0.284446 0.542072
0.485685 0.361260 0.592400
0.617948 0.443301 0.641364
0.736528 0.518063 0.680360
0.832322 0.582014 0.710301
0.900643 0.629384 0.732015
0.209277 0.193336 0.467422
0.276382 0.238133 0.505002
0.386613 0.306421 0.552480
0.518655 0.387648 0.603493
0.652757 0.472079 0.652342
0.761564 0.546926 0.691342
0.843818 0.605792 0.719723
0.904857 0.647127 0.739073
0.222467 0.208935 0.481872
0.298311 0.257189 0.518572
0.417880 0.329699 0.565657
0.556387 0.414342 0.616023
0.691498 0.500119 0.663482
0.793691 0.572812 0.700318
0.858352 0.626499 0.725061
0.908384 0.663901 0.740961
0.239313 0.225670 0.502028
0.323337 0.275390 0.535947
0.451156 0.350325 0.581171
0.594762 0.436754 0.629848
0.729622 0.522393 0.675229
0.825280 0.591604 0.709323
0.877934 0.639170 0.730816
0.914818 0.672772 0.743325
