Assets/1__3DArt/KimSe/artstation_asset/LUTs_subway_asset/CUBE/LoFi Chill 03.cube
# LUT by SparkleStock. Enhanced with VOXCOLOR algorithms.
LUT_3D_SIZE 32
0.152381 0.125031 0.160195
0.162307 0.125503 0.160904
0.172232 0.125976 0.161613
0.182158 0.126448 0.162322
0.192083 0.126921 0.163031
0.202009 0.127394 0.163740
0.223711 0.128969 0.165119
0.247769 0.130765 0.166631
0.271826 0.132561 0.168144
0.295884 0.134357 0.169656
0.319942 0.136153 0.171169
0.350175 0.138832 0.173563
0.383497 0.141951 0.176399
0.416818 0.145071 0.179235
0.450140 0.148190 0.182071
0.483461 0.151310 0.184907
0.516192 0.154807 0.188475
0.548332 0.158683 0.192776
0.580472 0.162559 0.197077
0.612612 0.166434 0.201379
0.644752 0.170310 0.205680
0.673567 0.174280 0.210485
0.695734 0.178439 0.216298
0.717901 0.182599 0.222112
0.740069 0.186758 0.227925
0.762236 0.190917 0.233739
0.782386 0.195053 0.239844
0.792453 0.199070 0.247406
0.802521 0.203088 0.254969
0.812588 0.207105 0.262531
0.822655 0.211123 0.270093
0.832723 0.215140 0.277656
0.153232 0.125976 0.161613
0.163294 0.126759 0.162780
0.173357 0.127543 0.163946
0.183420 0.128327 0.165112
0.193483 0.129111 0.166279
0.203546 0.129894 0.167445
0.225416 0.131666 0.169037
0.249647 0.133636 0.170714
0.273879 0.135606 0.172391
0.298110 0.137576 0.174069
0.322342 0.139546 0.175746
0.352700 0.142404 0.178348
0.386122 0.145706 0.181412
0.419544 0.149009 0.184477
0.452967 0.152311 0.187541
0.486389 0.155614 0.190606
0.519183 0.159322 0.194444
0.551351 0.163435 0.199056
0.583518 0.167549 0.203669
0.615685 0.171662 0.208281
0.647853 0.175776 0.212893
0.676678 0.180002 0.218049
0.698817 0.184454 0.224292
0.720957 0.188906 0.230536
0.743097 0.193358 0.236779
0.765236 0.197810 0.243023
0.785358 0.202248 0.249574
0.795388 0.206613 0.257667
0.805419 0.210978 0.265760
0.815450 0.215343 0.273853
0.825481 0.219708 0.281946
0.835511 0.224073 0.290039
0.154082 0.126921 0.163031
0.164282 0.128016 0.164655
0.174482 0.129111 0.166279
0.184682 0.130205 0.167903
0.194882 0.131300 0.169526
0.205082 0.132395 0.171150
0.227120 0.134363 0.172956
0.251525 0.136507 0.174797
0.275931 0.138651 0.176639
0.300336 0.140795 0.178481
0.324741 0.142938 0.180323
0.355225 0.145976 0.183132
0.388748 0.149462 0.186425
0.422271 0.152947 0.189719
0.455793 0.156432 0.193012
0.489316 0.159918 0.196305
0.522175 0.163836 0.200413
0.554370 0.168188 0.205337
0.586564 0.172539 0.210260
0.618759 0.176890 0.215183
0.650954 0.181242 0.220106
0.679788 0.185724 0.225613
0.701900 0.190469 0.232286
0.724012 0.195214 0.238959
0.746124 0.199959 0.245633
0.768237 0.204703 0.252306
0.788329 0.209443 0.259305
0.798323 0.214155 0.267928
0.808318 0.218868 0.276552
0.818312 0.223581 0.285175
0.828306 0.228294 0.293799
0.838300 0.233006 0.302422
0.154933 0.127866 0.164449
0.165270 0.129272 0.166530
0.175608 0.130678 0.168612
0.185945 0.132084 0.170693
0.196282 0.133489 0.172774
0.206619 0.134895 0.174855
0.228825 0.137061 0.176874
0.253404 0.139378 0.178880
0.277983 0.141696 0.180887
0.302562 0.144013 0.182893
0.327141 0.146331 0.184900
0.357750 0.149549 0.187917
0.391373 0.153217 0.191439
0.424997 0.156885 0.194960
0.458620 0.160554 0.198482
0.492243 0.164222 0.202004
0.525166 0.168351 0.206382
0.557388 0.172940 0.211617
0.589611 0.177529 0.216851
0.621833 0.182118 0.222085
0.654055 0.186708 0.227319
0.682898 0.191446 0.233176
0.704983 0.196484 0.240280
0.727068 0.201521 0.247383
0.749152 0.206559 0.254487
0.771237 0.211596 0.261590
0.791301 0.216638 0.269035
0.801258 0.221698 0.278189
0.811216 0.226758 0.287343
0.821174 0.231819 0.296497
0.831131 0.236879 0.305652
0.841089 0.241939 0.314806
0.155784 0.128812 0.165867
0.166258 0.130528 0.168406
0.176733 0.132245 0.170944
0.187207 0.133962 0.173483
0.197682 0.135679 0.176021
0.208156 0.137396 0.178560
0.230529 0.139758 0.180792
0.255282 0.142249 0.182963
0.280035 0.144740 0.185135
0.304788 0.147232 0.187306
0.329541 0.149723 0.189477
0.360275 0.153121 0.192701
0.393999 0.156972 0.196452
0.427723 0.160824 0.200202
0.461447 0.164675 0.203953
0.495171 0.168526 0.207704
0.528158 0.172865 0.212352
0.560407 0.177692 0.217897
0.592657 0.182519 0.223442
0.624907 0.187347 0.228987
0.657156 0.192174 0.234532
0.686009 0.197168 0.240740
0.708066 0.202499 0.248274
0.730123 0.207829 0.255807
0.752180 0.213159 0.263340
0.774238 0.218489 0.270874
0.794272 0.223833 0.278766
0.804193 0.229241 0.288450
0.814114 0.234648 0.298135
0.824035 0.240056 0.307820
0.833956 0.245464 0.317504
0.843877 0.250872 0.327189
0.156635 0.129757 0.167285
0.167246 0.131785 0.170281
0.177858 0.133813 0.173277
0.188470 0.135840 0.176273
0.199081 0.137868 0.179269
0.209693 0.139896 0.182265
0.232234 0.142455 0.184711
0.257161 0.145120 0.187046
0.282087 0.147785 0.189382
0.307014 0.150450 0.191718
0.331941 0.153115 0.194054
0.362799 0.156693 0.197485
0.396624 0.160727 0.201465
0.430449 0.164762 0.205444
0.464273 0.168796 0.209423
0.498098 0.172830 0.213403
0.531149 0.177380 0.218321
0.563426 0.182445 0.224177
0.595703 0.187510 0.230033
0.627980 0.192575 0.235889
0.660257 0.197640 0.241746
0.689119 0.202891 0.248304
0.711149 0.208513 0.256267
0.733179 0.214136 0.264231
0.755208 0.219759 0.272194
0.777238 0.225382 0.280157
0.797244 0.231027 0.288496
0.807128 0.236783 0.298711
0.817013 0.242539 0.308927
0.826897 0.248294 0.319142
0.836781 0.254050 0.329357
0.846666 0.259805 0.339572
0.156934 0.130348 0.169097
0.167652 0.132557 0.172466
0.178371 0.134766 0.175836
0.189089 0.136975 0.179205
0.199808 0.139185 0.182575
0.210526 0.141394 0.185944
0.233426 0.144744 0.189276
0.258763 0.148323 0.192600
0.284100 0.151901 0.195923
0.309437 0.155479 0.199247
0.334774 0.159058 0.202571
0.365826 0.163159 0.206540
0.399736 0.167521 0.210832
0.433646 0.171883 0.215124
0.467556 0.176245 0.219416
0.501466 0.180607 0.223708
0.534581 0.185512 0.228991
0.566901 0.190959 0.235265
0.599221 0.196407 0.241539
0.631541 0.201854 0.247813
0.663861 0.207302 0.254087
0.692759 0.212959 0.261092
0.714815 0.219035 0.269562
0.736871 0.225111 0.278032
0.758926 0.231186 0.286501
0.780982 0.237262 0.294971
0.801011 0.243369 0.303822
0.810904 0.249633 0.314583
0.820798 0.255896 0.325344
0.830691 0.262159 0.336105
0.840585 0.268423 0.346866
0.850479 0.274686 0.357627
0.157123 0.130868 0.170987
0.167942 0.133232 0.174714
0.178761 0.135597 0.178440
0.189580 0.137962 0.182166
0.200399 0.140327 0.185893
0.211218 0.142691 0.189619
0.234517 0.146952 0.193970
0.260311 0.151591 0.198447
0.286105 0.156231 0.202923
0.311899 0.160871 0.207399
0.337694 0.165510 0.211876
0.368953 0.170202 0.216449
0.402946 0.174921 0.221070
0.436938 0.179640 0.225691
0.470930 0.184359 0.230313
0.504923 0.189078 0.234934
0.538102 0.194367 0.240601
0.570467 0.200226 0.247314
0.602833 0.206085 0.254027
0.635198 0.211945 0.260740
0.667564 0.217804 0.267453
0.696505 0.223897 0.274926
0.718597 0.230458 0.283917
0.740690 0.237018 0.292908
0.762782 0.243579 0.301899
0.784875 0.250140 0.310890
0.804937 0.256741 0.320267
0.814849 0.263544 0.331577
0.824761 0.270347 0.342887
0.834672 0.277150 0.354197
0.844584 0.283953 0.365507
0.854496 0.290756 0.376817
0.157312 0.131388 0.172878
0.168232 0.133908 0.176961
0.179151 0.136428 0.181044
0.190071 0.138948 0.185127
0.200991 0.141469 0.189210
0.211910 0.143989 0.193293
0.235607 0.149160 0.198665
0.261858 0.154860 0.204294
0.288110 0.160561 0.209923
0.314362 0.166262 0.215552
0.340613 0.171962 0.221181
0.372080 0.177246 0.226358
0.406155 0.182322 0.231308
0.440230 0.187398 0.236259
0.474304 0.192473 0.241209
0.508379 0.197549 0.246160
0.541622 0.203222 0.252211
0.574033 0.209493 0.259364
0.606445 0.215764 0.266516
0.638856 0.222035 0.273668
0.671267 0.228306 0.280820
0.700251 0.234835 0.288759
0.722380 0.241880 0.298271
0.744509 0.248926 0.307784
0.766638 0.255971 0.317296
0.788767 0.263017 0.326809
0.808863 0.270112 0.336712
0.818793 0.277455 0.348571
0.828723 0.284797 0.360430
0.838653 0.292140 0.372288
0.848583 0.299483 0.384147
0.858514 0.306826 0.396006
0.157501 0.131908 0.174769
0.168522 0.134583 0.179208
0.179542 0.137259 0.183648
0.190562 0.139935 0.188088
0.201582 0.142611 0.192528
0.212603 0.145286 0.196968
0.236697 0.151367 0.203359
0.263406 0.158129 0.210141
0.290115 0.164891 0.216922
0.316824 0.171653 0.223704
0.343533 0.178415 0.230486
0.375207 0.184290 0.236266
0.409364 0.189723 0.241546
0.443522 0.195155 0.246826
0.477679 0.200588 0.252106
0.511836 0.206020 0.257386
0.545143 0.212077 0.263822
0.577600 0.218760 0.271413
0.610057 0.225443 0.279004
0.642514 0.232125 0.286596
0.674971 0.238808 0.294187
0.703997 0.245773 0.302592
0.726163 0.253303 0.312626
0.748328 0.260834 0.322660
0.770494 0.268364 0.332694
0.792660 0.275894 0.342728
0.812789 0.283483 0.353157
0.822737 0.291366 0.365565
0.832686 0.299248 0.377972
0.842634 0.307131 0.390380
0.852583 0.315013 0.402788
0.862531 0.322896 0.415196
0.157690 0.132427 0.176659
0.168811 0.135259 0.181456
0.179932 0.138090 0.186252
0.191053 0.140921 0.191049
0.202174 0.143753 0.195846
0.213295 0.146584 0.200642
0.237787 0.153575 0.208054
0.264953 0.161398 0.215988
0.292120 0.169221 0.223922
0.319286 0.177044 0.231857
0.346453 0.184867 0.239791
0.378335 0.191334 0.246175
0.412574 0.197123 0.251784
0.446813 0.202913 0.257394
0.481053 0.208702 0.263003
0.515292 0.214491 0.268612
0.548663 0.220933 0.275432
0.581166 0.228027 0.283462
0.613669 0.235121 0.291493
0.646171 0.242215 0.299523
0.678674 0.249310 0.307554
0.707743 0.256711 0.316426
0.729946 0.264726 0.326981
0.752148 0.272741 0.337536
0.774350 0.280756 0.348091
0.796552 0.288771 0.358647
0.816715 0.296854 0.369602
0.826682 0.305277 0.382559
0.836648 0.313699 0.395515
0.846615 0.322121 0.408472
0.856582 0.330543 0.421428
0.866549 0.338966 0.434385
0.158068 0.133042 0.179779
0.169241 0.136059 0.184950
0.180414 0.139076 0.190122
0.191587 0.142094 0.195294
0.202759 0.145111 0.200465
0.213932 0.148128 0.205637
0.238677 0.155704 0.213782
0.266136 0.164192 0.222521
0.293595 0.172680 0.231260
0.321054 0.181168 0.240000
0.348514 0.189656 0.248739
0.380759 0.197208 0.256103
0.415398 0.204293 0.262780
0.450037 0.211379 0.269456
0.484676 0.218464 0.276133
0.519315 0.225549 0.282809
0.552887 0.232841 0.290330
0.585393 0.240341 0.298696
0.617899 0.247841 0.307062
0.650404 0.255341 0.315428
0.682910 0.262841 0.323794
0.711983 0.270670 0.333027
0.734192 0.279157 0.343994
0.756400 0.287645 0.354960
0.778608 0.296133 0.365927
0.800816 0.304621 0.376894
0.820985 0.313179 0.388260
0.830958 0.322086 0.401619
0.840931 0.330993 0.414978
0.850904 0.339900 0.428337
0.860877 0.348807 0.441696
0.870850 0.357714 0.455055
0.158541 0.133704 0.183513
0.169741 0.136922 0.189068
0.180941 0.140141 0.194624
0.192142 0.143359 0.200180
0.203342 0.146578 0.205736
0.214542 0.149796 0.211292
0.239467 0.157795 0.220027
0.267136 0.166749 0.229397
0.294806 0.175703 0.238768
0.322475 0.184658 0.248138
0.350145 0.193612 0.257509
0.382833 0.202497 0.266041
0.418030 0.211348 0.274154
0.453227 0.220199 0.282267
0.488423 0.229049 0.290379
0.523620 0.237900 0.298492
0.557462 0.246277 0.306873
0.589950 0.254179 0.315522
0.622437 0.262081 0.324172
0.654925 0.269984 0.332821
0.687413 0.277886 0.341471
0.716471 0.286139 0.351012
0.738670 0.295093 0.362335
0.760869 0.304048 0.373659
0.783068 0.313002 0.384983
0.805267 0.321956 0.396306
0.825428 0.330979 0.408024
0.835401 0.340343 0.421712
0.845374 0.349708 0.435401
0.855347 0.359072 0.449089
0.865320 0.368437 0.462778
0.875292 0.377801 0.476466
0.159014 0.134365 0.187246
0.170241 0.137785 0.193187
0.181469 0.141205 0.199127
0.192697 0.144625 0.205067
0.203924 0.148045 0.211007
0.215152 0.151464 0.216947
0.240256 0.159885 0.226272
0.268136 0.169306 0.236274
0.296016 0.178727 0.246275
0.323896 0.188148 0.256277
0.351776 0.197569 0.266279
0.384906 0.207786 0.275979
0.420661 0.218403 0.285528
0.456416 0.229019 0.295077
0.492171 0.239635 0.304626
0.527926 0.250251 0.314175
0.562038 0.259712 0.323416
0.594507 0.268017 0.332349
0.626976 0.276322 0.341282
0.659446 0.284626 0.350215
0.691915 0.292931 0.359148
0.720958 0.301608 0.368996
0.743148 0.311029 0.380677
0.765338 0.320450 0.392357
0.787527 0.329871 0.404038
0.809717 0.339292 0.415718
0.829871 0.348779 0.427788
0.839844 0.358601 0.441806
0.849817 0.368423 0.455824
0.859790 0.378245 0.469842
0.869762 0.388067 0.483859
0.879735 0.397889 0.497877
0.159486 0.135027 0.190980
0.170741 0.138648 0.197305
0.181997 0.142269 0.203629
0.193252 0.145890 0.209953
0.204507 0.149511 0.216278
0.215762 0.153132 0.222602
0.241046 0.161975 0.232517
0.269137 0.171863 0.243150
0.297227 0.181750 0.253783
0.325317 0.191638 0.264416
0.353408 0.201525 0.275049
0.386980 0.213076 0.285917
0.423293 0.225457 0.296902
0.459606 0.237839 0.307887
0.495919 0.250221 0.318872
0.532232 0.262603 0.329857
0.566613 0.273147 0.339958
0.599064 0.281855 0.349175
0.631515 0.290562 0.358391
0.663966 0.299269 0.367608
0.696417 0.307977 0.376825
0.725445 0.317077 0.386981
0.747626 0.326965 0.399019
0.769806 0.336852 0.411056
0.791987 0.346740 0.423093
0.814168 0.356627 0.435130
0.834314 0.366580 0.447552
0.844287 0.376859 0.461900
0.854260 0.387138 0.476247
0.864233 0.397418 0.490594
0.874205 0.407697 0.504941
0.884178 0.417976 0.519288
0.159959 0.135689 0.194714
0.171242 0.139511 0.201423
0.182524 0.143333 0.208131
0.193807 0.147156 0.214840
0.205089 0.150978 0.221548
0.216372 0.154800 0.228257
0.241836 0.164066 0.238762
0.270137 0.174420 0.250026
0.298438 0.184774 0.261290
0.326738 0.195128 0.272554
0.355039 0.205482 0.283819
0.389053 0.218365 0.295854
0.425924 0.232512 0.308276
0.462795 0.246659 0.320697
0.499666 0.260807 0.333119
0.536537 0.274954 0.345540
0.571189 0.286583 0.356501
0.603622 0.295692 0.366001
0.636054 0.304802 0.375501
0.668487 0.313912 0.385001
0.700919 0.323022 0.394502
0.729932 0.332547 0.404966
0.752103 0.342901 0.417360
0.774275 0.353255 0.429754
0.796447 0.363609 0.442148
0.818618 0.373963 0.454542
0.838757 0.384380 0.467317
0.848730 0.395117 0.481993
0.858703 0.405854 0.496669
0.868675 0.416590 0.511346
0.878648 0.427327 0.526022
0.888621 0.438064 0.540699
0.160739 0.136681 0.200126
0.172031 0.140737 0.207219
0.183322 0.144792 0.214312
0.194614 0.148848 0.221404
0.205906 0.152904 0.228497
0.217197 0.156959 0.235590
0.242812 0.166671 0.246639
0.271291 0.177515 0.258479
0.299770 0.188358 0.270320
0.328249 0.199202 0.282161
0.356729 0.210045 0.294001
0.391092 0.223902 0.306894
0.428397 0.239266 0.320312
0.465703 0.254630 0.333731
0.503008 0.269994 0.347149
0.540314 0.285358 0.360568
0.575256 0.298146 0.372334
0.607835 0.308359 0.382447
0.640414 0.318571 0.392560
0.672993 0.328783 0.402673
0.705572 0.338995 0.412786
0.734661 0.349364 0.423714
0.756768 0.360048 0.436273
0.778876 0.370731 0.448832
0.800983 0.381414 0.461390
0.823091 0.392098 0.473949
0.843170 0.402845 0.486883
0.853106 0.413911 0.501697
0.863043 0.424977 0.516511
0.872979 0.436043 0.531324
0.882915 0.447109 0.546138
0.892851 0.458175 0.560952
0.161826 0.138005 0.207216
0.173108 0.142326 0.214693
0.184391 0.146646 0.222170
0.195674 0.150967 0.229647
0.206956 0.155288 0.237124
0.218239 0.159609 0.244600
0.243974 0.169792 0.256148
0.272599 0.181148 0.268510
0.301225 0.192504 0.280872
0.329850 0.203859 0.293234
0.358476 0.215215 0.305596
0.393095 0.229688 0.319035
0.430712 0.245720 0.333011
0.468328 0.261752 0.346988
0.505945 0.277784 0.360964
0.543561 0.293816 0.374941
0.578815 0.307839 0.387457
0.611705 0.319853 0.398512
0.644595 0.331867 0.409568
0.677485 0.343882 0.420623
0.710375 0.355896 0.431678
0.739631 0.367531 0.443225
0.761620 0.378406 0.455757
0.783608 0.389282 0.468288
0.805597 0.400157 0.480819
0.827586 0.411032 0.493350
0.847553 0.421973 0.506253
0.857417 0.433240 0.521012
0.867280 0.444508 0.535770
0.877143 0.455775 0.550529
0.887006 0.467042 0.565288
0.896869 0.478310 0.580046
0.162913 0.139328 0.214305
0.174186 0.143914 0.222167
0.185460 0.148500 0.230028
0.196733 0.153087 0.237889
0.208007 0.157673 0.245750
0.219280 0.162259 0.253611
0.245135 0.172913 0.265658
0.273907 0.184781 0.278541
0.302679 0.196649 0.291424
0.331451 0.208517 0.304308
0.360223 0.220385 0.317191
0.395099 0.235474 0.331175
0.433026 0.252174 0.345710
0.470954 0.268874 0.360245
0.508881 0.285573 0.374779
0.546809 0.302273 0.389314
0.582373 0.317531 0.402580
0.615574 0.331347 0.414578
0.648775 0.345164 0.426575
0.681976 0.358980 0.438573
0.715177 0.372797 0.450570
0.744601 0.385697 0.462737
0.766471 0.396765 0.475240
0.788341 0.407832 0.487744
0.810211 0.418900 0.500248
0.832080 0.429967 0.512752
0.851937 0.441102 0.525622
0.861727 0.452570 0.540326
0.871517 0.464039 0.555030
0.881306 0.475507 0.569734
0.891096 0.486976 0.584438
0.900886 0.498444 0.599141
0.164000 0.140651 0.221395
0.175264 0.145503 0.229640
0.186529 0.150354 0.237886
0.197793 0.155206 0.246131
0.209057 0.160057 0.254377
0.220321 0.164909 0.262622
0.246297 0.176034 0.275167
0.275215 0.188415 0.288572
0.304134 0.200795 0.301977
0.333052 0.213175 0.315381
0.361970 0.225555 0.328786
0.397102 0.241260 0.343316
0.435341 0.258628 0.358409
0.473579 0.275995 0.373502
0.511818 0.293363 0.388594
0.550056 0.310730 0.403687
0.585932 0.327223 0.417703
0.619444 0.342842 0.430643
0.652956 0.358461 0.443583
0.686468 0.374079 0.456523
0.719980 0.389698 0.469462
0.749572 0.403863 0.482248
0.771323 0.415123 0.494724
0.793073 0.426383 0.507200
0.814824 0.437642 0.519677
0.836575 0.448902 0.532153
0.856320 0.460230 0.544991
0.866037 0.471900 0.559640
0.875754 0.483570 0.574289
0.885470 0.495239 0.588938
0.895187 0.506909 0.603587
0.904904 0.518579 0.618236
0.165087 0.141975 0.228485
0.176342 0.147092 0.237114
0.187597 0.152208 0.245744
0.198852 0.157325 0.254374
0.210108 0.162442 0.263003
0.221363 0.167559 0.271633
0.247459 0.179155 0.284676
0.276524 0.192048 0.298603
0.305588 0.204940 0.312529
0.334653 0.217833 0.326455
0.363718 0.230726 0.340381
0.399106 0.247047 0.355457
0.437655 0.265082 0.371108
0.476205 0.283117 0.386759
0.514754 0.301152 0.402409
0.553304 0.319188 0.418060
0.589490 0.336916 0.432826
0.623313 0.354336 0.446708
0.657137 0.371757 0.460590
0.690960 0.389178 0.474472
0.724783 0.406599 0.488354
0.754542 0.422030 0.501759
0.776174 0.433482 0.514208
0.797806 0.444933 0.526657
0.819438 0.456385 0.539105
0.841070 0.467837 0.551554
0.860704 0.479358 0.564361
0.870347 0.491230 0.578955
0.879991 0.503101 0.593549
0.889634 0.514972 0.608143
0.899278 0.526843 0.622737
0.908921 0.538714 0.637331
0.166269 0.143645 0.237339
0.177521 0.149048 0.246335
0.188773 0.154452 0.255330
0.200025 0.159855 0.264326
0.211277 0.165259 0.273321
0.222529 0.170662 0.282317
0.248737 0.182741 0.295797
0.277935 0.196155 0.310175
0.307134 0.209569 0.324552
0.336333 0.222983 0.338930
0.365532 0.236397 0.353307
0.401160 0.253327 0.368843
0.440002 0.272014 0.384957
0.478844 0.290702 0.401071
0.517687 0.309390 0.417185
0.556529 0.328078 0.433299
0.593010 0.346826 0.448634
0.627129 0.365634 0.463190
0.661248 0.384442 0.477746
0.695366 0.403251 0.492302
0.729485 0.422059 0.506858
0.759395 0.438555 0.520675
0.780887 0.450428 0.533014
0.802378 0.462300 0.545354
0.823870 0.474173 0.557693
0.845362 0.486045 0.570032
0.864859 0.497927 0.582709
0.874383 0.509853 0.597077
0.883908 0.521779 0.611446
0.893433 0.533705 0.625814
0.902957 0.545631 0.640183
0.912482 0.557556 0.654551
0.167640 0.146008 0.249722
0.178901 0.151741 0.259047
0.190162 0.157474 0.268372
0.201423 0.163206 0.277697
0.212684 0.168939 0.287022
0.223945 0.174672 0.296347
0.250246 0.187255 0.310141
0.279555 0.201209 0.324830
0.308863 0.215163 0.339518
0.338172 0.229116 0.354207
0.367480 0.243070 0.368896
0.403316 0.260595 0.384718
0.442414 0.279905 0.401106
0.481513 0.299214 0.417495
0.520611 0.318524 0.433883
0.559710 0.337834 0.450272
0.596451 0.357172 0.465813
0.630835 0.376538 0.480506
0.665219 0.395905 0.495199
0.699603 0.415271 0.509892
0.733988 0.434637 0.524586
0.764013 0.451798 0.538403
0.785322 0.464549 0.550467
0.806631 0.477300 0.562532
0.827939 0.490051 0.574597
0.849248 0.502801 0.586661
0.868558 0.515375 0.599015
0.877872 0.527063 0.612817
0.887186 0.538751 0.626618
0.896500 0.550439 0.640419
0.905814 0.562127 0.654220
0.915129 0.573815 0.668022
0.169010 0.148371 0.262106
0.180281 0.154433 0.271760
0.191551 0.160495 0.281414
0.202821 0.166558 0.291068
0.214091 0.172620 0.300722
0.225362 0.178682 0.310376
0.251755 0.191770 0.324485
0.281174 0.206263 0.339485
0.310592 0.220757 0.354484
0.340011 0.235250 0.369484
0.369429 0.249744 0.384484
0.405472 0.267863 0.400592
0.444826 0.287795 0.417255
0.484181 0.307727 0.433918
0.523535 0.327659 0.450581
0.562890 0.347590 0.467245
0.599892 0.367519 0.482991
0.634542 0.387443 0.497822
0.669191 0.407367 0.512652
0.703840 0.427291 0.527482
0.738490 0.447216 0.542313
0.768632 0.465042 0.556130
0.789757 0.478671 0.567920
0.810883 0.492300 0.579710
0.832009 0.505929 0.591501
0.853135 0.519557 0.603291
0.872257 0.532823 0.615322
0.881360 0.544274 0.628556
0.890464 0.555724 0.641790
0.899568 0.567174 0.655024
0.908672 0.578624 0.668258
0.917775 0.590074 0.681492
0.170381 0.150735 0.274489
0.181660 0.157126 0.284472
0.192940 0.163517 0.294456
0.204219 0.169909 0.304439
0.215499 0.176300 0.314423
0.226778 0.182692 0.324406
0.253265 0.196284 0.338829
0.282793 0.211318 0.354140
0.312321 0.226351 0.369451
0.341849 0.241384 0.384761
0.371377 0.256417 0.400072
0.407627 0.275131 0.416467
0.447238 0.295685 0.433405
0.486849 0.316239 0.450342
0.526460 0.336793 0.467280
0.566070 0.357347 0.484217
0.603333 0.377865 0.500170
0.638248 0.398347 0.515137
0.673163 0.418830 0.530105
0.708078 0.439312 0.545072
0.742992 0.459794 0.560040
0.773250 0.478285 0.573857
0.794193 0.492792 0.585373
0.815135 0.507299 0.596889
0.836078 0.521806 0.608404
0.857021 0.536314 0.619920
0.875955 0.550272 0.631628
0.884849 0.561484 0.644295
0.893742 0.572696 0.656962
0.902636 0.583909 0.669629
0.911529 0.595121 0.682295
0.920422 0.606333 0.694962
0.171752 0.153098 0.286872
0.183040 0.159819 0.297185
0.194329 0.166539 0.307498
0.205617 0.173260 0.317811
0.216906 0.179981 0.328124
0.228195 0.186701 0.338436
0.254774 0.200799 0.353173
0.284412 0.216372 0.368795
0.314050 0.231945 0.384417
0.343688 0.247518 0.400038
0.373326 0.263091 0.415660
0.409783 0.282399 0.432342
0.449650 0.303575 0.449554
0.489517 0.324751 0.466766
0.529384 0.345927 0.483978
0.569251 0.367103 0.501190
0.606774 0.388211 0.517348
0.641954 0.409252 0.532453
0.677134 0.430292 0.547558
0.712315 0.451332 0.562663
0.747495 0.472373 0.577767
0.777868 0.491528 0.591584
0.798628 0.506913 0.602826
0.819388 0.522299 0.614067
0.840147 0.537684 0.625308
0.860907 0.553070 0.636550
0.879654 0.567720 0.647934
0.888337 0.578694 0.660034
0.897020 0.589669 0.672134
0.905703 0.600643 0.684233
0.914386 0.611618 0.696333
0.923069 0.622592 0.708433
0.173122 0.155619 0.300469
0.184435 0.162676 0.311085
0.195748 0.169734 0.321701
0.207061 0.176792 0.332317
0.218374 0.183849 0.342934
0.229687 0.190907 0.353550
0.256359 0.205512 0.368548
0.286102 0.221626 0.384423
0.315845 0.237740 0.400298
0.345588 0.253854 0.416173
0.375331 0.269968 0.432047
0.411984 0.289867 0.448950
0.452092 0.311657 0.466366
0.492200 0.333448 0.483782
0.532307 0.355238 0.501199
0.572415 0.377029 0.518615
0.610185 0.398708 0.534906
0.645617 0.420276 0.550072
0.681048 0.441844 0.565237
0.716480 0.463412 0.580403
0.751912 0.484979 0.595569
0.782400 0.504733 0.609321
0.803003 0.520858 0.620243
0.823606 0.536983 0.631166
0.844209 0.553107 0.642089
0.864811 0.569232 0.653011
0.883383 0.584445 0.664006
0.891796 0.595094 0.675362
0.900209 0.605744 0.686718
0.908622 0.616394 0.698073
0.917035 0.627044 0.709429
0.925448 0.637693 0.720785
0.174493 0.158927 0.320131
0.185907 0.166360 0.330921
0.197320 0.173793 0.341711
0.208734 0.181225 0.352501
0.220147 0.188658 0.363291
0.231561 0.196091 0.374081
0.258318 0.211215 0.389078
0.288143 0.227878 0.404916
0.317969 0.244542 0.420754
0.347794 0.261205 0.436592
0.377620 0.277868 0.452431
0.414410 0.298333 0.469223
0.454682 0.320700 0.486493
0.494955 0.343067 0.503763
0.535227 0.365434 0.521033
0.575500 0.387800 0.538303
0.613443 0.409955 0.554360
0.649058 0.431898 0.569206
0.684672 0.453841 0.584052
0.720287 0.475784 0.598897
0.755902 0.497727 0.613743
0.786503 0.517746 0.627101
