Assets/1__3DArt/KimSe/artstation_asset/LUTs_subway_asset/CUBE/LoFi Chill 02_S.cube
# LUT by SparkleStock. Enhanced with VOXCOLOR algorithms.
LUT_3D_SIZE 8
DOMAIN_MIN 0.000000 0.000000 0.000000
DOMAIN_MAX 0.903226 0.903226 0.903226
0.050794 0.046886 0.089866
0.094466 0.051424 0.095726
0.182197 0.061050 0.101587
0.306424 0.076947 0.110520
0.455804 0.099586 0.124936
0.601379 0.128512 0.147623
0.707251 0.159486 0.176612
0.774461 0.191177 0.209012
0.054008 0.053882 0.099886
0.105438 0.077300 0.106186
0.198749 0.098032 0.107820
0.325220 0.119454 0.112679
0.473264 0.143924 0.126766
0.616351 0.172118 0.155015
0.721199 0.202726 0.196152
0.787994 0.235710 0.245823
0.055347 0.059404 0.110575
0.107899 0.089988 0.122395
0.209114 0.133978 0.132374
0.341986 0.176123 0.142766
0.490275 0.207852 0.157599
0.632636 0.238839 0.192032
0.738309 0.271224 0.245076
0.806892 0.306973 0.311155
0.056229 0.065186 0.124298
0.106622 0.097076 0.144399
0.212046 0.158915 0.168699
0.352785 0.226602 0.193247
0.509244 0.282593 0.217731
0.651726 0.320264 0.256286
0.758751 0.356528 0.317905
0.829891 0.395932 0.395728
0.057718 0.072606 0.143440
0.105257 0.104533 0.172781
0.208345 0.169571 0.212424
0.355637 0.258454 0.257245
0.528820 0.355245 0.302733
0.674212 0.407333 0.343722
0.782392 0.450010 0.408308
0.855506 0.493265 0.490027
0.060365 0.083004 0.173500
0.105562 0.116248 0.212208
0.206101 0.183952 0.266507
0.353136 0.277701 0.328709
0.531662 0.386348 0.391743
0.698278 0.483079 0.446051
0.808531 0.537952 0.506026
0.880919 0.583665 0.578915
0.062539 0.094348 0.218370
0.106370 0.131714 0.266812
0.205508 0.205407 0.333367
0.352593 0.305781 0.408244
0.534128 0.421496 0.482526
0.710135 0.529693 0.544178
0.829029 0.601805 0.594785
0.902943 0.653609 0.650432
0.063082 0.102091 0.278900
0.106456 0.146044 0.337862
0.205362 0.228911 0.414211
0.353256 0.338872 0.496508
0.537365 0.462670 0.574566
0.718970 0.574825 0.634833
0.844738 0.653477 0.674659
0.918894 0.704108 0.709241
0.052117 0.054260 0.118981
0.091838 0.061578 0.131867
0.181319 0.070460 0.140710
0.308668 0.084954 0.150229
0.459713 0.107759 0.164059
0.606312 0.140051 0.185136
0.713575 0.178051 0.213490
0.782566 0.218292 0.247830
0.054599 0.059059 0.126220
0.113749 0.099537 0.155636
0.210288 0.124653 0.169040
0.336501 0.144898 0.177856
0.482188 0.167819 0.190677
0.624259 0.195186 0.211876
0.730630 0.226550 0.242974
0.799834 0.261644 0.282668
0.057280 0.065185 0.138794
0.119351 0.118920 0.173848
0.223530 0.172477 0.194095
0.354869 0.215452 0.206779
0.499397 0.243566 0.219114
0.639987 0.270658 0.243387
0.747462 0.299522 0.282056
0.819350 0.332587 0.333293
0.059565 0.071992 0.155590
0.117116 0.127532 0.192278
0.224895 0.202731 0.221824
0.363810 0.274199 0.244789
0.515715 0.326201 0.263789
0.656106 0.357843 0.290692
0.765296 0.387798 0.336152
0.840793 0.421083 0.397599
0.061255 0.079303 0.176415
0.113473 0.131805 0.215516
0.218746 0.211474 0.256588
0.364219 0.307108 0.296210
0.531806 0.402283 0.331684
0.674299 0.447394 0.360283
0.784923 0.482222 0.407750
0.863458 0.517202 0.472280
0.063463 0.088823 0.205598
0.110959 0.136297 0.247833
0.212908 0.216138 0.301180
0.359099 0.317668 0.357674
0.533798 0.428311 0.410353
0.694228 0.520783 0.450346
0.806378 0.568451 0.493448
0.884863 0.605992 0.549213
0.065442 0.099288 0.247150
0.109948 0.143689 0.292697
0.209675 0.225173 0.357137
0.356312 0.331698 0.427826
0.535686 0.450283 0.494047
0.707321 0.557506 0.543988
0.824478 0.626218 0.581006
0.902743 0.672768 0.621566
0.066790 0.107422 0.302289
0.109489 0.151044 0.350792
0.208361 0.237289 0.424479
0.356133 0.351157 0.505496
0.539424 0.477237 0.579340
0.718815 0.590099 0.632760
0.842014 0.668276 0.664493
0.917973 0.717056 0.689740
0.054512 0.061365 0.159746
0.088311 0.070220 0.174889
0.170375 0.085413 0.190831
0.296579 0.106168 0.206249
0.455795 0.132571 0.221282
0.608291 0.169578 0.241993
0.720435 0.214309 0.270180
0.793579 0.262759 0.306320
0.056262 0.065628 0.165656
0.112814 0.108918 0.204109
0.207234 0.141451 0.232730
0.334071 0.167897 0.252267
0.483805 0.192832 0.265410
0.628932 0.223451 0.283133
0.738777 0.260145 0.308858
0.811772 0.301871 0.343532
0.059257 0.071373 0.175764
0.121846 0.130843 0.222431
0.227984 0.193918 0.261253
0.360821 0.243076 0.286642
0.505376 0.270597 0.298557
0.646042 0.297586 0.316124
0.755827 0.327559 0.343856
0.831655 0.362489 0.382648
0.062357 0.078599 0.191660
0.122594 0.142228 0.239112
0.233974 0.228723 0.285304
0.373914 0.306977 0.318622
0.522852 0.357351 0.334877
0.661259 0.385599 0.352759
0.772147 0.412458 0.383618
0.852057 0.442800 0.428043
0.064896 0.087187 0.214065
0.120733 0.148246 0.260804
0.228439 0.239539 0.311946
0.373168 0.343082 0.355349
0.536444 0.438463 0.383933
0.676055 0.478638 0.402404
0.788332 0.508096 0.434632
0.871890 0.537366 0.482080
0.067494 0.096762 0.242265
0.119360 0.152307 0.289679
0.221892 0.241111 0.346587
0.366035 0.349433 0.401809
0.536981 0.462598 0.446748
0.692206 0.552614 0.474525
0.805487 0.594645 0.502874
0.889467 0.625537 0.542771
0.070107 0.106591 0.279618
0.119887 0.158395 0.328432
0.218502 0.244287 0.390879
0.361639 0.353965 0.456689
0.537727 0.475304 0.516473
0.705193 0.582716 0.556110
0.820925 0.649288 0.580861
0.903436 0.691467 0.608036
0.072810 0.114432 0.327824
0.121709 0.164754 0.377859
0.218008 0.250224 0.444845
0.360936 0.362654 0.518634
0.541297 0.490618 0.588863
0.717989 0.604931 0.635909
0.839199 0.683864 0.659883
0.917434 0.731766 0.676642
0.057663 0.067494 0.210115
0.085765 0.077679 0.225794
0.156898 0.101311 0.248744
0.277292 0.133820 0.271989
0.441891 0.171922 0.291828
0.606805 0.216454 0.314271
0.727900 0.268427 0.343204
0.807669 0.324359 0.380911
0.058742 0.071842 0.214500
0.108588 0.111910 0.254878
0.195473 0.151629 0.294416
0.320482 0.190145 0.325930
0.477048 0.227197 0.346298
0.630379 0.264388 0.363882
0.746491 0.308432 0.387516
0.824928 0.357899 0.419923
0.061429 0.077776 0.221502
0.119539 0.133800 0.272124
0.222536 0.202482 0.325373
0.356136 0.261896 0.366088
0.505918 0.299960 0.386875
0.650223 0.330508 0.401612
0.763708 0.364848 0.422622
0.843978 0.404402 0.452782
0.065051 0.085407 0.234094
0.124468 0.148206 0.287134
0.236363 0.239930 0.348026
0.377884 0.326039 0.396278
0.528784 0.383425 0.420662
0.666786 0.411495 0.433513
0.779183 0.438623 0.453824
0.862797 0.469286 0.484442
0.069012 0.094722 0.254109
0.127616 0.158785 0.306920
0.237646 0.256550 0.368515
0.382989 0.366031 0.421492
0.544514 0.463813 0.454396
0.680779 0.500881 0.466682
0.792988 0.527095 0.486973
0.879874 0.552967 0.519058
0.072646 0.105590 0.281895
0.129414 0.166111 0.334285
0.234377 0.260914 0.395854
0.377455 0.373758 0.453918
0.543791 0.488354 0.498255
0.693886 0.576744 0.517882
0.806652 0.614542 0.534872
0.894240 0.640379 0.561300
0.076591 0.115786 0.315449
0.133115 0.174400 0.368835
0.234340 0.264587 0.430956
0.374698 0.375496 0.493736
0.543224 0.495422 0.549119
0.705790 0.602808 0.581514
0.819407 0.667832 0.596842
0.904852 0.706421 0.613342
0.081173 0.123408 0.356614
0.138565 0.182445 0.411485
0.237765 0.269903 0.474027
0.376388 0.379298 0.540139
0.546431 0.501929 0.603787
0.718768 0.616910 0.646163
0.837480 0.696740 0.664087
0.917314 0.744148 0.674226
0.061373 0.072197 0.267234
0.085414 0.084119 0.283847
0.146498 0.114894 0.311281
0.256847 0.161993 0.342057
0.417968 0.220849 0.370912
0.601159 0.278116 0.397215
0.735653 0.338889 0.428072
0.824673 0.401466 0.466959
0.061867 0.076545 0.269057
0.105413 0.113251 0.309334
0.180663 0.157883 0.351500
0.299032 0.211753 0.392169
0.460398 0.272318 0.427602
0.628141 0.321208 0.448665
0.754161 0.373397 0.472566
0.839918 0.429351 0.503802
0.063981 0.083891 0.274497
0.115981 0.133873 0.324776
0.209437 0.202560 0.381258
0.339814 0.274084 0.433635
0.497478 0.335767 0.473458
0.651614 0.376258 0.490658
0.771258 0.417472 0.509612
0.856483 0.462642 0.535467
0.067951 0.092373 0.283031
0.124130 0.150720 0.337301
0.231213 0.240032 0.402770
0.372261 0.333021 0.463904
0.529399 0.407614 0.508233
0.671729 0.442369 0.522585
0.786312 0.473433 0.538148
0.872590 0.507105 0.560520
0.073549 0.101297 0.295840
0.133811 0.166642 0.352972
0.245055 0.264672 0.419743
0.391525 0.376018 0.483927
0.553941 0.478148 0.533692
0.688486 0.517150 0.546762
0.799115 0.542708 0.559897
0.886933 0.567270 0.579946
0.078885 0.114287 0.322839
0.139889 0.178740 0.378701
0.250168 0.276918 0.443552
0.394513 0.391445 0.507083
0.555780 0.505538 0.558813
0.700500 0.592465 0.577157
0.810488 0.627304 0.587508
0.898752 0.649703 0.603869
0.084821 0.126271 0.353868
0.147262 0.190437 0.409782
0.257143 0.286434 0.473549
0.398395 0.397885 0.536215
0.555896 0.511385 0.589462
0.711123 0.616221 0.619250
0.820855 0.679420 0.629258
0.906810 0.715053 0.638598
0.091819 0.134473 0.389257
0.156622 0.200671 0.446168
0.267603 0.296027 0.509355
0.406830 0.404055 0.570902
0.560376 0.513318 0.624533
0.723691 0.624719 0.664161
0.838019 0.704143 0.678661
0.917685 0.750860 0.684816
0.065910 0.075411 0.324518
0.087170 0.088944 0.342449
0.141845 0.125372 0.374207
0.240997 0.183997 0.412985
0.390170 0.261478 0.452231
0.588437 0.345823 0.481755
0.741666 0.420135 0.515710
0.843652 0.489263 0.554816
0.065819 0.079759 0.324293
0.104544 0.113769 0.363168
0.170944 0.161916 0.405974
0.276595 0.226348 0.451038
0.427105 0.305596 0.495191
0.618648 0.385983 0.526726
0.760609 0.450559 0.554084
0.856196 0.511594 0.584889
0.067451 0.087520 0.327683
0.114598 0.132988 0.375687
0.199621 0.200593 0.431201
0.318302 0.278927 0.485963
0.466752 0.358767 0.533257
0.646592 0.433328 0.565933
0.778044 0.485737 0.588062
0.869462 0.534799 0.612208
0.071043 0.097685 0.334412
0.123397 0.150819 0.386624
0.223613 0.235374 0.450866
0.355875 0.330071 0.513779
0.507309 0.418084 0.565270
0.672029 0.486693 0.598376
0.793531 0.527326 0.616352
0.882343 0.563641 0.635284
0.076806 0.109371 0.344770
0.135028 0.169872 0.400778
0.241801 0.263061 0.466916
0.383986 0.371746 0.533179
0.545894 0.477662 0.590343
0.694713 0.544242 0.623470
0.806847 0.576423 0.638115
0.893855 0.601999 0.653024
0.085508 0.121922 0.362401
0.149231 0.188443 0.419859
0.263571 0.287890 0.485754
0.411026 0.402465 0.550722
0.572691 0.515359 0.606394
0.713554 0.601081 0.640149
0.817964 0.634442 0.652179
0.902449 0.655240 0.663860
0.094567 0.136761 0.392356
0.161276 0.204997 0.448525
0.278799 0.304866 0.511888
0.427290 0.418784 0.573988
0.586875 0.531139 0.627556
0.725684 0.622514 0.662820
0.827148 0.681247 0.673718
0.909076 0.714268 0.680786
0.104797 0.147682 0.425636
0.174713 0.218786 0.481016
0.295737 0.319560 0.542052
0.445611 0.431986 0.601216
0.603297 0.540759 0.652281
0.739179 0.629502 0.687806
0.843242 0.703017 0.701886
0.918938 0.747806 0.707629
0.071078 0.077207 0.372823
0.090411 0.092472 0.391948
0.141171 0.133552 0.427303
0.233720 0.201172 0.472497
0.373980 0.293133 0.521038
0.565490 0.399554 0.562076
0.740930 0.493382 0.595430
0.860522 0.572277 0.630573
0.070645 0.081555 0.371768
0.106442 0.114219 0.409024
0.167057 0.165170 0.451784
0.264451 0.237462 0.499515
0.405533 0.330453 0.549816
0.592151 0.432993 0.591618
0.758203 0.519222 0.622117
0.870952 0.590201 0.651715
0.071867 0.089472 0.373896
0.116154 0.132534 0.419648
0.195493 0.199402 0.472696
0.305990 0.282411 0.527083
0.445217 0.374863 0.577832
0.621629 0.471278 0.619423
0.775617 0.547515 0.647258
0.881468 0.607171 0.671981
0.075081 0.100242 0.378973
0.125125 0.150800 0.429134
0.220562 0.232021 0.489962
0.346206 0.327362 0.550729
0.490563 0.423806 0.603534
0.653049 0.513319 0.644259
0.792681 0.578793 0.669764
0.891473 0.626033 0.690353
0.080672 0.113228 0.387245
0.137295 0.171214 0.441370
0.240369 0.260938 0.504548
0.378541 0.366746 0.568369
0.537472 0.473536 0.625376
0.685208 0.557650 0.664911
0.808987 0.613331 0.688456
0.900440 0.649205 0.705657
0.090058 0.128145 0.401851
0.153636 0.193303 0.457973
0.266628 0.290303 0.521684
0.412300 0.402100 0.584645
0.572651 0.512959 0.639809
0.714886 0.600747 0.678348
0.823985 0.651331 0.700031
0.907513 0.680157 0.714504
0.103317 0.147016 0.429046
0.172217 0.216427 0.483199
0.293452 0.317212 0.544192
0.445926 0.431298 0.604003
0.608290 0.542482 0.655936
0.744930 0.629583 0.691904
0.838851 0.685767 0.710227
0.912719 0.716680 0.721043
0.117947 0.162635 0.461877
0.191073 0.235855 0.512997
0.319099 0.339474 0.570140
0.477193 0.454227 0.625796
0.641066 0.563232 0.673719
0.772258 0.645550 0.706381
0.858760 0.703143 0.723047
0.921525 0.738551 0.731280
0.077089 0.078002 0.409193
0.094823 0.095103 0.428855
0.143113 0.140041 0.466747
0.232007 0.214915 0.516745
0.367270 0.318581 0.572547
0.552493 0.442750 0.623903
0.738101 0.555545 0.661782
0.870925 0.643766 0.693853
0.075966 0.082271 0.408028
0.110109 0.114674 0.443725
0.167364 0.168126 0.486210
0.260061 0.246501 0.535723
0.395472 0.349868 0.590450
0.575826 0.468872 0.640178
0.753356 0.574632 0.676132
0.879209 0.655857 0.704824
0.076564 0.090212 0.409978
0.119501 0.132540 0.454016
0.195769 0.199382 0.504449
0.301513 0.285947 0.557595
0.434690 0.387443 0.610080
0.605521 0.499087 0.657132
0.770785 0.595496 0.690620
0.887720 0.667045 0.715785
0.079307 0.101129 0.414443
0.128352 0.151116 0.463243
0.221336 0.230595 0.520400
0.343176 0.326559 0.577858
0.482703 0.428772 0.629765
0.640563 0.532189 0.673589
0.789919 0.617935 0.704498
0.896249 0.678506 0.726364
0.084641 0.114516 0.421455
0.140508 0.172046 0.474149
0.241551 0.260124 0.534106
0.377548 0.364150 0.594056
0.534656 0.471242 0.647910
0.679280 0.566753 0.688461
0.810201 0.641580 0.716906
0.904590 0.691220 0.735918
0.094015 0.130854 0.434226
0.157323 0.195618 0.488785
0.268873 0.291076 0.549580
0.412906 0.400891 0.609245
0.572456 0.510274 0.661694
0.716985 0.599783 0.699860
0.830602 0.665403 0.725563
0.912357 0.706398 0.741993
0.109548 0.152356 0.458838
0.179392 0.222390 0.510839
0.301850 0.323309 0.568973
0.455710 0.436903 0.625779
0.619530 0.546889 0.675055
0.757658 0.632050 0.709369
0.850791 0.688360 0.730594
0.918189 0.722517 0.743662
0.128853 0.175611 0.494464
0.203334 0.248819 0.539997
0.334769 0.353097 0.592432
0.497141 0.468341 0.644169
0.664862 0.576910 0.688856
0.796674 0.656649 0.718859
0.875368 0.704499 0.735877
0.927286 0.733726 0.745265
