Assets/1__3DArt/KimSe/artstation_asset/LUTs_subway_asset/CUBE/LoFi Chill 02.cube
# LUT by SparkleStock. Enhanced with VOXCOLOR algorithms.
LUT_3D_SIZE 8
DOMAIN_MIN 0.000000 0.000000 0.000000
DOMAIN_MAX 0.903226 0.903226 0.903226
0.050794 0.046886 0.089866
0.094088 0.051424 0.096105
0.181441 0.061318 0.103013
0.305368 0.077829 0.113270
0.454654 0.101319 0.128820
0.600796 0.130434 0.151317
0.706920 0.160810 0.178857
0.774320 0.191744 0.209863
0.054008 0.053882 0.099886
0.098473 0.064420 0.113589
0.187930 0.078449 0.124023
0.313980 0.098449 0.136792
0.464747 0.125763 0.155946
0.611474 0.159854 0.183714
0.718185 0.196426 0.218108
0.786407 0.233642 0.257237
0.055347 0.059002 0.110709
0.100154 0.074194 0.130841
0.194116 0.101291 0.154705
0.324639 0.133842 0.179214
0.477367 0.168207 0.203891
0.625613 0.209867 0.238482
0.734188 0.254881 0.281632
0.804581 0.300949 0.331248
0.056229 0.063665 0.124778
0.100731 0.083199 0.151277
0.197896 0.123832 0.189906
0.334281 0.174562 0.231316
0.493872 0.226988 0.270005
0.644082 0.277467 0.311329
0.754803 0.331269 0.362422
0.827584 0.386119 0.421232
0.057718 0.069030 0.144535
0.101470 0.093376 0.177968
0.198650 0.143200 0.227445
0.340905 0.213777 0.286727
0.512887 0.295879 0.348558
0.666811 0.358104 0.396871
0.779432 0.419779 0.453062
0.853870 0.481025 0.516682
0.060365 0.076214 0.175541
0.103238 0.106268 0.216292
0.200577 0.166363 0.276094
0.344638 0.249881 0.346695
0.521615 0.348084 0.420125
0.690907 0.440753 0.484393
0.806089 0.509576 0.541413
0.880368 0.571566 0.601332
0.062539 0.085446 0.221041
0.105144 0.122307 0.270452
0.202819 0.193510 0.339588
0.348634 0.290142 0.418388
0.529523 0.401671 0.497639
0.706378 0.506854 0.564932
0.827497 0.583394 0.616256
0.902471 0.643790 0.665378
0.063082 0.096420 0.280602
0.106017 0.140702 0.339893
0.204484 0.223354 0.417038
0.352076 0.332751 0.500506
0.536116 0.455821 0.580012
0.717941 0.567317 0.641877
0.844111 0.645504 0.682712
0.918587 0.698143 0.714715
0.052117 0.054260 0.118981
0.088093 0.062895 0.128732
0.174244 0.075125 0.135318
0.300160 0.093429 0.144098
0.452391 0.119134 0.158971
0.601607 0.151615 0.182201
0.711049 0.186455 0.212302
0.781656 0.222152 0.247583
0.054599 0.059059 0.126220
0.098885 0.082422 0.152955
0.188340 0.102214 0.167206
0.314943 0.125064 0.179623
0.467026 0.155187 0.197859
0.615694 0.191852 0.224432
0.724400 0.230017 0.257384
0.793980 0.267912 0.295018
0.057280 0.064783 0.138824
0.103348 0.094300 0.172356
0.196618 0.128027 0.201225
0.326773 0.163744 0.226037
0.480774 0.200700 0.249104
0.630711 0.243819 0.280895
0.740574 0.288707 0.320124
0.811297 0.333206 0.364893
0.059565 0.070654 0.155638
0.104610 0.102946 0.192089
0.200439 0.149791 0.235046
0.335751 0.203216 0.276660
0.495920 0.257067 0.312830
0.648075 0.308136 0.350307
0.759892 0.360746 0.396013
0.832571 0.412830 0.448152
0.061255 0.076348 0.176529
0.105139 0.111624 0.216317
0.201475 0.166888 0.268520
0.342130 0.239123 0.327174
0.512519 0.320814 0.385631
0.668374 0.383020 0.429601
0.782229 0.442776 0.479685
0.856535 0.500589 0.535777
0.063463 0.083093 0.206363
0.106355 0.121358 0.249277
0.203218 0.185858 0.310101
0.346339 0.270742 0.379630
0.522006 0.368023 0.449489
0.689944 0.458181 0.508619
0.806285 0.524952 0.560251
0.880692 0.583665 0.613354
0.065442 0.091765 0.248375
0.107953 0.132794 0.294528
0.205453 0.207116 0.363092
0.350895 0.305089 0.441076
0.531053 0.415836 0.517431
0.706288 0.518564 0.580493
0.826712 0.592480 0.627587
0.901176 0.649944 0.671614
0.066790 0.102628 0.303112
0.108965 0.145730 0.351945
0.207297 0.229860 0.427237
0.354967 0.340755 0.511201
0.538874 0.463627 0.589375
0.719543 0.573602 0.648808
0.844210 0.649741 0.687211
0.917753 0.700544 0.716627
0.054512 0.061365 0.159746
0.084932 0.071507 0.171870
0.161436 0.090311 0.182941
0.284036 0.116119 0.194565
0.444111 0.147665 0.208917
0.600755 0.185691 0.232671
0.716400 0.226394 0.265126
0.792133 0.268436 0.304587
0.056262 0.065317 0.165345
0.098118 0.093935 0.197791
0.180399 0.123471 0.220286
0.304063 0.154963 0.237172
0.461920 0.189567 0.253262
0.616723 0.230500 0.278593
0.730752 0.273050 0.311728
0.804559 0.315275 0.350679
0.059257 0.070936 0.175583
0.105494 0.108033 0.216120
0.196463 0.154126 0.254663
0.325651 0.199193 0.284358
0.482078 0.238462 0.304053
0.635122 0.283515 0.332420
0.747760 0.329540 0.368172
0.820480 0.374313 0.409328
0.062400 0.077453 0.191495
0.109419 0.118065 0.234622
0.206255 0.177830 0.285935
0.341601 0.239976 0.331175
0.501188 0.293969 0.363238
0.654091 0.344845 0.395592
0.766609 0.395762 0.434921
0.839400 0.444732 0.479607
0.065043 0.084293 0.213572
0.111885 0.127245 0.258645
0.208876 0.193253 0.315376
0.348340 0.271921 0.374761
0.516601 0.352224 0.428863
0.672568 0.412915 0.467024
0.786692 0.469865 0.509930
0.860556 0.523446 0.557662
0.067745 0.091325 0.241925
0.114525 0.136714 0.288981
0.211067 0.208712 0.350447
0.352167 0.297496 0.417802
0.525859 0.393150 0.483338
0.691826 0.479782 0.536589
0.808092 0.543427 0.581479
0.882060 0.597916 0.626845
0.070375 0.099642 0.279618
0.117838 0.147393 0.328681
0.213919 0.225152 0.393970
0.356197 0.323911 0.467213
0.534435 0.433357 0.540135
0.707837 0.532897 0.598344
0.827100 0.603562 0.640477
0.900766 0.657367 0.678730
0.072965 0.110050 0.327925
0.121195 0.159544 0.378229
0.216900 0.242559 0.446423
0.360068 0.350715 0.523525
0.541939 0.472741 0.599958
0.721173 0.580748 0.656598
0.844436 0.654687 0.692395
0.917155 0.703374 0.718909
0.057663 0.067494 0.210115
0.083924 0.078441 0.224142
0.149616 0.104590 0.242022
0.264976 0.141549 0.259748
0.428067 0.185357 0.276219
0.597653 0.232506 0.300961
0.723089 0.281011 0.335319
0.806013 0.330419 0.377942
0.058742 0.071275 0.213871
0.097770 0.101595 0.248588
0.171126 0.140136 0.279366
0.288777 0.183852 0.303792
0.449381 0.230279 0.322379
0.615104 0.278155 0.346432
0.737839 0.327089 0.379801
0.818156 0.375405 0.420290
0.061429 0.076922 0.220747
0.106939 0.117347 0.264572
0.194150 0.174293 0.311698
0.320162 0.232127 0.348971
0.476917 0.281583 0.370910
0.636888 0.330366 0.395411
0.755319 0.379390 0.428098
0.832342 0.426513 0.466726
0.065130 0.084047 0.233377
0.113847 0.129665 0.280679
0.211480 0.201146 0.339286
0.346112 0.275141 0.390211
0.503981 0.336306 0.422950
0.659300 0.387383 0.449298
0.774099 0.437507 0.482422
0.848456 0.484698 0.520576
0.069287 0.092170 0.253323
0.120129 0.141325 0.302833
0.219520 0.218180 0.363960
0.359021 0.305952 0.425237
0.525058 0.389376 0.477062
0.679679 0.447144 0.508132
0.793109 0.500394 0.543138
0.866207 0.549308 0.582191
0.073172 0.100337 0.280675
0.125312 0.152173 0.331951
0.224430 0.232476 0.394506
0.364504 0.327017 0.459929
0.533946 0.423121 0.520848
0.697170 0.505488 0.567660
0.812006 0.564801 0.604924
0.884777 0.614245 0.642003
0.077209 0.108884 0.314370
0.131423 0.163965 0.367734
0.230204 0.247152 0.430970
0.369942 0.347522 0.498760
0.541237 0.454196 0.565300
0.711875 0.550003 0.618296
0.829195 0.616684 0.654975
0.901498 0.666141 0.686984
0.081548 0.119017 0.356056
0.138172 0.177317 0.411146
0.236784 0.262746 0.474299
0.375803 0.367949 0.542811
0.547806 0.483715 0.611948
0.724148 0.589121 0.665484
0.845462 0.660489 0.698452
0.917055 0.706660 0.721762
0.061373 0.072197 0.267234
0.084542 0.084479 0.283164
0.143008 0.116487 0.308156
0.248830 0.166053 0.334363
0.404966 0.228681 0.357496
0.591658 0.290247 0.383793
0.730771 0.349191 0.419447
0.823127 0.406635 0.463483
0.061885 0.075978 0.268301
0.098898 0.107293 0.304552
0.165332 0.151293 0.340820
0.274639 0.208307 0.374155
0.430517 0.275192 0.402656
0.610938 0.334822 0.426126
0.745697 0.391991 0.458865
0.834458 0.446808 0.499219
0.064005 0.082221 0.272798
0.108195 0.123773 0.318211
0.190730 0.185788 0.369314
0.310651 0.256790 0.414829
0.463454 0.326759 0.447659
0.634773 0.383992 0.469417
0.762840 0.438515 0.499452
0.846759 0.489848 0.536056
0.068046 0.090218 0.281142
0.117115 0.138464 0.330760
0.213758 0.215570 0.392435
0.345676 0.301446 0.449452
0.500452 0.379668 0.490253
0.661525 0.434835 0.511838
0.781651 0.486450 0.539802
0.859892 0.534101 0.573052
0.073843 0.099391 0.294712
0.128088 0.153985 0.347724
0.230875 0.238124 0.411674
0.371492 0.335314 0.475472
0.535506 0.428532 0.528679
0.688430 0.485255 0.553385
0.801171 0.534982 0.580474
0.873822 0.579511 0.611070
0.079575 0.109552 0.321003
0.136734 0.167309 0.375257
0.242247 0.254996 0.439549
0.383683 0.356295 0.504103
0.546960 0.456329 0.560886
0.706177 0.534862 0.601206
0.818275 0.588888 0.630449
0.889085 0.632703 0.659118
0.085720 0.119270 0.351853
0.146083 0.180824 0.407589
0.253899 0.271759 0.471769
0.394517 0.375528 0.535696
0.554421 0.478635 0.592955
0.719346 0.569883 0.640099
0.833445 0.631776 0.670955
0.903598 0.676279 0.696499
0.092386 0.129834 0.388068
0.156431 0.195604 0.445198
0.266886 0.289518 0.508816
0.406348 0.394700 0.571065
0.561574 0.498897 0.626722
0.730141 0.599324 0.675828
0.847946 0.667305 0.705520
0.917712 0.710464 0.725369
0.065910 0.075411 0.324518
0.086884 0.089157 0.342351
0.140563 0.126153 0.373186
0.237785 0.185819 0.410029
0.384261 0.264913 0.446371
0.580760 0.351654 0.472815
0.737241 0.426137 0.509103
0.842216 0.492675 0.551889
0.065984 0.079192 0.323537
0.101480 0.110837 0.360331
0.163245 0.158773 0.400038
0.263935 0.224866 0.441223
0.410421 0.307439 0.481093
0.602009 0.393150 0.509014
0.752285 0.463177 0.541122
0.852277 0.524854 0.578829
0.067664 0.085850 0.325570
0.110778 0.127562 0.371289
0.189999 0.192115 0.423642
0.302661 0.270561 0.474128
0.446733 0.355078 0.516254
0.628652 0.438095 0.544925
0.769664 0.502459 0.572957
0.862769 0.558128 0.605408
0.071266 0.094676 0.331218
0.119740 0.143451 0.381417
0.214407 0.222434 0.443225
0.341390 0.314082 0.502838
0.489915 0.404482 0.550089
0.658954 0.483931 0.579152
0.788626 0.542195 0.603586
0.873618 0.591452 0.631128
0.077118 0.105203 0.341421
0.131788 0.161204 0.395383
0.233879 0.248068 0.459693
0.372791 0.349965 0.524516
0.534988 0.451554 0.580402
0.690693 0.528184 0.610476
0.808304 0.580796 0.632278
0.884688 0.623927 0.655734
0.086363 0.117998 0.360248
0.147347 0.180222 0.416018
0.258212 0.273452 0.480675
0.403618 0.380527 0.544989
0.566933 0.485645 0.600852
0.718393 0.566520 0.636795
0.826900 0.616066 0.658466
0.895546 0.654386 0.679508
0.095533 0.130595 0.389854
0.160570 0.196937 0.445689
0.276368 0.293629 0.508925
0.424428 0.402988 0.571251
0.586249 0.509299 0.625670
0.733067 0.592596 0.663508
0.840811 0.648734 0.687828
0.907656 0.687861 0.707257
0.105364 0.143373 0.424007
0.174608 0.214134 0.479608
0.295173 0.313971 0.540893
0.445293 0.424673 0.600424
0.604436 0.530580 0.652123
0.744215 0.613787 0.689122
0.853315 0.675680 0.713865
0.919746 0.715145 0.730140
0.071078 0.077207 0.372823
0.090344 0.092539 0.391948
0.140760 0.133781 0.427066
0.232707 0.201738 0.471627
0.372084 0.294279 0.519045
0.562167 0.401683 0.558442
0.738498 0.496035 0.592112
0.859470 0.573932 0.628835
0.070712 0.081110 0.370768
0.105276 0.112925 0.407400
0.163990 0.163971 0.448959
0.259283 0.237060 0.495077
0.398467 0.331439 0.543461
0.583866 0.436453 0.582882
0.753054 0.525493 0.614238
0.868159 0.597406 0.646939
0.072040 0.087959 0.371313
0.114620 0.129789 0.416607
0.191586 0.195711 0.468472
0.299489 0.279152 0.520923
0.436473 0.374033 0.569030
0.612576 0.474525 0.607504
0.770683 0.556723 0.636031
0.877194 0.621224 0.664216
0.075376 0.097249 0.375038
0.123585 0.146517 0.424968
0.216721 0.225897 0.484991
0.340205 0.320536 0.544146
0.483193 0.418718 0.594370
0.646599 0.513700 0.631294
0.790601 0.588183 0.656875
0.886556 0.644581 0.680511
0.081114 0.108688 0.382774
0.135903 0.165435 0.436528
0.236905 0.253194 0.499184
0.373968 0.356737 0.562197
0.533539 0.462222 0.617713
0.683762 0.551765 0.653172
0.811895 0.618347 0.676084
0.896086 0.666651 0.695571
0.090823 0.123141 0.397917
0.152869 0.186810 0.453574
0.264165 0.281729 0.516844
0.409077 0.390925 0.579398
0.570760 0.498908 0.633985
0.719136 0.584576 0.670572
0.832806 0.644346 0.691823
0.905006 0.685632 0.708265
0.104339 0.140995 0.425486
0.172060 0.209733 0.479634
0.292347 0.309402 0.540641
0.444802 0.421716 0.600499
0.608822 0.530261 0.652385
0.750659 0.613331 0.687401
0.851285 0.667965 0.707453
0.913567 0.703605 0.721681
0.118606 0.158839 0.459901
0.191144 0.231942 0.511170
0.318858 0.335208 0.568461
0.477176 0.449197 0.624269
0.642096 0.556819 0.672282
0.775968 0.636504 0.704569
0.867379 0.688151 0.723499
0.922895 0.720215 0.735321
0.077089 0.078002 0.409193
0.094823 0.095103 0.428855
0.143035 0.140041 0.466747
0.231865 0.214961 0.516653
0.367074 0.318751 0.572222
0.551857 0.443139 0.623249
0.737301 0.556244 0.660799
0.870431 0.644260 0.693195
0.075966 0.081735 0.406418
0.109669 0.114029 0.442299
0.166418 0.167760 0.484727
0.258616 0.246558 0.534003
0.393587 0.350396 0.588331
0.573564 0.470336 0.637328
0.751345 0.576881 0.672796
0.877865 0.658548 0.702323
0.076810 0.088526 0.406110
0.118929 0.130773 0.450741
0.194442 0.197799 0.501381
0.299495 0.285048 0.554348
0.432121 0.387833 0.606262
0.603024 0.501175 0.652252
0.768983 0.599324 0.684785
0.885850 0.672916 0.710711
0.079835 0.097981 0.408721
0.127820 0.147998 0.458370
0.219974 0.227559 0.516024
0.341253 0.324123 0.573522
0.480562 0.427780 0.624905
0.638878 0.533690 0.667329
0.789566 0.622353 0.696498
0.894385 0.686922 0.718532
0.085358 0.109916 0.414992
0.140101 0.167586 0.468435
0.240379 0.255843 0.528997
0.376214 0.360037 0.589277
0.533828 0.467595 0.642946
0.679182 0.565938 0.681838
0.812280 0.644737 0.707581
0.903323 0.700091 0.725817
0.094920 0.125437 0.428239
0.157190 0.190195 0.483338
0.268060 0.285892 0.544635
0.411996 0.395899 0.604659
0.572297 0.505245 0.657138
0.719258 0.594584 0.694278
0.835555 0.664142 0.716920
0.911913 0.711276 0.731902
0.110536 0.146909 0.454180
0.179509 0.216983 0.506483
0.301533 0.318101 0.565055
0.455497 0.431772 0.622202
0.620137 0.541469 0.671513
0.760553 0.625605 0.705229
0.857646 0.681747 0.724248
0.919097 0.718702 0.736374
0.129443 0.172482 0.492158
0.203467 0.245736 0.537802
0.334724 0.350113 0.590476
0.497218 0.465364 0.642405
0.665434 0.573711 0.687101
0.798532 0.652742 0.716860
0.879998 0.699031 0.732890
0.928114 0.727238 0.742202
