Assets/1__3DArt/KimSe/artstation_asset/LUTs_subway_asset/CUBE/LoFi Chill 05.cube
# LUT by SparkleStock. Enhanced with VOXCOLOR algorithms.
LUT_3D_SIZE 5
DOMAIN_MIN 0.000000 0.000000 0.000000
DOMAIN_MAX 0.903226 0.903226 0.903226
0.074237 0.054701 0.093773
0.187979 0.070598 0.105573
0.397125 0.107606 0.143527
0.603852 0.161637 0.207145
0.720469 0.214684 0.280775
0.076277 0.065469 0.105707
0.199575 0.097261 0.140921
0.416720 0.152862 0.196423
0.630290 0.222494 0.275165
0.752985 0.295391 0.366416
0.078168 0.072606 0.131860
0.209729 0.121186 0.187697
0.448514 0.230584 0.286056
0.673132 0.332928 0.387599
0.803423 0.429253 0.495659
0.083312 0.082823 0.185175
0.222429 0.144990 0.253046
0.480194 0.293652 0.378869
0.725275 0.466559 0.515684
0.855473 0.572890 0.620831
0.088448 0.100469 0.285722
0.238545 0.178433 0.359319
0.513622 0.355514 0.489207
0.771309 0.557487 0.624927
0.893066 0.675295 0.705951
0.076529 0.067313 0.152625
0.186178 0.085271 0.163999
0.402402 0.133681 0.200194
0.618467 0.200849 0.266649
0.742699 0.270037 0.348587
0.080894 0.073901 0.164365
0.217714 0.127093 0.210063
0.436953 0.198324 0.266544
0.650907 0.276732 0.340656
0.771654 0.350227 0.422438
0.087042 0.083986 0.192135
0.231431 0.151557 0.250136
0.470183 0.271742 0.346286
0.690001 0.377181 0.438569
0.814039 0.466696 0.529627
0.094438 0.094409 0.238399
0.241421 0.169123 0.300977
0.496205 0.322272 0.419860
0.734444 0.490349 0.545945
0.858372 0.590399 0.636071
0.103593 0.110357 0.316349
0.253650 0.190670 0.379158
0.521679 0.368706 0.504070
0.775056 0.567264 0.634466
0.891955 0.679170 0.709765
0.085951 0.076025 0.243862
0.181829 0.096882 0.257434
0.405482 0.172126 0.293174
0.642560 0.273066 0.365604
0.778591 0.365106 0.452360
0.089161 0.083323 0.248076
0.222004 0.143486 0.296339
0.447929 0.243358 0.356312
0.674614 0.347098 0.429591
0.803110 0.435987 0.509644
0.099781 0.095909 0.261344
0.255321 0.176762 0.324264
0.498951 0.321330 0.422443
0.713206 0.434192 0.502726
0.831517 0.519826 0.577365
0.113373 0.107402 0.295970
0.276695 0.197331 0.362594
0.526022 0.361701 0.473370
0.750400 0.524353 0.584802
0.864643 0.614534 0.656209
0.128771 0.120688 0.348699
0.299743 0.218279 0.417216
0.545290 0.390138 0.527861
0.781750 0.579393 0.646747
0.891944 0.684645 0.714156
0.102533 0.080633 0.339501
0.185195 0.105327 0.356218
0.393662 0.197881 0.401105
0.667806 0.363414 0.480295
0.823942 0.492492 0.572501
0.102901 0.087552 0.336829
0.228281 0.149478 0.382901
0.442121 0.265641 0.447899
0.698434 0.427092 0.528974
0.841365 0.543200 0.609686
0.112568 0.102711 0.338424
0.267947 0.187193 0.399851
0.506422 0.343937 0.497613
0.735980 0.500398 0.582976
0.859000 0.596324 0.647467
0.136002 0.119881 0.348029
0.314952 0.221807 0.419321
0.569018 0.401352 0.531371
0.774297 0.564883 0.629604
0.876070 0.644330 0.681904
0.164299 0.132816 0.383295
0.355989 0.247982 0.457166
0.606966 0.435451 0.569496
0.797656 0.597917 0.665305
0.895966 0.692303 0.721493
0.121564 0.081626 0.401867
0.196011 0.111564 0.421518
0.394481 0.221835 0.478295
0.666017 0.421197 0.575968
0.861454 0.615004 0.675968
0.119514 0.087048 0.394813
0.240552 0.150630 0.437911
0.445819 0.278379 0.508081
0.697223 0.468376 0.603465
0.871494 0.639171 0.691591
0.126587 0.102167 0.390867
0.280318 0.187827 0.449143
0.512300 0.348257 0.542739
0.738811 0.525934 0.635491
0.882757 0.665004 0.707123
0.149284 0.121263 0.393479
0.329637 0.226844 0.461895
0.579657 0.409970 0.569645
0.782198 0.580865 0.665568
0.893843 0.687600 0.721157
0.200013 0.144745 0.414543
0.398542 0.268136 0.486219
0.652454 0.467347 0.599955
0.834318 0.632057 0.692768
0.904579 0.703789 0.733081
