Assets/1__3DArt/KimSe/artstation_asset/LUTs_subway_asset/CUBE/LoFi Chill 05_S.cube
# LUT by SparkleStock. Enhanced with VOXCOLOR algorithms.
LUT_3D_SIZE 5
DOMAIN_MIN 0.000000 0.000000 0.000000
DOMAIN_MAX 0.903226 0.903226 0.903226
0.074237 0.054701 0.093773
0.188657 0.069589 0.104321
0.398937 0.104612 0.140462
0.605727 0.158328 0.203868
0.720895 0.213691 0.280066
0.076277 0.065729 0.105621
0.207537 0.122416 0.121315
0.427866 0.184634 0.151633
0.640091 0.239933 0.224981
0.757702 0.299004 0.344036
0.077648 0.075072 0.131443
0.215318 0.145864 0.173306
0.458119 0.283646 0.240589
0.680388 0.372603 0.325629
0.807733 0.439059 0.464864
0.081602 0.090535 0.183190
0.224328 0.158970 0.246394
0.483752 0.322073 0.359306
0.727714 0.504493 0.478769
0.857102 0.584219 0.597698
0.087455 0.106140 0.284304
0.238787 0.183880 0.357023
0.513947 0.362133 0.484779
0.771167 0.565318 0.617587
0.893341 0.681343 0.700367
0.076529 0.067313 0.152625
0.190200 0.081103 0.169836
0.409725 0.119580 0.208260
0.624816 0.184003 0.269251
0.744926 0.264328 0.348057
0.080751 0.074242 0.164477
0.228365 0.164043 0.222608
0.448526 0.231260 0.263571
0.663406 0.282207 0.312685
0.790027 0.340843 0.393786
0.086563 0.085795 0.192258
0.237688 0.197976 0.253263
0.473831 0.353417 0.318647
0.693423 0.430140 0.370330
0.835253 0.479262 0.460641
0.093217 0.100227 0.238659
0.242843 0.195806 0.300118
0.495003 0.381231 0.399100
0.726654 0.564077 0.484239
0.871625 0.624900 0.554802
0.102884 0.114702 0.316368
0.253528 0.198027 0.378299
0.520105 0.384498 0.497406
0.771312 0.593319 0.613204
0.896231 0.707602 0.670306
0.085951 0.076025 0.243862
0.183815 0.095257 0.261020
0.411132 0.164091 0.305036
0.647872 0.257355 0.375455
0.780498 0.359004 0.453934
0.088844 0.084477 0.249057
0.229064 0.164258 0.314393
0.457239 0.262322 0.388229
0.681501 0.337736 0.442777
0.819022 0.414758 0.503374
0.099285 0.097744 0.262389
0.259166 0.208015 0.337745
0.496994 0.381761 0.440397
0.708997 0.464638 0.489834
0.858367 0.513020 0.541691
0.112141 0.113195 0.298053
0.277269 0.219427 0.367564
0.520587 0.414888 0.475984
0.733065 0.601316 0.548887
0.884635 0.652155 0.586258
0.127961 0.124942 0.349870
0.299436 0.225099 0.418153
0.542427 0.405079 0.527195
0.774056 0.613187 0.630445
0.899166 0.729902 0.669551
0.102533 0.080633 0.339501
0.185585 0.104936 0.356852
0.395007 0.196211 0.404281
0.670261 0.358967 0.487649
0.824747 0.489405 0.574545
0.102381 0.088967 0.338357
0.230665 0.156002 0.390858
0.446353 0.272478 0.466292
0.700350 0.424732 0.555704
0.848220 0.526288 0.617960
0.111066 0.106741 0.342248
0.268932 0.199444 0.408945
0.505351 0.366614 0.516813
0.728068 0.512819 0.612497
0.873853 0.576920 0.655559
0.135179 0.124353 0.351372
0.314747 0.234500 0.425729
0.564356 0.428667 0.543277
0.755224 0.606207 0.645758
0.892013 0.657091 0.675397
0.163590 0.137184 0.385459
0.355403 0.253541 0.459102
0.604662 0.444543 0.571730
0.789745 0.616781 0.667950
0.900825 0.727750 0.705053
0.121564 0.081626 0.401867
0.196011 0.111564 0.421518
0.394582 0.221735 0.478496
0.666158 0.420762 0.576686
0.861537 0.614675 0.676462
0.118627 0.088439 0.397402
0.240880 0.152127 0.441513
0.446128 0.279186 0.512873
0.697351 0.467219 0.609851
0.872606 0.635002 0.696771
0.124888 0.105710 0.396093
0.280201 0.191936 0.455092
0.511757 0.352391 0.550477
0.736536 0.527306 0.645879
0.885317 0.658323 0.718152
0.147619 0.126731 0.398975
0.328907 0.232632 0.467725
0.578108 0.416332 0.576061
0.777296 0.589246 0.674884
0.896429 0.688090 0.733298
0.199423 0.148062 0.417059
0.398006 0.271476 0.488788
0.651191 0.471046 0.602497
0.831383 0.637524 0.696106
0.905714 0.712479 0.737210
