Assets/1__3DArt/KimSe/artstation_asset/LUTs_subway_asset/CUBE/LoFi Chill 03.cube
# LUT by SparkleStock. Enhanced with VOXCOLOR algorithms.
LUT_3D_SIZE 5
DOMAIN_MIN 0.000000 0.000000 0.000000
DOMAIN_MAX 0.903226 0.903226 0.903226
0.152381 0.125031 0.160195
0.247769 0.130765 0.166631
0.450140 0.148190 0.182071
0.673567 0.174280 0.210485
0.802521 0.203088 0.254969
0.157123 0.130868 0.170987
0.260311 0.151591 0.198447
0.470930 0.184359 0.230313
0.696505 0.223897 0.274926
0.824761 0.270347 0.342887
0.159486 0.135027 0.190980
0.269137 0.171863 0.243150
0.495919 0.250221 0.318872
0.725445 0.317077 0.386981
0.854260 0.387138 0.476247
0.166269 0.143645 0.237339
0.277935 0.196155 0.310175
0.517687 0.309390 0.417185
0.759395 0.438555 0.520675
0.883908 0.521779 0.611446
0.175864 0.162236 0.339793
0.290185 0.234131 0.425409
0.538147 0.375629 0.540867
0.790606 0.530759 0.644882
0.905691 0.628922 0.710005
0.156903 0.131750 0.206664
0.242269 0.145854 0.223385
0.451102 0.172105 0.240075
0.684771 0.207266 0.270396
0.818734 0.250245 0.326794
0.162203 0.136587 0.219599
0.272841 0.182487 0.271039
0.483730 0.227006 0.305390
0.709381 0.271366 0.343392
0.836398 0.319066 0.401651
0.168888 0.144941 0.246996
0.284291 0.204002 0.311041
0.509819 0.290031 0.386384
0.736019 0.358214 0.443401
0.860734 0.423092 0.514877
0.176476 0.155569 0.293228
0.291461 0.222319 0.362914
0.528305 0.339446 0.464899
0.763834 0.461830 0.557270
0.885163 0.540840 0.630966
0.187007 0.173376 0.378135
0.302610 0.247171 0.446515
0.546217 0.389358 0.557898
0.794074 0.540746 0.656550
0.905361 0.634113 0.714637
0.167443 0.140037 0.290795
0.236578 0.161714 0.315229
0.440295 0.215350 0.347295
0.695763 0.273071 0.378413
0.839808 0.333560 0.436156
0.171865 0.146903 0.299116
0.274045 0.202596 0.357962
0.482858 0.277427 0.409356
0.720611 0.337636 0.442927
0.853836 0.396209 0.495522
0.180531 0.157391 0.318465
0.302642 0.231742 0.388300
0.530729 0.341959 0.470821
0.751086 0.414264 0.516330
0.870312 0.474511 0.568841
0.189839 0.171079 0.357378
0.319509 0.251792 0.429850
0.551480 0.379977 0.524046
0.775905 0.496537 0.602089
0.888695 0.566910 0.656033
0.201612 0.186458 0.417681
0.338800 0.274283 0.489440
0.566456 0.410318 0.583150
0.799327 0.553299 0.671287
0.905732 0.641116 0.720637
0.182102 0.148206 0.388318
0.240983 0.176767 0.416016
0.423780 0.255101 0.467093
0.702175 0.366152 0.514815
0.864179 0.449687 0.566254
0.184365 0.156725 0.388469
0.279351 0.214910 0.446740
0.469615 0.310825 0.511492
0.727986 0.422839 0.562834
0.874459 0.498124 0.606510
0.191652 0.168737 0.397804
0.312826 0.247070 0.467490
0.530684 0.372388 0.554837
0.760771 0.484625 0.611664
0.884949 0.550239 0.647862
0.206160 0.185384 0.418395
0.350281 0.278231 0.491636
0.588825 0.418567 0.584062
0.794405 0.538101 0.651255
0.895676 0.598924 0.686289
0.220735 0.204298 0.460675
0.383017 0.304264 0.533432
0.623584 0.449150 0.622819
0.812771 0.571644 0.690448
0.908778 0.649810 0.729454
0.194974 0.151814 0.455008
0.249676 0.186798 0.485742
0.424041 0.283753 0.551909
0.690573 0.436487 0.628365
0.882867 0.576375 0.686192
0.195142 0.160681 0.450722
0.288446 0.221327 0.505981
0.471995 0.330069 0.577577
0.718488 0.475124 0.650826
0.890393 0.601706 0.703047
0.200578 0.173685 0.452466
0.322571 0.253412 0.520434
0.536617 0.383669 0.605714
0.756821 0.520132 0.675143
0.898523 0.626078 0.718249
0.213959 0.191348 0.464671
0.362279 0.287299 0.537937
0.599073 0.431737 0.627169
0.799276 0.561871 0.696335
0.906870 0.646571 0.730778
0.240928 0.222331 0.499476
0.415536 0.326007 0.566763
0.666473 0.477170 0.651728
0.848838 0.600724 0.714344
0.915419 0.661341 0.740651
