Assets/1__3DArt/KimSe/artstation_asset/LUTs_subway_asset/CUBE/Paranormal 03_S.cube
# LUT by SparkleStock. Enhanced with VOXCOLOR algorithms.
LUT_3D_SIZE 8
DOMAIN_MIN 0.000000 0.000000 0.000000
DOMAIN_MAX 0.903226 0.903226 0.903226
0.058608 0.031258 0.042979
0.078648 0.044114 0.059616
0.113285 0.065272 0.085628
0.167876 0.097964 0.124085
0.246146 0.144874 0.176903
0.353531 0.211800 0.246099
0.474465 0.292749 0.319863
0.587152 0.374249 0.384300
0.068061 0.074363 0.070582
0.111227 0.112101 0.091464
0.168887 0.147775 0.115395
0.243103 0.188212 0.149108
0.334400 0.238726 0.197444
0.441492 0.304774 0.264590
0.549448 0.381917 0.341550
0.643211 0.459105 0.414434
0.085415 0.154027 0.124298
0.142376 0.203170 0.152120
0.213507 0.246417 0.171527
0.299218 0.289786 0.196063
0.398255 0.338267 0.235652
0.504847 0.397528 0.296395
0.604110 0.465906 0.371505
0.685649 0.534912 0.447595
0.115239 0.268991 0.206885
0.182946 0.319231 0.240318
0.261341 0.362608 0.257456
0.349630 0.402365 0.271925
0.446673 0.442261 0.295699
0.551155 0.490897 0.345013
0.643847 0.546812 0.412455
0.717412 0.604301 0.485224
0.161605 0.414022 0.317555
0.240803 0.457822 0.352159
0.322924 0.494305 0.371038
0.406011 0.524062 0.377824
0.490568 0.549911 0.380814
0.587750 0.584789 0.412289
0.673736 0.625680 0.465643
0.741418 0.669031 0.527820
0.233448 0.571129 0.447249
0.321573 0.602342 0.475851
0.404951 0.627689 0.492566
0.482964 0.647456 0.499194
0.555610 0.662492 0.498689
0.624104 0.675415 0.499134
0.698966 0.699595 0.530118
0.760781 0.727523 0.573639
0.332230 0.704919 0.566229
0.421966 0.723545 0.584928
0.500405 0.737755 0.595747
0.568882 0.747889 0.599573
0.628733 0.754445 0.597648
0.680248 0.758098 0.592189
0.731809 0.766157 0.598893
0.779854 0.778682 0.618091
0.453503 0.806089 0.661562
0.534744 0.815140 0.671082
0.600722 0.820777 0.675418
0.654515 0.823396 0.675188
0.698936 0.823514 0.671146
0.735577 0.821941 0.664255
0.768827 0.820789 0.658293
0.802794 0.823101 0.660360
0.061066 0.035984 0.060940
0.078471 0.041229 0.073479
0.112858 0.055088 0.098398
0.164644 0.080424 0.136514
0.234626 0.120455 0.188857
0.330009 0.185625 0.261419
0.444064 0.274697 0.346843
0.561757 0.375255 0.430864
0.069348 0.086554 0.101715
0.113732 0.117021 0.128811
0.174433 0.143889 0.154337
0.250744 0.174610 0.185556
0.341586 0.215497 0.228274
0.446988 0.275256 0.289381
0.554694 0.354668 0.365291
0.650947 0.444672 0.445430
0.084183 0.163316 0.156785
0.143085 0.210102 0.194230
0.217872 0.246418 0.212607
0.307222 0.280065 0.230884
0.408910 0.317897 0.262694
0.518345 0.368904 0.313290
0.621085 0.435997 0.381743
0.705965 0.512999 0.458965
0.108738 0.270192 0.234030
0.180085 0.325112 0.278832
0.261976 0.365060 0.291979
0.353553 0.396944 0.296547
0.453879 0.427496 0.310727
0.563074 0.467350 0.348534
0.661606 0.519712 0.406850
0.740891 0.581139 0.477143
0.146322 0.406368 0.336961
0.234570 0.461760 0.386220
0.320844 0.498536 0.401144
0.406281 0.523453 0.396070
0.493865 0.543445 0.386867
0.596694 0.570065 0.406170
0.690424 0.605849 0.448340
0.766298 0.649512 0.504475
0.206309 0.558206 0.460068
0.312664 0.604750 0.505819
0.403352 0.633327 0.521472
0.483687 0.650908 0.518355
0.558114 0.662990 0.506182
0.629422 0.671848 0.493095
0.712312 0.691054 0.511630
0.784084 0.716957 0.546206
0.291040 0.692094 0.576000
0.410262 0.725257 0.611601
0.500846 0.744246 0.624859
0.573088 0.754634 0.623590
0.634878 0.760609 0.613954
0.687697 0.762784 0.597948
0.742752 0.768252 0.592526
0.798626 0.778771 0.601170
0.396079 0.797051 0.671527
0.519827 0.816852 0.694518
0.603210 0.827582 0.703753
0.662460 0.832363 0.703363
0.709796 0.833668 0.696626
0.747353 0.832330 0.684267
0.780945 0.830663 0.670300
0.818116 0.831826 0.664025
0.062988 0.041112 0.081445
0.078070 0.043826 0.091544
0.105541 0.052013 0.115048
0.149475 0.070332 0.152849
0.212219 0.103418 0.205778
0.295289 0.162685 0.278596
0.399907 0.252364 0.368942
0.518197 0.362667 0.463845
0.071965 0.101324 0.137260
0.112100 0.124785 0.163719
0.168058 0.146538 0.195597
0.240651 0.172308 0.231845
0.329067 0.207506 0.273339
0.429097 0.262448 0.330595
0.533901 0.342297 0.404816
0.633752 0.439764 0.487640
0.087396 0.184851 0.203995
0.139891 0.220807 0.237410
0.213583 0.251902 0.264005
0.304200 0.280880 0.288869
0.407281 0.311612 0.317284
0.517280 0.355771 0.359988
0.622400 0.420174 0.420784
0.712574 0.500452 0.494051
0.110786 0.291295 0.283638
0.173499 0.334473 0.321162
0.257392 0.370544 0.341716
0.354058 0.399013 0.351919
0.457794 0.422096 0.360171
0.571289 0.453302 0.387743
0.675714 0.500104 0.434848
0.761782 0.561059 0.497277
0.144176 0.418590 0.377625
0.222007 0.465189 0.419922
0.312101 0.501784 0.441280
0.404494 0.526837 0.439816
0.495468 0.542013 0.422260
0.603442 0.560800 0.431213
0.704668 0.590422 0.461694
0.789212 0.631707 0.509029
0.195624 0.561323 0.489584
0.292634 0.603134 0.531267
0.391349 0.634845 0.553637
0.481655 0.655415 0.553931
0.558836 0.665526 0.533848
0.633420 0.670823 0.509533
0.724316 0.684682 0.516330
0.806170 0.707194 0.541523
0.268412 0.689917 0.596867
0.382575 0.721487 0.631499
0.486783 0.745357 0.651847
0.572920 0.760390 0.654858
0.638051 0.766772 0.640347
0.693062 0.768122 0.615441
0.752622 0.771319 0.598965
0.817127 0.779428 0.597990
0.358802 0.793071 0.686897
0.484901 0.813323 0.711244
0.588110 0.829260 0.727455
0.665002 0.839223 0.732272
0.716542 0.842760 0.724482
0.756138 0.842472 0.707248
0.791678 0.841016 0.685564
0.833753 0.841451 0.671606
0.064689 0.047115 0.106306
0.077942 0.049634 0.115564
0.097890 0.054705 0.136446
0.131230 0.067537 0.172280
0.182449 0.093447 0.225212
0.254602 0.145164 0.298225
0.348527 0.230128 0.389550
0.463562 0.342369 0.489016
0.075130 0.118292 0.178904
0.109082 0.136043 0.201689
0.156007 0.154323 0.235825
0.219431 0.177899 0.276972
0.300412 0.211126 0.322835
0.394936 0.262153 0.378784
0.495875 0.339696 0.450389
0.598886 0.438813 0.531824
0.092785 0.213078 0.260367
0.136677 0.237716 0.285924
0.203478 0.263593 0.317484
0.289182 0.290660 0.351546
0.389441 0.320122 0.386202
0.498770 0.359714 0.424746
0.605072 0.420378 0.478409
0.701196 0.499650 0.544644
0.118077 0.323858 0.345912
0.169233 0.352034 0.371548
0.248699 0.381955 0.397311
0.345447 0.408540 0.418368
0.451520 0.429939 0.433628
0.567716 0.454787 0.454930
0.676644 0.495649 0.491901
0.769765 0.553073 0.544102
0.151708 0.444952 0.433621
0.213379 0.476138 0.461637
0.300005 0.507824 0.486411
0.396763 0.532540 0.495116
0.495252 0.546890 0.484988
0.607278 0.559002 0.487420
0.714764 0.581923 0.507607
0.807218 0.618828 0.544931
0.197996 0.576757 0.532249
0.275730 0.606402 0.561719
0.372991 0.636098 0.586890
0.471115 0.658903 0.595760
0.557915 0.670705 0.581870
0.635785 0.673209 0.551062
0.733507 0.681666 0.548727
0.824296 0.699865 0.565297
0.261265 0.696373 0.627054
0.356167 0.719948 0.653273
0.462830 0.744106 0.676585
0.561230 0.762972 0.687086
0.638513 0.772847 0.678319
0.696416 0.774009 0.648507
0.760504 0.775180 0.624143
0.833045 0.780679 0.615708
0.338857 0.793617 0.707373
0.448926 0.809847 0.727596
0.560086 0.827486 0.747042
0.653938 0.841907 0.758438
0.719633 0.850047 0.756500
0.762229 0.851447 0.736982
0.800495 0.850623 0.709969
0.847854 0.850609 0.690416
0.066367 0.054275 0.137311
0.078412 0.057014 0.147228
0.094172 0.061683 0.164402
0.116897 0.071302 0.195788
0.151201 0.090328 0.246282
0.213292 0.134489 0.320540
0.296240 0.211699 0.411355
0.404901 0.319931 0.511378
0.078308 0.137254 0.228005
0.106775 0.151272 0.246958
0.143528 0.166391 0.274961
0.193784 0.188590 0.315342
0.261361 0.222170 0.368478
0.351303 0.270485 0.426125
0.448659 0.343159 0.494770
0.553494 0.438528 0.571905
0.098760 0.244009 0.322197
0.136069 0.261996 0.342502
0.190890 0.281937 0.369004
0.264043 0.307584 0.406770
0.355125 0.340893 0.455509
0.462716 0.379788 0.495673
0.569278 0.436449 0.544405
0.671138 0.511175 0.602595
0.127899 0.361621 0.413848
0.170998 0.380334 0.432265
0.238162 0.401626 0.453524
0.325988 0.425556 0.481914
0.430567 0.451373 0.516885
0.547065 0.474952 0.539491
0.658501 0.511058 0.570125
0.758430 0.562961 0.612275
0.165320 0.480849 0.499737
0.215022 0.499914 0.516624
0.288565 0.520943 0.534921
0.381942 0.541623 0.552456
0.490257 0.559411 0.566618
0.604971 0.568320 0.570304
0.716852 0.585028 0.583664
0.815772 0.616010 0.611132
0.209907 0.600925 0.584313
0.271252 0.619995 0.602909
0.353710 0.640778 0.621126
0.450707 0.661268 0.636873
0.553065 0.678193 0.644372
0.635663 0.679973 0.616801
0.738462 0.683551 0.609988
0.836029 0.696933 0.619707
0.266366 0.709409 0.664518
0.342656 0.725497 0.682443
0.435342 0.743533 0.700307
0.536054 0.761978 0.716220
0.633716 0.777939 0.724503
0.697525 0.780360 0.698235
0.765772 0.779900 0.671226
0.844582 0.782785 0.658477
0.333303 0.798047 0.732476
0.424970 0.809945 0.747888
0.525711 0.824279 0.764060
0.626483 0.839857 0.779888
0.716277 0.854309 0.790968
0.765548 0.858522 0.775266
0.807092 0.858634 0.747267
0.858977 0.858321 0.725331
0.067880 0.062594 0.178904
0.079486 0.066064 0.191016
0.093459 0.070843 0.207379
0.111951 0.079523 0.233240
0.137858 0.095732 0.274220
0.180920 0.131696 0.345111
0.252890 0.201685 0.436463
0.353294 0.303209 0.535821
0.081577 0.159038 0.287308
0.106318 0.171522 0.303471
0.135591 0.184485 0.325918
0.174598 0.203242 0.357497
0.228153 0.232899 0.401176
0.306434 0.284010 0.465428
0.400933 0.353372 0.535233
0.507010 0.442561 0.609168
0.105444 0.277704 0.391849
0.138150 0.292291 0.407589
0.182999 0.308154 0.428023
0.241118 0.329182 0.457330
0.314763 0.359340 0.498314
0.416051 0.407928 0.553048
0.523730 0.463367 0.603095
0.631278 0.531687 0.655780
0.138560 0.403781 0.487952
0.177215 0.417490 0.501728
0.233920 0.433251 0.518061
0.306125 0.452137 0.540682
0.393440 0.475958 0.572284
0.507459 0.511987 0.615466
0.621255 0.547254 0.647385
0.727922 0.591908 0.682159
0.179658 0.525113 0.572213
0.224463 0.537743 0.584516
0.287686 0.552293 0.598616
0.367448 0.567733 0.613765
0.462781 0.583908 0.631052
0.579336 0.604277 0.660272
0.693649 0.619247 0.675366
0.798321 0.642265 0.694782
0.227026 0.630260 0.640689
0.278262 0.641761 0.651981
0.348237 0.655414 0.664726
0.433451 0.670021 0.677926
0.529626 0.684145 0.690137
0.628797 0.694211 0.696826
0.735915 0.695617 0.695467
0.836897 0.704154 0.701511
0.280412 0.726864 0.706379
0.342418 0.736705 0.717680
0.421497 0.749146 0.730391
0.511724 0.763066 0.743541
0.606661 0.777018 0.755373
0.694219 0.787196 0.759341
0.767888 0.786774 0.739698
0.849672 0.787358 0.727261
0.339933 0.805737 0.761725
0.414701 0.813386 0.772364
0.502574 0.824196 0.784729
0.595829 0.837093 0.798186
0.687009 0.850825 0.811400
0.763792 0.862734 0.819178
0.811335 0.864691 0.798374
0.865572 0.864097 0.778734
0.069707 0.072331 0.234204
0.081118 0.077020 0.249731
0.094412 0.082397 0.267193
0.111101 0.090575 0.290436
0.133275 0.104622 0.324007
0.168166 0.135072 0.381041
0.227512 0.198796 0.466303
0.316634 0.294551 0.562577
0.085405 0.183826 0.357025
0.108554 0.196491 0.371900
0.133074 0.208611 0.390718
0.164536 0.224632 0.415481
0.208004 0.249157 0.448891
0.273013 0.292809 0.500477
0.363292 0.362931 0.569725
0.469142 0.450293 0.642978
0.112931 0.314001 0.467499
0.143583 0.327664 0.480392
0.181908 0.341310 0.496161
0.229136 0.358601 0.517839
0.288068 0.383478 0.548135
0.372658 0.425660 0.592463
0.480375 0.487299 0.646695
0.593286 0.556309 0.700510
0.150521 0.447019 0.563531
0.186977 0.458646 0.574220
0.236646 0.471109 0.586345
0.296996 0.486068 0.602864
0.368150 0.505841 0.626474
0.463597 0.538245 0.662470
0.578663 0.583211 0.702781
0.692262 0.629671 0.740193
0.196013 0.569768 0.643510
0.238295 0.579193 0.652523
0.294367 0.589778 0.662826
0.363187 0.601460 0.674468
0.444389 0.614937 0.688969
0.542963 0.634937 0.715571
0.658023 0.660953 0.743041
0.768543 0.685660 0.766603
0.245919 0.668158 0.702838
0.293762 0.675793 0.710670
0.356158 0.685101 0.719957
0.430799 0.695693 0.730441
0.515086 0.707121 0.741972
0.605625 0.718556 0.754957
0.713616 0.729897 0.770435
0.818144 0.739404 0.782732
0.296800 0.747942 0.750395
0.351099 0.753901 0.757925
0.420174 0.762441 0.767128
0.500008 0.772777 0.777617
0.586425 0.784040 0.788832
0.673126 0.794619 0.799276
0.756791 0.801297 0.801953
0.844716 0.803690 0.801490
0.351288 0.813915 0.791294
0.413927 0.818235 0.798363
0.490294 0.826069 0.807566
0.574415 0.836348 0.818551
0.660703 0.848052 0.830784
0.741572 0.859965 0.842876
0.806195 0.867538 0.843434
0.869065 0.869533 0.837252
0.072110 0.083989 0.303919
0.083136 0.090155 0.323026
0.096072 0.096385 0.342341
0.112045 0.104439 0.364464
0.132699 0.116921 0.392602
0.164046 0.142791 0.436140
0.215208 0.198921 0.506401
0.294155 0.289985 0.592778
0.089698 0.211567 0.435424
0.112854 0.225221 0.449602
0.134853 0.237488 0.466435
0.161617 0.251751 0.486649
0.198313 0.271690 0.511760
0.253169 0.306230 0.548731
0.335347 0.369093 0.606384
0.439517 0.454855 0.673831
0.120886 0.352480 0.546492
0.151623 0.366486 0.557714
0.186581 0.379181 0.570313
0.226815 0.393877 0.586284
0.275051 0.413935 0.607496
0.344632 0.446625 0.637906
0.443554 0.503417 0.684238
0.558565 0.573932 0.735775
0.163050 0.490468 0.637809
0.199368 0.501652 0.646962
0.245386 0.512280 0.656057
0.298045 0.524484 0.667609
0.357038 0.540541 0.683779
0.434424 0.565896 0.707973
0.539521 0.609574 0.744342
0.655487 0.660294 0.782647
0.213149 0.612378 0.710112
0.254834 0.620527 0.717403
0.306970 0.628924 0.725130
0.368564 0.638120 0.733719
0.438776 0.649122 0.744366
0.518773 0.665921 0.762743
0.622710 0.694452 0.790490
0.733565 0.725504 0.817908
0.266097 0.704218 0.760414
0.312915 0.710133 0.766557
0.370909 0.716962 0.773622
0.438056 0.724942 0.781754
0.512217 0.734250 0.791211
0.590854 0.745265 0.803204
0.688254 0.761771 0.823588
0.790387 0.778442 0.842493
0.316332 0.770712 0.794585
0.367184 0.774792 0.799966
0.430233 0.780933 0.806877
0.502219 0.788760 0.815221
0.579870 0.797865 0.824856
0.658819 0.807691 0.835655
0.741143 0.818934 0.849455
0.829213 0.828655 0.860778
0.366014 0.824101 0.822206
0.421254 0.826363 0.826890
0.489338 0.832076 0.833786
0.565342 0.840262 0.842677
0.644678 0.850040 0.853265
0.721561 0.860666 0.865107
0.792625 0.871371 0.877201
0.861670 0.879148 0.884138
