Assets/1__3DArt/KimSe/artstation_asset/LUTs_subway_asset/CUBE/Paranormal 01_S.cube
# LUT by SparkleStock. Enhanced with VOXCOLOR algorithms.
LUT_3D_SIZE 32
0.031258 0.058608 0.085958
0.038962 0.063902 0.091867
0.046666 0.069195 0.097775
0.054370 0.074489 0.103683
0.062074 0.079783 0.109591
0.069778 0.085076 0.115499
0.082445 0.093088 0.123810
0.096105 0.101642 0.132601
0.109764 0.110197 0.141392
0.123424 0.118752 0.150183
0.137083 0.127307 0.158974
0.156509 0.138792 0.170318
0.178818 0.151743 0.182937
0.201126 0.164693 0.195557
0.223435 0.177644 0.208177
0.245744 0.190594 0.220796
0.272047 0.205672 0.234858
0.302344 0.222876 0.250360
0.332640 0.240080 0.265863
0.362937 0.257285 0.281366
0.393233 0.274489 0.296869
0.424790 0.292465 0.312324
0.458868 0.311986 0.327685
0.492946 0.331506 0.343046
0.527024 0.351026 0.358407
0.561101 0.370546 0.373768
0.594446 0.389720 0.388223
0.624129 0.407161 0.398149
0.653811 0.424601 0.408074
0.683493 0.442042 0.418000
0.713175 0.459482 0.427925
0.742857 0.476923 0.437851
0.033054 0.073166 0.095317
0.042084 0.079356 0.100832
0.051115 0.085546 0.106346
0.060145 0.091736 0.111861
0.069176 0.097926 0.117376
0.078207 0.104116 0.122890
0.092154 0.112353 0.130564
0.107085 0.121000 0.138669
0.122016 0.129646 0.146774
0.136947 0.138292 0.154879
0.151878 0.146939 0.162984
0.172240 0.158351 0.173672
0.195318 0.171146 0.185651
0.218395 0.183941 0.197631
0.241472 0.196736 0.209610
0.264549 0.209531 0.221589
0.291223 0.224434 0.235230
0.321492 0.241446 0.250531
0.351761 0.258459 0.265833
0.382030 0.275471 0.281134
0.412299 0.292483 0.296436
0.443570 0.310328 0.311903
0.476842 0.329839 0.327704
0.510115 0.349350 0.343504
0.543388 0.368862 0.359304
0.576660 0.388373 0.375104
0.609132 0.407587 0.390118
0.637597 0.425321 0.401206
0.666063 0.443054 0.412293
0.694528 0.460788 0.423380
0.722994 0.478521 0.434468
0.751459 0.496254 0.445555
0.034850 0.087723 0.104675
0.045207 0.094810 0.109797
0.055564 0.101896 0.114918
0.065921 0.108983 0.120039
0.076278 0.116070 0.125161
0.086635 0.123156 0.130282
0.101863 0.131619 0.137318
0.118066 0.140357 0.144737
0.134268 0.149095 0.152156
0.150471 0.157832 0.159575
0.166674 0.166570 0.166994
0.187972 0.177909 0.177026
0.211817 0.190549 0.188365
0.235663 0.203188 0.199704
0.259509 0.215828 0.211043
0.283355 0.228467 0.222382
0.310398 0.243197 0.235602
0.340640 0.260017 0.250702
0.370882 0.276837 0.265802
0.401123 0.293657 0.280902
0.431365 0.310477 0.296003
0.462349 0.328191 0.311483
0.494817 0.347693 0.327722
0.527284 0.367195 0.343961
0.559752 0.386697 0.360200
0.592220 0.406199 0.376439
0.623818 0.425455 0.392014
0.651066 0.443481 0.404263
0.678315 0.461507 0.416512
0.705564 0.479533 0.428761
0.732813 0.497559 0.441010
0.760061 0.515585 0.453259
0.036646 0.102281 0.114034
0.048329 0.110264 0.118762
0.060013 0.118247 0.123490
0.071696 0.126230 0.128218
0.083380 0.134213 0.132946
0.095063 0.142196 0.137674
0.111572 0.150884 0.144072
0.129046 0.159714 0.150805
0.146521 0.168543 0.157538
0.163995 0.177372 0.164271
0.181469 0.186202 0.171004
0.203703 0.197468 0.180381
0.228317 0.209951 0.191079
0.252931 0.222435 0.201778
0.277546 0.234919 0.212476
0.302160 0.247403 0.223175
0.329574 0.261959 0.235974
0.359788 0.278587 0.250873
0.390003 0.295215 0.265772
0.420217 0.311843 0.280671
0.450431 0.328471 0.295570
0.481128 0.346054 0.311062
0.512791 0.365547 0.327740
0.544453 0.385040 0.344418
0.576116 0.404533 0.361097
0.607779 0.424025 0.377775
0.638503 0.443323 0.393909
0.664535 0.461641 0.407320
0.690567 0.479960 0.420731
0.716599 0.498279 0.434142
0.742631 0.516598 0.447552
0.768664 0.534917 0.460963
0.038442 0.116838 0.123392
0.051452 0.125718 0.127727
0.064462 0.134597 0.132061
0.077472 0.143477 0.136396
0.090482 0.152357 0.140730
0.103492 0.161236 0.145065
0.121281 0.170150 0.150827
0.140027 0.179071 0.156873
0.158773 0.187992 0.162920
0.177519 0.196913 0.168967
0.196264 0.205833 0.175014
0.219435 0.217026 0.183735
0.244817 0.229354 0.193793
0.270200 0.241683 0.203851
0.295582 0.254011 0.213910
0.320965 0.266340 0.223968
0.348750 0.280722 0.236346
0.378937 0.297158 0.251043
0.409123 0.313594 0.265741
0.439310 0.330029 0.280439
0.469497 0.346465 0.295137
0.499907 0.363917 0.310641
0.530765 0.383401 0.327758
0.561623 0.402884 0.344876
0.592480 0.422368 0.361993
0.623338 0.441852 0.379111
0.653189 0.461190 0.395804
0.678004 0.479802 0.410377
0.702819 0.498413 0.424949
0.727635 0.517025 0.439522
0.752450 0.535636 0.454095
0.777266 0.554248 0.468668
0.040238 0.131395 0.132750
0.054574 0.141172 0.136692
0.068911 0.150948 0.140633
0.083247 0.160724 0.144574
0.097584 0.170500 0.148515
0.111920 0.180276 0.152457
0.130990 0.189416 0.157581
0.151008 0.198428 0.162942
0.171025 0.207440 0.168302
0.191042 0.216453 0.173663
0.211060 0.225465 0.179024
0.235166 0.236584 0.187089
0.261317 0.248757 0.196507
0.287468 0.260930 0.205925
0.313619 0.273103 0.215343
0.339770 0.285276 0.224761
0.367925 0.299484 0.236718
0.398085 0.315728 0.251214
0.428244 0.331972 0.265711
0.458403 0.348216 0.280207
0.488563 0.364459 0.294704
0.518687 0.381780 0.310220
0.548739 0.401255 0.327777
0.578792 0.420729 0.345333
0.608845 0.440204 0.362890
0.638897 0.459678 0.380446
0.667874 0.479058 0.397699
0.691473 0.497962 0.413434
0.715072 0.516866 0.429168
0.738670 0.535771 0.444903
0.762269 0.554675 0.460637
0.785868 0.573579 0.476372
0.042310 0.154500 0.147859
0.057363 0.164601 0.152017
0.072416 0.174702 0.156175
0.087469 0.184803 0.160333
0.102522 0.194904 0.164490
0.117575 0.205004 0.168648
0.137570 0.214135 0.172944
0.158554 0.223071 0.177268
0.179538 0.232007 0.181592
0.200522 0.240943 0.185916
0.221506 0.249879 0.190240
0.246244 0.260737 0.197508
0.272858 0.272556 0.206247
0.299473 0.284375 0.214986
0.326087 0.296195 0.223726
0.352702 0.308014 0.232465
0.381086 0.321797 0.243857
0.411241 0.337543 0.257900
0.441396 0.353290 0.271944
0.471551 0.369037 0.285988
0.501705 0.384784 0.300031
0.531662 0.401630 0.315258
0.561222 0.420676 0.332849
0.590782 0.439722 0.350441
0.620343 0.458768 0.368032
0.649903 0.477814 0.385624
0.678348 0.496810 0.403006
0.701218 0.515549 0.419338
0.724088 0.534289 0.435670
0.746958 0.553028 0.452002
0.769828 0.571768 0.468334
0.792698 0.590508 0.484667
0.044437 0.179314 0.164118
0.060084 0.189625 0.168615
0.075732 0.199936 0.173111
0.091379 0.210248 0.177607
0.107027 0.220559 0.182103
0.122675 0.230870 0.186599
0.143524 0.239944 0.190030
0.165414 0.248770 0.193247
0.187303 0.257597 0.196464
0.209193 0.266423 0.199681
0.231082 0.275249 0.202898
0.256390 0.285809 0.209339
0.283407 0.297234 0.217392
0.310424 0.308660 0.225446
0.337441 0.320086 0.233499
0.364458 0.331512 0.241552
0.393044 0.344819 0.252349
0.423199 0.360008 0.265890
0.453354 0.375197 0.279430
0.483509 0.390385 0.292971
0.513663 0.405574 0.306511
0.543477 0.421878 0.321387
0.572607 0.440411 0.338933
0.601737 0.458945 0.356478
0.630867 0.477479 0.374024
0.659998 0.496013 0.391570
0.687979 0.514538 0.408994
0.710218 0.533022 0.425812
0.732457 0.551505 0.442629
0.754695 0.569989 0.459446
0.776934 0.588472 0.476263
0.799173 0.606956 0.493080
0.046563 0.204128 0.180377
0.062806 0.214649 0.185212
0.079048 0.225171 0.190047
0.095290 0.235693 0.194881
0.111532 0.246215 0.199716
0.127775 0.256736 0.204551
0.149478 0.265754 0.207115
0.172273 0.274470 0.209225
0.195068 0.283187 0.211335
0.217863 0.291903 0.213445
0.240659 0.300620 0.215556
0.266537 0.310880 0.221170
0.293956 0.321913 0.228538
0.321376 0.332945 0.235905
0.348795 0.343978 0.243272
0.376215 0.355010 0.250639
0.405002 0.367842 0.260841
0.435157 0.382472 0.273879
0.465312 0.397103 0.286916
0.495467 0.411734 0.299954
0.525621 0.426364 0.312991
0.555291 0.442125 0.327516
0.583992 0.460147 0.345016
0.612692 0.478168 0.362516
0.641392 0.496190 0.380016
0.670092 0.514211 0.397516
0.697610 0.532267 0.414983
0.719218 0.550494 0.432285
0.740826 0.568722 0.449587
0.762433 0.586949 0.466889
0.784041 0.605176 0.484191
0.805648 0.623404 0.501493
0.048690 0.228942 0.196636
0.065527 0.239674 0.201810
0.082364 0.250406 0.206983
0.099201 0.261138 0.212156
0.116038 0.271870 0.217329
0.132875 0.282602 0.222502
0.155432 0.291563 0.224200
0.179132 0.300170 0.225204
0.202833 0.308777 0.226207
0.226534 0.317383 0.227210
0.250235 0.325990 0.228213
0.276683 0.335952 0.233002
0.304506 0.346591 0.239683
0.332328 0.357230 0.246364
0.360150 0.367869 0.253045
0.387972 0.378508 0.259726
0.416960 0.390864 0.269334
0.447115 0.404937 0.281868
0.477270 0.419009 0.294402
0.507424 0.433082 0.306937
0.537579 0.447155 0.319471
0.567106 0.462373 0.333645
0.595376 0.479882 0.351099
0.623647 0.497391 0.368554
0.651917 0.514900 0.386008
0.680187 0.532410 0.403463
0.707242 0.549996 0.420972
0.728218 0.567967 0.438759
0.749194 0.585938 0.456546
0.770171 0.603909 0.474332
0.791147 0.621881 0.492119
0.812123 0.639852 0.509906
0.050817 0.253756 0.212895
0.068249 0.264698 0.218407
0.085680 0.275641 0.223919
0.103112 0.286583 0.229430
0.120543 0.297526 0.234942
0.137975 0.308468 0.240454
0.161385 0.317373 0.241286
0.185992 0.325870 0.241182
0.210598 0.334367 0.241078
0.235205 0.342863 0.240975
0.259812 0.351360 0.240871
0.286830 0.361023 0.244833
0.315055 0.371269 0.250828
0.343279 0.381515 0.256823
0.371504 0.391760 0.262818
0.399728 0.402006 0.268813
0.428918 0.413886 0.277826
0.459073 0.427401 0.289857
0.489228 0.440916 0.301888
0.519382 0.454430 0.313920
0.549537 0.467945 0.325951
0.578921 0.482620 0.339774
0.606761 0.499617 0.357183
0.634601 0.516614 0.374591
0.662442 0.533611 0.392000
0.690282 0.550608 0.409409
0.716873 0.567725 0.426961
0.737218 0.585440 0.445233
0.757563 0.603155 0.463504
0.777908 0.620870 0.481776
0.798253 0.638585 0.500047
0.818599 0.656300 0.518319
0.056190 0.284808 0.234038
0.074472 0.295601 0.239760
0.092754 0.306395 0.245482
0.111036 0.317188 0.251205
0.129319 0.327981 0.256927
0.147601 0.338774 0.262649
0.171471 0.347481 0.263386
0.196459 0.355770 0.263127
0.221446 0.364060 0.262868
0.246434 0.372349 0.262609
0.271422 0.380639 0.262350
0.298425 0.389739 0.265453
0.326436 0.399244 0.270237
0.354447 0.408748 0.275022
0.382458 0.418253 0.279806
0.410470 0.427758 0.284590
0.439464 0.438915 0.292637
0.469442 0.451725 0.303945
0.499420 0.464536 0.315254
0.529398 0.477346 0.326562
0.559376 0.490156 0.337870
0.588500 0.504114 0.351065
0.615916 0.520367 0.368031
0.643333 0.536620 0.384998
0.670749 0.552873 0.401964
0.698166 0.569126 0.418931
0.724322 0.585528 0.436102
0.744176 0.602676 0.454297
0.764030 0.619823 0.472493
0.783885 0.636971 0.490688
0.803739 0.654119 0.508883
0.823593 0.671267 0.527079
0.063185 0.318981 0.257623
0.082446 0.329444 0.263492
0.101707 0.339908 0.269360
0.120968 0.350372 0.275229
0.140229 0.360836 0.281097
0.159490 0.371299 0.286966
0.183623 0.379738 0.287994
0.208729 0.387771 0.288055
0.233836 0.395805 0.288116
0.258942 0.403838 0.288177
0.284049 0.411872 0.288238
0.310744 0.420276 0.290466
0.338234 0.428866 0.293778
0.365724 0.437456 0.297090
0.393213 0.446046 0.300401
0.420703 0.454636 0.303713
0.449304 0.464947 0.310606
0.479017 0.476980 0.321082
0.508730 0.489013 0.331558
0.538442 0.501045 0.342034
0.568155 0.513078 0.352510
0.596962 0.526231 0.364936
0.623958 0.541624 0.381262
0.650953 0.557017 0.397588
0.677949 0.572410 0.413915
0.704945 0.587803 0.430241
0.730680 0.603368 0.446819
0.750113 0.619793 0.464657
0.769547 0.636218 0.482496
0.788980 0.652643 0.500335
0.808413 0.669069 0.518173
0.827847 0.685494 0.536012
0.070180 0.353153 0.281208
0.090420 0.363287 0.287223
0.110660 0.373422 0.293238
0.130900 0.383556 0.299253
0.151140 0.393691 0.305268
0.171380 0.403825 0.311282
0.195774 0.411995 0.312602
0.221000 0.419773 0.312984
0.246225 0.427550 0.313365
0.271451 0.435327 0.313746
0.296676 0.443105 0.314127
0.323064 0.450814 0.315480
0.350032 0.458489 0.317319
0.377000 0.466164 0.319158
0.403968 0.473839 0.320996
0.430937 0.481514 0.322835
0.459144 0.490979 0.328576
0.488592 0.502235 0.338220
0.518039 0.513490 0.347863
0.547487 0.524745 0.357507
0.576934 0.536000 0.367150
0.605424 0.548347 0.378808
0.631999 0.562881 0.394493
0.658573 0.577414 0.410179
0.685148 0.591947 0.425865
0.711723 0.606480 0.441551
0.737038 0.621208 0.457536
0.756050 0.636910 0.475018
0.775063 0.652613 0.492499
0.794075 0.668315 0.509981
0.813088 0.684018 0.527463
0.832101 0.699720 0.544945
0.077175 0.387325 0.304793
0.098394 0.397130 0.310955
0.119613 0.406935 0.317116
0.140831 0.416741 0.323277
0.162050 0.426546 0.329438
0.183269 0.436351 0.335599
0.207926 0.444253 0.337211
0.233270 0.451774 0.337912
0.258615 0.459295 0.338613
0.283959 0.466816 0.339315
0.309304 0.474337 0.340016
0.335383 0.481351 0.340494
0.361830 0.488112 0.340860
0.388277 0.494872 0.341225
0.414723 0.501632 0.341591
0.441170 0.508393 0.341957
0.468985 0.517012 0.346546
0.498167 0.527489 0.355357
0.527349 0.537967 0.364168
0.556531 0.548444 0.372979
0.585713 0.558922 0.381790
0.613886 0.570464 0.392679
0.640040 0.584137 0.407724
0.666194 0.597811 0.422770
0.692348 0.611484 0.437815
0.718502 0.625157 0.452861
0.743396 0.639048 0.468253
0.761987 0.654028 0.485378
0.780579 0.669008 0.502503
0.799171 0.683987 0.519628
0.817763 0.698967 0.536753
0.836354 0.713947 0.553878
0.084170 0.421497 0.328378
0.106368 0.430973 0.334686
0.128565 0.440449 0.340993
0.150763 0.449925 0.347301
0.172961 0.459401 0.353609
0.195158 0.468876 0.359916
0.220077 0.476510 0.361819
0.245541 0.483775 0.362840
0.271004 0.491040 0.363862
0.296467 0.498305 0.364883
0.321931 0.505570 0.365905
0.347702 0.511889 0.365507
0.373628 0.517734 0.364400
0.399553 0.523580 0.363293
0.425478 0.529425 0.362187
0.451404 0.535271 0.361080
0.478825 0.543044 0.364515
0.507742 0.552744 0.372494
0.536658 0.562443 0.380473
0.565575 0.572143 0.388451
0.594492 0.581843 0.396430
0.622347 0.592581 0.406550
0.648081 0.605394 0.420955
0.673814 0.618208 0.435361
0.699547 0.631021 0.449766
0.725281 0.643834 0.464171
0.749753 0.656888 0.478969
0.767924 0.671145 0.495738
0.786095 0.685402 0.512506
0.804266 0.699659 0.529274
0.822437 0.713916 0.546042
0.840608 0.728174 0.562811
0.096365 0.456804 0.353712
0.119491 0.465790 0.360020
0.142617 0.474777 0.366327
0.165743 0.483763 0.372635
0.188869 0.492750 0.378942
0.211995 0.501736 0.385250
0.237073 0.508975 0.387366
0.262541 0.515865 0.388644
0.288009 0.522755 0.389921
0.313477 0.529645 0.391199
0.338945 0.536535 0.392477
0.364306 0.542302 0.391765
0.389614 0.547507 0.390059
0.414922 0.552712 0.388353
0.440230 0.557918 0.386647
0.465537 0.563123 0.384941
0.492119 0.570058 0.387434
0.519975 0.578725 0.394128
0.547830 0.587391 0.400821
0.575686 0.596057 0.407514
0.603542 0.604723 0.414207
0.630522 0.614462 0.423174
0.655752 0.626347 0.436687
0.680982 0.638232 0.450200
0.706212 0.650116 0.463713
0.731442 0.662001 0.477226
0.755426 0.674140 0.491167
0.773176 0.687551 0.507244
0.790926 0.700962 0.523322
0.808676 0.714373 0.539399
0.826426 0.727784 0.555477
0.844177 0.741195 0.571555
0.113758 0.493245 0.380795
0.137762 0.501582 0.386956
0.161767 0.509919 0.393117
0.185771 0.518256 0.399278
0.209775 0.526593 0.405439
0.233779 0.534929 0.411601
0.258912 0.541649 0.413852
0.284270 0.548045 0.415322
0.309628 0.554441 0.416792
0.334987 0.560837 0.418262
0.360345 0.567233 0.419731
0.385194 0.572591 0.419267
0.409788 0.577430 0.417835
0.434382 0.582269 0.416404
0.458977 0.587109 0.414972
0.483571 0.591948 0.413540
0.508868 0.598056 0.415302
0.534866 0.605432 0.420257
0.560865 0.612808 0.425212
0.586863 0.620185 0.430167
0.612862 0.627561 0.435123
0.638409 0.636108 0.442549
0.663054 0.646995 0.454919
0.687698 0.657883 0.467288
0.712343 0.668771 0.479658
0.736988 0.679658 0.492028
0.760413 0.690805 0.504844
0.777742 0.703246 0.519897
0.795072 0.715687 0.534950
0.812401 0.728129 0.550003
0.829730 0.740570 0.565056
0.847060 0.753011 0.580109
0.131151 0.529686 0.407877
0.156034 0.537373 0.413892
0.180916 0.545061 0.419907
0.205799 0.552748 0.425922
0.230681 0.560435 0.431937
0.255564 0.568123 0.437951
0.280751 0.574322 0.440339
0.306000 0.580224 0.442001
0.331248 0.586126 0.443663
0.356497 0.592028 0.445324
0.381745 0.597930 0.446986
0.406082 0.602880 0.446769
0.429962 0.607353 0.445612
0.453843 0.611827 0.444454
0.477724 0.616300 0.443297
0.501605 0.620773 0.442140
0.525616 0.626053 0.443170
0.549758 0.632140 0.446387
0.573899 0.638226 0.449604
0.598041 0.644313 0.452821
0.622182 0.650399 0.456038
0.646296 0.657753 0.461925
0.670355 0.667644 0.473151
0.694415 0.677534 0.484377
0.718474 0.687425 0.495603
0.742533 0.697315 0.506829
0.765400 0.707469 0.518522
0.782309 0.718941 0.532551
0.799217 0.730413 0.546579
0.816126 0.741884 0.560608
0.833034 0.753356 0.574636
0.849943 0.764827 0.588664
0.148545 0.566127 0.434960
0.174305 0.573165 0.440828
0.200066 0.580203 0.446697
0.225827 0.587241 0.452565
0.251587 0.594278 0.458434
0.277348 0.601316 0.464302
0.302591 0.606996 0.466825
0.327729 0.612404 0.468679
0.352868 0.617812 0.470533
0.378006 0.623220 0.472387
0.403145 0.628628 0.474241
0.426970 0.633169 0.474271
0.450137 0.637276 0.473388
0.473304 0.641384 0.472505
0.496471 0.645491 0.471622
0.519639 0.649599 0.470740
0.542364 0.654051 0.471038
0.564649 0.658847 0.472517
0.586933 0.663644 0.473995
0.609218 0.668440 0.475474
0.631502 0.673237 0.476953
0.654183 0.679399 0.481300
0.677657 0.688292 0.491383
0.701131 0.697186 0.501465
0.724604 0.706079 0.511548
0.748078 0.714973 0.521631
0.770387 0.724134 0.532200
0.786875 0.734636 0.545204
0.803363 0.745138 0.558208
0.819851 0.755640 0.571212
0.836338 0.766142 0.584215
0.852826 0.776643 0.597219
0.165938 0.602568 0.462043
0.192577 0.608956 0.467765
0.219216 0.615345 0.473487
0.245855 0.621733 0.479209
0.272494 0.628121 0.484931
0.299133 0.634510 0.490653
0.324430 0.639669 0.493312
0.349459 0.644583 0.495358
0.374488 0.649497 0.497404
0.399516 0.654411 0.499450
0.424545 0.659325 0.501496
0.447857 0.663458 0.501773
0.470311 0.667199 0.501164
0.492765 0.670941 0.500556
0.515219 0.674682 0.499948
0.537672 0.678424 0.499339
0.559113 0.682048 0.498905
0.579540 0.685555 0.498646
0.599968 0.689061 0.498387
0.620395 0.692568 0.498128
0.640823 0.696075 0.497869
0.662070 0.701045 0.500676
0.684959 0.708941 0.509615
0.707847 0.716837 0.518554
0.730735 0.724733 0.527493
0.753623 0.732630 0.536432
0.775375 0.740799 0.545878
0.791442 0.750331 0.557857
0.807508 0.759863 0.569836
0.823575 0.769395 0.581816
0.839642 0.778927 0.593795
0.855709 0.788460 0.605774
0.188263 0.636819 0.488432
0.215505 0.642570 0.493947
0.242748 0.648321 0.499461
0.269991 0.654072 0.504976
0.297233 0.659823 0.510491
0.324476 0.665574 0.516006
0.349605 0.670214 0.518714
0.374310 0.674630 0.520860
0.399016 0.679047 0.523007
0.423721 0.683464 0.525154
0.448427 0.687881 0.527300
0.471068 0.691594 0.527745
0.492677 0.694954 0.527338
0.514286 0.698315 0.526931
0.535896 0.701675 0.526523
0.557505 0.705035 0.526116
0.577696 0.707987 0.525215
0.596471 0.710530 0.523818
0.615246 0.713073 0.522421
0.634021 0.715616 0.521025
0.652795 0.718160 0.519628
0.672566 0.722130 0.521229
0.694329 0.728956 0.528823
0.716092 0.735782 0.536417
0.737855 0.742608 0.544012
0.759618 0.749434 0.551606
0.780358 0.756551 0.559743
0.795979 0.765126 0.570594
0.811601 0.773701 0.581445
0.827223 0.782276 0.592296
0.842845 0.790850 0.603147
0.858466 0.799425 0.613998
0.220450 0.666690 0.513435
0.247747 0.671828 0.518620
0.275045 0.676967 0.523806
0.302343 0.682105 0.528991
0.329640 0.687243 0.534176
0.356938 0.692381 0.539362
0.381450 0.696499 0.541946
0.405406 0.700413 0.544011
0.429361 0.704326 0.546075
0.453317 0.708240 0.548140
0.477272 0.712154 0.550204
0.498925 0.715424 0.550657
0.519428 0.718373 0.550305
0.539930 0.721322 0.549953
0.560432 0.724270 0.549601
0.580934 0.727219 0.549249
0.599950 0.729810 0.548406
0.617481 0.732042 0.547074
0.635012 0.734274 0.545741
0.652542 0.736506 0.544408
0.670073 0.738738 0.543076
0.688279 0.742096 0.544137
0.707838 0.747705 0.549984
0.727396 0.753314 0.555831
0.746954 0.758924 0.561678
0.766513 0.764533 0.567525
0.785333 0.770481 0.573983
0.800460 0.778122 0.583499
0.815588 0.785764 0.593014
0.830716 0.793406 0.602530
0.845844 0.801047 0.612045
0.860971 0.808689 0.621561
0.252637 0.696562 0.538438
0.279989 0.701087 0.543294
0.307342 0.705612 0.548150
0.334694 0.710137 0.553006
0.362047 0.714662 0.557862
0.389399 0.719188 0.562718
0.413296 0.722784 0.565179
0.436501 0.726195 0.567161
0.459707 0.729605 0.569143
0.482912 0.733016 0.571125
0.506117 0.736427 0.573107
0.526783 0.739255 0.573570
0.546178 0.741792 0.573273
0.565573 0.744329 0.572975
0.584968 0.746866 0.572678
0.604364 0.749403 0.572381
0.622204 0.751632 0.571598
0.638491 0.753553 0.570329
0.654777 0.755474 0.569061
0.671064 0.757395 0.567792
0.687350 0.759316 0.566524
0.703992 0.762061 0.567045
0.721346 0.766454 0.571144
0.738700 0.770846 0.575244
0.756054 0.775239 0.579344
0.773407 0.779632 0.583444
0.790308 0.784410 0.588224
0.804941 0.791119 0.596404
0.819575 0.797827 0.604583
0.834209 0.804536 0.612763
0.848843 0.811244 0.620943
0.863476 0.817953 0.629123
0.284824 0.726433 0.563441
0.312231 0.730345 0.567968
0.339639 0.734257 0.572494
0.367046 0.738170 0.577021
0.394454 0.742082 0.581548
0.421861 0.745994 0.586074
0.445141 0.749069 0.588412
0.467597 0.751977 0.590312
0.490052 0.754884 0.592212
0.512507 0.757792 0.594111
0.534962 0.760699 0.596011
0.554640 0.763085 0.596483
0.572928 0.765211 0.596240
0.591216 0.767336 0.595998
0.609505 0.769462 0.595755
0.627793 0.771587 0.595513
0.644458 0.773455 0.594789
0.659501 0.775065 0.593585
0.674543 0.776675 0.592380
0.689585 0.778285 0.591176
0.704628 0.779895 0.589972
0.719706 0.782027 0.589953
0.734855 0.785203 0.592305
0.750004 0.788379 0.594658
0.765153 0.791554 0.597010
0.780302 0.794730 0.599363
0.795283 0.798339 0.602464
0.809422 0.804115 0.609308
0.823562 0.809890 0.616153
0.837702 0.815666 0.622997
0.851842 0.821441 0.629841
0.865981 0.827217 0.636685
0.317011 0.756304 0.588444
0.344474 0.759603 0.592641
0.371936 0.762903 0.596839
0.399398 0.766202 0.601036
0.426860 0.769501 0.605233
0.454322 0.772801 0.609431
0.476987 0.775354 0.611645
0.498692 0.777759 0.613462
0.520397 0.780163 0.615280
0.542102 0.782568 0.617097
0.563808 0.784972 0.618914
0.582497 0.786916 0.619395
0.599678 0.788630 0.619208
0.616860 0.790343 0.619020
0.634041 0.792057 0.618833
0.651223 0.793771 0.618645
0.666712 0.795277 0.617981
0.680511 0.796576 0.616841
0.694309 0.797875 0.615700
0.708107 0.799174 0.614560
0.721905 0.800473 0.613419
0.735419 0.801992 0.612861
0.748363 0.803951 0.613466
0.761308 0.805911 0.614071
0.774252 0.807870 0.614677
0.787196 0.809829 0.615282
0.800258 0.812269 0.616704
0.813903 0.817111 0.622213
0.827549 0.821953 0.627722
0.841195 0.826796 0.633230
0.854841 0.831638 0.638739
0.868486 0.836480 0.644248
0.351538 0.784001 0.612328
0.378801 0.786759 0.616213
0.406063 0.789517 0.620098
0.433326 0.792275 0.623983
0.460588 0.795033 0.627868
0.487851 0.797792 0.631752
0.509725 0.799869 0.633824
0.530521 0.801810 0.635533
0.551317 0.803750 0.637242
0.572114 0.805691 0.638952
0.592910 0.807632 0.640661
0.610502 0.809162 0.641112
0.626491 0.810487 0.640933
0.642480 0.811812 0.640755
0.658469 0.813137 0.640576
0.674458 0.814462 0.640398
0.688723 0.815625 0.639749
0.701264 0.816625 0.638630
0.713804 0.817625 0.637511
0.726344 0.818625 0.636392
0.738885 0.819625 0.635273
0.750888 0.820596 0.634234
0.761819 0.821508 0.633354
0.772749 0.822420 0.632474
0.783679 0.823331 0.631594
0.794610 0.824243 0.630715
0.805889 0.825659 0.630684
0.818911 0.829598 0.634900
0.831933 0.833536 0.639115
0.844955 0.837474 0.643331
0.857977 0.841412 0.647547
0.870999 0.845350 0.651763
0.397763 0.800827 0.630620
0.423552 0.803402 0.634276
0.449342 0.805977 0.637932
0.475132 0.808553 0.641588
0.500922 0.811128 0.645244
0.526711 0.813703 0.648900
0.546922 0.815528 0.650736
0.566017 0.817204 0.652207
0.585112 0.818880 0.653678
0.604207 0.820555 0.655150
0.623301 0.822231 0.656621
0.639246 0.823490 0.656846
0.653616 0.824540 0.656448
0.667986 0.825591 0.656050
0.682356 0.826641 0.655652
0.696726 0.827692 0.655254
0.709518 0.828598 0.654400
0.720732 0.829360 0.653089
0.731946 0.830123 0.651777
0.743160 0.830885 0.650466
0.754374 0.831647 0.649155
0.765139 0.832392 0.647930
