Assets/1__3DArt/KimSe/artstation_asset/LUTs_subway_asset/CUBE/Paranormal 04.cube
# LUT by SparkleStock. Enhanced with VOXCOLOR algorithms.
LUT_3D_SIZE 32
0.066422 0.070330 0.085958
0.072567 0.073638 0.091677
0.078711 0.076947 0.097397
0.084856 0.080255 0.103116
0.091000 0.083564 0.108835
0.097144 0.086872 0.114554
0.107897 0.093883 0.123266
0.119571 0.101635 0.132577
0.131246 0.109386 0.141888
0.142920 0.117137 0.151199
0.154595 0.124889 0.160510
0.172130 0.136358 0.172594
0.192595 0.149687 0.186065
0.213061 0.163015 0.199535
0.233526 0.176344 0.213006
0.253992 0.189673 0.226476
0.279066 0.205648 0.241128
0.308748 0.224270 0.256962
0.338430 0.242893 0.272795
0.368112 0.261515 0.288629
0.397794 0.280137 0.304463
0.429083 0.299673 0.319965
0.463587 0.321037 0.334806
0.498090 0.342400 0.349647
0.532593 0.363764 0.364489
0.567096 0.385127 0.379330
0.600843 0.406207 0.393312
0.630809 0.425869 0.403001
0.660774 0.445532 0.412691
0.690740 0.465194 0.422380
0.720706 0.484856 0.432069
0.750672 0.504518 0.441758
0.068360 0.083044 0.094324
0.075621 0.087908 0.100839
0.082881 0.092771 0.107354
0.090142 0.097635 0.113869
0.097402 0.102499 0.120384
0.104663 0.107362 0.126899
0.116295 0.115402 0.136041
0.128802 0.124078 0.145709
0.141309 0.132753 0.155377
0.153815 0.141428 0.165045
0.166322 0.150104 0.174713
0.184574 0.162241 0.186891
0.205698 0.176109 0.200325
0.226822 0.189978 0.213759
0.247947 0.203846 0.227193
0.269071 0.217714 0.240626
0.294524 0.233928 0.255077
0.324307 0.252486 0.270545
0.354090 0.271044 0.286013
0.383873 0.289602 0.301480
0.413655 0.308160 0.316948
0.444844 0.327425 0.332036
0.478844 0.348102 0.346365
0.512844 0.368780 0.360694
0.546844 0.389457 0.375022
0.580844 0.410135 0.389351
0.614036 0.430448 0.402843
0.643187 0.448939 0.412148
0.672339 0.467430 0.421453
0.701490 0.485921 0.430758
0.730642 0.504413 0.440063
0.759794 0.522904 0.449368
0.070298 0.095758 0.102690
0.078675 0.102177 0.110001
0.087051 0.108596 0.117312
0.095428 0.115015 0.124622
0.103804 0.121433 0.131933
0.112181 0.127852 0.139244
0.124693 0.136921 0.148816
0.138032 0.146521 0.158841
0.151371 0.156120 0.168866
0.164711 0.165719 0.178890
0.178050 0.175318 0.188915
0.197018 0.188124 0.201188
0.218801 0.202532 0.214585
0.240584 0.216940 0.227982
0.262367 0.231348 0.241380
0.284150 0.245756 0.254777
0.309983 0.262207 0.269026
0.339866 0.280701 0.284128
0.369750 0.299195 0.299230
0.399633 0.317690 0.314332
0.429516 0.336184 0.329433
0.460604 0.355177 0.344107
0.494101 0.375168 0.357923
0.527598 0.395160 0.371740
0.561095 0.415151 0.385556
0.594592 0.435142 0.399373
0.627229 0.454689 0.412373
0.655566 0.472009 0.421294
0.683903 0.489329 0.430215
0.712241 0.506649 0.439136
0.740578 0.523969 0.448057
0.768916 0.541290 0.456977
0.072236 0.108472 0.111056
0.081729 0.116446 0.119163
0.091221 0.124420 0.127269
0.100714 0.132394 0.135376
0.110206 0.140368 0.143483
0.119699 0.148342 0.151589
0.133091 0.158440 0.161591
0.147262 0.168964 0.171973
0.161434 0.179487 0.182354
0.175606 0.190010 0.192736
0.189778 0.200533 0.203117
0.209463 0.214006 0.215485
0.231904 0.228954 0.228845
0.254346 0.243902 0.242206
0.276787 0.258850 0.255567
0.299229 0.273798 0.268927
0.325441 0.290486 0.282975
0.355425 0.308917 0.297711
0.385409 0.327347 0.312447
0.415394 0.345777 0.327183
0.445378 0.364207 0.341919
0.476365 0.382929 0.356178
0.509359 0.402234 0.369482
0.542352 0.421539 0.382786
0.575346 0.440845 0.396090
0.608340 0.460150 0.409394
0.640422 0.478929 0.421904
0.667945 0.495079 0.430441
0.695468 0.511228 0.438977
0.722991 0.527377 0.447514
0.750515 0.543526 0.456050
0.778038 0.559675 0.464587
0.074174 0.121186 0.119422
0.084782 0.130715 0.128324
0.095391 0.140245 0.137227
0.106000 0.149774 0.146129
0.116608 0.159303 0.155032
0.127217 0.168832 0.163934
0.141489 0.179960 0.174367
0.156493 0.191407 0.185105
0.171497 0.202854 0.195843
0.186501 0.214301 0.206581
0.201505 0.225748 0.217319
0.221907 0.239889 0.229782
0.245007 0.255377 0.243106
0.268107 0.270864 0.256430
0.291207 0.286352 0.269754
0.314308 0.301839 0.283078
0.340900 0.318766 0.296925
0.370985 0.337132 0.311295
0.401069 0.355498 0.325665
0.431154 0.373864 0.340034
0.461239 0.392230 0.354404
0.492125 0.410681 0.368248
0.524616 0.429300 0.381040
0.557106 0.447919 0.393832
0.589597 0.466538 0.406624
0.622088 0.485158 0.419416
0.653615 0.503170 0.431435
0.680324 0.518148 0.439587
0.707033 0.533126 0.447739
0.733742 0.548105 0.455892
0.760451 0.563083 0.464044
0.787160 0.578061 0.472197
0.076112 0.133901 0.127788
0.087836 0.144985 0.137486
0.099561 0.156069 0.147184
0.111286 0.167153 0.156883
0.123010 0.178238 0.166581
0.134735 0.189322 0.176280
0.149886 0.201479 0.187142
0.165723 0.213850 0.198237
0.181560 0.226221 0.209332
0.197396 0.238592 0.220427
0.213233 0.250963 0.231522
0.234351 0.265772 0.244078
0.258110 0.281799 0.257366
0.281869 0.297826 0.270653
0.305628 0.313853 0.283941
0.329386 0.329881 0.297228
0.356359 0.347045 0.310874
0.386544 0.365347 0.324878
0.416729 0.383650 0.338882
0.446914 0.401952 0.352886
0.477100 0.420254 0.366890
0.507886 0.438433 0.380319
0.539873 0.456366 0.392599
0.571861 0.474299 0.404878
0.603848 0.492232 0.417158
0.635835 0.510165 0.429438
0.666807 0.527411 0.440965
0.692702 0.541218 0.448734
0.718597 0.555025 0.456502
0.744492 0.568833 0.464270
0.770387 0.582640 0.472038
0.796282 0.596447 0.479806
0.079152 0.155359 0.142455
0.091734 0.166908 0.152454
0.104315 0.178457 0.162453
0.116897 0.190007 0.172452
0.129478 0.201556 0.182450
0.142060 0.213105 0.192449
0.158080 0.225506 0.203265
0.174787 0.238077 0.214244
0.191494 0.250648 0.225223
0.208201 0.263218 0.236202
0.224909 0.275789 0.247181
0.246436 0.290724 0.259533
0.270373 0.306842 0.272570
0.294310 0.322959 0.285607
0.318248 0.339076 0.298645
0.342185 0.355193 0.311682
0.369193 0.372264 0.324974
0.399273 0.390289 0.338521
0.429354 0.408313 0.352067
0.459434 0.426338 0.365614
0.489514 0.444362 0.379161
0.520070 0.462140 0.392117
0.551577 0.479426 0.403892
0.583084 0.496711 0.415667
0.614591 0.513996 0.427442
0.646098 0.531281 0.439217
0.676565 0.547847 0.450274
0.701828 0.560819 0.457742
0.727092 0.573791 0.465209
0.752356 0.586763 0.472677
0.777619 0.599734 0.480145
0.802883 0.612706 0.487613
0.082414 0.178566 0.158384
0.095800 0.190362 0.168584
0.109187 0.202158 0.178784
0.122573 0.213954 0.188984
0.135960 0.225751 0.199184
0.149346 0.237547 0.209384
0.166232 0.250035 0.220057
0.183817 0.262660 0.230826
0.201403 0.275286 0.241595
0.218988 0.287912 0.252364
0.236574 0.300538 0.263132
0.258449 0.315491 0.275218
0.282468 0.331608 0.287963
0.306488 0.347725 0.300708
0.330507 0.363843 0.313452
0.354527 0.379960 0.326197
0.381504 0.396871 0.339105
0.411437 0.414575 0.352176
0.441371 0.432279 0.365247
0.471305 0.449984 0.378318
0.501238 0.467688 0.391388
0.531538 0.485039 0.403860
0.562570 0.501684 0.415132
0.593601 0.518329 0.426403
0.624632 0.534974 0.437675
0.655664 0.551618 0.448947
0.685635 0.567523 0.459538
0.710304 0.579726 0.466722
0.734973 0.591930 0.473906
0.759642 0.604133 0.481090
0.784311 0.616337 0.488274
0.808980 0.628540 0.495459
0.085675 0.201772 0.174312
0.099866 0.213816 0.184713
0.114058 0.225859 0.195114
0.128250 0.237902 0.205515
0.142441 0.249946 0.215917
0.156633 0.261989 0.226318
0.174384 0.274563 0.236850
0.192848 0.287244 0.247408
0.211312 0.299925 0.257967
0.229775 0.312605 0.268525
0.248239 0.325286 0.279083
0.270462 0.340258 0.290904
0.294563 0.356375 0.303356
0.318665 0.372492 0.315808
0.342767 0.388609 0.328260
0.366869 0.404726 0.340712
0.393814 0.421477 0.353235
0.423601 0.438861 0.365831
0.453388 0.456246 0.378426
0.483176 0.473630 0.391021
0.512963 0.491014 0.403616
0.543007 0.507938 0.415603
0.573562 0.523943 0.426371
0.604118 0.539947 0.437140
0.634674 0.555951 0.447909
0.665230 0.571956 0.458677
0.694705 0.587199 0.468801
0.718780 0.598634 0.475702
0.742854 0.610069 0.482603
0.766929 0.621504 0.489503
0.791003 0.632939 0.496404
0.815077 0.644374 0.503305
0.088936 0.224979 0.190240
0.103933 0.237270 0.200842
0.118929 0.249560 0.211445
0.133926 0.261850 0.222047
0.148923 0.274141 0.232650
0.163919 0.286431 0.243252
0.182537 0.299092 0.253643
0.201879 0.311828 0.263991
0.221221 0.324563 0.274339
0.240562 0.337299 0.284686
0.259904 0.350034 0.295034
0.282474 0.365024 0.306590
0.306659 0.381141 0.318749
0.330843 0.397259 0.330908
0.355027 0.413376 0.343067
0.379211 0.429493 0.355226
0.406124 0.446084 0.367366
0.435765 0.463148 0.379485
0.465406 0.480212 0.391605
0.495047 0.497276 0.403724
0.524688 0.514340 0.415844
0.554475 0.530837 0.427346
0.584555 0.546201 0.437611
0.614635 0.561565 0.447877
0.644715 0.576929 0.458142
0.674795 0.592293 0.468408
0.703775 0.606874 0.478065
0.727255 0.617541 0.484682
0.750735 0.628208 0.491299
0.774215 0.638874 0.497916
0.797695 0.649541 0.504533
0.821175 0.660207 0.511150
0.092197 0.248186 0.206168
0.107999 0.260724 0.216972
0.123801 0.273261 0.227776
0.139602 0.285798 0.238579
0.155404 0.298335 0.249383
0.171205 0.310873 0.260187
0.190689 0.323621 0.270435
0.210909 0.336411 0.280573
0.231129 0.349202 0.290710
0.251349 0.361992 0.300848
0.271569 0.374783 0.310985
0.294487 0.389791 0.322275
0.318754 0.405908 0.334142
0.343020 0.422025 0.346008
0.367287 0.438143 0.357875
0.391553 0.454260 0.369741
0.418434 0.470690 0.381496
0.447929 0.487434 0.393140
0.477423 0.504178 0.404784
0.506918 0.520922 0.416428
0.536412 0.537666 0.428072
0.565944 0.553736 0.439089
0.595548 0.568460 0.448851
0.625152 0.583183 0.458613
0.654757 0.597907 0.468376
0.684361 0.612631 0.478138
0.712846 0.626550 0.487329
0.735731 0.636448 0.493663
0.758616 0.646346 0.499996
0.781501 0.656245 0.506330
0.804386 0.666143 0.512663
0.827272 0.676041 0.518996
0.098011 0.277695 0.227232
0.114752 0.290138 0.238054
0.131493 0.302581 0.248876
0.148233 0.315023 0.259698
0.164974 0.327466 0.270521
0.181715 0.339909 0.281343
0.201802 0.352387 0.291332
0.222559 0.364873 0.301156
0.243316 0.377358 0.310979
0.264073 0.389844 0.320803
0.284829 0.402329 0.330626
0.307770 0.416675 0.341234
0.331801 0.431950 0.352235
0.355833 0.447226 0.363235
0.379865 0.462502 0.374235
0.403897 0.477777 0.385236
0.430465 0.493554 0.396281
0.459569 0.509831 0.407369
0.488673 0.526108 0.418458
0.517777 0.542386 0.429547
0.546882 0.558663 0.440636
0.575978 0.574217 0.451105
0.605058 0.588325 0.460334
0.634138 0.602432 0.469563
0.663218 0.616540 0.478791
0.692298 0.630648 0.488020
0.720258 0.643951 0.496713
0.742622 0.653233 0.502726
0.764986 0.662516 0.508739
0.787349 0.671798 0.514753
0.809713 0.681080 0.520766
0.832077 0.690362 0.526779
0.105101 0.310355 0.250865
0.122848 0.322532 0.261613
0.140595 0.334710 0.272362
0.158342 0.346887 0.283111
0.176089 0.359065 0.293860
0.193836 0.371242 0.304609
0.214396 0.383272 0.314282
0.235519 0.395273 0.323739
0.256641 0.407274 0.333197
0.277764 0.419274 0.342654
0.298887 0.431275 0.352112
0.321687 0.444617 0.361829
0.345325 0.458630 0.371677
0.368963 0.472644 0.381525
0.392602 0.486657 0.391373
0.416240 0.500670 0.401220
0.442355 0.515545 0.411392
0.470947 0.531283 0.421886
0.499539 0.547020 0.432380
0.528131 0.562758 0.442874
0.556723 0.578496 0.453369
0.585295 0.593489 0.463258
0.613826 0.606993 0.471938
0.642357 0.620497 0.480618
0.670888 0.634001 0.489298
0.699419 0.647504 0.497978
0.726842 0.660215 0.506157
0.748720 0.668957 0.511832
0.770599 0.677700 0.517506
0.792478 0.686442 0.523181
0.814357 0.695184 0.528856
0.836236 0.703927 0.534531
0.112190 0.343015 0.274497
0.130944 0.354927 0.285173
0.149697 0.366839 0.295848
0.168450 0.378751 0.306524
0.187204 0.390663 0.317200
0.205957 0.402576 0.327875
0.226990 0.414158 0.337231
0.248478 0.425673 0.346322
0.269967 0.437189 0.355414
0.291456 0.448705 0.364506
0.312944 0.460221 0.373597
0.335604 0.472560 0.382424
0.358849 0.485311 0.391120
0.382094 0.498061 0.399815
0.405339 0.510812 0.408510
0.428584 0.523563 0.417205
0.454246 0.537537 0.426502
0.482326 0.552735 0.436402
0.510406 0.567933 0.446302
0.538485 0.583131 0.456201
0.566565 0.598328 0.466101
0.594612 0.612760 0.475411
0.622594 0.625661 0.483542
0.650577 0.638561 0.491673
0.678559 0.651461 0.499804
0.706541 0.664361 0.507935
0.733425 0.676478 0.515600
0.754819 0.684681 0.520937
0.776213 0.692884 0.526273
0.797607 0.701086 0.531609
0.819001 0.709289 0.536946
0.840395 0.717492 0.542282
0.119280 0.375675 0.298129
0.139040 0.387321 0.308732
0.158799 0.398968 0.319334
0.178559 0.410615 0.329937
0.198319 0.422262 0.340539
0.218078 0.433909 0.351142
0.239584 0.445043 0.360180
0.261438 0.456074 0.368906
0.283293 0.467104 0.377631
0.305147 0.478135 0.386357
0.327002 0.489166 0.395083
0.349521 0.500502 0.403020
0.372373 0.511991 0.410562
0.395224 0.523479 0.418105
0.418076 0.534967 0.425647
0.440928 0.546456 0.433190
0.466137 0.559529 0.441613
0.493705 0.574187 0.450918
0.521272 0.588845 0.460223
0.548839 0.603503 0.469528
0.576407 0.618161 0.478833
0.603930 0.632032 0.487564
0.631363 0.644329 0.495146
0.658796 0.656625 0.502729
0.686229 0.668921 0.510311
0.713663 0.681218 0.517893
0.740009 0.692742 0.525044
0.760918 0.700405 0.530042
0.781827 0.708068 0.535040
0.802736 0.715731 0.540038
0.823645 0.723394 0.545036
0.844555 0.731057 0.550033
0.126370 0.408334 0.321761
0.147136 0.419716 0.332291
0.167902 0.431098 0.342820
0.188667 0.442479 0.353349
0.209433 0.453861 0.363879
0.230199 0.465242 0.374408
0.252177 0.475928 0.383129
0.274398 0.486474 0.391489
0.296618 0.497020 0.399849
0.318839 0.507566 0.408209
0.341059 0.518112 0.416568
0.363438 0.528445 0.423615
0.385896 0.538671 0.430005
0.408355 0.548897 0.436394
0.430813 0.559123 0.442784
0.453271 0.569348 0.449174
0.478028 0.581521 0.456724
0.505083 0.595639 0.465435
0.532138 0.609757 0.474145
0.559193 0.623876 0.482856
0.586249 0.637994 0.491566
0.613247 0.651304 0.499717
0.640131 0.662997 0.506751
0.667016 0.674689 0.513784
0.693900 0.686382 0.520817
0.720784 0.698074 0.527850
0.746592 0.709006 0.534488
0.767016 0.716129 0.539147
0.787441 0.723252 0.543807
0.807865 0.730375 0.548466
0.828290 0.737498 0.553125
0.848714 0.744622 0.557785
0.136933 0.442388 0.347450
0.158701 0.453358 0.357764
0.180469 0.464328 0.368078
0.202236 0.475298 0.378393
0.224004 0.486268 0.388707
0.245771 0.497238 0.399021
0.268111 0.507371 0.407318
0.290564 0.517336 0.415211
0.313018 0.527301 0.423104
0.335472 0.537266 0.430998
0.357926 0.547232 0.438891
0.380108 0.556700 0.445193
0.402155 0.565919 0.450700
0.424201 0.575139 0.456207
0.446248 0.584359 0.461715
0.468294 0.593578 0.467222
0.492303 0.604685 0.473825
0.518274 0.617678 0.481525
0.544246 0.630671 0.489224
0.570217 0.643664 0.496924
0.596188 0.656658 0.504623
0.622251 0.669016 0.511907
0.648500 0.680105 0.518359
0.674749 0.691194 0.524812
0.700997 0.702283 0.531264
0.727246 0.713371 0.537716
0.752443 0.723720 0.543806
0.772383 0.730368 0.548081
0.792322 0.737015 0.552356
0.812262 0.743663 0.556631
0.832201 0.750310 0.560907
0.852141 0.756958 0.565182
0.150971 0.477837 0.375194
0.173736 0.488249 0.385152
0.196500 0.498661 0.395109
0.219265 0.509073 0.405067
0.242030 0.519485 0.415024
0.264795 0.529896 0.424982
0.287384 0.539372 0.432746
0.309938 0.548660 0.440072
0.332493 0.557949 0.447398
0.355047 0.567237 0.454724
0.377601 0.576525 0.462050
0.399531 0.585267 0.467755
0.421147 0.593737 0.472649
0.442764 0.602206 0.477544
0.464381 0.610676 0.482438
0.485997 0.619145 0.487332
0.508963 0.629021 0.492915
0.533279 0.640304 0.499188
0.557594 0.651586 0.505460
0.581909 0.662869 0.511733
0.606225 0.674151 0.518005
0.630944 0.685168 0.524133
0.656469 0.695653 0.529973
0.681995 0.706138 0.535812
0.707521 0.716624 0.541652
0.733047 0.727109 0.547491
0.757561 0.736886 0.552998
0.777016 0.743121 0.556843
0.796471 0.749357 0.560689
0.815925 0.755593 0.564534
0.835380 0.761829 0.568379
0.854835 0.768065 0.572224
0.165008 0.513285 0.402938
0.188770 0.523139 0.412539
0.212532 0.532993 0.422140
0.236294 0.542847 0.431741
0.260056 0.552701 0.441342
0.283818 0.562555 0.450942
0.306657 0.571373 0.458175
0.329312 0.579984 0.464934
0.351967 0.588596 0.471692
0.374622 0.597207 0.478451
0.397277 0.605818 0.485210
0.418953 0.613835 0.490317
0.440140 0.621554 0.494598
0.461327 0.629274 0.498880
0.482514 0.636993 0.503161
0.503700 0.644713 0.507442
0.525623 0.653358 0.512006
0.548283 0.662930 0.516851
0.570942 0.672502 0.521696
0.593602 0.682074 0.526542
0.616262 0.691645 0.531387
0.639636 0.701320 0.536360
0.664439 0.711202 0.541586
0.689242 0.721083 0.546813
0.714045 0.730965 0.552039
0.738849 0.740846 0.557266
0.762680 0.750051 0.562190
0.781649 0.755875 0.565606
0.800619 0.761699 0.569021
0.819589 0.767524 0.572436
0.838559 0.773348 0.575851
0.857529 0.779172 0.579267
0.179046 0.548734 0.430683
0.203805 0.558030 0.439927
0.228564 0.567325 0.449171
0.253323 0.576621 0.458415
0.278082 0.585917 0.467659
0.302841 0.595213 0.476903
0.325931 0.603374 0.483603
0.348686 0.611309 0.489795
0.371442 0.619243 0.495986
0.394197 0.627177 0.502178
0.416953 0.635112 0.508370
0.438376 0.642403 0.512879
0.459133 0.649372 0.516548
0.479890 0.656341 0.520216
0.500646 0.663310 0.523884
0.521403 0.670280 0.527553
0.542283 0.677695 0.531096
0.563287 0.685556 0.534514
0.584291 0.693417 0.537932
0.605295 0.701278 0.541351
0.626298 0.709139 0.544769
0.648328 0.717473 0.548586
0.672408 0.726750 0.553199
0.696489 0.736028 0.557813
0.720569 0.745305 0.562427
0.744650 0.754583 0.567040
0.767798 0.763216 0.571383
0.786283 0.768629 0.574368
0.804768 0.774042 0.577353
0.823253 0.779454 0.580338
0.841738 0.784867 0.583324
0.860223 0.790279 0.586309
0.193084 0.584182 0.458427
0.218840 0.592920 0.467314
0.244596 0.601658 0.476201
0.270352 0.610396 0.485089
0.296108 0.619134 0.493976
0.321864 0.627871 0.502863
0.345204 0.635375 0.509031
0.368060 0.642633 0.514656
0.390916 0.649890 0.520280
0.413773 0.657148 0.525905
0.436629 0.664405 0.531529
0.457799 0.670970 0.535441
0.478126 0.677189 0.538497
0.498452 0.683408 0.541552
0.518779 0.689628 0.544607
0.539106 0.695847 0.547663
0.558943 0.702031 0.550186
0.578291 0.708182 0.552177
0.597639 0.714332 0.554169
0.616987 0.720483 0.556160
0.636335 0.726633 0.558151
0.657020 0.733625 0.560812
0.680378 0.742299 0.564813
0.703736 0.750973 0.568814
0.727093 0.759646 0.572814
0.750451 0.768320 0.576815
0.772916 0.776382 0.580575
0.790916 0.781383 0.583130
0.808916 0.786384 0.585685
0.826917 0.791385 0.588241
0.844917 0.796386 0.590796
0.862917 0.801386 0.593351
0.210871 0.617913 0.485825
0.237432 0.626081 0.494279
0.263993 0.634249 0.502733
0.290554 0.642416 0.511187
0.317115 0.650584 0.519642
0.343677 0.658751 0.528096
0.367064 0.665594 0.533681
0.389817 0.672171 0.538693
0.412569 0.678749 0.543704
0.435322 0.685326 0.548716
0.458074 0.691903 0.553727
0.478821 0.697756 0.557014
0.498566 0.703246 0.559438
0.518310 0.708737 0.561863
0.538054 0.714227 0.564287
0.557799 0.719717 0.566711
0.576627 0.724862 0.568352
0.594539 0.729662 0.569208
0.612450 0.734462 0.570065
0.630362 0.739261 0.570922
0.648274 0.744061 0.571779
0.667619 0.749885 0.573437
0.689830 0.757756 0.576697
0.712041 0.765628 0.579956
0.734253 0.773500 0.583216
0.756464 0.781372 0.586476
0.777890 0.788700 0.589542
0.795390 0.793307 0.591643
0.812890 0.797915 0.593744
0.830390 0.802522 0.595845
0.847890 0.807130 0.597946
0.865391 0.811737 0.600047
0.236157 0.648210 0.512529
0.263139 0.655783 0.520398
0.290121 0.663356 0.528267
0.317103 0.670929 0.536135
0.344085 0.678502 0.544004
0.371067 0.686075 0.551873
0.394098 0.692246 0.556774
0.416338 0.698138 0.561081
0.438578 0.704029 0.565388
0.460819 0.709920 0.569695
0.483059 0.715812 0.574002
0.503044 0.720978 0.576609
0.521901 0.725782 0.578366
0.540758 0.730587 0.580122
0.559615 0.735391 0.581878
0.578472 0.740195 0.583635
0.596358 0.744681 0.584667
0.613272 0.748850 0.584975
0.630187 0.753018 0.585283
0.647101 0.757187 0.585591
0.664016 0.761355 0.585899
0.682031 0.766359 0.586858
0.702248 0.773032 0.589121
0.722466 0.779705 0.591384
0.742683 0.786379 0.593646
0.762900 0.793052 0.595909
0.782575 0.799322 0.598061
0.799545 0.803573 0.599658
0.816514 0.807824 0.601256
0.833484 0.812074 0.602854
0.850453 0.816325 0.604452
0.867423 0.820576 0.606050
0.261444 0.678506 0.539234
0.288847 0.685485 0.546517
0.316249 0.692463 0.553800
0.343652 0.699442 0.561083
0.371055 0.706420 0.568367
0.398458 0.713398 0.575650
0.421132 0.718899 0.579866
0.442860 0.724104 0.583469
0.464588 0.729309 0.587072
0.486316 0.734515 0.590675
0.508043 0.739720 0.594277
0.527266 0.744200 0.596204
0.545236 0.748318 0.597293
0.563205 0.752437 0.598381
0.581175 0.756555 0.599470
0.599145 0.760673 0.600559
0.616088 0.764501 0.600982
0.632006 0.768038 0.600741
0.647923 0.771575 0.600501
0.663841 0.775112 0.600260
0.679758 0.778649 0.600019
0.696444 0.782833 0.600280
0.714667 0.788308 0.601546
0.732890 0.793783 0.602811
0.751112 0.799258 0.604076
0.769335 0.804733 0.605342
0.787261 0.809944 0.606579
0.803700 0.813838 0.607674
0.820139 0.817732 0.608768
0.836577 0.821626 0.609863
0.853016 0.825520 0.610958
0.869455 0.829414 0.612052
0.286730 0.708803 0.565938
0.314554 0.715187 0.572636
0.342378 0.721571 0.579334
0.370201 0.727954 0.586032
0.398025 0.734338 0.592729
0.425848 0.740722 0.599427
0.448165 0.745552 0.602959
0.469381 0.750071 0.605857
0.490597 0.754590 0.608756
0.511812 0.759109 0.611654
0.533028 0.763628 0.614552
0.551488 0.767423 0.615799
0.568571 0.770855 0.616220
0.585653 0.774287 0.616641
0.602735 0.777719 0.617061
0.619818 0.781151 0.617482
0.635819 0.784320 0.617298
0.650739 0.787226 0.616508
0.665660 0.790132 0.615718
0.680580 0.793038 0.614928
0.695500 0.795944 0.614139
0.710857 0.799307 0.613702
0.727085 0.803583 0.613970
0.743314 0.807860 0.614238
0.759542 0.812137 0.614507
0.775771 0.816413 0.614775
0.791946 0.820567 0.615097
0.807854 0.824104 0.615689
0.823763 0.827641 0.616280
0.839671 0.831178 0.616872
0.855579 0.834716 0.617463
0.871488 0.838253 0.618055
0.312017 0.739100 0.592642
0.340261 0.744889 0.598755
0.368506 0.750678 0.604867
0.396750 0.756467 0.610980
0.424995 0.762256 0.617092
0.453239 0.768045 0.623204
0.475199 0.772204 0.626051
0.495903 0.776037 0.628245
0.516606 0.779870 0.630439
0.537309 0.783703 0.632633
0.558013 0.787536 0.634827
0.575711 0.790645 0.635394
0.591906 0.793391 0.635147
0.608101 0.796137 0.634900
0.624296 0.798882 0.634653
0.640490 0.801628 0.634406
0.655550 0.804139 0.633613
0.669473 0.806413 0.632275
0.683396 0.808688 0.630936
0.697319 0.810963 0.629597
0.711242 0.813238 0.628259
0.725269 0.815781 0.627123
0.739504 0.818859 0.626394
0.753738 0.821937 0.625666
0.767972 0.825015 0.624937
0.782206 0.828094 0.624208
0.796631 0.831189 0.623616
0.812009 0.834369 0.623704
0.827387 0.837550 0.623792
0.842765 0.840730 0.623881
0.858142 0.843911 0.623969
0.873520 0.847091 0.624058
0.339879 0.767695 0.618394
0.368289 0.772921 0.623899
0.396698 0.778148 0.629405
0.425107 0.783374 0.634910
0.453516 0.788601 0.640416
0.481925 0.793827 0.645922
0.503332 0.797348 0.648078
0.523338 0.800527 0.649565
0.543345 0.803705 0.651051
0.563352 0.806884 0.652538
0.583358 0.810063 0.654024
0.600160 0.812517 0.653918
0.615359 0.814609 0.653015
0.630559 0.816701 0.652113
0.645758 0.818793 0.651210
0.660958 0.820885 0.650308
0.675003 0.822771 0.648922
0.687894 0.824451 0.647055
0.700785 0.826131 0.645187
0.713676 0.827811 0.643319
0.726567 0.829492 0.641452
0.739303 0.831284 0.639670
0.751729 0.833301 0.638062
0.764155 0.835318 0.636453
0.776581 0.837335 0.634845
0.789007 0.839353 0.633236
0.801822 0.841505 0.631833
0.816580 0.844335 0.631458
0.831339 0.847165 0.631083
0.846098 0.849994 0.630708
0.860857 0.852824 0.630333
0.875615 0.855654 0.629958
0.380622 0.787782 0.639379
0.407915 0.792606 0.644171
0.435208 0.797430 0.648963
0.462501 0.802254 0.653755
0.489794 0.807078 0.658547
0.517087 0.811902 0.663339
0.536958 0.814944 0.664775
0.555346 0.817629 0.665538
0.573733 0.820314 0.666302
0.592121 0.822999 0.667066
0.610508 0.825683 0.667830
0.625745 0.827644 0.667086
0.639408 0.829242 0.665589
0.653070 0.830839 0.664092
0.666733 0.832437 0.662595
0.680395 0.834035 0.661098
0.693068 0.835468 0.659200
0.704752 0.836737 0.656902
0.716435 0.838005 0.654605
0.728119 0.839274 0.652307
0.739802 0.840542 0.650009
0.751441 0.841935 0.647844
