Assets/1__3DArt/KimSe/artstation_asset/LUTs_subway_asset/CUBE/Paranormal 02_S.cube
# LUT by SparkleStock. Enhanced with VOXCOLOR algorithms.
LUT_3D_SIZE 32
0.019536 0.027350 0.042979
0.026342 0.031084 0.048037
0.033148 0.034818 0.053094
0.039954 0.038552 0.058151
0.046760 0.042286 0.063208
0.053567 0.046020 0.068266
0.066123 0.051881 0.076553
0.079830 0.058167 0.085486
0.093537 0.064453 0.094419
0.107243 0.070739 0.103352
0.120950 0.077025 0.112285
0.142282 0.086683 0.124715
0.167427 0.098027 0.138895
0.192572 0.109370 0.153074
0.217716 0.120714 0.167254
0.242861 0.132057 0.181433
0.273181 0.146591 0.197503
0.308677 0.164315 0.215463
0.344173 0.182039 0.233424
0.379668 0.199764 0.251384
0.415164 0.217488 0.269345
0.451778 0.236945 0.287179
0.490630 0.259868 0.304762
0.529481 0.282792 0.322344
0.568333 0.305715 0.339927
0.607184 0.328638 0.357509
0.644657 0.351530 0.374028
0.675237 0.374264 0.385230
0.705817 0.396999 0.396432
0.736398 0.419733 0.407633
0.766978 0.442467 0.418835
0.797558 0.465201 0.430037
0.022845 0.040679 0.050542
0.030867 0.046023 0.055690
0.038890 0.051367 0.060839
0.046913 0.056711 0.065988
0.054936 0.062055 0.071137
0.062958 0.067399 0.076286
0.076838 0.074161 0.084291
0.091890 0.081206 0.092867
0.106941 0.088252 0.101443
0.121993 0.095297 0.110019
0.137044 0.102343 0.118595
0.159319 0.112516 0.130614
0.185204 0.124252 0.144355
0.211090 0.135989 0.158095
0.236976 0.147726 0.171835
0.262862 0.159463 0.185575
0.293433 0.174235 0.201353
0.328691 0.192041 0.219167
0.363949 0.209848 0.236981
0.399207 0.227654 0.254795
0.434465 0.245461 0.272609
0.470576 0.264936 0.290508
0.508394 0.287750 0.308575
0.546211 0.310564 0.326642
0.584029 0.333377 0.344710
0.621847 0.356191 0.362777
0.658256 0.378977 0.379913
0.687619 0.401629 0.392396
0.716983 0.424281 0.404878
0.746346 0.446933 0.417361
0.775710 0.469585 0.429843
0.805073 0.492237 0.442325
0.026153 0.054008 0.058104
0.035393 0.060962 0.063344
0.044632 0.067916 0.068584
0.053871 0.074870 0.073825
0.063111 0.081824 0.079065
0.072350 0.088778 0.084305
0.087554 0.096441 0.092028
0.103950 0.104245 0.100248
0.120346 0.112050 0.108467
0.136742 0.119855 0.116687
0.153139 0.127660 0.124906
0.176355 0.138348 0.136513
0.202982 0.150478 0.149814
0.229609 0.162608 0.163116
0.256235 0.174739 0.176417
0.282862 0.186869 0.189718
0.313686 0.201878 0.205202
0.348705 0.219767 0.222870
0.383725 0.237656 0.240538
0.418745 0.255545 0.258206
0.453765 0.273434 0.275874
0.489373 0.292928 0.293836
0.526158 0.315631 0.312388
0.562942 0.338335 0.330940
0.599726 0.361039 0.349492
0.636510 0.383743 0.368045
0.671854 0.406424 0.385799
0.700001 0.428994 0.399562
0.728148 0.451563 0.413325
0.756295 0.474133 0.427088
0.784441 0.496703 0.440851
0.812588 0.519272 0.454614
0.029462 0.067336 0.065666
0.039918 0.075900 0.070998
0.050374 0.084464 0.076330
0.060830 0.093028 0.081661
0.071286 0.101592 0.086993
0.081742 0.110156 0.092325
0.098269 0.118720 0.099766
0.116010 0.127284 0.107629
0.133751 0.135849 0.115491
0.151492 0.144413 0.123354
0.169233 0.152977 0.131217
0.193392 0.164180 0.142412
0.220760 0.176704 0.155274
0.248127 0.189227 0.168136
0.275495 0.201751 0.180998
0.302863 0.214275 0.193860
0.333938 0.229522 0.209052
0.368720 0.247493 0.226574
0.403502 0.265464 0.244095
0.438284 0.283436 0.261616
0.473066 0.301407 0.279138
0.508171 0.320919 0.297165
0.543921 0.343513 0.316201
0.579672 0.366107 0.335238
0.615422 0.388701 0.354275
0.651172 0.411295 0.373312
0.685453 0.433871 0.391684
0.712383 0.456358 0.406728
0.739313 0.478846 0.421771
0.766243 0.501333 0.436815
0.793173 0.523820 0.451859
0.820103 0.546307 0.466903
0.032770 0.080665 0.073229
0.044443 0.090839 0.078652
0.056116 0.101013 0.084075
0.067789 0.111187 0.089498
0.079461 0.121361 0.094921
0.091134 0.131535 0.100345
0.108984 0.141000 0.107504
0.128070 0.150324 0.115009
0.147156 0.159647 0.122515
0.166242 0.168970 0.130021
0.185327 0.178294 0.137527
0.210428 0.190013 0.148311
0.238537 0.202930 0.160734
0.266646 0.215847 0.173157
0.294755 0.228764 0.185580
0.322863 0.241680 0.198003
0.354190 0.257166 0.212902
0.388734 0.275219 0.230277
0.423278 0.293273 0.247652
0.457823 0.311326 0.265027
0.492367 0.329380 0.282402
0.526969 0.348910 0.300493
0.561685 0.371395 0.320015
0.596402 0.393879 0.339536
0.631118 0.416363 0.359058
0.665835 0.438847 0.378580
0.699051 0.461318 0.397569
0.724764 0.483723 0.413893
0.750478 0.506128 0.430218
0.776191 0.528533 0.446543
0.801905 0.550938 0.462867
0.827618 0.573343 0.479192
0.036079 0.093993 0.080791
0.048968 0.105778 0.086306
0.061858 0.117562 0.091820
0.074747 0.129346 0.097335
0.087637 0.141130 0.102850
0.100526 0.152914 0.108364
0.119700 0.163280 0.115241
0.140130 0.173363 0.122390
0.160561 0.183445 0.129539
0.180991 0.193528 0.136689
0.201422 0.203611 0.143838
0.227465 0.215845 0.154210
0.256315 0.229155 0.166194
0.285164 0.242466 0.178178
0.314014 0.255776 0.190162
0.342864 0.269086 0.202145
0.374442 0.284809 0.216752
0.408748 0.302945 0.233980
0.443055 0.321081 0.251209
0.477361 0.339217 0.268438
0.511668 0.357353 0.285667
0.545766 0.376902 0.303821
0.579449 0.399276 0.323828
0.613132 0.421650 0.343834
0.646815 0.444025 0.363841
0.680498 0.466399 0.383848
0.712649 0.488765 0.403454
0.737146 0.511088 0.421059
0.761643 0.533410 0.438665
0.786140 0.555733 0.456270
0.810637 0.578056 0.473875
0.835133 0.600378 0.491481
0.041514 0.120517 0.096349
0.055048 0.132836 0.102336
0.068583 0.145155 0.108324
0.082117 0.157475 0.114311
0.095652 0.169794 0.120298
0.109186 0.182113 0.126286
0.128876 0.192636 0.132442
0.149798 0.202799 0.138632
0.170719 0.212963 0.144822
0.191641 0.223126 0.151012
0.212562 0.233289 0.157202
0.239014 0.245437 0.166830
0.268231 0.258577 0.178177
0.297448 0.271716 0.189523
0.326665 0.284856 0.200870
0.355883 0.297995 0.212216
0.387583 0.313388 0.226286
0.421766 0.331035 0.243079
0.455949 0.348681 0.259871
0.490131 0.366328 0.276664
0.524314 0.383974 0.293457
0.558121 0.402995 0.311325
0.591174 0.424764 0.331343
0.624227 0.446533 0.351362
0.657280 0.468302 0.371381
0.690334 0.490071 0.391400
0.721843 0.511855 0.411124
0.745634 0.533714 0.429378
0.769425 0.555574 0.447631
0.793216 0.577433 0.465884
0.817006 0.599292 0.484138
0.840797 0.621151 0.502391
0.047375 0.149679 0.113506
0.061440 0.162318 0.120042
0.075505 0.174958 0.126578
0.089570 0.187597 0.133115
0.103635 0.200237 0.139651
0.117700 0.212876 0.146187
0.137745 0.223407 0.151535
0.158987 0.233515 0.156646
0.180229 0.243624 0.161757
0.201470 0.253732 0.166867
0.222712 0.263841 0.171978
0.249466 0.275781 0.180795
0.278976 0.288637 0.191464
0.308485 0.301493 0.202134
0.337995 0.314349 0.212803
0.367505 0.327205 0.223473
0.399301 0.342154 0.236957
0.433384 0.359197 0.253256
0.467466 0.376239 0.269554
0.501548 0.393282 0.285853
0.535630 0.410325 0.302152
0.569187 0.428708 0.319663
0.601691 0.449773 0.339599
0.634195 0.470838 0.359536
0.666700 0.491902 0.379472
0.699204 0.512967 0.399409
0.730155 0.534074 0.419152
0.753343 0.555394 0.437927
0.776530 0.576713 0.456701
0.799717 0.598032 0.475476
0.822904 0.619352 0.494251
0.846091 0.640671 0.513025
0.053236 0.178841 0.130663
0.067831 0.191801 0.137748
0.082427 0.204761 0.144833
0.097022 0.217720 0.151918
0.111618 0.230680 0.159003
0.126214 0.243639 0.166088
0.146614 0.254177 0.170629
0.168176 0.264231 0.174660
0.189738 0.274285 0.178691
0.211300 0.284338 0.182722
0.232862 0.294392 0.186753
0.259917 0.306125 0.194759
0.289720 0.318697 0.204752
0.319522 0.331269 0.214744
0.349325 0.343842 0.224737
0.379128 0.356414 0.234730
0.411020 0.370920 0.247628
0.445001 0.387359 0.263433
0.478983 0.403798 0.279238
0.512965 0.420237 0.295042
0.546947 0.436676 0.310847
0.580253 0.454422 0.328001
0.612208 0.474782 0.347855
0.644164 0.495142 0.367710
0.676119 0.515503 0.387564
0.708074 0.535863 0.407418
0.738468 0.556293 0.427179
0.761051 0.577073 0.446475
0.783635 0.597853 0.465771
0.806218 0.618632 0.485068
0.828801 0.639412 0.504364
0.851384 0.660191 0.523660
0.059096 0.208003 0.147820
0.074223 0.221283 0.155454
0.089349 0.234563 0.163088
0.104475 0.247843 0.170722
0.119601 0.261123 0.178356
0.134727 0.274403 0.185990
0.155483 0.284948 0.189722
0.177365 0.294947 0.192674
0.199247 0.304946 0.195625
0.221129 0.314944 0.198577
0.243011 0.324943 0.201529
0.270369 0.336469 0.208723
0.300464 0.348757 0.218039
0.330559 0.361046 0.227355
0.360655 0.373335 0.236670
0.390750 0.385624 0.245986
0.422738 0.399686 0.258299
0.456619 0.415521 0.273610
0.490500 0.431356 0.288921
0.524382 0.447191 0.304231
0.558263 0.463026 0.319542
0.591319 0.480135 0.336340
0.622725 0.499791 0.356112
0.654132 0.519447 0.375883
0.685538 0.539103 0.395655
0.716945 0.558759 0.415427
0.746780 0.578512 0.435207
0.768760 0.598752 0.455024
0.790739 0.618992 0.474842
0.812719 0.639232 0.494659
0.834699 0.659472 0.514477
0.856678 0.679712 0.534294
0.064957 0.237166 0.164977
0.080614 0.250766 0.173160
0.096271 0.264366 0.181343
0.111928 0.277966 0.189526
0.127584 0.291566 0.197708
0.143241 0.305166 0.205891
0.164352 0.315719 0.208815
0.186555 0.325663 0.210688
0.208757 0.335607 0.212560
0.230959 0.345550 0.214432
0.253161 0.355494 0.216304
0.280820 0.366812 0.222688
0.311208 0.378818 0.231326
0.341597 0.390823 0.239965
0.371985 0.402828 0.248604
0.402373 0.414833 0.257243
0.434457 0.428451 0.268970
0.468237 0.443683 0.283787
0.502018 0.458914 0.298604
0.535798 0.474146 0.313420
0.569579 0.489377 0.328237
0.602385 0.505848 0.344678
0.633242 0.524800 0.364368
0.664100 0.543752 0.384057
0.694958 0.562703 0.403747
0.725815 0.581655 0.423436
0.755093 0.600731 0.443234
0.776469 0.620431 0.463573
0.797844 0.640131 0.483912
0.819220 0.659832 0.504251
0.840596 0.679532 0.524590
0.861972 0.699232 0.544929
0.074158 0.274899 0.189917
0.090400 0.288306 0.198362
0.106643 0.301714 0.206807
0.122885 0.315122 0.215252
0.139127 0.328530 0.223697
0.155369 0.341938 0.232142
0.176713 0.352225 0.234917
0.199077 0.361889 0.236558
0.221440 0.371552 0.238198
0.243804 0.381215 0.239839
0.266168 0.390879 0.241479
0.293491 0.401430 0.246785
0.323293 0.412426 0.253924
0.353096 0.423422 0.261062
0.382899 0.434418 0.268200
0.412701 0.445414 0.275339
0.444369 0.458119 0.285908
0.477903 0.472533 0.299907
0.511436 0.486947 0.313907
0.544970 0.501361 0.327906
0.578503 0.515776 0.341906
0.610990 0.531382 0.357634
0.641384 0.549373 0.376821
0.671778 0.567364 0.396007
0.702173 0.585355 0.415193
0.732567 0.603346 0.434380
0.761382 0.621479 0.453743
0.782300 0.640323 0.473994
0.803218 0.659166 0.494245
0.824137 0.678009 0.514495
0.845055 0.696852 0.534746
0.865973 0.715696 0.554996
0.085029 0.316917 0.218748
0.101884 0.329876 0.227312
0.118739 0.342836 0.235876
0.135594 0.355796 0.244440
0.152450 0.368755 0.253004
0.169305 0.381715 0.261568
0.190819 0.391600 0.264523
0.213265 0.400870 0.266356
0.235711 0.410140 0.268188
0.258157 0.419410 0.270021
0.280603 0.428680 0.271854
0.307271 0.438185 0.275949
0.336049 0.447809 0.281175
0.364827 0.457433 0.286402
0.393605 0.467056 0.291628
0.422383 0.476680 0.296855
0.453378 0.488237 0.305979
0.486592 0.501727 0.318999
0.519805 0.515218 0.332020
0.553018 0.528708 0.345040
0.586232 0.542198 0.358061
0.618365 0.556826 0.372899
0.648338 0.573728 0.391372
0.678312 0.590630 0.409845
0.708285 0.607533 0.428318
0.738258 0.624435 0.446790
0.766658 0.641492 0.465494
0.787193 0.659320 0.485351
0.807727 0.677148 0.505208
0.828261 0.694976 0.525066
0.848795 0.712803 0.544923
0.869329 0.730631 0.564780
0.095900 0.358935 0.247580
0.113368 0.371446 0.256263
0.130836 0.383958 0.264946
0.148304 0.396469 0.273629
0.165772 0.408981 0.282311
0.183240 0.421492 0.290994
0.204925 0.430974 0.294129
0.227454 0.439851 0.296154
0.249982 0.448727 0.298178
0.272510 0.457604 0.300203
0.295039 0.466481 0.302228
0.321051 0.474941 0.305113
0.348804 0.483192 0.308427
0.376558 0.491443 0.311742
0.404311 0.499695 0.315056
0.432064 0.507946 0.318371
0.462388 0.518355 0.326049
0.495281 0.530922 0.338091
0.528174 0.543488 0.350133
0.561067 0.556054 0.362175
0.593960 0.568620 0.374216
0.625740 0.582269 0.388164
0.655292 0.598083 0.405923
0.684845 0.613897 0.423683
0.714397 0.629711 0.441442
0.743950 0.645524 0.459201
0.771935 0.661505 0.477245
0.792085 0.678317 0.496708
0.812235 0.695130 0.516172
0.832385 0.711942 0.535636
0.852535 0.728755 0.555100
0.872685 0.745567 0.574564
0.106771 0.400953 0.276411
0.124852 0.413016 0.285213
0.142933 0.425079 0.294015
0.161014 0.437143 0.302817
0.179095 0.449206 0.311619
0.197176 0.461269 0.320420
0.219031 0.470349 0.323735
0.241642 0.478832 0.325952
0.264253 0.487315 0.328169
0.286864 0.495798 0.330385
0.309474 0.504282 0.332602
0.334831 0.511696 0.334276
0.361559 0.518575 0.335679
0.388288 0.525454 0.337082
0.415017 0.532333 0.338484
0.441746 0.539213 0.339887
0.471397 0.548473 0.346120
0.503970 0.560116 0.357183
0.536543 0.571758 0.368246
0.569116 0.583400 0.379309
0.601689 0.595043 0.390372
0.633114 0.607713 0.403429
0.662246 0.622438 0.420475
0.691378 0.637163 0.437520
0.720510 0.651888 0.454566
0.749641 0.666614 0.471612
0.777212 0.681517 0.488995
0.796978 0.697314 0.508066
0.816744 0.713111 0.527136
0.836509 0.728909 0.546207
0.856275 0.744706 0.565277
0.876041 0.760503 0.584348
0.117641 0.442971 0.305242
0.136335 0.454586 0.314163
0.155029 0.466201 0.323084
0.173723 0.477816 0.332005
0.192417 0.489431 0.340926
0.211111 0.501046 0.349846
0.233138 0.509723 0.353341
0.255831 0.517813 0.355750
0.278524 0.525903 0.358159
0.301217 0.533993 0.360568
0.323910 0.542083 0.362977
0.348610 0.548451 0.363440
0.374315 0.553958 0.362931
0.400019 0.559465 0.362422
0.425723 0.564972 0.361912
0.451428 0.570479 0.361403
0.480406 0.578592 0.366191
0.512659 0.589310 0.376275
0.544912 0.600028 0.386359
0.577164 0.610747 0.396443
0.609417 0.621465 0.406527
0.640489 0.633156 0.418694
0.669200 0.646793 0.435026
0.697911 0.660430 0.451358
0.726622 0.674066 0.467690
0.755333 0.687703 0.484023
0.782489 0.701530 0.500746
0.801871 0.716312 0.519423
0.821252 0.731093 0.538100
0.840634 0.745875 0.556777
0.860015 0.760657 0.575454
0.879397 0.775438 0.594131
0.131868 0.485604 0.337146
0.151138 0.496560 0.345902
0.170409 0.507516 0.354658
0.189679 0.518473 0.363414
0.208949 0.529429 0.372171
0.228219 0.540385 0.380927
0.250376 0.548518 0.384458
0.273110 0.556087 0.386945
0.295845 0.563655 0.389432
0.318579 0.571224 0.391919
0.341313 0.578792 0.394405
0.365512 0.584382 0.394285
0.390443 0.588984 0.392861
0.415375 0.593585 0.391437
0.440306 0.598187 0.390013
0.465237 0.602788 0.388589
0.493230 0.609776 0.392105
0.524284 0.619149 0.400560
0.555339 0.628523 0.409016
0.586393 0.637897 0.417472
0.617447 0.647270 0.425928
0.647559 0.657688 0.436677
0.675785 0.670195 0.452012
0.704011 0.682702 0.467347
0.732237 0.695209 0.482682
0.760463 0.707715 0.498017
0.787152 0.720418 0.513782
0.806154 0.734097 0.531695
0.825156 0.747776 0.549608
0.844158 0.761455 0.567521
0.863160 0.775135 0.585435
0.882162 0.788814 0.603348
0.149451 0.528851 0.372122
0.169261 0.538938 0.380430
0.189070 0.549025 0.388738
0.208880 0.559113 0.397045
0.228690 0.569200 0.405353
0.248500 0.579287 0.413661
0.270747 0.586734 0.417088
0.293481 0.593653 0.419538
0.316216 0.600572 0.421988
0.338950 0.607491 0.424438
0.361684 0.614410 0.426888
0.385536 0.619491 0.426810
0.409945 0.623653 0.425469
0.434355 0.627815 0.424127
0.458765 0.631978 0.422785
0.483175 0.636140 0.421444
0.509869 0.642025 0.423862
0.538847 0.649633 0.430040
0.567824 0.657241 0.436218
0.596802 0.664850 0.442396
0.625780 0.672458 0.448573
0.654324 0.681308 0.457377
0.682001 0.692644 0.471431
0.709678 0.703980 0.485486
0.737356 0.715316 0.499540
0.765033 0.726652 0.513594
0.791202 0.738180 0.528103
0.809828 0.750670 0.544882
0.828455 0.763160 0.561661
0.847082 0.775650 0.578439
0.865709 0.788140 0.595218
0.884336 0.800630 0.611997
0.167033 0.572098 0.407098
0.187383 0.581316 0.414957
0.207732 0.590534 0.422817
0.228082 0.599752 0.430676
0.248432 0.608971 0.438536
0.268781 0.618189 0.446396
0.291118 0.624950 0.449717
0.313852 0.631219 0.452131
0.336587 0.637488 0.454544
0.359321 0.643758 0.456958
0.382055 0.650027 0.459371
0.405559 0.654599 0.459336
0.429447 0.658322 0.458077
0.453336 0.662046 0.456817
0.477224 0.665769 0.455558
0.501113 0.669492 0.454299
0.526507 0.674275 0.455619
0.553409 0.680118 0.459519
0.580310 0.685960 0.463419
0.607211 0.691803 0.467319
0.634112 0.697645 0.471219
0.661089 0.704928 0.478077
0.688217 0.715093 0.490851
0.715346 0.725258 0.503625
0.742474 0.735423 0.516398
0.769602 0.745588 0.529172
0.795251 0.755942 0.542424
0.813503 0.767243 0.558068
0.831755 0.778544 0.573713
0.850006 0.789845 0.589358
0.868258 0.801146 0.605002
0.886510 0.812446 0.620647
0.184615 0.615345 0.442073
0.205505 0.623694 0.449485
0.226394 0.632043 0.456896
0.247284 0.640392 0.464308
0.268173 0.648741 0.471719
0.289062 0.657091 0.479130
0.311489 0.663165 0.482346
0.334223 0.668785 0.484723
0.356958 0.674405 0.487100
0.379692 0.680025 0.489477
0.402426 0.685645 0.491854
0.425582 0.689708 0.491862
0.448949 0.692992 0.490685
0.472316 0.696276 0.489508
0.495683 0.699560 0.488331
0.519050 0.702844 0.487154
0.543146 0.706525 0.487376
0.567971 0.710602 0.488998
0.592795 0.714679 0.490621
0.617620 0.718756 0.492243
0.642444 0.722832 0.493865
0.667854 0.728548 0.498778
0.694433 0.737542 0.510271
0.721013 0.746536 0.521763
0.747592 0.755530 0.533256
0.774172 0.764524 0.544749
0.799301 0.773705 0.556745
0.817177 0.783816 0.571255
0.835054 0.793928 0.585765
0.852931 0.804039 0.600276
0.870807 0.814151 0.614786
0.888684 0.824262 0.629296
0.202198 0.658592 0.477049
0.223627 0.666072 0.484012
0.245056 0.673552 0.490975
0.266485 0.681032 0.497939
0.287914 0.688512 0.504902
0.309344 0.695992 0.511865
0.331860 0.701381 0.514976
0.354595 0.706351 0.517316
0.377329 0.711322 0.519656
0.400063 0.716292 0.521997
0.422797 0.721263 0.524337
0.445606 0.724816 0.524387
0.468451 0.727661 0.523293
0.491297 0.730506 0.522198
0.514142 0.733351 0.521103
0.536988 0.736196 0.520009
0.559785 0.738774 0.519133
0.582533 0.741086 0.518478
0.605281 0.743397 0.517822
0.628029 0.745709 0.517167
0.650777 0.748020 0.516511
0.674619 0.752169 0.519478
0.700649 0.759992 0.529690
0.726680 0.767815 0.539902
0.752711 0.775638 0.550115
0.778741 0.783461 0.560327
0.803350 0.791467 0.571066
0.820852 0.800389 0.584442
0.838353 0.809312 0.597818
0.855855 0.818234 0.611194
0.873357 0.827156 0.624570
0.890858 0.836079 0.637946
0.222222 0.698310 0.510796
0.244112 0.704940 0.517207
0.266001 0.711569 0.523618
0.287891 0.718198 0.530030
0.309781 0.724827 0.536441
0.331670 0.731456 0.542852
0.354193 0.736165 0.545757
0.376841 0.740489 0.547960
0.399490 0.744813 0.550163
0.422139 0.749136 0.552366
0.444788 0.753460 0.554569
0.467170 0.756508 0.554606
0.489417 0.758917 0.553560
0.511665 0.761326 0.552514
0.533913 0.763735 0.551468
0.556161 0.766144 0.550423
0.577796 0.767876 0.548819
0.598818 0.768931 0.546657
0.619840 0.769986 0.544495
0.640862 0.771041 0.542333
0.661884 0.772096 0.540171
0.684202 0.774991 0.541615
0.709110 0.781567 0.550272
0.734019 0.788143 0.558929
0.758927 0.794719 0.567586
0.783836 0.801295 0.576243
0.807441 0.808073 0.585481
0.824531 0.815861 0.597622
0.841621 0.823649 0.609763
0.858711 0.831437 0.621904
0.875801 0.839225 0.634044
0.892891 0.847012 0.646185
0.247131 0.730970 0.542085
0.269322 0.736785 0.547737
0.291514 0.742600 0.553389
0.313705 0.748415 0.559041
0.335897 0.754230 0.564693
0.358088 0.760045 0.570345
0.380447 0.764084 0.572841
0.402840 0.767768 0.574705
0.425233 0.771451 0.576570
0.447625 0.775135 0.578435
0.470018 0.778819 0.580299
0.491814 0.781366 0.580211
0.513312 0.783345 0.579147
0.534810 0.785324 0.578083
0.556307 0.787303 0.577019
0.577805 0.789282 0.575955
0.598553 0.790680 0.574360
0.618550 0.791497 0.572234
0.638548 0.792314 0.570109
0.658545 0.793132 0.567984
0.678543 0.793949 0.565858
0.699421 0.796219 0.566626
0.722061 0.801395 0.573179
0.744700 0.806572 0.579732
0.767340 0.811748 0.586285
0.789980 0.816924 0.592838
0.811614 0.822365 0.600083
0.828219 0.829128 0.610787
0.844824 0.835892 0.621492
0.861429 0.842655 0.632197
0.878034 0.849418 0.642901
0.894639 0.856182 0.653606
0.272039 0.763630 0.573374
0.294532 0.768631 0.578267
0.317026 0.773632 0.583160
0.339519 0.778633 0.588052
0.362013 0.783634 0.592945
0.384506 0.788634 0.597838
0.406702 0.792004 0.599925
0.428838 0.795047 0.601451
0.450975 0.798090 0.602977
0.473112 0.801134 0.604503
0.495248 0.804177 0.606030
0.516459 0.806224 0.605817
0.537206 0.807773 0.604734
0.557954 0.809322 0.603652
0.578702 0.810871 0.602569
0.599449 0.812420 0.601487
0.619310 0.813484 0.599901
0.638283 0.814064 0.597812
0.657255 0.814643 0.595723
0.676228 0.815222 0.593635
0.695201 0.815802 0.591546
0.714640 0.817447 0.591636
0.735011 0.821224 0.596085
0.755382 0.825000 0.600534
0.775753 0.828777 0.604983
0.796124 0.832553 0.609432
0.815787 0.836657 0.614684
0.831907 0.842396 0.623953
0.848027 0.848135 0.633221
0.864148 0.853873 0.642490
0.880268 0.859612 0.651758
0.896388 0.865351 0.661026
0.296947 0.796290 0.604663
0.319743 0.800476 0.608797
0.342538 0.804663 0.612930
0.365333 0.808850 0.617064
0.388128 0.813037 0.621197
0.410924 0.817223 0.625330
0.432957 0.819924 0.627009
0.454837 0.822326 0.628197
0.476718 0.824729 0.629384
0.498598 0.827132 0.630572
0.520478 0.829535 0.631760
0.541104 0.831082 0.631422
0.561101 0.832201 0.630321
0.581098 0.833320 0.629220
0.601096 0.834439 0.628119
0.621093 0.835558 0.627019
0.640066 0.836289 0.625442
0.658015 0.836630 0.623390
0.675963 0.836972 0.621338
0.693911 0.837313 0.619285
0.711860 0.837655 0.617233
0.729859 0.838675 0.616647
0.747962 0.841052 0.618992
0.766064 0.843429 0.621337
0.784166 0.845806 0.623682
0.802269 0.848183 0.626027
0.819960 0.850949 0.629286
0.835595 0.855663 0.637118
0.851231 0.860378 0.644950
0.866866 0.865092 0.652783
0.882502 0.869806 0.660615
0.898137 0.874520 0.668447
0.321856 0.828950 0.635953
0.344953 0.832322 0.639327
0.368050 0.835695 0.642701
0.391147 0.839067 0.646075
0.414244 0.842440 0.649449
0.437342 0.845812 0.652823
0.459211 0.847843 0.654093
0.480836 0.849606 0.654942
0.502460 0.851368 0.655791
0.524084 0.853131 0.656641
0.545709 0.854893 0.657490
0.565748 0.855940 0.657027
0.584996 0.856629 0.655908
0.604243 0.857318 0.654789
0.623490 0.858008 0.653670
0.642738 0.858697 0.652551
0.660823 0.859093 0.650983
0.677747 0.859197 0.648968
0.694671 0.859301 0.646952
0.711594 0.859404 0.644936
0.728518 0.859508 0.642921
0.745079 0.859903 0.641657
0.760912 0.860880 0.641898
0.776746 0.861857 0.642139
0.792579 0.862835 0.642380
0.808413 0.863812 0.642621
0.824133 0.865241 0.643888
0.839283 0.868931 0.650284
0.854434 0.872621 0.656680
0.869585 0.876310 0.663076
0.884735 0.880000 0.669472
0.899886 0.883690 0.675868
0.347576 0.859073 0.665138
0.370931 0.861697 0.667801
0.394285 0.864321 0.670463
0.417640 0.866945 0.673125
0.440995 0.869569 0.675787
0.464350 0.872193 0.678449
0.485996 0.873603 0.679323
0.507300 0.874771 0.679840
0.528604 0.875939 0.680357
0.549908 0.877107 0.680874
0.571212 0.878275 0.681391
0.590608 0.878852 0.680790
0.609051 0.879134 0.679632
0.627493 0.879416 0.678473
0.645935 0.879698 0.677314
0.664378 0.879980 0.676155
0.681530 0.880057 0.674580
0.697393 0.879929 0.672587
0.713255 0.879801 0.670594
0.729118 0.879673 0.668601
0.744980 0.879545 0.666609
0.760141 0.879390 0.664773
0.773896 0.879181 0.663249
0.787652 0.878972 0.661726
0.801407 0.878763 0.660203
0.815163 0.878554 0.658680
0.829046 0.878835 0.658244
0.843569 0.881563 0.663247
0.858091 0.884290 0.668249
0.872613 0.887018 0.673252
0.887136 0.889745 0.678254
0.901658 0.892473 0.683257
0.377352 0.876513 0.683808
0.400744 0.878717 0.685994
0.424135 0.880920 0.688181
0.447527 0.883123 0.690367
0.470918 0.885326 0.692553
0.494309 0.887529 0.694740
0.515428 0.888565 0.695283
0.536091 0.889367 0.695498
0.556755 0.890169 0.695713
0.577419 0.890971 0.695928
0.598083 0.891773 0.696143
0.616546 0.892033 0.695345
0.633909 0.892022 0.694040
0.651272 0.892011 0.692735
0.668634 0.892001 0.691429
0.685997 0.891990 0.690124
0.701988 0.891820 0.688453
0.716607 0.891491 0.686414
0.731225 0.891161 0.684376
0.745843 0.890832 0.682337
0.760462 0.890503 0.680299
0.774418 0.890174 0.678411
