Assets/1__3DArt/KimSe/artstation_asset/LUTs_subway_asset/CUBE/Paranormal 03_S.cube
# LUT by SparkleStock. Enhanced with VOXCOLOR algorithms.
LUT_3D_SIZE 32
0.058608 0.031258 0.042979
0.063618 0.034472 0.047139
0.068628 0.037686 0.051298
0.073638 0.040900 0.055457
0.078648 0.044114 0.059616
0.083658 0.047328 0.063776
0.092962 0.052984 0.070692
0.103123 0.059128 0.078160
0.113285 0.065272 0.085628
0.123447 0.071417 0.093095
0.133609 0.077561 0.100563
0.149348 0.086951 0.111466
0.167876 0.097964 0.124085
0.186404 0.108976 0.136705
0.204931 0.119989 0.149325
0.223459 0.131002 0.161944
0.246146 0.144874 0.176903
0.272992 0.161605 0.194202
0.299839 0.178337 0.211501
0.326685 0.195069 0.228800
0.353531 0.211800 0.246099
0.381732 0.229934 0.263854
0.412643 0.250872 0.282524
0.443554 0.271811 0.301193
0.474465 0.292749 0.319863
0.505376 0.313687 0.338532
0.535444 0.334452 0.356414
0.561298 0.354350 0.370357
0.587152 0.374249 0.384300
0.613006 0.394147 0.398243
0.638859 0.414045 0.412186
0.664713 0.433944 0.426129
0.060971 0.042034 0.049880
0.067427 0.046803 0.054304
0.073882 0.051572 0.058729
0.080338 0.056341 0.063154
0.086793 0.061111 0.067578
0.093248 0.065880 0.072003
0.103989 0.072329 0.078719
0.115588 0.079113 0.085894
0.127186 0.085898 0.093070
0.138784 0.092683 0.100245
0.150382 0.099468 0.107420
0.167222 0.109248 0.118023
0.186683 0.120526 0.130341
0.206143 0.131804 0.142659
0.225604 0.143082 0.154976
0.245065 0.154359 0.167294
0.268209 0.168337 0.182038
0.295037 0.185014 0.199209
0.321865 0.201690 0.216380
0.348693 0.218367 0.233551
0.375521 0.235044 0.250721
0.403387 0.253050 0.268480
0.433328 0.273713 0.287415
0.463270 0.294377 0.306350
0.493211 0.315041 0.325285
0.523152 0.335705 0.344219
0.552185 0.356197 0.362447
0.576676 0.375830 0.377140
0.601167 0.395463 0.391834
0.625657 0.415096 0.406527
0.650148 0.434729 0.421220
0.674639 0.454362 0.435913
0.063335 0.052810 0.056780
0.071235 0.059135 0.061470
0.079136 0.065459 0.066160
0.087037 0.071783 0.070850
0.094938 0.078107 0.075540
0.102839 0.084432 0.080230
0.115017 0.091673 0.086747
0.128052 0.099099 0.093629
0.141086 0.106524 0.100511
0.154120 0.113949 0.107394
0.167155 0.121374 0.114276
0.185095 0.131544 0.124581
0.205489 0.143088 0.136597
0.225883 0.154631 0.148612
0.246277 0.166174 0.160628
0.266671 0.177717 0.172644
0.290273 0.191800 0.187174
0.317082 0.208422 0.204216
0.343892 0.225044 0.221259
0.370702 0.241665 0.238302
0.397511 0.258287 0.255344
0.425042 0.276165 0.273106
0.454013 0.296554 0.292306
0.482985 0.316944 0.311506
0.511957 0.337333 0.330706
0.540928 0.357722 0.349906
0.568926 0.377941 0.368480
0.592054 0.397309 0.383924
0.615181 0.416677 0.399367
0.638309 0.436045 0.414810
0.661437 0.455413 0.430254
0.684564 0.474780 0.445697
0.065698 0.063587 0.063681
0.075044 0.071466 0.068636
0.084390 0.079346 0.073591
0.093736 0.087225 0.078547
0.103082 0.095104 0.083502
0.112429 0.102984 0.088457
0.126045 0.111018 0.094774
0.140516 0.119084 0.101364
0.154986 0.127149 0.107953
0.169457 0.135215 0.114543
0.183928 0.143280 0.121132
0.202969 0.153841 0.131138
0.224296 0.165650 0.142852
0.245623 0.177458 0.154566
0.266950 0.189267 0.166280
0.288277 0.201075 0.177994
0.312336 0.215263 0.192309
0.339128 0.231830 0.209223
0.365919 0.248397 0.226138
0.392710 0.264964 0.243052
0.419502 0.281531 0.259967
0.446697 0.299280 0.277732
0.474699 0.319395 0.297197
0.502701 0.339510 0.316663
0.530703 0.359625 0.336128
0.558704 0.379740 0.355593
0.585667 0.399686 0.374513
0.607431 0.418789 0.390707
0.629196 0.437891 0.406900
0.650961 0.456994 0.423094
0.672725 0.476096 0.439287
0.694490 0.495199 0.455481
0.068061 0.074363 0.070582
0.078853 0.083798 0.075802
0.089644 0.093232 0.081023
0.100436 0.102667 0.086243
0.111227 0.112101 0.091464
0.122019 0.121536 0.096684
0.137073 0.130363 0.102801
0.152980 0.139069 0.109098
0.168887 0.147775 0.115395
0.184794 0.156481 0.121692
0.200700 0.165187 0.127989
0.220843 0.176138 0.137696
0.243103 0.188212 0.149108
0.265363 0.200285 0.160520
0.287623 0.212359 0.171932
0.309883 0.224433 0.183344
0.334400 0.238726 0.197444
0.361173 0.255238 0.214230
0.387946 0.271750 0.231017
0.414719 0.288262 0.247803
0.441492 0.304774 0.264590
0.468351 0.322396 0.282358
0.495384 0.342236 0.302088
0.522416 0.362077 0.321819
0.549448 0.381917 0.341550
0.576481 0.401758 0.361280
0.602408 0.421431 0.380547
0.622809 0.440268 0.397490
0.643211 0.459105 0.414434
0.663612 0.477943 0.431377
0.684014 0.496780 0.448321
0.704415 0.515617 0.465264
0.070424 0.085139 0.077482
0.082661 0.096129 0.082968
0.094898 0.107119 0.088454
0.107135 0.118109 0.093940
0.119372 0.129098 0.099425
0.131609 0.140088 0.104911
0.148101 0.149708 0.110829
0.165444 0.159054 0.116833
0.182787 0.168401 0.122837
0.200130 0.177747 0.128841
0.217473 0.187093 0.134845
0.238716 0.198434 0.144253
0.261909 0.210774 0.155364
0.285103 0.223113 0.166474
0.308296 0.235452 0.177584
0.331489 0.247791 0.188694
0.356463 0.262189 0.202579
0.383218 0.278646 0.219237
0.409973 0.295103 0.235896
0.436727 0.311561 0.252554
0.463482 0.328018 0.269213
0.490006 0.345511 0.286984
0.516069 0.365077 0.306980
0.542131 0.384643 0.326975
0.568194 0.404209 0.346971
0.594257 0.423775 0.366967
0.619149 0.443176 0.386580
0.638187 0.461748 0.404273
0.657225 0.480320 0.421967
0.676264 0.498891 0.439661
0.695302 0.517463 0.457355
0.714341 0.536035 0.475048
0.075111 0.106668 0.092063
0.088107 0.118222 0.098013
0.101104 0.129776 0.103962
0.114100 0.141330 0.109911
0.127096 0.152884 0.115860
0.140092 0.164438 0.121810
0.157317 0.174425 0.127281
0.175387 0.184099 0.132657
0.193458 0.193773 0.138033
0.211528 0.203447 0.143409
0.229598 0.213121 0.148785
0.251411 0.224474 0.157574
0.275095 0.236667 0.168070
0.298779 0.248860 0.178566
0.322464 0.261052 0.189062
0.346148 0.273245 0.199557
0.371350 0.287325 0.212910
0.398072 0.303293 0.229121
0.424793 0.319261 0.245331
0.451514 0.335229 0.261541
0.478235 0.351197 0.277751
0.504541 0.368155 0.295185
0.530015 0.387096 0.315065
0.555489 0.406037 0.334945
0.580963 0.424978 0.354825
0.606437 0.443919 0.374705
0.630709 0.462716 0.394281
0.648972 0.480794 0.412336
0.667234 0.498872 0.430391
0.685497 0.516950 0.448446
0.703759 0.535028 0.466501
0.722021 0.553106 0.484556
0.080263 0.130348 0.108181
0.093881 0.142268 0.114633
0.107500 0.154187 0.121085
0.121118 0.166107 0.127538
0.134736 0.178027 0.133990
0.148355 0.189947 0.140443
0.166171 0.200216 0.145419
0.184827 0.210156 0.150099
0.203482 0.220095 0.154780
0.222138 0.230034 0.159461
0.240794 0.239973 0.164141
0.263070 0.251262 0.172248
0.287157 0.263227 0.182066
0.311244 0.275191 0.191885
0.335330 0.287155 0.201704
0.359417 0.299119 0.211523
0.384802 0.312796 0.224281
0.411487 0.328188 0.239979
0.438172 0.343579 0.255677
0.464856 0.358971 0.271375
0.491541 0.374362 0.287073
0.517651 0.390705 0.304101
0.542613 0.408951 0.323789
0.567575 0.427196 0.343477
0.592537 0.445442 0.363165
0.617499 0.463688 0.382853
0.641234 0.481815 0.402316
0.658838 0.499354 0.420655
0.676442 0.516892 0.438993
0.694045 0.534430 0.457332
0.711649 0.551968 0.475671
0.729253 0.569506 0.494009
0.085415 0.154027 0.124298
0.099655 0.166313 0.131253
0.113896 0.178599 0.138209
0.128136 0.190885 0.145164
0.142376 0.203170 0.152120
0.156617 0.215456 0.159075
0.175024 0.226007 0.163556
0.194266 0.236212 0.167541
0.213507 0.246417 0.171527
0.232748 0.256621 0.175512
0.251989 0.266826 0.179498
0.274729 0.278051 0.186921
0.299218 0.289786 0.196063
0.323708 0.301521 0.205205
0.348197 0.313257 0.214347
0.372686 0.324992 0.223488
0.398255 0.338267 0.235652
0.424903 0.353083 0.250838
0.451551 0.367898 0.266024
0.478199 0.382713 0.281209
0.504847 0.397528 0.296395
0.530762 0.413255 0.313017
0.555211 0.430805 0.332513
0.579661 0.448356 0.352009
0.604110 0.465906 0.371505
0.628560 0.483457 0.391001
0.651759 0.500915 0.410351
0.668704 0.517913 0.428973
0.685649 0.534912 0.447595
0.702594 0.551910 0.466218
0.719539 0.568909 0.484840
0.736484 0.585907 0.503462
0.090567 0.177707 0.140415
0.105429 0.190359 0.147874
0.120292 0.203010 0.155332
0.135154 0.215662 0.162791
0.150016 0.228314 0.170250
0.164879 0.240965 0.177708
0.183878 0.251799 0.181693
0.203705 0.262269 0.184984
0.223532 0.272738 0.188274
0.243358 0.283208 0.191564
0.263185 0.293678 0.194854
0.286388 0.304839 0.201594
0.311280 0.316346 0.210059
0.336172 0.327852 0.218524
0.361063 0.339359 0.226989
0.385955 0.350866 0.235454
0.411707 0.363738 0.247023
0.438318 0.377977 0.261697
0.464930 0.392216 0.276370
0.491541 0.406455 0.291043
0.518153 0.420694 0.305717
0.543873 0.435805 0.321933
0.567810 0.452660 0.341237
0.591747 0.469515 0.360541
0.615684 0.486370 0.379845
0.639621 0.503225 0.399148
0.662284 0.520014 0.418386
0.678570 0.536473 0.437292
0.694856 0.552932 0.456198
0.711143 0.569391 0.475103
0.727429 0.585849 0.494009
0.743716 0.602308 0.512915
0.095719 0.201386 0.156532
0.111203 0.214404 0.164494
0.126688 0.227422 0.172456
0.142172 0.240439 0.180418
0.157657 0.253457 0.188380
0.173141 0.266474 0.196341
0.192732 0.277590 0.199831
0.213144 0.288325 0.202426
0.233556 0.299060 0.205021
0.253969 0.309795 0.207616
0.274381 0.320530 0.210211
0.298048 0.331627 0.216268
0.323342 0.342905 0.224056
0.348636 0.354183 0.231844
0.373930 0.365461 0.239632
0.399224 0.376739 0.247420
0.425159 0.389209 0.258394
0.451734 0.402872 0.272555
0.478308 0.416534 0.286716
0.504883 0.430197 0.300877
0.531458 0.443859 0.315038
0.556983 0.458354 0.330850
0.580408 0.474514 0.349961
0.603833 0.490674 0.369073
0.627258 0.506834 0.388185
0.650683 0.522994 0.407296
0.672808 0.539114 0.426421
0.688436 0.555033 0.445610
0.704064 0.570952 0.464800
0.719692 0.586871 0.483989
0.735319 0.602790 0.503179
0.750947 0.618709 0.522368
0.104557 0.233164 0.179897
0.120743 0.246072 0.188118
0.136929 0.258980 0.196339
0.153115 0.271887 0.204560
0.169300 0.284795 0.212781
0.185486 0.297703 0.221002
0.205387 0.308645 0.224423
0.226031 0.319194 0.226883
0.246675 0.329744 0.229344
0.267319 0.340293 0.231805
0.287963 0.350842 0.234266
0.311414 0.361415 0.239453
0.336269 0.372001 0.246003
0.361124 0.382587 0.252553
0.385979 0.393173 0.259103
0.410835 0.403758 0.265653
0.436455 0.415524 0.275590
0.462841 0.428470 0.288916
0.489227 0.441416 0.302241
0.515612 0.454362 0.315567
0.541998 0.467308 0.328892
0.567251 0.481036 0.343955
0.590237 0.496330 0.362490
0.613222 0.511624 0.381025
0.636208 0.526918 0.399561
0.659194 0.542212 0.418096
0.680879 0.557491 0.436707
0.696062 0.572693 0.455698
0.711245 0.587895 0.474690
0.726427 0.603098 0.493681
0.741610 0.618300 0.512672
0.756792 0.633503 0.531663
0.115239 0.268991 0.206885
0.132166 0.281551 0.215243
0.149093 0.294111 0.223601
0.166019 0.306671 0.231959
0.182946 0.319231 0.240318
0.199873 0.331791 0.248676
0.219943 0.342333 0.252242
0.240642 0.352470 0.254849
0.261341 0.362608 0.257456
0.282040 0.372745 0.260063
0.302738 0.382883 0.262670
0.325635 0.392703 0.266894
0.349630 0.402365 0.271925
0.373625 0.412027 0.276956
0.397620 0.421688 0.281988
0.421615 0.431350 0.287019
0.446673 0.442261 0.295699
0.472794 0.454420 0.308027
0.498914 0.466579 0.320356
0.525035 0.478738 0.332684
0.551155 0.490897 0.345013
0.576097 0.503784 0.359154
0.598680 0.518127 0.376921
0.621263 0.532469 0.394688
0.643847 0.546812 0.412455
0.666430 0.561154 0.430222
0.687724 0.575506 0.448119
0.702568 0.589903 0.466671
0.717412 0.604301 0.485224
0.732256 0.618698 0.503776
0.747100 0.633096 0.522328
0.761944 0.647493 0.540880
0.125921 0.304817 0.233873
0.143588 0.317030 0.242368
0.161256 0.329242 0.250864
0.178924 0.341455 0.259359
0.196592 0.353667 0.267855
0.214260 0.365880 0.276350
0.234499 0.376020 0.280061
0.255253 0.385746 0.282814
0.276007 0.395472 0.285568
0.296760 0.405198 0.288321
0.317514 0.414923 0.291075
0.339855 0.423991 0.294334
0.362991 0.432728 0.297847
0.386126 0.441466 0.301360
0.409261 0.450204 0.304873
0.432396 0.458942 0.308386
0.456892 0.468997 0.315808
0.482747 0.480370 0.327139
0.508602 0.491742 0.338470
0.534457 0.503115 0.349802
0.560313 0.514487 0.361133
0.584943 0.526532 0.374353
0.607124 0.539923 0.391352
0.629305 0.553315 0.408350
0.651485 0.566706 0.425349
0.673666 0.580097 0.442347
0.694568 0.593521 0.459531
0.709073 0.607114 0.477644
0.723579 0.620706 0.495757
0.738085 0.634299 0.513870
0.752590 0.647891 0.531983
0.767096 0.661483 0.550096
0.136602 0.340644 0.260861
0.155011 0.352509 0.269494
0.173420 0.364373 0.278126
0.191829 0.376238 0.286759
0.210238 0.388103 0.295392
0.228646 0.399968 0.304024
0.249055 0.409708 0.307880
0.269864 0.419022 0.310779
0.290672 0.428336 0.313679
0.311481 0.437650 0.316579
0.332289 0.446964 0.319479
0.354076 0.455278 0.321775
0.376351 0.463092 0.323770
0.398627 0.470906 0.325764
0.420902 0.478720 0.327758
0.443177 0.486534 0.329752
0.467110 0.495734 0.335917
0.492700 0.506319 0.346251
0.518290 0.516905 0.356585
0.543880 0.527491 0.366919
0.569470 0.538077 0.377253
0.593789 0.549280 0.389553
0.615567 0.561720 0.405783
0.637346 0.574160 0.422013
0.659124 0.586599 0.438243
0.680902 0.599039 0.454473
0.701412 0.611537 0.470944
0.715579 0.624324 0.488617
0.729746 0.637112 0.506291
0.743913 0.649899 0.523965
0.758081 0.662686 0.541639
0.772248 0.675474 0.559313
0.147284 0.376470 0.287849
0.166434 0.387987 0.296619
0.185584 0.399505 0.305389
0.204734 0.411022 0.314159
0.223883 0.422539 0.322929
0.243033 0.434057 0.331698
0.263611 0.443395 0.335699
0.284474 0.452297 0.338745
0.305338 0.461200 0.341791
0.326201 0.470102 0.344837
0.347065 0.479005 0.347884
0.368296 0.486566 0.349216
0.389712 0.493456 0.349692
0.411127 0.500346 0.350168
0.432543 0.507236 0.350643
0.453958 0.514126 0.351119
0.477328 0.522470 0.356025
0.502653 0.532269 0.365362
0.527977 0.542068 0.374699
0.553302 0.551867 0.384037
0.578627 0.561666 0.393374
0.602635 0.572028 0.404752
0.624011 0.583517 0.420214
0.645387 0.595005 0.435675
0.666762 0.606493 0.451137
0.688138 0.617982 0.466599
0.708256 0.629552 0.482356
0.722085 0.641535 0.499591
0.735914 0.653517 0.516825
0.749742 0.665499 0.534060
0.763571 0.677482 0.551295
0.777400 0.689464 0.568530
0.161605 0.414022 0.317555
0.181405 0.424972 0.326206
0.201204 0.435922 0.334857
0.221003 0.446872 0.343508
0.240803 0.457822 0.352159
0.260602 0.468772 0.360810
0.281261 0.477570 0.364836
0.302093 0.485938 0.367937
0.322924 0.494305 0.371038
0.343756 0.502672 0.374139
0.364587 0.511040 0.377240
0.385323 0.517922 0.378094
0.406011 0.524062 0.377824
0.426699 0.530202 0.377554
0.447388 0.536341 0.377285
0.468076 0.542481 0.377015
0.490568 0.549911 0.380814
0.514863 0.558631 0.388683
0.539159 0.567350 0.396552
0.563454 0.576070 0.404421
0.587750 0.584789 0.412289
0.610925 0.594110 0.422346
0.631862 0.604633 0.436778
0.652799 0.615156 0.451211
0.673736 0.625680 0.465643
0.694672 0.636203 0.480076
0.714373 0.646823 0.494850
0.727895 0.657927 0.511335
0.741418 0.669031 0.527820
0.754940 0.680135 0.544304
0.768462 0.691239 0.560789
0.781984 0.702344 0.577274
0.179566 0.453299 0.349978
0.199923 0.463462 0.358254
0.220281 0.473625 0.366530
0.240638 0.483789 0.374806
0.260995 0.493952 0.383082
0.281352 0.504116 0.391358
0.302006 0.512234 0.395291
0.322718 0.519942 0.398355
0.343431 0.527651 0.401420
0.364143 0.535360 0.404485
0.384856 0.543068 0.407549
0.405156 0.549347 0.408409
0.425249 0.554910 0.408167
0.445343 0.560474 0.407924
0.465437 0.566037 0.407682
0.485530 0.571601 0.407439
0.506828 0.578056 0.410283
0.529331 0.585404 0.416212
0.551833 0.592751 0.422142
0.574336 0.600098 0.428071
0.596838 0.607446 0.434001
0.618660 0.615525 0.442334
0.639121 0.625070 0.455477
0.659582 0.634614 0.468620
0.680043 0.644159 0.481762
0.700504 0.653703 0.494905
0.719763 0.663349 0.508427
0.733011 0.673501 0.523851
0.746258 0.683654 0.539274
0.759506 0.693807 0.554698
0.772754 0.703960 0.570121
0.786002 0.714112 0.585545
0.197526 0.492576 0.382402
0.218442 0.501952 0.390303
0.239357 0.511329 0.398203
0.260272 0.520706 0.406104
0.281188 0.530082 0.414005
0.302103 0.539459 0.421906
0.322750 0.546897 0.425746
0.343344 0.553947 0.428774
0.363938 0.560997 0.431802
0.384531 0.568047 0.434830
0.405125 0.575097 0.437858
0.424989 0.580772 0.438724
0.444488 0.585759 0.438509
0.463987 0.590746 0.438294
0.483485 0.595733 0.438079
0.502984 0.600720 0.437864
0.523089 0.606202 0.439752
0.543798 0.612177 0.443742
0.564508 0.618152 0.447732
0.585217 0.624127 0.451722
0.605927 0.630102 0.455712
0.626395 0.636941 0.462323
0.646380 0.645506 0.474175
0.666365 0.654072 0.486028
0.686351 0.662637 0.497881
0.706336 0.671203 0.509734
0.725152 0.679875 0.522005
0.738126 0.689076 0.536367
0.751099 0.698277 0.550729
0.764073 0.707479 0.565092
0.777046 0.716680 0.579454
0.790019 0.725881 0.593816
0.215487 0.531852 0.414825
0.236960 0.540442 0.422351
0.258434 0.549032 0.429877
0.279907 0.557622 0.437403
0.301380 0.566212 0.444928
0.322854 0.574802 0.452454
0.343495 0.581560 0.456201
0.363970 0.587951 0.459193
0.384444 0.594343 0.462184
0.404919 0.600734 0.465175
0.425394 0.607126 0.468167
0.444822 0.612197 0.469039
0.463726 0.616607 0.468851
0.482630 0.621018 0.468664
0.501534 0.625429 0.468476
0.520439 0.629840 0.468289
0.539349 0.634347 0.469220
0.558266 0.638950 0.471271
0.577182 0.643553 0.473322
0.596099 0.648156 0.475372
0.615015 0.652759 0.477423
0.634129 0.658356 0.482311
0.653639 0.665943 0.492874
0.673149 0.673530 0.503437
0.692658 0.681116 0.514000
0.712168 0.688703 0.524562
0.730542 0.696400 0.535582
0.743241 0.704650 0.548883
0.755940 0.712900 0.562184
0.768639 0.721150 0.575485
0.781338 0.729400 0.588786
0.794037 0.737650 0.602088
0.233448 0.571129 0.447249
0.255479 0.578932 0.454399
0.277510 0.586736 0.461550
0.299542 0.594539 0.468701
0.321573 0.602342 0.475851
0.343604 0.610145 0.483002
0.364240 0.616223 0.486656
0.384595 0.621956 0.489611
0.404951 0.627689 0.492566
0.425307 0.633421 0.495521
0.445663 0.639154 0.498475
0.464654 0.643621 0.499354
0.482964 0.647456 0.499194
0.501274 0.651290 0.499033
0.519583 0.655125 0.498873
0.537893 0.658959 0.498713
0.555610 0.662492 0.498689
0.572733 0.665723 0.498800
0.589857 0.668954 0.498912
0.606980 0.672184 0.499023
0.624104 0.675415 0.499134
0.641864 0.679772 0.502299
0.660898 0.686380 0.511572
0.679932 0.692987 0.520845
0.698966 0.699595 0.530118
0.718000 0.706203 0.539391
0.735932 0.712926 0.549159
0.748356 0.720225 0.561399
0.760781 0.727523 0.573639
0.773205 0.734822 0.585879
0.785630 0.742120 0.598119
0.798054 0.749419 0.610359
0.254102 0.608074 0.478601
0.276509 0.615091 0.485279
0.298915 0.622107 0.491957
0.321322 0.629124 0.498635
0.343728 0.636140 0.505313
0.366134 0.643157 0.511991
0.386613 0.648555 0.515460
0.406707 0.653629 0.518286
0.426801 0.658703 0.521113
0.446894 0.663777 0.523940
0.466988 0.668851 0.526767
0.485451 0.672729 0.527600
0.503099 0.676008 0.527437
0.520747 0.679288 0.527274
0.538395 0.682567 0.527111
0.556043 0.685847 0.526948
0.572678 0.688575 0.526266
0.588302 0.690750 0.525066
0.603925 0.692926 0.523866
0.619548 0.695102 0.522666
0.635171 0.697277 0.521466
0.651631 0.700589 0.523266
0.669766 0.706172 0.531067
0.687900 0.711756 0.538867
0.706034 0.717339 0.546667
0.724169 0.722922 0.554467
0.741305 0.728639 0.562813
0.753449 0.735026 0.573885
0.765593 0.741413 0.584957
0.777737 0.747800 0.596029
0.789881 0.754187 0.607101
0.802024 0.760573 0.618173
0.280145 0.640356 0.507810
0.302561 0.646586 0.513821
0.324976 0.652816 0.519831
0.347392 0.659045 0.525841
0.369807 0.665275 0.531851
0.392223 0.671505 0.537862
0.412246 0.676223 0.540960
0.431791 0.680638 0.543475
0.451335 0.685054 0.545991
0.470880 0.689469 0.548507
0.490425 0.693884 0.551022
0.508174 0.697201 0.551710
0.525026 0.699968 0.551482
0.541879 0.702736 0.551255
0.558731 0.705503 0.551028
0.575583 0.708270 0.550801
0.591363 0.710531 0.550060
0.606071 0.712286 0.548805
0.620780 0.714041 0.547550
0.635488 0.715796 0.546296
0.650197 0.717551 0.545041
0.665465 0.720210 0.546191
0.681852 0.724677 0.552153
0.698239 0.729144 0.558114
0.714626 0.733612 0.564076
0.731013 0.738079 0.570037
0.746644 0.742727 0.576620
0.758495 0.748282 0.586311
0.770347 0.753836 0.596002
0.782198 0.759390 0.605692
0.794049 0.764945 0.615383
0.805900 0.770499 0.625074
0.306188 0.672638 0.537020
0.328612 0.678081 0.542362
0.351037 0.683524 0.547705
0.373462 0.688967 0.553047
0.395887 0.694410 0.558390
0.418311 0.699853 0.563732
0.437879 0.703891 0.566460
0.456875 0.707648 0.568664
0.475870 0.711404 0.570869
0.494866 0.715161 0.573074
0.513862 0.718918 0.575278
0.530898 0.721673 0.575819
0.546954 0.723928 0.575528
0.563010 0.726183 0.575237
0.579067 0.728438 0.574945
0.595123 0.730693 0.574654
0.610048 0.732488 0.573854
0.623841 0.733822 0.572544
0.637635 0.735156 0.571234
0.651429 0.736490 0.569925
0.665222 0.737824 0.568615
0.679298 0.739831 0.569116
0.693938 0.743182 0.573239
0.708578 0.746533 0.577362
0.723217 0.749884 0.581484
0.737857 0.753236 0.585607
0.751984 0.756815 0.590427
0.763542 0.761537 0.598737
0.775100 0.766259 0.607046
0.786659 0.770981 0.615356
0.798217 0.775703 0.623665
0.809776 0.780425 0.631974
0.332230 0.704919 0.566229
0.354664 0.709576 0.570904
0.377098 0.714232 0.575579
0.399532 0.718888 0.580253
0.421966 0.723545 0.584928
0.444400 0.728201 0.589603
0.463511 0.731559 0.591960
0.481958 0.734657 0.593853
0.500405 0.737755 0.595747
0.518852 0.740853 0.597641
0.537299 0.743951 0.599534
0.553622 0.746146 0.599929
0.568882 0.747889 0.599573
0.584142 0.749631 0.599218
0.599403 0.751374 0.598863
0.614663 0.753117 0.598508
0.628733 0.754445 0.597648
0.641611 0.755358 0.596283
0.654490 0.756271 0.594919
0.667369 0.757184 0.593554
0.680248 0.758098 0.592189
0.693131 0.759452 0.592041
0.706024 0.761687 0.594325
0.718916 0.763922 0.596609
0.731809 0.766157 0.598893
0.744701 0.768392 0.601177
0.757323 0.770903 0.604235
0.768589 0.774792 0.611163
0.779854 0.778682 0.618091
0.791120 0.782571 0.625019
0.802386 0.786461 0.631947
0.813652 0.790350 0.638875
0.358273 0.737201 0.595439
0.380716 0.741071 0.599446
0.403159 0.744940 0.603453
0.425602 0.748810 0.607459
0.448045 0.752680 0.611466
0.470488 0.756549 0.615473
0.489144 0.759227 0.617460
0.507042 0.761666 0.619042
0.524940 0.764106 0.620625
0.542838 0.766545 0.622207
0.560736 0.768985 0.623790
0.576345 0.770618 0.624038
0.590810 0.771849 0.623619
0.605274 0.773079 0.623200
0.619739 0.774309 0.622780
0.634203 0.775540 0.622361
0.647417 0.776401 0.621442
0.659381 0.776894 0.620022
0.671345 0.777386 0.618603
0.683309 0.777879 0.617183
0.695273 0.778371 0.615764
0.706965 0.779072 0.614966
0.718110 0.780192 0.615411
0.729255 0.781311 0.615856
0.740400 0.782430 0.616301
0.751546 0.783549 0.616747
0.762662 0.784991 0.618042
0.773635 0.788048 0.623589
0.784608 0.791105 0.629136
0.795581 0.794162 0.634682
0.806554 0.797219 0.640229
0.817527 0.800276 0.645776
0.385632 0.767332 0.622994
0.407918 0.770473 0.626362
0.430204 0.773614 0.629730
0.452490 0.776755 0.633098
0.474776 0.779896 0.636466
0.497062 0.783036 0.639834
0.515148 0.785082 0.641449
0.532395 0.786908 0.642713
0.549642 0.788735 0.643977
0.566889 0.790562 0.645241
0.584136 0.792388 0.646505
0.598962 0.793496 0.646588
0.612577 0.794245 0.646082
0.626193 0.794993 0.645576
0.639808 0.795742 0.645070
0.653423 0.796490 0.644564
0.665753 0.796915 0.643568
0.676798 0.797016 0.642083
0.687842 0.797116 0.640598
0.698887 0.797217 0.639113
0.709932 0.797318 0.637628
0.720485 0.797436 0.636266
0.730055 0.797590 0.635152
0.739626 0.797744 0.634037
0.749196 0.797898 0.632923
0.758766 0.798052 0.631808
0.768505 0.798560 0.631584
0.779084 0.800841 0.635808
0.789664 0.803122 0.640033
0.800244 0.805403 0.644258
0.810823 0.807684 0.648483
0.821403 0.809965 0.652708
0.419568 0.786711 0.642278
0.440866 0.789412 0.645152
0.462164 0.792114 0.648026
0.483462 0.794816 0.650900
0.504760 0.797518 0.653774
0.526058 0.800219 0.656648
0.543012 0.801872 0.657883
0.559097 0.803314 0.658790
0.575182 0.804756 0.659697
0.591267 0.806199 0.660605
0.607352 0.807641 0.661512
0.621047 0.808401 0.661343
0.633546 0.808820 0.660635
0.646045 0.809240 0.659928
0.658545 0.809659 0.659220
0.671044 0.810078 0.658513
0.682345 0.810215 0.657357
0.692447 0.810068 0.655753
0.702549 0.809922 0.654149
0.712652 0.809776 0.652545
0.722754 0.809629 0.650941
0.732441 0.809513 0.649446
