Assets/1__3DArt/KimSe/artstation_asset/LUTs_subway_asset/CUBE/Paranormal 05.cube
# LUT by SparkleStock. Enhanced with VOXCOLOR algorithms.
LUT_3D_SIZE 8
DOMAIN_MIN 0.000000 0.000000 0.000000
DOMAIN_MAX 0.903226 0.903226 0.903226
0.085958 0.054701 0.085958
0.110725 0.071905 0.106944
0.151294 0.100760 0.143464
0.212470 0.144653 0.194415
0.297452 0.205648 0.257537
0.410887 0.285998 0.327110
0.536138 0.373595 0.388649
0.653511 0.455473 0.433424
0.095033 0.106125 0.115452
0.135315 0.150114 0.153708
0.188081 0.197979 0.198169
0.258442 0.254264 0.250474
0.349351 0.321498 0.310449
0.462054 0.398481 0.372265
0.580597 0.474906 0.425314
0.688085 0.541671 0.464625
0.111072 0.191295 0.171862
0.163032 0.244756 0.217437
0.226730 0.298208 0.262308
0.304426 0.356882 0.311250
0.397363 0.423434 0.366147
0.507157 0.493940 0.419998
0.618369 0.559365 0.465214
0.716839 0.613476 0.499329
0.139273 0.306432 0.254874
0.201821 0.358088 0.300620
0.274084 0.407626 0.341480
0.354990 0.458936 0.382118
0.444498 0.514738 0.425546
0.548718 0.576085 0.470981
0.651540 0.630499 0.508219
0.741037 0.673712 0.536622
0.184245 0.444799 0.361598
0.257862 0.488221 0.402532
0.335673 0.527894 0.437090
0.414877 0.564297 0.465620
0.495492 0.600068 0.490752
0.589284 0.648314 0.525448
0.681921 0.691275 0.553836
0.761867 0.724752 0.575552
0.255520 0.588294 0.482217
0.338797 0.619129 0.513344
0.419115 0.646214 0.538510
0.495196 0.670091 0.557697
0.566408 0.691608 0.571578
0.633121 0.712923 0.582854
0.710878 0.742126 0.600387
0.780285 0.766698 0.614711
0.353421 0.708472 0.591177
0.441479 0.727329 0.611522
0.518820 0.742869 0.626666
0.586350 0.755743 0.636632
0.645109 0.766607 0.641761
0.695355 0.776114 0.642792
0.747600 0.789302 0.646480
0.799252 0.802607 0.651090
0.472110 0.799614 0.676608
0.557156 0.809073 0.688037
0.624278 0.815677 0.694869
0.677396 0.820266 0.697349
0.720128 0.823612 0.695902
0.755079 0.826479 0.691066
0.787652 0.829899 0.686153
0.823072 0.835211 0.683852
0.091819 0.063398 0.115073
0.109414 0.073283 0.129180
0.139804 0.095442 0.161827
0.187978 0.133078 0.211973
0.258250 0.188694 0.277583
0.360561 0.268019 0.354768
0.485787 0.362154 0.429772
0.615187 0.457632 0.492514
0.098406 0.120091 0.156422
0.133895 0.156988 0.195279
0.179344 0.199668 0.239493
0.241509 0.252255 0.292182
0.325031 0.317141 0.354235
0.434429 0.394346 0.420376
0.556611 0.474022 0.479450
0.673434 0.546573 0.525447
0.111438 0.200578 0.212558
0.160985 0.252872 0.265570
0.221705 0.304426 0.312894
0.295457 0.360615 0.361999
0.383835 0.424570 0.416947
0.491962 0.494458 0.472399
0.606237 0.560972 0.519838
0.710933 0.617516 0.556005
0.134223 0.306566 0.288289
0.198674 0.364714 0.347666
0.272134 0.415792 0.392987
0.352450 0.465559 0.433449
0.439315 0.518467 0.475595
0.541197 0.577684 0.520421
0.644877 0.631597 0.557938
0.737618 0.675823 0.586822
0.170285 0.435822 0.385096
0.253086 0.492025 0.444831
0.335311 0.535693 0.485338
0.416235 0.571804 0.514060
0.497158 0.606114 0.538531
0.588513 0.651311 0.571144
0.680126 0.692449 0.598469
0.760833 0.725674 0.619594
0.229705 0.574048 0.497079
0.331230 0.620383 0.548708
0.420051 0.652739 0.580719
0.499420 0.677002 0.600854
0.571930 0.697825 0.615079
0.637794 0.717450 0.625180
0.713752 0.744301 0.640950
0.781998 0.767530 0.653909
0.313920 0.693713 0.601673
0.430142 0.727014 0.640064
0.520390 0.747996 0.662274
0.592988 0.761977 0.674422
0.654249 0.772911 0.681020
0.704288 0.781427 0.682065
0.754117 0.792647 0.684520
0.803422 0.804337 0.687487
0.417844 0.787990 0.687159
0.541998 0.808238 0.711015
0.626484 0.819570 0.724448
0.686099 0.825834 0.730576
0.732180 0.829916 0.731805
0.767193 0.832419 0.728291
0.797246 0.834500 0.722981
0.829362 0.838182 0.719117
0.097948 0.073701 0.151956
0.112310 0.080105 0.164055
0.134111 0.095291 0.190212
0.170207 0.125045 0.234585
0.226469 0.173792 0.298562
0.313820 0.248152 0.377967
0.431298 0.343503 0.460009
0.563550 0.446982 0.534363
0.104846 0.138878 0.205886
0.135389 0.167623 0.238817
0.173063 0.202503 0.277468
0.225649 0.248851 0.326591
0.298902 0.309759 0.388024
0.399474 0.384932 0.456069
0.519632 0.467099 0.520385
0.642772 0.546627 0.574504
0.117743 0.222595 0.267393
0.159949 0.263332 0.311170
0.215874 0.308916 0.355229
0.284805 0.362022 0.403747
0.367192 0.423897 0.458619
0.471676 0.492996 0.515424
0.587182 0.561007 0.565693
0.697796 0.621042 0.605572
0.138578 0.325094 0.340706
0.193674 0.371564 0.389785
0.265967 0.420096 0.434802
0.346832 0.470163 0.477606
0.432032 0.522100 0.520040
0.532958 0.580428 0.565187
0.638471 0.634302 0.603482
0.734977 0.679021 0.632922
0.169812 0.444591 0.427999
0.242502 0.492897 0.479385
0.327084 0.537990 0.522588
0.413407 0.577090 0.555925
0.496371 0.611017 0.581097
0.586751 0.654514 0.612778
0.678621 0.694677 0.639767
0.760797 0.727523 0.660623
0.220279 0.573815 0.528029
0.313214 0.616257 0.574774
0.409578 0.652938 0.611804
0.498663 0.681900 0.637857
0.574285 0.703004 0.653377
0.640840 0.721487 0.663533
0.716295 0.746834 0.678416
0.784306 0.768973 0.690622
0.292502 0.688199 0.623038
0.404043 0.720776 0.659735
0.507545 0.747225 0.687893
0.594110 0.766350 0.706334
0.659583 0.778195 0.715130
0.710970 0.786135 0.717166
0.760070 0.796011 0.719242
0.808133 0.806388 0.721443
0.382214 0.780353 0.702586
0.507933 0.802256 0.727204
0.611834 0.818915 0.746151
0.689255 0.829777 0.758055
0.740142 0.835138 0.762506
0.776771 0.837648 0.760926
0.806097 0.838884 0.756084
0.836291 0.841372 0.751720
0.104187 0.086163 0.197393
0.117427 0.091396 0.210102
0.134114 0.101523 0.230769
0.160592 0.123535 0.266882
0.202956 0.163320 0.323100
0.274499 0.230789 0.400797
0.378782 0.323131 0.484760
0.505853 0.429432 0.564991
0.112548 0.161634 0.262984
0.139042 0.183326 0.288574
0.170474 0.210187 0.319770
0.214148 0.248744 0.362144
0.276054 0.303186 0.418564
0.365549 0.375047 0.486374
0.479005 0.457666 0.553549
0.603421 0.542343 0.613819
0.127229 0.252933 0.332264
0.162297 0.281141 0.362774
0.212161 0.317794 0.399143
0.274824 0.364743 0.443213
0.350194 0.422657 0.495399
0.448768 0.490497 0.552580
0.562393 0.559620 0.604925
0.676814 0.623438 0.648629
0.149084 0.355565 0.405340
0.193165 0.386445 0.437798
0.259824 0.427158 0.476145
0.338336 0.474048 0.517401
0.422551 0.524937 0.559800
0.521633 0.582972 0.605467
0.628073 0.637383 0.644777
0.728405 0.683461 0.675572
0.179375 0.466072 0.482970
0.236465 0.499329 0.517298
0.315780 0.539442 0.555718
0.404300 0.579091 0.590633
0.493169 0.615191 0.618859
0.583949 0.658646 0.651138
0.677509 0.698694 0.678688
0.762237 0.731306 0.699830
0.223913 0.584513 0.570169
0.298813 0.615637 0.602820
0.392724 0.650672 0.637685
0.488396 0.682732 0.667334
0.573301 0.707441 0.687200
0.642286 0.725635 0.698643
0.718848 0.750457 0.713658
0.787862 0.772014 0.725802
0.286265 0.690392 0.652712
0.379922 0.715915 0.679957
0.485250 0.743184 0.708124
0.583267 0.766627 0.731101
0.660998 0.782582 0.744873
0.715452 0.790664 0.748815
0.765482 0.799908 0.751476
0.813637 0.809469 0.753780
0.363005 0.776729 0.722518
0.473678 0.795802 0.742710
0.585013 0.814856 0.763008
0.678850 0.830187 0.779336
0.744158 0.839436 0.788827
0.783902 0.842528 0.789809
0.814007 0.843403 0.786257
0.843661 0.845178 0.782341
0.110402 0.101312 0.251581
0.123350 0.106544 0.265846
0.139019 0.114701 0.284154
0.159483 0.130586 0.311890
0.188960 0.159921 0.354663
0.245519 0.219487 0.426615
0.333536 0.305800 0.508462
0.449001 0.410422 0.589672
0.120264 0.187815 0.326759
0.144269 0.204932 0.347077
0.172066 0.225338 0.371545
0.208966 0.255592 0.405155
0.260298 0.300906 0.451765
0.338732 0.368389 0.516535
0.442219 0.448873 0.583308
0.562092 0.535054 0.645734
0.137767 0.288021 0.403333
0.169125 0.308815 0.425005
0.212486 0.335261 0.451214
0.267491 0.372153 0.485855
0.335192 0.422577 0.531155
0.426106 0.488173 0.586737
0.534525 0.557491 0.639522
0.649441 0.624564 0.685931
0.162867 0.392853 0.476491
0.200715 0.413822 0.497899
0.257395 0.442268 0.523929
0.328567 0.479823 0.556503
0.411048 0.527260 0.596377
0.506662 0.584804 0.641856
0.612071 0.640241 0.682074
0.715584 0.689089 0.715124
0.195501 0.496643 0.544876
0.241586 0.517625 0.566367
0.307062 0.545721 0.591933
0.390346 0.579878 0.621013
0.486836 0.619198 0.652967
0.579520 0.663953 0.687034
0.675801 0.704704 0.715888
0.764065 0.737626 0.737966
0.237277 0.603101 0.618938
0.297290 0.624159 0.639844
0.375799 0.649999 0.663928
0.468517 0.679700 0.690345
0.567060 0.710461 0.716509
0.641759 0.730112 0.730858
0.721394 0.755650 0.747246
0.792859 0.777381 0.760145
0.292246 0.698581 0.688024
0.369131 0.717157 0.706633
0.460215 0.738787 0.727309
0.559166 0.762380 0.749298
0.655903 0.785145 0.770023
0.717332 0.795169 0.777388
0.770272 0.804737 0.781793
0.820059 0.814177 0.785086
0.357875 0.776888 0.746301
0.452199 0.792154 0.761562
0.552768 0.809043 0.777985
0.652454 0.826408 0.795033
0.741307 0.842016 0.810725
0.788185 0.847227 0.815488
0.820793 0.848369 0.814086
0.851280 0.849962 0.811453
0.116452 0.120596 0.314538
0.130131 0.126853 0.330998
0.145806 0.134790 0.348495
0.165124 0.147930 0.371377
0.190503 0.170899 0.404306
0.230668 0.218462 0.458987
0.303147 0.297530 0.534662
0.403719 0.397127 0.613109
0.128070 0.218516 0.396742
0.151107 0.233371 0.413816
0.176649 0.249869 0.433719
0.209626 0.273196 0.459698
0.254735 0.308531 0.495105
0.321988 0.367638 0.548383
0.415621 0.444786 0.612119
0.527423 0.529663 0.673836
0.148470 0.326198 0.476505
0.178203 0.342969 0.492544
0.217068 0.362892 0.511608
0.265307 0.390124 0.536779
0.325051 0.428863 0.570850
0.410319 0.489227 0.619596
0.513351 0.557769 0.671222
0.625016 0.625819 0.718082
0.177241 0.435055 0.550236
0.213192 0.450869 0.564973
0.263730 0.471116 0.582324
0.325702 0.497722 0.604572
0.398459 0.533411 0.633983
0.493525 0.588244 0.676110
0.596986 0.644323 0.716174
0.700672 0.695251 0.750238
0.213645 0.537876 0.615345
0.256825 0.552640 0.629372
0.314873 0.571875 0.645747
0.387100 0.595392 0.664724
0.472360 0.624544 0.687558
0.569893 0.669223 0.721374
0.667238 0.711374 0.750887
0.758164 0.746528 0.774294
0.256884 0.626330 0.669355
0.308327 0.640604 0.682797
0.374865 0.659104 0.698814
0.454431 0.681346 0.717044
0.543967 0.706656 0.737091
0.636547 0.733823 0.758555
0.722439 0.762594 0.778529
0.798106 0.785825 0.793631
0.307950 0.710516 0.725220
0.372677 0.723724 0.737309
0.450462 0.740112 0.751651
0.537257 0.759075 0.767803
0.628298 0.779618 0.785060
0.713461 0.798802 0.801428
0.773745 0.810947 0.809703
0.827314 0.821458 0.815222
0.365590 0.780298 0.772592
0.445688 0.792008 0.783142
0.533814 0.805957 0.795501
0.624625 0.821367 0.809199
0.712543 0.837256 0.823587
0.786287 0.851221 0.836980
0.825931 0.854258 0.839213
0.858890 0.856460 0.838672
0.122344 0.144133 0.383166
0.136999 0.151903 0.401090
0.153097 0.160800 0.418426
0.172061 0.172914 0.438181
0.195751 0.191558 0.463799
0.230257 0.228949 0.504379
0.288273 0.299958 0.567093
0.373627 0.393519 0.638025
0.135963 0.253104 0.468736
0.158937 0.267319 0.483723
0.183301 0.281888 0.500798
0.213573 0.300705 0.521473
0.254006 0.327974 0.547865
0.313258 0.374208 0.587440
0.399136 0.446468 0.642891
0.503594 0.529355 0.700848
0.159590 0.366861 0.548289
0.189064 0.381828 0.560938
0.225255 0.397989 0.575446
0.268543 0.418770 0.593959
0.321159 0.447833 0.618623
0.396604 0.494416 0.654610
0.497462 0.560545 0.701651
0.607755 0.629260 0.747430
0.192093 0.477405 0.619097
0.227928 0.490778 0.630042
0.274826 0.506290 0.641997
0.330171 0.525825 0.657181
0.393873 0.551972 0.677775
0.477929 0.593610 0.708669
0.583475 0.649147 0.746938
0.690011 0.702288 0.781724
0.232083 0.577914 0.679026
0.275169 0.589777 0.688881
0.329183 0.603951 0.699744
0.393803 0.620746 0.712092
0.468624 0.641691 0.727315
0.554996 0.675325 0.752162
0.657409 0.718329 0.781959
0.753892 0.756378 0.807254
0.277884 0.658978 0.724204
0.328477 0.669972 0.733474
0.389811 0.683448 0.744032
0.460523 0.699349 0.756001
0.539023 0.717710 0.769610
0.623464 0.739535 0.786072
0.716848 0.770362 0.808376
0.799670 0.796299 0.826321
0.327059 0.726522 0.763534
0.386199 0.736876 0.771844
0.455267 0.749514 0.781732
0.531770 0.764202 0.793097
0.613019 0.780587 0.805808
0.694703 0.797961 0.819833
0.768690 0.815377 0.833420
0.832884 0.830068 0.843690
0.379632 0.784195 0.798142
0.449919 0.793636 0.805446
0.527343 0.805227 0.814563
0.608316 0.818440 0.825129
0.689307 0.832699 0.836828
0.764443 0.847040 0.849571
0.821740 0.857125 0.858710
0.866169 0.863788 0.863533
0.128308 0.172208 0.455898
0.143829 0.181667 0.473712
0.160386 0.191895 0.490434
0.179320 0.203848 0.507798
0.202278 0.219667 0.527986
0.234302 0.248757 0.557242
0.283661 0.308296 0.604407
0.356797 0.395795 0.665143
0.143816 0.291047 0.540456
0.167610 0.304779 0.553450
0.191476 0.318705 0.568444
0.219770 0.335005 0.585374
0.256527 0.356402 0.605012
0.309444 0.390984 0.632705
0.387183 0.451622 0.675466
0.486384 0.530894 0.727169
0.170691 0.409095 0.616426
0.201218 0.422986 0.626763
0.236199 0.437045 0.638249
0.275982 0.453831 0.652254
0.322671 0.475990 0.670072
0.388621 0.509729 0.694546
0.482002 0.565069 0.731491
0.591972 0.631967 0.773855
0.207038 0.519194 0.681742
0.244224 0.531535 0.690551
0.289556 0.544302 0.699163
0.340487 0.559416 0.709788
0.396834 0.578968 0.724221
0.469107 0.608297 0.744817
0.567867 0.654628 0.775393
0.677208 0.707250 0.808805
0.250765 0.615478 0.734919
0.295429 0.626323 0.742617
0.347842 0.637920 0.750350
0.407712 0.650777 0.758685
0.474512 0.666112 0.768769
0.548033 0.689507 0.785330
0.644355 0.725425 0.809719
0.745248 0.763869 0.835167
0.299188 0.689765 0.772877
0.351586 0.699647 0.780051
0.411041 0.710532 0.787467
0.476335 0.722561 0.795561
0.546221 0.736003 0.804754
0.619506 0.752178 0.815970
0.707809 0.778406 0.835156
0.795519 0.805303 0.854514
0.347708 0.744898 0.800254
0.406651 0.754151 0.806762
0.471879 0.764767 0.814029
0.541617 0.776588 0.822194
0.614049 0.789446 0.831345
0.686499 0.803269 0.841670
0.761041 0.820710 0.855399
0.832764 0.838367 0.869368
0.396829 0.790822 0.824283
0.462699 0.799163 0.829598
0.533348 0.809281 0.836406
0.606343 0.820718 0.844436
0.679313 0.833006 0.853481
0.748406 0.845473 0.863689
0.811514 0.858167 0.874925
0.866242 0.869192 0.884722
