Assets/1__3DArt/KimSe/artstation_asset/LUTs_subway_asset/CUBE/Paranormal 04.cube
# LUT by SparkleStock. Enhanced with VOXCOLOR algorithms.
LUT_3D_SIZE 8
DOMAIN_MIN 0.000000 0.000000 0.000000
DOMAIN_MAX 0.903226 0.903226 0.903226
0.066422 0.070330 0.085958
0.091000 0.083564 0.108835
0.131246 0.109386 0.141888
0.192595 0.149687 0.186065
0.279066 0.205648 0.241128
0.397794 0.280137 0.304463
0.532593 0.363764 0.364489
0.660774 0.445532 0.412691
0.074174 0.121186 0.119422
0.116608 0.159303 0.155032
0.171497 0.202854 0.195843
0.245007 0.255377 0.243106
0.340900 0.318766 0.296925
0.461239 0.392230 0.354404
0.589597 0.466538 0.406624
0.707033 0.533126 0.447739
0.085675 0.201772 0.174312
0.142441 0.249946 0.215917
0.211312 0.299925 0.257967
0.294563 0.356375 0.303356
0.393814 0.421477 0.353235
0.512963 0.491014 0.403616
0.634674 0.555951 0.447909
0.742854 0.610069 0.482603
0.105101 0.310355 0.250865
0.176089 0.359065 0.293860
0.256641 0.407274 0.333197
0.345325 0.458630 0.371677
0.442355 0.515545 0.411392
0.556723 0.578496 0.453369
0.670888 0.634001 0.489298
0.770599 0.677700 0.517506
0.136933 0.442388 0.347450
0.224004 0.486268 0.388707
0.313018 0.527301 0.423104
0.402155 0.565919 0.450700
0.492303 0.604685 0.473825
0.596188 0.656658 0.504623
0.700997 0.702283 0.531264
0.792322 0.737015 0.552356
0.193084 0.584182 0.458427
0.296108 0.619134 0.493976
0.390916 0.649890 0.520280
0.478126 0.677189 0.538497
0.558943 0.702031 0.550186
0.636335 0.726633 0.558151
0.727093 0.759646 0.572814
0.808916 0.786384 0.585685
0.286730 0.708803 0.565938
0.398025 0.734338 0.592729
0.490597 0.754590 0.608756
0.568571 0.770855 0.616220
0.635819 0.784320 0.617298
0.695500 0.795944 0.614139
0.759542 0.812137 0.614507
0.823763 0.827641 0.616280
0.421364 0.807870 0.660365
0.526071 0.825556 0.676679
0.604121 0.836922 0.681553
0.663456 0.843874 0.678163
0.711134 0.848166 0.669478
0.753038 0.851593 0.658567
0.795587 0.856388 0.649436
0.842527 0.863454 0.643451
0.070771 0.075056 0.113372
0.088176 0.080825 0.125710
0.118451 0.100323 0.153720
0.167396 0.134831 0.196457
0.240199 0.185559 0.252636
0.348975 0.258145 0.321825
0.484798 0.347554 0.393927
0.625951 0.443062 0.459571
0.074278 0.135280 0.152836
0.112486 0.167745 0.187087
0.160831 0.206384 0.227137
0.226791 0.255114 0.275037
0.315645 0.316232 0.331431
0.433057 0.390060 0.393746
0.565594 0.468638 0.452772
0.692550 0.542956 0.501957
0.082363 0.213829 0.205640
0.137208 0.262097 0.252977
0.204368 0.310746 0.297883
0.284862 0.364610 0.344938
0.380091 0.426528 0.396634
0.497479 0.495243 0.449947
0.622202 0.562298 0.497836
0.736307 0.620576 0.536094
0.096276 0.314703 0.275253
0.169837 0.370779 0.330166
0.253334 0.421136 0.375286
0.343172 0.470813 0.416149
0.438508 0.523824 0.457012
0.550293 0.583771 0.500079
0.664712 0.639126 0.537434
0.766861 0.684593 0.566973
0.118339 0.438064 0.362800
0.216594 0.495896 0.421867
0.312379 0.541059 0.464349
0.405233 0.578920 0.495201
0.496798 0.615468 0.520174
0.598100 0.663248 0.551015
0.700850 0.706812 0.577360
0.791491 0.741259 0.598050
0.158827 0.574003 0.464995
0.286409 0.625627 0.522660
0.393413 0.661788 0.559027
0.485878 0.689104 0.581284
0.568906 0.712720 0.595260
0.645302 0.734716 0.603608
0.732943 0.764800 0.617559
0.811882 0.789891 0.629155
0.231568 0.697649 0.566652
0.384851 0.738042 0.617598
0.495961 0.764053 0.644870
0.580549 0.781518 0.657167
0.650718 0.794866 0.661231
0.709668 0.805093 0.658889
0.770416 0.818605 0.658303
0.830823 0.832163 0.658679
0.342740 0.799569 0.658822
0.509399 0.827492 0.699159
0.612404 0.844144 0.715368
0.678996 0.853465 0.717143
0.729912 0.858705 0.712026
0.771084 0.861745 0.702754
0.810442 0.864822 0.693135
0.853249 0.870100 0.685887
0.073110 0.081256 0.143196
0.088113 0.083811 0.151527
0.110615 0.096095 0.172506
0.147993 0.122925 0.209908
0.206961 0.167786 0.265401
0.301533 0.235566 0.337646
0.430760 0.325434 0.417641
0.576591 0.428258 0.495764
0.076623 0.151469 0.193119
0.110800 0.176433 0.220823
0.152045 0.207945 0.255389
0.208883 0.251107 0.300526
0.287792 0.308836 0.357694
0.396902 0.380766 0.423168
0.528218 0.461678 0.488483
0.662594 0.543235 0.546905
0.083341 0.237049 0.251160
0.131485 0.274164 0.289199
0.195237 0.317385 0.331741
0.272293 0.368486 0.379587
0.362382 0.428250 0.432705
0.476287 0.496061 0.488910
0.602491 0.564946 0.540978
0.723019 0.627760 0.584357
0.094307 0.337705 0.319094
0.158786 0.381852 0.363764
0.243496 0.429836 0.410154
0.336388 0.479873 0.455363
0.431342 0.531545 0.498251
0.542166 0.590045 0.543413
0.658113 0.645676 0.582987
0.763926 0.692756 0.614425
0.111226 0.452329 0.397979
0.199440 0.501217 0.448722
0.300941 0.547908 0.495903
0.402579 0.589118 0.533975
0.497541 0.625209 0.561903
0.598032 0.670311 0.593740
0.700323 0.712603 0.620943
0.791672 0.747002 0.642137
0.141134 0.578992 0.489318
0.260647 0.625354 0.542082
0.380129 0.666078 0.586462
0.486892 0.698501 0.617998
0.574400 0.722119 0.635320
0.651652 0.742702 0.645164
0.737857 0.770725 0.659250
0.815340 0.794483 0.670466
0.197098 0.696426 0.580973
0.348815 0.734789 0.631253
0.480882 0.766628 0.669100
0.585451 0.789772 0.691960
0.660684 0.803860 0.699800
0.720768 0.813428 0.699214
0.779916 0.825186 0.698659
0.837763 0.837145 0.698510
0.287007 0.795265 0.665370
0.463401 0.823481 0.709543
0.596528 0.845964 0.737906
0.687875 0.860757 0.750538
0.743719 0.867556 0.749391
0.785894 0.870641 0.742152
0.823552 0.872684 0.732919
0.863280 0.876514 0.725280
0.074308 0.089322 0.177163
0.089054 0.091024 0.184787
0.107335 0.098108 0.200341
0.135626 0.117283 0.231026
0.180734 0.153903 0.281563
0.259718 0.215865 0.354796
0.376732 0.302456 0.439387
0.519455 0.407170 0.525742
0.079516 0.170331 0.238894
0.110443 0.188397 0.259516
0.146018 0.212465 0.287192
0.194405 0.248689 0.327071
0.262394 0.300906 0.381774
0.360788 0.370144 0.449133
0.486243 0.451196 0.519163
0.623478 0.537401 0.585211
0.086729 0.266273 0.305605
0.128496 0.291095 0.331453
0.187160 0.325817 0.367203
0.259057 0.371395 0.412049
0.343200 0.427949 0.464758
0.451576 0.494874 0.523351
0.576433 0.564834 0.579177
0.701774 0.631658 0.627717
0.097293 0.370857 0.375328
0.151190 0.399151 0.404335
0.231842 0.439287 0.444993
0.324485 0.486331 0.490197
0.420422 0.537256 0.535382
0.529862 0.595460 0.582897
0.646871 0.651741 0.625072
0.756924 0.700881 0.659176
0.112658 0.479904 0.447497
0.184876 0.512156 0.481166
0.283191 0.553466 0.524320
0.390242 0.595232 0.565856
0.494138 0.633336 0.599655
0.595665 0.677881 0.633417
0.699362 0.719947 0.662423
0.793114 0.754678 0.684914
0.136882 0.595760 0.527371
0.236546 0.628810 0.565129
0.356449 0.667390 0.608586
0.474387 0.702933 0.646359
0.574984 0.730080 0.671106
0.655113 0.750531 0.683347
0.741842 0.777572 0.698568
0.819603 0.800650 0.710404
0.180779 0.703688 0.606797
0.312571 0.733212 0.646060
0.451327 0.765342 0.686426
0.573834 0.792906 0.717784
0.665506 0.811337 0.733877
0.728655 0.821104 0.735862
0.787933 0.832027 0.736293
0.844758 0.842987 0.736550
0.252884 0.795462 0.679984
0.414310 0.819326 0.718397
0.562698 0.843726 0.752672
0.678739 0.863346 0.775334
0.752810 0.874853 0.782436
0.797495 0.878570 0.777743
0.834867 0.880198 0.769654
0.872754 0.883027 0.762416
0.075064 0.099579 0.216582
0.089902 0.101408 0.224553
0.107755 0.106832 0.238330
0.130634 0.119974 0.263038
0.163251 0.146079 0.304068
0.226958 0.201784 0.375654
0.328252 0.282895 0.462197
0.461094 0.385327 0.553264
0.081882 0.192241 0.289327
0.110776 0.205719 0.305480
0.143187 0.223540 0.327346
0.185327 0.252067 0.360464
0.243272 0.296226 0.408787
0.330695 0.362408 0.476312
0.446814 0.441606 0.548891
0.581097 0.528849 0.619354
0.090990 0.297920 0.364992
0.129914 0.315845 0.383732
0.182414 0.340642 0.409961
0.247194 0.376895 0.446845
0.324739 0.427400 0.495870
0.426089 0.493136 0.555660
0.546446 0.563241 0.614183
0.673473 0.632868 0.666806
0.103285 0.407960 0.438330
0.151915 0.426787 0.457584
0.222729 0.454635 0.485919
0.308997 0.492546 0.523477
0.405612 0.540791 0.569242
0.512725 0.599152 0.618722
0.629325 0.656347 0.663515
0.743304 0.708142 0.700866
0.119677 0.516124 0.506727
0.181164 0.535333 0.527255
0.265468 0.563711 0.556800
0.369162 0.599107 0.593386
0.485246 0.639795 0.634053
0.590109 0.685739 0.670675
0.696843 0.728650 0.702155
0.794491 0.764270 0.726524
0.142766 0.620948 0.575129
0.226062 0.642584 0.600001
0.329827 0.670432 0.631549
0.447442 0.702643 0.667216
0.567874 0.735797 0.702144
0.654909 0.757860 0.718463
0.744620 0.785309 0.735994
0.824608 0.808670 0.749400
0.179735 0.717767 0.641743
0.291741 0.738898 0.670144
0.415757 0.763640 0.702147
0.543179 0.790533 0.734672
0.661656 0.816337 0.762762
0.732602 0.827998 0.769217
0.794243 0.839160 0.771727
0.851868 0.849959 0.773308
0.238620 0.800240 0.702224
0.380660 0.819028 0.733076
0.519809 0.839506 0.763743
0.647613 0.860580 0.790913
0.753483 0.879634 0.810448
0.805321 0.885536 0.810037
0.844273 0.887472 0.803950
0.881716 0.889869 0.797841
0.075820 0.112813 0.263279
0.091390 0.115667 0.273007
0.109457 0.120871 0.286777
0.131726 0.131513 0.308497
0.160976 0.151872 0.342758
0.207997 0.196453 0.403220
0.293337 0.271807 0.488641
0.411719 0.370031 0.581379
0.084249 0.217770 0.346270
0.112741 0.229440 0.360553
0.143269 0.243566 0.378867
0.181693 0.265334 0.405437
0.233537 0.299909 0.444441
0.310167 0.359160 0.505828
0.416318 0.436227 0.579155
0.543191 0.522652 0.652044
0.095070 0.332737 0.428759
0.133422 0.347306 0.443690
0.181827 0.365762 0.463596
0.239924 0.392408 0.491442
0.309678 0.431528 0.530204
0.406609 0.493402 0.587637
0.521928 0.563410 0.647909
0.646534 0.634054 0.702954
0.109426 0.448510 0.505744
0.157664 0.463196 0.520319
0.222843 0.483070 0.540594
0.299909 0.509958 0.567580
0.386970 0.546546 0.602816
0.495859 0.603226 0.653037
0.611460 0.661238 0.700031
0.726457 0.714849 0.739480
0.128398 0.557424 0.573428
0.188714 0.571742 0.588639
0.266182 0.591546 0.609386
0.358633 0.616024 0.634881
0.463404 0.646196 0.665308
0.576785 0.692556 0.706070
0.686134 0.736740 0.740117
0.787113 0.774372 0.766312
0.154708 0.650831 0.627925
0.229806 0.664743 0.644761
0.320834 0.684074 0.666798
0.424694 0.707794 0.692904
0.536985 0.734709 0.721585
0.646816 0.762854 0.749411
0.744261 0.793370 0.771115
0.828901 0.818598 0.786553
0.191238 0.736477 0.682707
0.288587 0.750923 0.702619
0.397473 0.769069 0.726330
0.512563 0.790071 0.752067
0.627608 0.812581 0.777658
0.728072 0.832590 0.797696
0.797608 0.846237 0.804552
0.858764 0.858271 0.808275
0.243957 0.809096 0.731455
0.367082 0.823134 0.754739
0.491975 0.839390 0.779595
0.612240 0.857141 0.803705
0.721379 0.875248 0.824668
0.805126 0.890163 0.837265
0.850876 0.894140 0.835246
0.889753 0.897102 0.831160
0.077522 0.129198 0.318642
0.093823 0.133808 0.330492
0.112449 0.139784 0.345486
0.134799 0.149379 0.366108
0.162971 0.165914 0.395597
0.204771 0.201079 0.444691
0.274848 0.269538 0.521935
0.377240 0.363035 0.611496
0.087438 0.247060 0.410049
0.116568 0.258692 0.423678
0.146063 0.271086 0.440252
0.181823 0.288414 0.462519
0.229181 0.315067 0.493598
0.297795 0.361729 0.542466
0.395819 0.435243 0.611610
0.515078 0.520851 0.684372
0.099851 0.370543 0.496323
0.138974 0.384028 0.509442
0.185178 0.399018 0.525638
0.238465 0.419208 0.547268
0.301102 0.448495 0.576911
0.388373 0.496560 0.621809
0.501978 0.565112 0.680689
0.625516 0.637056 0.737354
0.116147 0.490503 0.573621
0.165532 0.503488 0.585878
0.227825 0.518834 0.601339
0.298473 0.538505 0.621244
0.376323 0.565224 0.647329
0.474790 0.608436 0.686066
0.593911 0.666177 0.733644
0.712645 0.721999 0.775575
0.137622 0.599237 0.638883
0.199450 0.611410 0.651246
0.273643 0.626201 0.666732
0.358481 0.643671 0.685021
0.452406 0.665266 0.706805
0.555509 0.700040 0.738185
0.672230 0.744638 0.774411
0.780182 0.784697 0.803516
0.167396 0.686595 0.687160
0.242836 0.697983 0.700599
0.329270 0.712338 0.717028
0.424311 0.729336 0.735940
0.525223 0.748683 0.756774
0.627250 0.770530 0.778805
0.734904 0.802563 0.804765
0.828432 0.830134 0.823877
0.206882 0.757999 0.726411
0.297752 0.769009 0.742048
0.396848 0.782683 0.760031
0.500734 0.798610 0.779638
0.605744 0.816176 0.799916
0.704892 0.833901 0.818441
0.790213 0.851423 0.832965
0.862904 0.867036 0.842085
0.259442 0.819044 0.762470
0.368792 0.829567 0.780636
0.480507 0.842378 0.800256
0.590078 0.856888 0.820072
0.693238 0.872402 0.838751
0.782078 0.887513 0.853425
0.846599 0.896950 0.860290
0.896785 0.903737 0.861997
0.079924 0.148363 0.383828
0.097037 0.155670 0.396684
0.116483 0.163239 0.412857
0.139389 0.172732 0.433301
0.167493 0.186720 0.459715
0.207476 0.214396 0.499454
0.268362 0.272295 0.563293
0.357276 0.360259 0.645000
0.091384 0.279570 0.479955
0.122052 0.291758 0.492966
0.151140 0.303886 0.508680
0.184958 0.318802 0.528268
0.228931 0.339685 0.553431
0.291256 0.374764 0.590563
0.380764 0.437159 0.647908
0.493893 0.519879 0.716306
0.105275 0.410608 0.566301
0.146309 0.423892 0.578392
0.191812 0.437170 0.592366
0.241742 0.453427 0.609897
0.298316 0.475657 0.632720
0.376067 0.510484 0.665326
0.482328 0.568260 0.714264
0.605470 0.638711 0.768943
0.123360 0.533013 0.640464
0.175097 0.545601 0.651637
0.236755 0.558409 0.664220
0.303337 0.573591 0.679543
0.373466 0.593448 0.699005
0.460209 0.623659 0.726297
0.573281 0.671722 0.766019
0.695622 0.726734 0.807532
0.147274 0.639806 0.700625
0.212133 0.651398 0.711662
0.285684 0.663469 0.724203
0.366057 0.676733 0.738076
0.451631 0.692522 0.753818
0.541835 0.716222 0.775664
0.653708 0.752886 0.806347
0.767559 0.792531 0.836114
0.180719 0.721235 0.742712
0.259436 0.732034 0.754712
0.344942 0.743623 0.768053
0.434762 0.756264 0.782439
0.526479 0.770189 0.797564
0.616579 0.785989 0.813016
0.720731 0.812555 0.836087
0.820915 0.840086 0.856953
0.224461 0.781522 0.771188
0.315182 0.791335 0.784730
0.410243 0.802408 0.799276
0.506857 0.814711 0.814518
0.602317 0.828072 0.829982
0.691979 0.841884 0.844216
0.778914 0.858559 0.859837
0.860408 0.876302 0.873101
0.279379 0.831334 0.795939
0.381364 0.839974 0.811051
0.484274 0.850410 0.826814
0.584728 0.862234 0.842660
0.679666 0.874982 0.857930
0.763790 0.887845 0.870987
0.835356 0.899272 0.881557
0.896415 0.909528 0.889052
