Assets/1__3DArt/KimSe/artstation_asset/LUTs_subway_asset/CUBE/Paranormal 03.cube
# LUT by SparkleStock. Enhanced with VOXCOLOR algorithms.
LUT_3D_SIZE 32
0.058608 0.031258 0.042979
0.063429 0.034566 0.047233
0.068250 0.037875 0.051487
0.073071 0.041183 0.055741
0.077892 0.044492 0.059994
0.082713 0.047800 0.064248
0.091512 0.053748 0.071496
0.101107 0.060223 0.079341
0.110701 0.066698 0.087187
0.120296 0.073173 0.095033
0.129891 0.079649 0.102879
0.145031 0.089369 0.114160
0.162945 0.100713 0.127157
0.180858 0.112056 0.140155
0.198771 0.123400 0.153153
0.216684 0.134743 0.166151
0.239088 0.148805 0.181323
0.265981 0.165584 0.198669
0.292875 0.182362 0.216015
0.319768 0.199141 0.233361
0.346662 0.215920 0.250707
0.375147 0.233928 0.268337
0.406814 0.254394 0.286534
0.438481 0.274859 0.304730
0.470148 0.295325 0.322927
0.501816 0.315790 0.341124
0.532609 0.336106 0.358541
0.559030 0.355674 0.372059
0.585450 0.375241 0.385576
0.611871 0.394809 0.399094
0.638292 0.414376 0.412612
0.664713 0.433944 0.426129
0.060971 0.042034 0.049880
0.067110 0.047035 0.055259
0.073248 0.052036 0.060638
0.079386 0.057037 0.066017
0.085524 0.062038 0.071396
0.091663 0.067038 0.076775
0.101489 0.074213 0.084789
0.112054 0.081823 0.093330
0.122618 0.089432 0.101871
0.133183 0.097042 0.110413
0.143747 0.104652 0.118954
0.159680 0.115281 0.130692
0.178298 0.127420 0.144028
0.196916 0.139560 0.157364
0.215533 0.151699 0.170700
0.234151 0.163839 0.184037
0.256911 0.178362 0.199291
0.283814 0.195269 0.216463
0.310716 0.212176 0.233635
0.337619 0.229083 0.250808
0.364522 0.245990 0.267980
0.392781 0.263872 0.285296
0.423753 0.283707 0.302898
0.454725 0.303541 0.320500
0.485697 0.323376 0.338102
0.516669 0.343210 0.355704
0.546733 0.362800 0.372510
0.572257 0.381169 0.385332
0.597782 0.399538 0.398155
0.623306 0.417907 0.410977
0.648831 0.436277 0.423800
0.674355 0.454646 0.436622
0.063335 0.052810 0.056780
0.070790 0.059504 0.063285
0.078246 0.066197 0.069789
0.085701 0.072890 0.076293
0.093157 0.079583 0.082797
0.100613 0.086277 0.089302
0.111467 0.094679 0.098083
0.123001 0.103423 0.107319
0.134535 0.112167 0.116555
0.146069 0.120911 0.125792
0.157603 0.129655 0.135028
0.174329 0.141193 0.147224
0.193651 0.154128 0.160898
0.212973 0.167063 0.174573
0.232295 0.179998 0.188248
0.251617 0.192934 0.201922
0.274734 0.207919 0.217259
0.301646 0.224954 0.234257
0.328558 0.241989 0.251256
0.355470 0.259024 0.268254
0.382382 0.276059 0.285253
0.410415 0.293817 0.302254
0.440692 0.313020 0.319262
0.470969 0.332223 0.336270
0.501246 0.351426 0.353277
0.531522 0.370629 0.370285
0.560858 0.389494 0.386479
0.585485 0.406665 0.398606
0.610113 0.423835 0.410733
0.634741 0.441006 0.422861
0.659369 0.458177 0.434988
0.683997 0.475348 0.447115
0.065698 0.063587 0.063681
0.074471 0.071972 0.071311
0.083244 0.080358 0.078940
0.092016 0.088744 0.086569
0.100789 0.097129 0.094199
0.109562 0.105515 0.101828
0.121444 0.115144 0.111376
0.133948 0.125023 0.121308
0.146452 0.134901 0.131239
0.158956 0.144779 0.141171
0.171459 0.154658 0.151103
0.188978 0.167104 0.163755
0.209005 0.180835 0.177769
0.229031 0.194567 0.191782
0.249058 0.208298 0.205795
0.269084 0.222029 0.219808
0.292558 0.237476 0.235227
0.319479 0.254639 0.252052
0.346400 0.271802 0.268876
0.373321 0.288965 0.285701
0.400242 0.306129 0.302526
0.428049 0.323761 0.319213
0.457631 0.342333 0.335626
0.487213 0.360905 0.352039
0.516794 0.379477 0.368452
0.546376 0.398049 0.384865
0.574982 0.416188 0.400448
0.598713 0.432160 0.411880
0.622445 0.448132 0.423312
0.646176 0.464105 0.434744
0.669908 0.480077 0.446176
0.693639 0.496049 0.457608
0.068061 0.074363 0.070582
0.078151 0.084441 0.079336
0.088241 0.094519 0.088091
0.098332 0.104597 0.096846
0.108422 0.114675 0.105600
0.118512 0.124753 0.114355
0.131422 0.135610 0.124670
0.144895 0.146623 0.135297
0.158369 0.157635 0.145923
0.171842 0.168648 0.156550
0.185315 0.179660 0.167177
0.203627 0.193016 0.180287
0.224358 0.207543 0.194639
0.245089 0.222070 0.208991
0.265820 0.236597 0.223342
0.286551 0.251124 0.237694
0.310381 0.267033 0.253195
0.337311 0.284324 0.269846
0.364241 0.301616 0.286497
0.391171 0.318907 0.303148
0.418102 0.336198 0.319799
0.445684 0.353706 0.336172
0.474570 0.371646 0.351990
0.503456 0.389587 0.367809
0.532343 0.407528 0.383627
0.561229 0.425468 0.399446
0.589107 0.442881 0.414417
0.611941 0.457655 0.425154
0.634776 0.472429 0.435890
0.657611 0.487203 0.446627
0.680446 0.501977 0.457364
0.703281 0.516751 0.468100
0.070424 0.085139 0.077482
0.081832 0.096910 0.087362
0.093239 0.108680 0.097242
0.104647 0.120450 0.107122
0.116054 0.132221 0.117002
0.127462 0.143991 0.126881
0.141399 0.156075 0.137963
0.155842 0.168222 0.149285
0.170285 0.180369 0.160608
0.184728 0.192516 0.171930
0.199172 0.204663 0.183252
0.218276 0.218928 0.196819
0.239711 0.234251 0.211509
0.261147 0.249573 0.226200
0.282582 0.264896 0.240890
0.304017 0.280219 0.255580
0.328204 0.296590 0.271163
0.355144 0.314009 0.287640
0.382083 0.331429 0.304117
0.409022 0.348848 0.320595
0.435961 0.366267 0.337072
0.463318 0.383650 0.353131
0.491509 0.400960 0.368355
0.519700 0.418269 0.383578
0.547891 0.435579 0.398802
0.576082 0.452888 0.414026
0.603231 0.469575 0.428386
0.625169 0.483151 0.438427
0.647108 0.496726 0.448469
0.669046 0.510302 0.458510
0.690985 0.523878 0.468552
0.712923 0.537453 0.478593
0.075190 0.106668 0.092182
0.087427 0.119003 0.102554
0.099664 0.131337 0.112926
0.111901 0.143672 0.123299
0.124138 0.156006 0.133671
0.136375 0.168341 0.144043
0.151271 0.180791 0.155329
0.166699 0.193264 0.166797
0.182127 0.205738 0.178266
0.197555 0.218211 0.189734
0.212983 0.230684 0.201203
0.232586 0.245161 0.214791
0.254276 0.260639 0.229438
0.275966 0.276118 0.244086
0.297655 0.291596 0.258733
0.319345 0.307074 0.273381
0.343554 0.323385 0.288761
0.370281 0.340528 0.304873
0.397009 0.357672 0.320986
0.423736 0.374815 0.337098
0.450463 0.391958 0.353211
0.477457 0.408926 0.368839
0.504983 0.425544 0.383499
0.532510 0.442161 0.398159
0.560036 0.458778 0.412818
0.587562 0.475396 0.427478
0.614043 0.491362 0.441285
0.635298 0.504075 0.450829
0.656554 0.516787 0.460374
0.677809 0.529500 0.469918
0.699064 0.542213 0.479463
0.720320 0.554925 0.489007
0.080436 0.130348 0.108441
0.093405 0.143021 0.119179
0.106374 0.155694 0.129917
0.119343 0.168367 0.140655
0.132312 0.181040 0.151393
0.145280 0.193713 0.162132
0.161122 0.206357 0.173509
0.177538 0.218995 0.185014
0.193954 0.231632 0.196519
0.210370 0.244270 0.208024
0.226786 0.256908 0.219529
0.246828 0.271458 0.233050
0.268682 0.286964 0.247579
0.290537 0.302470 0.262107
0.312391 0.317976 0.276636
0.334246 0.333481 0.291164
0.358409 0.349628 0.306284
0.384880 0.366414 0.321994
0.411351 0.383201 0.337704
0.437822 0.399987 0.353414
0.464294 0.416774 0.369124
0.490897 0.433269 0.384298
0.517764 0.449182 0.398400
0.544632 0.465095 0.412501
0.571500 0.481008 0.426603
0.598367 0.496921 0.440704
0.624193 0.512168 0.453970
0.644808 0.524084 0.463057
0.665423 0.536001 0.472144
0.686038 0.547918 0.481231
0.706653 0.559835 0.490318
0.727268 0.571752 0.499405
0.085683 0.154027 0.124700
0.099383 0.167039 0.135804
0.113084 0.180050 0.146908
0.126785 0.193062 0.158012
0.140485 0.206073 0.169116
0.154186 0.219085 0.180220
0.170973 0.231922 0.191689
0.188377 0.244725 0.203231
0.205781 0.257527 0.214772
0.223185 0.270330 0.226314
0.240589 0.283133 0.237856
0.261070 0.297756 0.251309
0.283089 0.313289 0.265719
0.305108 0.328822 0.280129
0.327127 0.344355 0.294538
0.349146 0.359889 0.308948
0.373264 0.375870 0.323806
0.399479 0.392300 0.339114
0.425694 0.408730 0.354422
0.451909 0.425159 0.369729
0.478124 0.441589 0.385037
0.504337 0.457612 0.399757
0.530546 0.472820 0.413300
0.556755 0.488029 0.426844
0.582964 0.503237 0.440387
0.609173 0.518446 0.453931
0.634343 0.532973 0.466655
0.654317 0.544094 0.475285
0.674292 0.555215 0.483915
0.694266 0.566336 0.492544
0.714241 0.577457 0.501174
0.734216 0.588578 0.509803
0.090929 0.177707 0.140959
0.105362 0.191057 0.152429
0.119794 0.204407 0.163899
0.134227 0.217757 0.175369
0.148659 0.231107 0.186839
0.163091 0.244457 0.198309
0.180824 0.257488 0.209869
0.199216 0.270455 0.221447
0.217608 0.283422 0.233026
0.236000 0.296389 0.244604
0.254392 0.309357 0.256182
0.275312 0.324053 0.269569
0.297495 0.339614 0.283860
0.319679 0.355174 0.298150
0.341863 0.370735 0.312441
0.364047 0.386296 0.326732
0.388118 0.402113 0.341329
0.414077 0.418186 0.356235
0.440036 0.434259 0.371140
0.465995 0.450332 0.386045
0.491954 0.466405 0.400950
0.517777 0.481955 0.415215
0.543327 0.496459 0.428201
0.568877 0.510963 0.441186
0.594428 0.525467 0.454172
0.619978 0.539971 0.467157
0.644492 0.553779 0.479341
0.663826 0.564104 0.487513
0.683161 0.574429 0.495685
0.702495 0.584754 0.503857
0.721829 0.595079 0.512029
0.741163 0.605404 0.520202
0.096176 0.201386 0.157218
0.111340 0.215075 0.169054
0.126504 0.228763 0.180890
0.141668 0.242452 0.192726
0.156833 0.256140 0.204562
0.171997 0.269829 0.216398
0.190674 0.283053 0.228049
0.210054 0.296185 0.239664
0.229434 0.309317 0.251279
0.248814 0.322449 0.262894
0.268194 0.335581 0.274509
0.289553 0.350350 0.287828
0.311902 0.365939 0.302000
0.334250 0.381527 0.316172
0.356599 0.397115 0.330343
0.378947 0.412703 0.344515
0.402973 0.428355 0.358852
0.428676 0.444071 0.373355
0.454379 0.459788 0.387858
0.480081 0.475504 0.402360
0.505784 0.491220 0.416863
0.531217 0.506297 0.430674
0.556108 0.520097 0.443101
0.581000 0.533897 0.455529
0.605892 0.547697 0.467956
0.630783 0.561496 0.480384
0.654642 0.574584 0.492026
0.673336 0.584114 0.499741
0.692030 0.593643 0.507455
0.710724 0.603172 0.515170
0.729417 0.612701 0.522885
0.748111 0.622230 0.530600
0.105172 0.233164 0.180881
0.121098 0.246703 0.192736
0.137025 0.260242 0.204590
0.152951 0.273781 0.216444
0.168878 0.287320 0.228299
0.184805 0.300859 0.240153
0.204000 0.313769 0.251569
0.223850 0.326553 0.262897
0.243700 0.339338 0.274225
0.263549 0.352122 0.285553
0.283399 0.364906 0.296882
0.304784 0.378985 0.309534
0.326938 0.393710 0.322849
0.349091 0.408435 0.336164
0.371244 0.423160 0.349479
0.393398 0.437885 0.362794
0.417118 0.452842 0.376440
0.442406 0.468031 0.390419
0.467695 0.483220 0.404397
0.492983 0.498408 0.418375
0.518271 0.513597 0.432353
0.543203 0.528084 0.445612
0.567424 0.541167 0.457433
0.591645 0.554250 0.469253
0.615865 0.567333 0.481074
0.640086 0.580416 0.492895
0.663289 0.592798 0.503961
0.681404 0.601672 0.511255
0.699518 0.610545 0.518549
0.717633 0.619419 0.525843
0.735747 0.628292 0.533137
0.753862 0.637166 0.540431
0.116042 0.268991 0.208248
0.132747 0.282136 0.219946
0.149451 0.295282 0.231645
0.166155 0.308427 0.243344
0.182859 0.321573 0.255043
0.199563 0.334719 0.266741
0.219064 0.347060 0.277758
0.239124 0.359241 0.288638
0.259184 0.371421 0.299518
0.279244 0.383602 0.310398
0.299304 0.395782 0.321278
0.320510 0.408787 0.332964
0.342288 0.422204 0.345053
0.364066 0.435621 0.357142
0.385845 0.449038 0.369231
0.407623 0.462455 0.381320
0.430909 0.476452 0.394061
0.455703 0.491027 0.407454
0.480497 0.505603 0.420846
0.505291 0.520179 0.434239
0.530085 0.534755 0.447631
0.554463 0.548592 0.460290
0.578006 0.560953 0.471479
0.601550 0.573313 0.482669
0.625094 0.585674 0.493858
0.648638 0.598034 0.505048
0.671186 0.609716 0.515521
0.688751 0.618004 0.522412
0.706317 0.626292 0.529304
0.723882 0.634580 0.536195
0.741448 0.642868 0.543087
0.759014 0.651156 0.549978
0.126913 0.304817 0.235614
0.144395 0.317569 0.247157
0.161877 0.330322 0.258700
0.179359 0.343074 0.270244
0.196840 0.355826 0.281787
0.214322 0.368578 0.293330
0.234128 0.380351 0.303947
0.254398 0.391928 0.314379
0.274669 0.403505 0.324810
0.294939 0.415081 0.335242
0.315209 0.426658 0.345674
0.336235 0.438590 0.356393
0.357638 0.450699 0.367257
0.379041 0.462807 0.378120
0.400445 0.474916 0.388983
0.421848 0.487025 0.399846
0.444700 0.500061 0.411681
0.469000 0.514024 0.424489
0.493300 0.527987 0.437296
0.517600 0.541950 0.450103
0.541900 0.555913 0.462910
0.565722 0.569100 0.474968
0.588589 0.580738 0.485526
0.611456 0.592376 0.496084
0.634323 0.604014 0.506643
0.657190 0.615651 0.517201
0.679082 0.626633 0.527081
0.696099 0.634336 0.533570
0.713115 0.642039 0.540059
0.730132 0.649741 0.546548
0.747149 0.657444 0.553037
0.764166 0.665146 0.559526
0.137784 0.340644 0.262980
0.156043 0.353003 0.274368
0.174303 0.365361 0.285755
0.192562 0.377720 0.297143
0.210822 0.390079 0.308531
0.229081 0.402438 0.319919
0.249191 0.413642 0.330136
0.269672 0.424615 0.340120
0.290153 0.435588 0.350103
0.310634 0.446561 0.360087
0.331115 0.457534 0.370070
0.351960 0.468392 0.379823
0.372989 0.479193 0.389460
0.394017 0.489994 0.399098
0.415045 0.500794 0.408735
0.436073 0.511595 0.418372
0.458490 0.523671 0.429302
0.482296 0.537020 0.441524
0.506102 0.550370 0.453745
0.529908 0.563720 0.465967
0.553715 0.577070 0.478189
0.576982 0.589609 0.489646
0.599172 0.600524 0.499573
0.621362 0.611439 0.509500
0.643552 0.622354 0.519427
0.665742 0.633269 0.529354
0.686978 0.643551 0.538641
0.703446 0.650668 0.544727
0.719914 0.657785 0.550814
0.736382 0.664902 0.556900
0.752850 0.672020 0.562987
0.769317 0.679137 0.569073
0.148655 0.376470 0.290346
0.167692 0.388436 0.301578
0.186729 0.400401 0.312811
0.205766 0.412367 0.324043
0.224803 0.424332 0.335275
0.243840 0.436298 0.346507
0.264255 0.446933 0.356325
0.284946 0.457302 0.365861
0.305638 0.467672 0.375396
0.326329 0.478041 0.384931
0.347020 0.488410 0.394466
0.367686 0.498195 0.403252
0.388339 0.507687 0.411664
0.408992 0.517180 0.420075
0.429645 0.526673 0.428487
0.450298 0.536165 0.436899
0.472281 0.547280 0.446923
0.495593 0.560017 0.458559
0.518905 0.572754 0.470195
0.542217 0.585491 0.481831
0.565529 0.598228 0.493467
0.588242 0.610117 0.504324
0.609755 0.620309 0.513619
0.631268 0.630502 0.522915
0.652781 0.640694 0.532211
0.674294 0.650886 0.541507
0.694874 0.660469 0.550201
0.710793 0.667000 0.555885
0.726712 0.673532 0.561569
0.742631 0.680064 0.567253
0.758550 0.686595 0.572937
0.774469 0.693127 0.578621
0.163260 0.414022 0.320572
0.182964 0.425374 0.331402
0.202669 0.436727 0.342231
0.222374 0.448080 0.353061
0.242079 0.459432 0.363891
0.261783 0.470785 0.374720
0.282356 0.480724 0.383991
0.303102 0.490379 0.392950
0.323848 0.500035 0.401909
0.344594 0.509691 0.410868
0.365340 0.519346 0.419827
0.385732 0.528177 0.427762
0.405946 0.536594 0.435186
0.426160 0.545012 0.442609
0.446374 0.553430 0.450033
0.466588 0.561847 0.457456
0.487868 0.571844 0.466424
0.510215 0.583419 0.476935
0.532562 0.594994 0.487446
0.554909 0.606570 0.497957
0.577256 0.618145 0.508468
0.599092 0.629024 0.518360
0.619905 0.638512 0.527016
0.640718 0.648000 0.535671
0.661531 0.657488 0.544327
0.682345 0.666976 0.552982
0.702251 0.675881 0.561073
0.717626 0.681873 0.566336
0.733001 0.687865 0.571599
0.748375 0.693857 0.576862
0.763750 0.699849 0.582125
0.779125 0.705841 0.587388
0.181598 0.453299 0.353657
0.201861 0.463819 0.363837
0.222124 0.474339 0.374017
0.242387 0.484859 0.384198
0.262649 0.495379 0.394378
0.282912 0.505900 0.404558
0.303494 0.515013 0.413133
0.324139 0.523846 0.421388
0.344785 0.532678 0.429643
0.365430 0.541510 0.437897
0.386076 0.550343 0.446152
0.406098 0.558338 0.453352
0.425809 0.565914 0.460025
0.445520 0.573490 0.466699
0.465231 0.581066 0.473372
0.484942 0.588642 0.480046
0.505252 0.597362 0.487806
0.526163 0.607227 0.496652
0.547074 0.617091 0.505498
0.567985 0.626956 0.514344
0.588895 0.636820 0.523190
0.609533 0.646331 0.531756
0.629623 0.655133 0.539762
0.649714 0.663934 0.547768
0.669804 0.672736 0.555774
0.689895 0.681538 0.563780
0.709109 0.689789 0.571256
0.723944 0.695287 0.576080
0.738779 0.700785 0.580904
0.753614 0.706283 0.585728
0.768449 0.711781 0.590552
0.783284 0.717279 0.595376
0.199937 0.492576 0.386742
0.220758 0.502263 0.396273
0.241579 0.511951 0.405804
0.262399 0.521639 0.415334
0.283220 0.531326 0.424865
0.304041 0.541014 0.434396
0.324632 0.549303 0.442276
0.345177 0.557312 0.449826
0.365722 0.565321 0.457376
0.386266 0.573330 0.464926
0.406811 0.581339 0.472476
0.426465 0.588498 0.478942
0.445672 0.595233 0.484865
0.464880 0.601967 0.490789
0.484088 0.608702 0.496712
0.503295 0.615436 0.502635
0.522637 0.622880 0.509187
0.542111 0.631034 0.516369
0.561586 0.639188 0.523550
0.581060 0.647342 0.530731
0.600535 0.655496 0.537912
0.619974 0.663637 0.545152
0.639341 0.671753 0.552508
0.658709 0.679869 0.559865
0.678077 0.687985 0.567221
0.697445 0.696100 0.574578
0.715967 0.703697 0.581439
0.730262 0.708701 0.585824
0.744558 0.713705 0.590209
0.758853 0.718709 0.594594
0.773148 0.723713 0.598979
0.787443 0.728717 0.603364
0.218276 0.531852 0.419827
0.239654 0.540708 0.428709
0.261033 0.549563 0.437590
0.282412 0.558418 0.446471
0.303791 0.567273 0.455352
0.325170 0.576129 0.464233
0.345770 0.583593 0.471418
0.366214 0.590778 0.478264
0.386658 0.597964 0.485110
0.407102 0.605150 0.491955
0.427547 0.612336 0.498801
0.446831 0.618659 0.504532
0.465536 0.624552 0.509705
0.484240 0.630445 0.514878
0.502945 0.636338 0.520051
0.521649 0.642231 0.525225
0.540021 0.648399 0.530569
0.558059 0.654842 0.536086
0.576097 0.661285 0.541602
0.594136 0.667728 0.547118
0.612174 0.674172 0.552634
0.630414 0.680944 0.558547
0.649060 0.688373 0.565254
0.667705 0.695803 0.571961
0.686350 0.703233 0.578668
0.704995 0.710662 0.585375
0.722825 0.717605 0.591622
0.736581 0.722115 0.595568
0.750336 0.726625 0.599514
0.764092 0.731135 0.603460
0.777847 0.735645 0.607406
0.791603 0.740155 0.611351
0.236614 0.571129 0.452913
0.258551 0.579152 0.461144
0.280488 0.587175 0.469376
0.302425 0.595198 0.477608
0.324362 0.603220 0.485839
0.346299 0.611243 0.494071
0.366908 0.617882 0.500561
0.387251 0.624245 0.506702
0.407595 0.630607 0.512843
0.427938 0.636970 0.518985
0.448282 0.643332 0.525126
0.467198 0.648820 0.530122
0.485399 0.653871 0.534545
0.503600 0.658923 0.538968
0.521802 0.663974 0.543391
0.540003 0.669025 0.547814
0.557405 0.673917 0.551951
0.574007 0.678650 0.555803
0.590609 0.683382 0.559654
0.607211 0.688115 0.563505
0.623813 0.692847 0.567356
0.640855 0.698250 0.571943
0.658778 0.704994 0.578001
0.676700 0.711737 0.584058
0.694623 0.718481 0.590116
0.712545 0.725224 0.596173
0.729683 0.731513 0.601805
0.742899 0.735529 0.605312
0.756115 0.739545 0.608819
0.769330 0.743561 0.612326
0.782546 0.747577 0.615832
0.795762 0.751593 0.619339
0.257584 0.608074 0.484801
0.279896 0.615271 0.492331
0.302208 0.622467 0.499861
0.324520 0.629664 0.507391
0.346832 0.636860 0.514922
0.369144 0.644056 0.522452
0.389604 0.649895 0.528228
0.409695 0.655461 0.533652
0.429785 0.661028 0.539077
0.449876 0.666594 0.544502
0.469966 0.672161 0.549927
0.488391 0.676859 0.554200
0.505982 0.681124 0.557897
0.523574 0.685388 0.561594
0.541166 0.689653 0.565292
0.558757 0.693917 0.568989
0.575227 0.697743 0.572105
0.590576 0.701131 0.574639
0.605925 0.704519 0.577173
0.621274 0.707907 0.579707
0.636622 0.711295 0.582241
0.652497 0.715518 0.585671
0.669422 0.721414 0.590893
0.686347 0.727310 0.596115
0.703273 0.733206 0.601337
0.720198 0.739102 0.606559
0.736417 0.744607 0.611423
0.749109 0.748160 0.614496
0.761800 0.751712 0.617570
0.774491 0.755265 0.620644
0.787183 0.758817 0.623717
0.799874 0.762370 0.626791
0.283816 0.640356 0.514294
0.306137 0.646738 0.521019
0.328458 0.653121 0.527744
0.350779 0.659503 0.534469
0.373100 0.665885 0.541195
0.395421 0.672267 0.547920
0.415418 0.677352 0.552944
0.434951 0.682178 0.557628
0.454483 0.687003 0.562312
0.474016 0.691829 0.566995
0.493548 0.696655 0.571679
0.511238 0.700655 0.575254
0.528006 0.704242 0.578274
0.544774 0.707830 0.581295
0.561543 0.711417 0.584315
0.578311 0.715005 0.587335
0.593926 0.718186 0.589802
0.608387 0.720961 0.591713
0.622849 0.723736 0.593625
0.637310 0.726511 0.595537
0.651771 0.729286 0.597449
0.666539 0.732711 0.600062
0.681918 0.737435 0.604076
0.697297 0.742160 0.608091
0.712677 0.746885 0.612105
0.728056 0.751610 0.616120
0.742905 0.756073 0.619907
0.755102 0.759223 0.622560
0.767300 0.762373 0.625213
0.779497 0.765523 0.627866
0.791694 0.768672 0.630519
0.803891 0.771822 0.633172
0.310048 0.672638 0.543787
0.332378 0.678206 0.549707
0.354708 0.683774 0.555627
0.377038 0.689342 0.561547
0.399369 0.694910 0.567468
0.421699 0.700478 0.573388
0.441232 0.704810 0.577660
0.460207 0.708895 0.581603
0.479181 0.712979 0.585546
0.498156 0.717064 0.589489
0.517130 0.721148 0.593431
0.534085 0.724450 0.596308
0.550030 0.727361 0.598651
0.565975 0.730271 0.600995
0.581920 0.733182 0.603338
0.597865 0.736092 0.605682
0.612624 0.738629 0.607498
0.626198 0.740791 0.608788
0.639772 0.742953 0.610078
0.653346 0.745115 0.611368
0.666921 0.747277 0.612658
0.680581 0.749903 0.614453
0.694414 0.753457 0.617260
0.708248 0.757011 0.620067
0.722081 0.760565 0.622874
0.735914 0.764119 0.625681
0.749392 0.767538 0.628392
0.761096 0.770286 0.630624
0.772799 0.773033 0.632856
0.784502 0.775780 0.635088
0.796206 0.778528 0.637320
0.807909 0.781275 0.639553
0.336279 0.704919 0.573280
0.358619 0.709673 0.578395
0.380958 0.714427 0.583510
0.403298 0.719181 0.588626
0.425637 0.723935 0.593741
0.447976 0.728689 0.598856
0.467047 0.732268 0.602377
0.485463 0.735611 0.605578
0.503879 0.738955 0.608780
0.522296 0.742298 0.611982
0.540712 0.745642 0.615184
0.556932 0.748246 0.617362
0.572054 0.750479 0.619029
0.587175 0.752713 0.620695
0.602297 0.754946 0.622361
0.617419 0.757180 0.624028
0.631323 0.759071 0.625195
0.644009 0.760620 0.625863
0.656696 0.762170 0.626531
0.669383 0.763719 0.627198
0.682070 0.765268 0.627866
0.694623 0.767095 0.628845
0.706910 0.769478 0.630444
0.719198 0.771861 0.632043
0.731485 0.774244 0.633643
0.743772 0.776627 0.635242
0.755880 0.779004 0.636877
0.767089 0.781349 0.638688
0.778298 0.783693 0.640499
0.789508 0.786038 0.642311
0.800717 0.788383 0.644122
0.811926 0.790728 0.645933
0.362511 0.737201 0.602773
0.384860 0.741141 0.607083
0.407208 0.745081 0.611393
0.429557 0.749020 0.615704
0.451905 0.752960 0.620014
0.474254 0.756900 0.624324
0.492861 0.759725 0.627093
0.510719 0.762328 0.629554
0.528577 0.764930 0.632015
0.546436 0.767533 0.634475
0.564294 0.770136 0.636936
0.579779 0.772041 0.638416
0.594077 0.773598 0.639406
0.608376 0.775154 0.640395
0.622674 0.776711 0.641385
0.636972 0.778268 0.642374
0.650021 0.779514 0.642892
0.661821 0.780450 0.642938
0.673620 0.781386 0.642983
0.685419 0.782323 0.643029
0.697219 0.783259 0.643075
0.708665 0.784287 0.643236
0.719407 0.785499 0.643628
0.730148 0.786711 0.644020
0.740889 0.787923 0.644411
0.751630 0.789135 0.644803
0.762367 0.790469 0.645362
0.773083 0.792411 0.646752
0.783798 0.794354 0.648143
0.794513 0.796296 0.649533
0.805229 0.798239 0.650924
0.815944 0.800181 0.652314
0.389885 0.767332 0.630320
0.412080 0.770519 0.633871
0.434274 0.773705 0.637422
0.456469 0.776892 0.640973
0.478663 0.780078 0.644524
0.500858 0.783265 0.648075
0.518891 0.785394 0.650139
0.536093 0.787313 0.651906
0.553294 0.789231 0.653673
0.570495 0.791149 0.655441
0.587696 0.793067 0.657208
0.602385 0.794327 0.658039
0.615817 0.795259 0.658401
0.629250 0.796190 0.658764
0.642682 0.797122 0.659127
0.656114 0.798053 0.659490
0.668284 0.798706 0.659409
0.679192 0.799079 0.658885
0.690099 0.799453 0.658360
0.701006 0.799826 0.657836
0.711914 0.800200 0.657311
0.722299 0.800515 0.656741
0.731641 0.800711 0.656077
0.740983 0.800908 0.655414
0.750324 0.801105 0.654751
0.759666 0.801301 0.654088
0.769145 0.801720 0.653695
0.779313 0.803249 0.654654
0.789481 0.804779 0.655613
0.799649 0.806308 0.656572
0.809817 0.807837 0.657531
0.819985 0.809366 0.658490
0.422971 0.786711 0.648139
0.444195 0.789449 0.651159
0.465420 0.792187 0.654180
0.486645 0.794926 0.657200
0.507870 0.797664 0.660220
0.529095 0.800402 0.663241
0.546006 0.802122 0.664836
0.562055 0.803637 0.666145
0.578103 0.805153 0.667455
0.594152 0.806668 0.668765
0.610201 0.808184 0.670074
0.623785 0.809066 0.670503
0.636138 0.809632 0.670491
0.648491 0.810197 0.670478
0.660844 0.810763 0.670466
0.673197 0.811329 0.670454
0.684369 0.811643 0.670030
0.694362 0.811705 0.669195
0.704355 0.811768 0.668359
0.714347 0.811830 0.667524
0.724340 0.811893 0.666688
0.733893 0.811921 0.665812
