Assets/1__3DArt/KimSe/artstation_asset/LUTs_subway_asset/CUBE/Paranormal 02_S.cube
# LUT by SparkleStock. Enhanced with VOXCOLOR algorithms.
LUT_3D_SIZE 8
DOMAIN_MIN 0.000000 0.000000 0.000000
DOMAIN_MAX 0.903226 0.903226 0.903226
0.019536 0.027350 0.042979
0.046760 0.042286 0.063208
0.093537 0.064453 0.094419
0.167427 0.098027 0.138895
0.273181 0.146591 0.197503
0.415164 0.217488 0.269345
0.568333 0.305715 0.339927
0.705817 0.396999 0.396432
0.032770 0.080665 0.073229
0.079461 0.121361 0.094921
0.147156 0.159647 0.122515
0.238537 0.202930 0.160734
0.354190 0.257166 0.212902
0.492367 0.329380 0.282402
0.631118 0.416363 0.359058
0.750478 0.506128 0.430218
0.053236 0.178841 0.130663
0.111618 0.230680 0.159003
0.189738 0.274285 0.178691
0.289720 0.318697 0.204752
0.411020 0.370920 0.247628
0.546947 0.436676 0.310847
0.676119 0.515503 0.387564
0.783635 0.597853 0.465771
0.085029 0.316917 0.218748
0.152450 0.368755 0.253004
0.235711 0.410140 0.268188
0.336049 0.447809 0.281175
0.453378 0.488237 0.305979
0.586232 0.542198 0.358061
0.708285 0.607533 0.428318
0.807727 0.677148 0.505208
0.131868 0.485604 0.337146
0.208949 0.529429 0.372171
0.295845 0.563655 0.389432
0.390443 0.588984 0.392861
0.493230 0.609776 0.392105
0.617447 0.647270 0.425928
0.732237 0.695209 0.482682
0.825156 0.747776 0.549608
0.202198 0.658592 0.477049
0.287914 0.688512 0.504902
0.377329 0.711322 0.519656
0.468451 0.727661 0.523293
0.559785 0.738774 0.519133
0.650777 0.748020 0.516511
0.752711 0.775638 0.550115
0.838353 0.809312 0.597818
0.296947 0.796290 0.604663
0.388128 0.813037 0.621197
0.476718 0.824729 0.629384
0.561101 0.832201 0.630321
0.640066 0.836289 0.625442
0.711860 0.837655 0.617233
0.784166 0.845806 0.623682
0.851231 0.860378 0.644950
0.407129 0.893954 0.702477
0.500841 0.901083 0.709320
0.584907 0.904398 0.711070
0.658767 0.904910 0.708448
0.722446 0.903583 0.702325
0.775943 0.901461 0.693989
0.823210 0.899618 0.687095
0.869941 0.901894 0.689793
0.023128 0.034157 0.066422
0.045961 0.039871 0.082553
0.088243 0.053750 0.111843
0.153510 0.079420 0.155965
0.244865 0.120757 0.216055
0.372065 0.189166 0.295655
0.520208 0.285516 0.383142
0.665798 0.397194 0.464169
0.034459 0.095960 0.111162
0.082879 0.124489 0.137822
0.150432 0.150497 0.164453
0.238563 0.181598 0.198097
0.347791 0.224415 0.244240
0.480250 0.289155 0.309033
0.618415 0.378237 0.387202
0.742395 0.482102 0.468441
0.051778 0.190185 0.170438
0.113433 0.234053 0.206952
0.193861 0.266260 0.223164
0.293391 0.297377 0.240348
0.411094 0.336145 0.273385
0.544589 0.392089 0.325933
0.675178 0.469371 0.397011
0.786977 0.560942 0.478052
0.077961 0.318576 0.252596
0.151005 0.369961 0.297612
0.237756 0.403243 0.306972
0.338568 0.429038 0.307630
0.453481 0.456964 0.320380
0.584620 0.500151 0.359167
0.708981 0.561364 0.420137
0.813673 0.635951 0.495349
0.116182 0.477328 0.361681
0.205402 0.528320 0.412338
0.296635 0.558333 0.424103
0.391537 0.574940 0.413546
0.493407 0.586984 0.398966
0.616208 0.613789 0.418006
0.733909 0.655390 0.462156
0.832981 0.708856 0.522654
0.175974 0.644608 0.493680
0.283121 0.686341 0.540452
0.380144 0.708941 0.553156
0.471655 0.719779 0.545093
0.561180 0.724907 0.527604
0.649962 0.728109 0.510199
0.754486 0.748841 0.529122
0.846669 0.780108 0.566246
0.261648 0.782574 0.618635
0.382136 0.810964 0.652653
0.481928 0.824979 0.662398
0.568257 0.830430 0.656839
0.646386 0.831719 0.642999
0.715554 0.829799 0.623218
0.786888 0.833664 0.616197
0.858550 0.845247 0.625019
0.367726 0.884397 0.718328
0.493549 0.899827 0.736899
0.591341 0.906362 0.742340
0.669340 0.907556 0.738684
0.733927 0.906173 0.729149
0.785503 0.903205 0.714627
0.830215 0.899754 0.699101
0.877959 0.900157 0.692224
0.026318 0.040695 0.094821
0.045279 0.042890 0.107994
0.078076 0.050585 0.135180
0.131437 0.068671 0.178482
0.210169 0.102172 0.239393
0.320823 0.163945 0.322189
0.459327 0.260557 0.419169
0.607782 0.382507 0.515837
0.037510 0.113683 0.157265
0.081353 0.133821 0.182006
0.142581 0.153471 0.213055
0.223764 0.178389 0.250239
0.325905 0.214223 0.294923
0.449359 0.272880 0.357430
0.583942 0.361336 0.436415
0.712811 0.472410 0.522818
0.054839 0.214950 0.228279
0.110391 0.245932 0.259361
0.189423 0.271040 0.281890
0.288074 0.295365 0.303527
0.402811 0.324526 0.331208
0.532644 0.371505 0.375440
0.663491 0.444235 0.439469
0.780460 0.538142 0.517416
0.079402 0.341717 0.311801
0.144695 0.379332 0.348327
0.234096 0.406465 0.363572
0.338815 0.426034 0.367594
0.453329 0.443134 0.371405
0.583584 0.474780 0.397819
0.710162 0.528066 0.446722
0.820127 0.600956 0.513928
0.113167 0.489226 0.410692
0.193637 0.530506 0.453478
0.289613 0.558022 0.470335
0.390841 0.571735 0.461512
0.493306 0.575734 0.436138
0.615550 0.591455 0.441940
0.736011 0.624453 0.472633
0.841170 0.674462 0.523645
0.165219 0.646132 0.529189
0.265042 0.682960 0.571616
0.371028 0.706772 0.590315
0.471785 0.717756 0.584216
0.561394 0.717831 0.556631
0.649067 0.714755 0.525907
0.756472 0.727434 0.530753
0.855219 0.753876 0.557051
0.241940 0.778491 0.643900
0.358123 0.805645 0.677060
0.471586 0.822953 0.693238
0.570773 0.830554 0.690683
0.649939 0.829657 0.670269
0.717890 0.824645 0.639898
0.789384 0.824087 0.620177
0.866191 0.831775 0.617751
0.340465 0.878582 0.737937
0.465404 0.894964 0.757841
0.580511 0.905330 0.768948
0.674252 0.909590 0.768991
0.741444 0.908435 0.757339
0.792523 0.904907 0.736749
0.836140 0.900299 0.712562
0.886084 0.898987 0.696876
0.029107 0.047202 0.130222
0.045323 0.048592 0.142126
0.069354 0.052760 0.166023
0.109385 0.065086 0.206239
0.171910 0.091163 0.265854
0.266634 0.144777 0.349723
0.392350 0.236156 0.450815
0.538620 0.359947 0.555864
0.040762 0.133400 0.211389
0.077923 0.148200 0.232028
0.129584 0.164312 0.264619
0.200041 0.186780 0.305873
0.291694 0.220266 0.354262
0.406036 0.273879 0.415944
0.535167 0.358534 0.493996
0.667590 0.469905 0.580757
0.059496 0.246848 0.297437
0.106522 0.266856 0.319945
0.178749 0.286843 0.346889
0.271865 0.308786 0.376685
0.381949 0.335433 0.408940
0.507795 0.375749 0.448335
0.637738 0.442266 0.505337
0.759930 0.532845 0.576322
0.085817 0.377145 0.385900
0.140091 0.399839 0.409426
0.225499 0.420887 0.429422
0.330230 0.437864 0.443123
0.445997 0.451325 0.451432
0.575274 0.473419 0.469425
0.703262 0.517622 0.506921
0.818396 0.584239 0.562937
0.120512 0.516066 0.476628
0.185585 0.542084 0.503717
0.278519 0.564579 0.523456
0.384141 0.577088 0.523857
0.493321 0.578214 0.503718
0.615488 0.583297 0.499659
0.738083 0.606260 0.517850
0.848349 0.649352 0.557551
0.168051 0.660189 0.579256
0.249721 0.685636 0.608338
0.354454 0.707292 0.629534
0.462762 0.719285 0.631251
0.561234 0.718749 0.607898
0.648896 0.709909 0.568144
0.758627 0.714025 0.561334
0.862862 0.733903 0.577498
0.236925 0.782815 0.678759
0.334911 0.803201 0.703364
0.450330 0.820655 0.722323
0.560952 0.830714 0.726400
0.651581 0.830969 0.709938
0.719627 0.823240 0.672754
0.791842 0.818299 0.643150
0.873300 0.821547 0.631796
0.326210 0.876728 0.761644
0.435488 0.890499 0.778073
0.556084 0.902402 0.791891
0.664681 0.909706 0.797157
0.745783 0.910912 0.789602
0.797684 0.906985 0.765565
0.841209 0.901472 0.734793
0.893655 0.898543 0.712426
0.031447 0.053889 0.174461
0.046346 0.055097 0.186988
0.065845 0.058369 0.206465
0.093572 0.067569 0.240606
0.135514 0.087596 0.295363
0.214906 0.133653 0.378793
0.325976 0.216835 0.480437
0.465448 0.336107 0.588327
0.043431 0.154926 0.273632
0.074869 0.166823 0.291253
0.116400 0.180113 0.318373
0.173355 0.201573 0.358676
0.250264 0.235948 0.413048
0.356428 0.286268 0.475056
0.479234 0.364582 0.550353
0.612861 0.470207 0.633409
0.063868 0.281463 0.372953
0.104649 0.296461 0.390578
0.164923 0.311933 0.413585
0.245862 0.333507 0.447500
0.347405 0.364391 0.492802
0.469296 0.402567 0.532636
0.597512 0.462776 0.584076
0.724377 0.545794 0.646199
0.094341 0.418098 0.466848
0.141268 0.432681 0.482736
0.214158 0.447130 0.499219
0.310423 0.463118 0.520799
0.426195 0.481333 0.547803
0.554215 0.499519 0.565212
0.682711 0.535867 0.594776
0.802869 0.593368 0.638966
0.134917 0.553441 0.553066
0.188470 0.567337 0.568132
0.267741 0.580989 0.581957
0.370002 0.591279 0.591662
0.490070 0.596048 0.594954
0.613244 0.594137 0.588719
0.737300 0.607101 0.597466
0.851345 0.640567 0.625143
0.181999 0.683678 0.639338
0.247799 0.698815 0.656524
0.336568 0.713040 0.670930
0.443239 0.723677 0.679587
0.558295 0.727539 0.676650
0.649316 0.715457 0.637667
0.760627 0.711381 0.623651
0.868462 0.723540 0.631116
0.245110 0.794064 0.721111
0.325369 0.807535 0.737219
0.425012 0.820208 0.751087
0.536748 0.830326 0.760384
0.648601 0.835335 0.759614
0.720987 0.826418 0.724128
0.794498 0.817512 0.689643
0.879227 0.816097 0.672557
0.325043 0.878822 0.789403
0.417206 0.889204 0.801623
0.524468 0.899009 0.812808
0.637741 0.907535 0.821912
0.743769 0.913281 0.825182
0.801110 0.909772 0.803829
0.845714 0.903595 0.770638
0.900166 0.899114 0.744855
0.032959 0.061074 0.231935
0.047565 0.062867 0.246365
0.065010 0.066103 0.264427
0.088309 0.074034 0.291883
0.121322 0.091115 0.334931
0.176418 0.132049 0.409725
0.272094 0.208401 0.509808
0.400808 0.320421 0.617076
0.045528 0.179381 0.347059
0.073161 0.190731 0.362844
0.107439 0.202450 0.385291
0.153554 0.220611 0.417078
0.216592 0.251049 0.461200
0.308883 0.305765 0.527037
0.425494 0.380062 0.601150
0.558052 0.477577 0.679335
0.068833 0.319353 0.454974
0.105265 0.332510 0.469431
0.155601 0.345683 0.488223
0.221785 0.364001 0.515408
0.306639 0.392394 0.553865
0.422996 0.440953 0.606461
0.550455 0.498301 0.656708
0.681193 0.571891 0.710646
0.103233 0.464002 0.552113
0.146586 0.475667 0.564399
0.208989 0.487202 0.577891
0.289433 0.500623 0.596220
0.388448 0.518644 0.622155
0.517516 0.549857 0.658814
0.647736 0.582911 0.687085
0.773041 0.629333 0.720676
0.148347 0.599547 0.635935
0.198339 0.609562 0.646534
0.267568 0.619286 0.657257
0.355418 0.627202 0.666841
0.461711 0.633388 0.676089
0.592251 0.643993 0.694629
0.718565 0.652114 0.702519
0.836420 0.673342 0.718741
0.203039 0.712952 0.703032
0.259047 0.721262 0.712806
0.334432 0.729897 0.722126
0.427512 0.736932 0.729407
0.534814 0.740510 0.732794
0.646458 0.736866 0.727084
0.760727 0.727456 0.715705
0.869576 0.731103 0.716724
0.264613 0.810286 0.767461
0.330925 0.818044 0.776892
0.415450 0.826189 0.786037
0.514063 0.833413 0.793434
0.620829 0.838127 0.797007
0.720109 0.835834 0.789789
0.798000 0.824943 0.760916
0.883368 0.819009 0.742579
0.337058 0.884811 0.820518
0.413559 0.891652 0.828579
0.506099 0.898822 0.836654
0.608288 0.905704 0.844053
0.712423 0.911480 0.849568
0.800364 0.913666 0.848593
0.850312 0.907851 0.821707
0.905121 0.901950 0.797592
0.033211 0.069991 0.302958
0.048013 0.072613 0.319412
0.065099 0.076402 0.337564
0.086776 0.083898 0.361223
0.115984 0.098796 0.395062
0.162151 0.133875 0.453048
0.241337 0.207544 0.542889
0.355430 0.315652 0.644982
0.046976 0.207644 0.429523
0.073463 0.219728 0.444160
0.103620 0.231103 0.463203
0.142756 0.246838 0.488203
0.195994 0.272130 0.521589
0.274768 0.318706 0.573073
0.384967 0.395101 0.643602
0.514710 0.490520 0.718370
0.074188 0.360792 0.541086
0.109231 0.373893 0.553496
0.153417 0.386285 0.568687
0.209117 0.402215 0.589432
0.279853 0.426109 0.618232
0.379896 0.468202 0.660215
0.507241 0.531629 0.712110
0.641928 0.604194 0.763880
0.114142 0.511980 0.636194
0.156251 0.522640 0.646337
0.211791 0.532966 0.657089
0.280307 0.544848 0.671270
0.363313 0.560908 0.691429
0.474803 0.589629 0.722286
0.608228 0.631672 0.756752
0.740314 0.677351 0.789301
0.165379 0.647025 0.713838
0.214070 0.655319 0.721986
0.276511 0.663177 0.730344
0.352799 0.670194 0.738537
0.443795 0.677115 0.747738
0.557538 0.689865 0.766472
0.688300 0.708537 0.785085
0.812881 0.728630 0.801718
0.225000 0.750794 0.769933
0.278856 0.757081 0.776764
0.347084 0.763361 0.783658
0.428967 0.768914 0.789912
0.522861 0.773038 0.795001
0.625017 0.774259 0.798456
0.744385 0.774783 0.803184
0.857890 0.776901 0.807498
0.287131 0.830889 0.814822
0.346223 0.835740 0.820646
0.420098 0.841071 0.826793
0.506646 0.846212 0.832477
0.602632 0.850316 0.836849
0.700142 0.850949 0.837883
0.790921 0.846421 0.830123
0.882736 0.840291 0.821650
0.355135 0.892680 0.851811
0.420378 0.896728 0.856609
0.500167 0.901464 0.862015
0.590536 0.906477 0.867556
0.686663 0.911252 0.872710
0.778087 0.914434 0.876300
0.846578 0.912760 0.868660
0.909863 0.907946 0.856529
0.032392 0.080791 0.385702
0.047803 0.084688 0.402620
0.065357 0.089656 0.420644
0.086924 0.097472 0.441598
0.114986 0.111013 0.468254
0.157835 0.141043 0.510573
0.227076 0.208061 0.582028
0.329266 0.314193 0.673481
0.048187 0.239710 0.516702
0.075299 0.252875 0.530031
0.103804 0.264787 0.546519
0.139064 0.279167 0.566434
0.186096 0.299997 0.590942
0.254942 0.336755 0.626783
0.356050 0.405516 0.683544
0.482585 0.499563 0.750989
0.080174 0.405242 0.626447
0.116099 0.418907 0.637288
0.157456 0.431202 0.649696
0.206672 0.445562 0.665302
0.267286 0.465418 0.685622
0.352577 0.497991 0.713928
0.470992 0.555946 0.756803
0.607136 0.628960 0.804199
0.126575 0.560747 0.715258
0.169702 0.571310 0.724023
0.221915 0.581031 0.732562
0.282758 0.591882 0.743078
0.353688 0.606048 0.757394
0.447317 0.628942 0.778011
0.571583 0.669692 0.808373
0.706608 0.718281 0.839456
0.184787 0.693030 0.783768
0.234304 0.700638 0.790493
0.293293 0.707568 0.797026
0.361995 0.714173 0.803596
0.441107 0.721427 0.811144
0.536149 0.733678 0.824394
0.657537 0.756081 0.844041
0.784196 0.781598 0.862322
0.249750 0.787730 0.829544
0.304106 0.793312 0.834891
0.368557 0.798424 0.840132
0.442626 0.803235 0.845218
0.525239 0.807898 0.850204
0.614138 0.812576 0.855584
0.725071 0.820721 0.866930
0.838287 0.829748 0.876340
0.313412 0.853370 0.859845
0.370219 0.857163 0.863794
0.438176 0.860993 0.868033
0.516003 0.864862 0.872322
0.601608 0.868659 0.876429
0.689920 0.871735 0.879938
0.780864 0.874116 0.884421
0.874307 0.875370 0.886879
0.377118 0.903310 0.883266
0.435947 0.905706 0.885776
0.506914 0.908707 0.889167
0.587461 0.912192 0.893119
0.674300 0.915998 0.897351
0.760277 0.919731 0.901606
0.836402 0.922283 0.905297
0.906467 0.922714 0.905396
