Assets/1__3DArt/KimSe/artstation_asset/LUTs_subway_asset/CUBE/Paranormal 05_S.cube
# LUT by SparkleStock. Enhanced with VOXCOLOR algorithms.
LUT_3D_SIZE 5
DOMAIN_MIN 0.000000 0.000000 0.000000
DOMAIN_MAX 0.903226 0.903226 0.903226
0.085958 0.054701 0.085958
0.141368 0.091583 0.131277
0.257560 0.170499 0.219599
0.444893 0.302312 0.337083
0.654646 0.454055 0.431439
0.106259 0.166615 0.154571
0.205325 0.244089 0.194396
0.354635 0.320170 0.239860
0.543968 0.431129 0.332534
0.718272 0.571420 0.454069
0.158770 0.375320 0.305124
0.282879 0.447658 0.347758
0.428339 0.500775 0.351652
0.605460 0.571292 0.400368
0.758832 0.672372 0.508636
0.272520 0.621836 0.505250
0.418451 0.665039 0.541043
0.547191 0.693282 0.544617
0.660494 0.713404 0.533411
0.788200 0.762582 0.589162
0.469558 0.799614 0.672354
0.606932 0.813885 0.687967
0.697209 0.820661 0.688008
0.761770 0.824634 0.676950
0.821882 0.832974 0.673126
0.096388 0.070960 0.141935
0.137088 0.084578 0.175460
0.228695 0.133784 0.254555
0.380365 0.252675 0.378960
0.587060 0.442478 0.519496
0.111570 0.193150 0.236364
0.207179 0.242298 0.276084
0.357263 0.288041 0.309215
0.547170 0.372388 0.380254
0.730930 0.522852 0.502239
0.150266 0.378978 0.368517
0.276866 0.446753 0.413863
0.428819 0.480886 0.393276
0.616823 0.523409 0.409213
0.790934 0.617149 0.497905
0.234068 0.604089 0.540528
0.406651 0.665102 0.594155
0.546800 0.690825 0.576609
0.665650 0.700265 0.527264
0.819011 0.735154 0.551263
0.387502 0.782136 0.695501
0.592849 0.815470 0.731401
0.709360 0.829056 0.733402
0.777787 0.833658 0.707706
0.843602 0.838023 0.677880
0.107306 0.093442 0.223861
0.135618 0.103150 0.253322
0.191523 0.132907 0.316040
0.305952 0.226512 0.429372
0.486654 0.412013 0.573620
0.127204 0.244310 0.349070
0.200236 0.275007 0.383933
0.325844 0.314560 0.433991
0.502523 0.384416 0.497516
0.689903 0.523331 0.599703
0.170000 0.426587 0.476209
0.267419 0.462966 0.504826
0.421571 0.492810 0.514958
0.615928 0.516551 0.521302
0.804972 0.588227 0.577971
0.239989 0.620580 0.612285
0.375366 0.660953 0.645678
0.538028 0.693804 0.652632
0.669141 0.697924 0.594265
0.842634 0.714820 0.591909
0.357619 0.776860 0.732465
0.538897 0.806362 0.761381
0.702281 0.832154 0.779905
0.787684 0.841853 0.753789
0.862847 0.844792 0.707490
0.117949 0.125842 0.330844
0.143760 0.137941 0.361167
0.181109 0.160710 0.402895
0.249161 0.229597 0.487394
0.398898 0.391950 0.618888
0.144281 0.307062 0.475059
0.201458 0.332119 0.501733
0.289730 0.366135 0.542530
0.435419 0.440969 0.614177
0.624935 0.557762 0.695482
0.197089 0.496917 0.601497
0.277552 0.519014 0.620332
0.400362 0.543756 0.641013
0.577989 0.582940 0.683434
0.774152 0.631012 0.716953
0.271160 0.653856 0.695084
0.373216 0.674972 0.711766
0.513388 0.698217 0.725206
0.672321 0.713294 0.729221
0.848869 0.715899 0.719210
0.366024 0.781199 0.778428
0.506316 0.801389 0.795015
0.660075 0.825721 0.813488
0.792811 0.847460 0.825514
0.873017 0.849571 0.787035
0.128308 0.172208 0.455898
0.156140 0.189209 0.486416
0.190353 0.210567 0.517487
0.244778 0.258773 0.566648
0.357456 0.395466 0.665472
0.161767 0.378153 0.599320
0.215761 0.402749 0.619299
0.283569 0.431905 0.646036
0.391995 0.486188 0.688395
0.574482 0.599022 0.762379
0.225987 0.566797 0.710767
0.304502 0.586742 0.724748
0.405142 0.609026 0.740319
0.534859 0.645282 0.769482
0.724849 0.710575 0.816869
0.307933 0.705201 0.782247
0.408555 0.722216 0.794243
0.527202 0.741478 0.806918
0.655942 0.761808 0.821131
0.819080 0.786899 0.847061
0.394940 0.790644 0.824639
0.513875 0.806252 0.834569
0.641917 0.825639 0.847836
0.763499 0.845263 0.862820
0.870565 0.861034 0.873740
