Assets/1__3DArt/KimSe/artstation_asset/LUTs_subway_asset/CUBE/Paranormal 01.cube
# LUT by SparkleStock. Enhanced with VOXCOLOR algorithms.
LUT_3D_SIZE 32
0.031258 0.058608 0.085958
0.038867 0.064043 0.092008
0.046477 0.069479 0.098058
0.054086 0.074914 0.104108
0.061696 0.080350 0.110158
0.069306 0.085785 0.116208
0.081602 0.094214 0.124897
0.094836 0.103242 0.134113
0.108070 0.112269 0.143330
0.121305 0.121297 0.152546
0.134539 0.130324 0.161763
0.153476 0.142314 0.173689
0.175265 0.155784 0.186971
0.197054 0.169254 0.200252
0.218843 0.182725 0.213533
0.240632 0.196195 0.226815
0.266675 0.211533 0.241278
0.296971 0.228737 0.256922
0.327268 0.245941 0.272567
0.357564 0.263145 0.288211
0.387861 0.280350 0.303856
0.419623 0.298137 0.319154
0.454315 0.317090 0.333759
0.489007 0.336043 0.348363
0.523699 0.354996 0.362968
0.558391 0.373949 0.377573
0.592320 0.392556 0.391295
0.622427 0.409429 0.400607
0.652535 0.426303 0.409918
0.682642 0.443176 0.419229
0.712750 0.460050 0.428540
0.742857 0.476923 0.437851
0.033054 0.073166 0.095411
0.041798 0.079735 0.101974
0.050542 0.086305 0.108536
0.059286 0.092875 0.115098
0.068029 0.099445 0.121660
0.076773 0.106014 0.128222
0.090006 0.115219 0.137309
0.104137 0.124951 0.146901
0.118267 0.134683 0.156492
0.132398 0.144415 0.166084
0.146529 0.154147 0.175676
0.166192 0.166646 0.187715
0.188621 0.180528 0.200978
0.211050 0.194410 0.214241
0.233480 0.208292 0.227504
0.255909 0.222174 0.240767
0.282295 0.237717 0.255061
0.312637 0.254921 0.270385
0.342979 0.272126 0.285709
0.373322 0.289330 0.301034
0.403664 0.306534 0.316358
0.435270 0.324169 0.331299
0.469404 0.342665 0.345474
0.503539 0.361160 0.359649
0.537673 0.379656 0.373824
0.571807 0.398152 0.387999
0.605125 0.416246 0.401309
0.634364 0.432333 0.410300
0.663602 0.448419 0.419291
0.692841 0.464506 0.428282
0.722079 0.480593 0.437273
0.751317 0.496680 0.446264
0.034850 0.087723 0.104864
0.044728 0.095427 0.111939
0.054606 0.103131 0.119013
0.064485 0.110835 0.126088
0.074363 0.118540 0.133162
0.084241 0.126244 0.140237
0.098410 0.136225 0.149721
0.113437 0.146661 0.159688
0.128464 0.157097 0.169655
0.143491 0.167534 0.179621
0.158518 0.177970 0.189588
0.178907 0.190978 0.201740
0.201977 0.205272 0.214985
0.225047 0.219565 0.228230
0.248116 0.233859 0.241474
0.271186 0.248153 0.254719
0.297915 0.263902 0.268844
0.328303 0.281106 0.283848
0.358691 0.298310 0.298852
0.389079 0.315515 0.313856
0.419467 0.332719 0.328860
0.450918 0.350201 0.343445
0.484494 0.368239 0.357190
0.518070 0.386278 0.370935
0.551646 0.404316 0.384679
0.585222 0.422354 0.398424
0.617931 0.439936 0.411323
0.646300 0.455236 0.419994
0.674670 0.470536 0.428665
0.703039 0.485836 0.437336
0.731408 0.501136 0.446006
0.759778 0.516436 0.454677
0.036646 0.102281 0.114317
0.047658 0.111119 0.121904
0.058671 0.119957 0.129491
0.069684 0.128796 0.137077
0.080696 0.137634 0.144664
0.091709 0.146473 0.152251
0.106814 0.157230 0.162133
0.122738 0.168371 0.172475
0.138661 0.179511 0.182817
0.154585 0.190652 0.193159
0.170508 0.201793 0.203501
0.191623 0.215310 0.215766
0.215333 0.230015 0.228992
0.239043 0.244721 0.242218
0.262753 0.259426 0.255445
0.286463 0.274131 0.268671
0.313535 0.290086 0.282627
0.343969 0.307291 0.297311
0.374403 0.324495 0.311995
0.404836 0.341699 0.326679
0.435270 0.358903 0.341363
0.466566 0.376233 0.355590
0.499584 0.393814 0.368905
0.532602 0.411395 0.382220
0.565620 0.428976 0.395535
0.598638 0.446557 0.408850
0.630736 0.463626 0.421337
0.658237 0.478140 0.429688
0.685737 0.492653 0.438039
0.713238 0.507166 0.446389
0.740738 0.521680 0.454740
0.768238 0.536193 0.463090
0.038442 0.116838 0.123770
0.050589 0.126811 0.131869
0.062736 0.136784 0.139968
0.074883 0.146756 0.148067
0.087030 0.156729 0.156166
0.099177 0.166702 0.164265
0.115218 0.178235 0.174546
0.132038 0.190080 0.185263
0.148858 0.201925 0.195979
0.165678 0.213771 0.206696
0.182498 0.225616 0.217413
0.204339 0.239642 0.229791
0.228689 0.254759 0.242999
0.253039 0.269876 0.256207
0.277390 0.284993 0.269415
0.301740 0.300110 0.282624
0.329155 0.316271 0.296410
0.359635 0.333475 0.310773
0.390114 0.350679 0.325137
0.420594 0.367884 0.339501
0.451073 0.385088 0.353865
0.482213 0.402265 0.367736
0.514673 0.419389 0.380621
0.547133 0.436512 0.393506
0.579593 0.453636 0.406391
0.612053 0.470759 0.419276
0.643542 0.487317 0.431351
0.670173 0.501043 0.439382
0.696805 0.514770 0.447412
0.723436 0.528496 0.455443
0.750067 0.542223 0.463473
0.776699 0.555949 0.471503
0.040238 0.131395 0.133223
0.053519 0.142503 0.141834
0.066801 0.153610 0.150446
0.080082 0.164717 0.159057
0.093363 0.175824 0.167668
0.106645 0.186931 0.176280
0.123622 0.199240 0.186958
0.141339 0.211790 0.198050
0.159055 0.224339 0.209142
0.176772 0.236889 0.220234
0.194488 0.249438 0.231326
0.217054 0.263974 0.243816
0.242045 0.279503 0.257006
0.267036 0.295032 0.270196
0.292027 0.310560 0.283386
0.317017 0.326089 0.296576
0.344775 0.342455 0.310193
0.375301 0.359660 0.324236
0.405826 0.376864 0.338280
0.436351 0.394068 0.352324
0.466877 0.411273 0.366367
0.497861 0.428297 0.379881
0.529763 0.444964 0.392336
0.561665 0.461630 0.404791
0.593567 0.478296 0.417246
0.625469 0.494962 0.429701
0.656348 0.511007 0.441365
0.682110 0.523947 0.449076
0.707872 0.536887 0.456786
0.733634 0.549826 0.464496
0.759397 0.562766 0.472206
0.785159 0.575706 0.479916
0.042349 0.154500 0.148387
0.056391 0.165903 0.157213
0.070433 0.177306 0.166040
0.084475 0.188709 0.174866
0.098518 0.200112 0.183692
0.112560 0.211515 0.192518
0.130602 0.223825 0.203005
0.149443 0.236316 0.213824
0.168285 0.248808 0.224643
0.187127 0.261300 0.235462
0.205969 0.273791 0.246281
0.229108 0.288313 0.258613
0.254396 0.303849 0.271701
0.279684 0.319385 0.284788
0.304972 0.334922 0.297876
0.330260 0.350458 0.310964
0.358117 0.366699 0.324358
0.388544 0.383644 0.338059
0.418970 0.400589 0.351759
0.449396 0.417534 0.365460
0.479822 0.434479 0.379160
0.510559 0.451168 0.392310
0.541919 0.467347 0.404358
0.573278 0.483525 0.416406
0.604637 0.499703 0.428454
0.635997 0.515881 0.440502
0.666311 0.531419 0.451785
0.691403 0.543755 0.459243
0.716494 0.556091 0.466702
0.741585 0.568427 0.474161
0.766677 0.580763 0.481619
0.791768 0.593099 0.489078
0.044523 0.179314 0.164693
0.059251 0.190845 0.173675
0.073980 0.202376 0.182657
0.088708 0.213907 0.191639
0.103436 0.225438 0.200621
0.118164 0.236969 0.209602
0.137296 0.249125 0.219780
0.157309 0.261406 0.230196
0.177322 0.273687 0.240613
0.197335 0.285969 0.251029
0.217347 0.298250 0.261446
0.241029 0.312652 0.273564
0.266546 0.328115 0.286533
0.292063 0.343579 0.299501
0.317580 0.359042 0.312470
0.343097 0.374505 0.325439
0.371004 0.390553 0.338600
0.401302 0.407188 0.351953
0.431600 0.423822 0.365306
0.461898 0.440456 0.378659
0.492196 0.457090 0.392012
0.522668 0.473407 0.404796
0.553488 0.489091 0.416441
0.584307 0.504776 0.428086
0.615127 0.520460 0.439732
0.645946 0.536144 0.451377
0.675706 0.551176 0.462285
0.700166 0.562945 0.469506
0.724626 0.574713 0.476727
0.749087 0.586482 0.483947
0.773547 0.598251 0.491168
0.798007 0.610020 0.498389
0.046697 0.204128 0.181000
0.062112 0.215787 0.190137
0.077526 0.227446 0.199274
0.092940 0.239105 0.208412
0.108355 0.250764 0.217549
0.123769 0.262423 0.226686
0.143991 0.274425 0.236554
0.165175 0.286496 0.246568
0.186359 0.298567 0.256582
0.207542 0.310638 0.266596
0.228726 0.322708 0.276610
0.252951 0.336992 0.288515
0.278696 0.352382 0.301364
0.304442 0.367772 0.314214
0.330187 0.383162 0.327064
0.355933 0.398552 0.339914
0.383890 0.414408 0.352842
0.414060 0.430731 0.365847
0.444230 0.447054 0.378852
0.474401 0.463377 0.391858
0.504571 0.479701 0.404863
0.534777 0.495646 0.417281
0.565057 0.510836 0.428524
0.595337 0.526026 0.439767
0.625617 0.541217 0.451010
0.655896 0.556407 0.462253
0.685101 0.570932 0.472785
0.708930 0.582134 0.479768
0.732759 0.593336 0.486751
0.756588 0.604537 0.493734
0.780417 0.615739 0.500717
0.804246 0.626941 0.507700
0.048872 0.228942 0.197306
0.064972 0.240729 0.206599
0.081072 0.252516 0.215892
0.097173 0.264303 0.225184
0.113273 0.276090 0.234477
0.129374 0.287878 0.243770
0.150686 0.299726 0.253328
0.173041 0.311586 0.262940
0.195395 0.323446 0.272551
0.217750 0.335307 0.282163
0.240104 0.347167 0.291774
0.264872 0.361332 0.303465
0.290846 0.376649 0.316196
0.316820 0.391965 0.328927
0.342795 0.407282 0.341658
0.368769 0.422599 0.354389
0.396777 0.438263 0.367084
0.426819 0.454275 0.379741
0.456861 0.470287 0.392399
0.486903 0.486299 0.405057
0.516945 0.502311 0.417715
0.546886 0.517885 0.429767
0.576626 0.532581 0.440607
0.606366 0.547277 0.451447
0.636106 0.561973 0.462288
0.665846 0.576670 0.473128
0.694496 0.590689 0.483286
0.717694 0.601323 0.490031
0.740892 0.611958 0.496776
0.764089 0.622592 0.503521
0.787287 0.633227 0.510266
0.810485 0.643862 0.517011
0.051046 0.253756 0.213612
0.067832 0.265671 0.223061
0.084619 0.277586 0.232509
0.101405 0.289501 0.241957
0.118192 0.301417 0.251406
0.134978 0.313332 0.260854
0.157381 0.325026 0.270103
0.180906 0.336676 0.279312
0.204432 0.348326 0.288521
0.227957 0.359976 0.297730
0.251483 0.371626 0.306939
0.276793 0.385671 0.318416
0.302996 0.400915 0.331028
0.329199 0.416159 0.343640
0.355402 0.431402 0.356252
0.381605 0.446646 0.368864
0.409663 0.462118 0.381325
0.439577 0.477819 0.393636
0.469491 0.493520 0.405946
0.499405 0.509221 0.418256
0.529319 0.524922 0.430566
0.558995 0.540123 0.442252
0.588195 0.554326 0.452690
0.617396 0.568528 0.463128
0.646596 0.582730 0.473566
0.675796 0.596932 0.484003
0.703891 0.610445 0.493786
0.726458 0.620513 0.500293
0.749024 0.630580 0.506801
0.771591 0.640648 0.513308
0.794157 0.650715 0.519815
0.816724 0.660782 0.526322
0.056560 0.284777 0.235086
0.074270 0.296473 0.244464
0.091981 0.308168 0.253842
0.109691 0.319864 0.263221
0.127402 0.331560 0.272599
0.145112 0.343255 0.281977
0.168126 0.354560 0.290925
0.192201 0.365786 0.299786
0.216275 0.377012 0.308647
0.240349 0.388238 0.317509
0.264424 0.399464 0.326370
0.289887 0.412763 0.337169
0.316044 0.427098 0.348936
0.342201 0.441432 0.360703
0.368358 0.455767 0.372471
0.394515 0.470102 0.384238
0.422386 0.484879 0.396085
0.451971 0.500098 0.408011
0.481555 0.515318 0.419936
0.511140 0.530537 0.431862
0.540724 0.545756 0.443788
0.569981 0.560453 0.455072
0.598580 0.574107 0.465071
0.627180 0.587760 0.475069
0.655780 0.601413 0.485068
0.684379 0.615067 0.495067
0.711871 0.628040 0.504438
0.733825 0.637613 0.510671
0.755778 0.647187 0.516904
0.777732 0.656760 0.523136
0.799686 0.666334 0.529369
0.821639 0.675907 0.535602
0.063744 0.318902 0.259144
0.082498 0.330204 0.268339
0.101251 0.341507 0.277534
0.120004 0.352809 0.286729
0.138758 0.364111 0.295925
0.157511 0.375414 0.305120
0.180897 0.386210 0.313770
0.205209 0.396906 0.322311
0.229521 0.407601 0.330852
0.253834 0.418297 0.339394
0.278146 0.428992 0.347935
0.303566 0.441230 0.357822
0.329540 0.454238 0.368382
0.355514 0.467247 0.378941
0.381489 0.480255 0.389501
0.407463 0.493263 0.400061
0.435027 0.507094 0.411103
0.464182 0.521746 0.422626
0.493336 0.536398 0.434149
0.522491 0.551050 0.445673
0.551646 0.565702 0.457196
0.580405 0.579829 0.468059
0.608373 0.592906 0.477600
0.636342 0.605983 0.487142
0.664310 0.619060 0.496683
0.692278 0.632137 0.506224
0.719144 0.644554 0.515165
0.740494 0.653670 0.521106
0.761844 0.662786 0.527046
0.783193 0.671902 0.532986
0.804543 0.681018 0.538926
0.825893 0.690134 0.544866
0.070928 0.353027 0.283201
0.090725 0.363936 0.292214
0.110521 0.374845 0.301226
0.130317 0.385754 0.310238
0.150113 0.396663 0.319251
0.169909 0.407572 0.328263
0.193667 0.417861 0.336616
0.218217 0.428026 0.344837
0.242768 0.438191 0.353058
0.267318 0.448355 0.361279
0.291868 0.458520 0.369500
0.317245 0.469697 0.378475
0.343037 0.481379 0.387827
0.368828 0.493061 0.397179
0.394619 0.504743 0.406532
0.420410 0.516425 0.415884
0.447668 0.529308 0.426121
0.476393 0.543393 0.437241
0.505117 0.557478 0.448362
0.533842 0.571562 0.459483
0.562567 0.585647 0.470604
0.590829 0.599204 0.481046
0.618166 0.611705 0.490130
0.645503 0.624206 0.499214
0.672841 0.636706 0.508298
0.700178 0.649207 0.517382
0.726416 0.661067 0.525893
0.747163 0.669726 0.531540
0.767909 0.678384 0.537188
0.788655 0.687043 0.542835
0.809401 0.695702 0.548482
0.830147 0.704360 0.554130
0.078113 0.387152 0.307259
0.098952 0.397668 0.316088
0.119791 0.408183 0.324918
0.140630 0.418699 0.333747
0.161469 0.429214 0.342576
0.182308 0.439730 0.351406
0.206438 0.449511 0.359461
0.231226 0.459146 0.367362
0.256014 0.468780 0.375263
0.280802 0.478414 0.383164
0.305590 0.488049 0.391064
0.330925 0.498164 0.399128
0.356533 0.508519 0.407273
0.382141 0.518875 0.415417
0.407749 0.529230 0.423562
0.433358 0.539586 0.431707
0.460309 0.551522 0.441138
0.488604 0.565040 0.451857
0.516898 0.578558 0.462575
0.545193 0.592075 0.473294
0.573488 0.605593 0.484012
0.601253 0.618580 0.494033
0.627959 0.630504 0.502660
0.654665 0.642428 0.511286
0.681371 0.654353 0.519913
0.708077 0.666277 0.528539
0.733689 0.677581 0.536621
0.753831 0.685782 0.541975
0.773974 0.693983 0.547330
0.794116 0.702184 0.552684
0.814258 0.710386 0.558039
0.834401 0.718587 0.563394
0.085297 0.421277 0.331317
0.107179 0.431399 0.339963
0.129061 0.441521 0.348609
0.150943 0.451644 0.357256
0.172825 0.461766 0.365902
0.194707 0.471888 0.374549
0.219208 0.481162 0.382307
0.244234 0.490265 0.389887
0.269260 0.499369 0.397468
0.294286 0.508473 0.405049
0.319312 0.517577 0.412629
0.344604 0.526631 0.419781
0.370029 0.535660 0.426718
0.395454 0.544689 0.433655
0.420880 0.553718 0.440593
0.446305 0.562747 0.447530
0.472950 0.573737 0.456156
0.500815 0.586687 0.466472
0.528680 0.599638 0.476788
0.556544 0.612588 0.487104
0.584409 0.625539 0.497420
0.611677 0.637955 0.507020
0.637752 0.649303 0.515189
0.663827 0.660651 0.523358
0.689902 0.671999 0.531528
0.715976 0.683347 0.539697
0.740962 0.694095 0.547348
0.760500 0.701838 0.552410
0.780039 0.709582 0.557472
0.799577 0.717326 0.562534
0.819116 0.725070 0.567596
0.838655 0.732813 0.572657
0.097751 0.456584 0.357218
0.120607 0.466152 0.365567
0.143463 0.475721 0.373916
0.166320 0.485290 0.382265
0.189176 0.494859 0.390614
0.212032 0.504427 0.398963
0.236773 0.513094 0.406336
0.261890 0.521580 0.413514
0.287007 0.530067 0.420692
0.312125 0.538553 0.427871
0.337242 0.547039 0.435049
0.362287 0.555207 0.441484
0.387296 0.563216 0.447547
0.412305 0.571226 0.453611
0.437314 0.579235 0.459675
0.462323 0.587244 0.465738
0.488239 0.597177 0.473468
0.515060 0.609034 0.482865
0.541882 0.620891 0.492261
0.568704 0.632749 0.501658
0.595526 0.644606 0.511054
0.621866 0.656083 0.519886
0.647241 0.666800 0.527589
0.672616 0.677517 0.535291
0.697991 0.688234 0.542994
0.723366 0.698951 0.550696
0.747665 0.709100 0.557903
0.766586 0.716414 0.562626
0.785507 0.723728 0.567349
0.804428 0.731042 0.572073
0.823349 0.738356 0.576796
0.842270 0.745669 0.581520
0.115475 0.493072 0.384962
0.139237 0.501927 0.392899
0.162999 0.510782 0.400837
0.186761 0.519638 0.408774
0.210523 0.528493 0.416712
0.234285 0.537348 0.424649
0.259130 0.545309 0.431550
0.284193 0.553091 0.438243
0.309255 0.560873 0.444936
0.334318 0.568654 0.451629
0.359380 0.576436 0.458323
0.383974 0.583894 0.464236
0.408333 0.591189 0.469760
0.432693 0.598485 0.475284
0.457052 0.605781 0.480808
0.481412 0.613076 0.486332
0.506175 0.621843 0.493074
0.531341 0.632081 0.501034
0.556507 0.642319 0.508994
0.581673 0.652557 0.516955
0.606839 0.662795 0.524915
0.631819 0.672964 0.532631
0.656425 0.682995 0.539858
0.681032 0.693026 0.547085
0.705638 0.703057 0.554311
0.730245 0.713087 0.561538
0.753799 0.722598 0.568284
0.772088 0.729509 0.572623
0.790378 0.736421 0.576962
0.808668 0.743332 0.581302
0.826958 0.750243 0.585641
0.845248 0.757155 0.589980
0.133199 0.529560 0.412706
0.157867 0.537702 0.420232
0.182534 0.545843 0.427758
0.207202 0.553985 0.435284
0.231870 0.562127 0.442809
0.256537 0.570269 0.450335
0.281488 0.577523 0.456763
0.306495 0.584601 0.462971
0.331503 0.591678 0.469180
0.356511 0.598756 0.475388
0.381518 0.605833 0.481597
0.405661 0.612581 0.486989
0.429371 0.619162 0.491973
0.453081 0.625744 0.496957
0.476791 0.632326 0.501941
0.500501 0.638908 0.506925
0.524111 0.646509 0.512679
0.547621 0.655128 0.519204
0.571132 0.663747 0.525728
0.594642 0.672366 0.532252
0.618152 0.680985 0.538776
0.641772 0.689845 0.545375
0.665610 0.699190 0.552127
0.689448 0.708535 0.558878
0.713286 0.717879 0.565629
0.737124 0.727224 0.572380
0.759932 0.736096 0.578665
0.777591 0.742605 0.582620
0.795250 0.749114 0.586575
0.812908 0.755622 0.590530
0.830567 0.762131 0.594485
0.848226 0.768640 0.598440
0.150924 0.566048 0.440451
0.176497 0.573476 0.447565
0.202070 0.580905 0.454679
0.227643 0.588333 0.461793
0.253216 0.595761 0.468907
0.278790 0.603189 0.476021
0.303846 0.609738 0.481976
0.328798 0.616111 0.487700
0.353751 0.622484 0.493423
0.378704 0.628857 0.499147
0.403656 0.635230 0.504871
0.427347 0.641267 0.509741
0.450408 0.647135 0.514186
0.473468 0.653004 0.518630
0.496529 0.658872 0.523075
0.519590 0.664741 0.527519
0.542047 0.671175 0.532285
0.563902 0.678175 0.537373
0.585756 0.685174 0.542461
0.607611 0.692174 0.547549
0.629465 0.699174 0.552636
0.651725 0.706726 0.558120
0.674794 0.715385 0.564396
0.697864 0.724044 0.570671
0.720934 0.732702 0.576947
0.744003 0.741361 0.583222
0.766066 0.749594 0.589047
0.783094 0.755700 0.592618
0.800121 0.761806 0.596188
0.817148 0.767913 0.599759
0.834176 0.774019 0.603330
0.851203 0.780125 0.606901
0.168648 0.602537 0.468195
0.195127 0.609251 0.474897
0.221605 0.615966 0.481600
0.248084 0.622680 0.488302
0.274563 0.629395 0.495005
0.301042 0.636110 0.501707
0.326203 0.641953 0.507190
0.351101 0.647621 0.512428
0.375999 0.653290 0.517667
0.400897 0.658959 0.522906
0.425794 0.664627 0.528145
0.449034 0.669954 0.532494
0.471445 0.675108 0.536399
0.493856 0.680263 0.540303
0.516267 0.685418 0.544208
0.538678 0.690573 0.548113
0.559983 0.695841 0.551891
0.580182 0.701221 0.555542
0.600381 0.706602 0.559194
0.620579 0.711982 0.562845
0.640778 0.717363 0.566497
0.661678 0.723608 0.570865
0.683979 0.731580 0.576665
0.706280 0.739552 0.582464
0.728581 0.747525 0.588264
0.750883 0.755497 0.594064
0.772200 0.763092 0.599428
0.788596 0.768795 0.602615
0.804992 0.774499 0.605801
0.821388 0.780203 0.608988
0.837785 0.785907 0.612174
0.854181 0.791611 0.615361
0.191256 0.636819 0.495088
0.218363 0.642842 0.501370
0.245470 0.648864 0.507652
0.272577 0.654886 0.513933
0.299684 0.660909 0.520215
0.326791 0.666931 0.526496
0.351821 0.672100 0.531500
0.376435 0.677098 0.536248
0.401049 0.682095 0.540996
0.425663 0.687093 0.545743
0.450277 0.692091 0.550491
0.472884 0.696744 0.554315
0.494487 0.701225 0.557677
0.516090 0.705706 0.561039
0.537693 0.710187 0.564401
0.559296 0.714668 0.567763
0.579437 0.718965 0.570702
0.598118 0.723077 0.573219
0.616798 0.727189 0.575737
0.635478 0.731301 0.578254
0.654158 0.735413 0.580771
0.673641 0.740529 0.584163
0.694728 0.747654 0.589304
0.715816 0.754779 0.594445
0.736904 0.761903 0.599586
0.757991 0.769028 0.604727
0.778194 0.775847 0.609480
0.793975 0.781136 0.612288
0.809755 0.786425 0.615097
0.825535 0.791714 0.617905
0.841315 0.797003 0.620714
0.857096 0.802292 0.623522
0.223632 0.666690 0.520280
0.250812 0.672063 0.526123
0.277993 0.677436 0.531965
0.305173 0.682809 0.537808
0.332353 0.688182 0.543650
0.359533 0.693555 0.549493
0.383957 0.698112 0.554004
0.407831 0.702506 0.558249
0.431704 0.706900 0.562493
0.455577 0.711294 0.566738
0.479450 0.715688 0.570983
0.501060 0.719744 0.574273
0.521538 0.723630 0.577086
0.542015 0.727517 0.579899
0.562493 0.731403 0.582712
0.582971 0.735289 0.585525
0.601928 0.739005 0.587925
0.619364 0.742550 0.589911
0.636800 0.746095 0.591898
0.654236 0.749640 0.593885
0.671672 0.753184 0.595871
0.689624 0.757532 0.598568
0.708607 0.763486 0.602684
0.727591 0.769440 0.606801
0.746575 0.775394 0.610918
0.765558 0.781348 0.615034
0.783910 0.787117 0.618872
0.799105 0.791967 0.621314
0.814300 0.796817 0.623757
0.829495 0.801667 0.626199
0.844689 0.806517 0.628642
0.859884 0.811367 0.631084
0.256009 0.696562 0.545472
0.283262 0.701285 0.550876
0.310515 0.706008 0.556279
0.337769 0.710732 0.561683
0.365022 0.715455 0.567086
0.392275 0.720179 0.572489
0.416094 0.724124 0.576508
0.439227 0.727915 0.580250
0.462359 0.731705 0.583991
0.485491 0.735495 0.587733
0.508623 0.739286 0.591474
0.529236 0.742744 0.594231
0.548588 0.746035 0.596495
0.567941 0.749327 0.598759
0.587293 0.752619 0.601023
0.606646 0.755911 0.603287
0.624418 0.759045 0.605147
0.640610 0.762023 0.606603
0.656802 0.765001 0.608059
0.672994 0.767978 0.609515
0.689186 0.770956 0.610971
0.705607 0.774535 0.612973
0.722486 0.779318 0.616065
0.739366 0.784101 0.619157
0.756245 0.788884 0.622249
0.773125 0.793667 0.625341
0.789626 0.798388 0.628264
0.804236 0.802799 0.630340
0.818845 0.807209 0.632417
0.833454 0.811620 0.634493
0.848063 0.816031 0.636570
0.862673 0.820442 0.638647
0.288385 0.726433 0.570664
0.315711 0.730507 0.575629
0.343038 0.734581 0.580593
0.370364 0.738654 0.585557
0.397691 0.742728 0.590522
0.425017 0.746802 0.595486
0.448231 0.750137 0.599012
0.470622 0.753323 0.602250
0.493014 0.756510 0.605489
0.515405 0.759696 0.608727
0.537796 0.762883 0.611966
0.557411 0.765743 0.614189
0.575639 0.768440 0.615904
0.593866 0.771137 0.617619
0.612093 0.773834 0.619334
0.630321 0.776532 0.621050
0.646908 0.779085 0.622370
0.661856 0.781496 0.623295
0.676804 0.783906 0.624221
0.691752 0.786317 0.625146
0.706699 0.788727 0.626072
0.721590 0.791538 0.627378
0.736365 0.795150 0.629445
0.751141 0.798762 0.631513
0.765916 0.802374 0.633580
0.780692 0.805986 0.635648
0.795342 0.809658 0.637656
0.809366 0.813630 0.639366
0.823390 0.817601 0.641077
0.837414 0.821573 0.642788
0.851438 0.825545 0.644498
0.865461 0.829517 0.646209
0.320761 0.756304 0.595856
0.348161 0.759728 0.600382
0.375560 0.763153 0.604907
0.402960 0.766577 0.609432
0.430360 0.770001 0.613957
0.457760 0.773426 0.618482
0.480368 0.776149 0.621516
0.502018 0.778732 0.624251
0.523668 0.781314 0.626987
0.545319 0.783897 0.629722
0.566969 0.786480 0.632457
0.585587 0.788743 0.634146
0.602689 0.790845 0.635313
0.619791 0.792948 0.636479
0.636894 0.795050 0.637645
0.653996 0.797153 0.638812
0.669399 0.799126 0.639592
0.683102 0.800969 0.639987
0.696806 0.802812 0.640382
0.710510 0.804656 0.640777
0.724213 0.806499 0.641172
0.737573 0.808541 0.641783
0.750244 0.810982 0.642826
0.762916 0.813423 0.643869
0.775587 0.815864 0.644911
0.788259 0.818305 0.645954
0.801058 0.820928 0.647048
0.814496 0.824461 0.648392
0.827935 0.827994 0.649737
0.841373 0.831526 0.651082
0.854812 0.835059 0.652427
0.868250 0.838592 0.653771
0.355319 0.784001 0.619654
0.382536 0.786851 0.623768
0.409753 0.789700 0.627881
0.436970 0.792550 0.631995
0.464186 0.795399 0.636108
0.491403 0.798249 0.640222
0.513231 0.800418 0.642789
0.533982 0.802450 0.645047
0.554733 0.804482 0.647305
0.575483 0.806515 0.649563
0.596234 0.808547 0.651821
0.613749 0.810260 0.653005
0.629647 0.811814 0.653651
0.645545 0.813367 0.654298
0.661442 0.814921 0.654944
0.677340 0.816475 0.655591
0.691513 0.817913 0.655858
0.703962 0.819234 0.655747
0.716411 0.820556 0.655636
0.728860 0.821878 0.655524
0.741309 0.823200 0.655413
0.753191 0.824554 0.655384
0.763938 0.825974 0.655520
0.774685 0.827393 0.655656
0.785433 0.828813 0.655791
0.796180 0.830232 0.655927
0.807261 0.831930 0.656207
0.820008 0.835017 0.657212
0.832756 0.838105 0.658217
0.845504 0.841192 0.659222
0.858252 0.844280 0.660226
0.870999 0.847367 0.661231
0.400788 0.800827 0.636480
0.426541 0.803475 0.640319
0.452294 0.806124 0.644159
0.478047 0.808772 0.647998
0.503800 0.811420 0.651837
0.529553 0.814069 0.655676
0.549727 0.815968 0.657908
0.568786 0.817716 0.659818
0.587844 0.819465 0.661729
0.606902 0.821214 0.663639
0.625960 0.822963 0.665549
0.641844 0.824368 0.666367
0.656141 0.825601 0.666638
0.670438 0.826835 0.666910
0.684735 0.828068 0.667181
0.699031 0.829302 0.667453
0.711750 0.830433 0.667341
0.722891 0.831462 0.666845
0.734032 0.832491 0.666350
0.745172 0.833520 0.665854
0.756313 0.834550 0.665359
0.766981 0.835617 0.664967
