Assets/1__3DArt/KimSe/artstation_asset/LUTs_subway_asset/CUBE/Paranormal 03.cube
# LUT by SparkleStock. Enhanced with VOXCOLOR algorithms.
LUT_3D_SIZE 8
DOMAIN_MIN 0.000000 0.000000 0.000000
DOMAIN_MAX 0.903226 0.903226 0.903226
0.058608 0.031258 0.042979
0.077892 0.044492 0.059994
0.110701 0.066698 0.087187
0.162945 0.100713 0.127157
0.239088 0.148805 0.181323
0.346662 0.215920 0.250707
0.470148 0.295325 0.322927
0.585450 0.375241 0.385576
0.068061 0.074363 0.070582
0.108422 0.114675 0.105600
0.158369 0.157635 0.145923
0.224358 0.207543 0.194639
0.310381 0.267033 0.253195
0.418102 0.336198 0.319799
0.532343 0.407528 0.383627
0.634776 0.472429 0.435890
0.085683 0.154027 0.124700
0.140485 0.206073 0.169116
0.205781 0.257527 0.214772
0.283089 0.313289 0.265719
0.373264 0.375870 0.323806
0.478124 0.441589 0.385037
0.582964 0.503237 0.440387
0.674292 0.555215 0.483915
0.116042 0.268991 0.208248
0.182859 0.321573 0.255043
0.259184 0.371421 0.299518
0.342288 0.422204 0.345053
0.430909 0.476452 0.394061
0.530085 0.534755 0.447631
0.625094 0.585674 0.493858
0.706317 0.626292 0.529304
0.163260 0.414022 0.320572
0.242079 0.459432 0.363891
0.323848 0.500035 0.401909
0.405946 0.536594 0.435186
0.487868 0.571844 0.466424
0.577256 0.618145 0.508468
0.661531 0.657488 0.544327
0.733001 0.687865 0.571599
0.236614 0.571129 0.452913
0.324362 0.603220 0.485839
0.407595 0.630607 0.512843
0.485399 0.653871 0.534545
0.557405 0.673917 0.551951
0.623813 0.692847 0.567356
0.694623 0.718481 0.590116
0.756115 0.739545 0.608819
0.336279 0.704919 0.573280
0.425637 0.723935 0.593741
0.503879 0.738955 0.608780
0.572054 0.750479 0.619029
0.631323 0.759071 0.625195
0.682070 0.765268 0.627866
0.731485 0.774244 0.633643
0.778298 0.783693 0.640499
0.456056 0.806089 0.665958
0.537076 0.815249 0.675917
0.602913 0.821075 0.681236
0.656459 0.824005 0.682580
0.700454 0.824579 0.680651
0.736766 0.823585 0.676065
0.769504 0.822490 0.671138
0.802685 0.823270 0.668826
0.061066 0.035984 0.060940
0.074641 0.042339 0.070344
0.098943 0.059014 0.093762
0.139697 0.088113 0.132756
0.202246 0.131850 0.188440
0.299428 0.197941 0.264850
0.423622 0.284250 0.351048
0.553030 0.379870 0.433347
0.069348 0.086554 0.101715
0.104114 0.121233 0.136942
0.147753 0.160230 0.177055
0.207059 0.207536 0.226088
0.286882 0.265731 0.286234
0.392596 0.336137 0.356463
0.511208 0.412199 0.426243
0.623593 0.484835 0.486381
0.084243 0.163212 0.156980
0.135491 0.215607 0.208781
0.198378 0.266274 0.256751
0.272806 0.320496 0.307637
0.359268 0.381431 0.365409
0.463845 0.447527 0.427347
0.572533 0.511548 0.484382
0.670313 0.567082 0.530379
0.109163 0.270064 0.234771
0.177099 0.330503 0.295390
0.255048 0.382810 0.344205
0.338186 0.432767 0.389238
0.424476 0.484809 0.436462
0.522397 0.541668 0.488446
0.619172 0.592853 0.534101
0.703908 0.634743 0.569708
0.147543 0.406368 0.338734
0.235102 0.466009 0.401160
0.321842 0.511341 0.445361
0.406120 0.547997 0.478649
0.488192 0.582136 0.508495
0.575630 0.625930 0.547636
0.659902 0.663994 0.581453
0.732457 0.693915 0.607353
0.208603 0.558206 0.463610
0.315289 0.607134 0.517457
0.407591 0.640492 0.551895
0.489020 0.664627 0.574675
0.562365 0.684483 0.591851
0.627616 0.701926 0.605712
0.697234 0.725411 0.625900
0.758102 0.744957 0.642510
0.294144 0.691972 0.580903
0.413677 0.726276 0.620227
0.505456 0.747363 0.642888
0.578756 0.760549 0.655416
0.640553 0.769766 0.662679
0.690937 0.775306 0.665166
0.738600 0.782807 0.669416
0.783426 0.790542 0.674374
0.398082 0.796941 0.674715
0.521951 0.817107 0.698740
0.605876 0.828357 0.711128
0.665619 0.833726 0.715886
0.713003 0.835611 0.716115
0.749682 0.834753 0.712459
0.780633 0.832961 0.707325
0.810991 0.832588 0.703890
0.062988 0.041112 0.081445
0.074691 0.044839 0.088422
0.092045 0.055533 0.107153
0.122060 0.077937 0.142355
0.171300 0.116011 0.197263
0.253840 0.177137 0.276137
0.371034 0.264250 0.370369
0.505477 0.368649 0.465592
0.071965 0.101428 0.137260
0.102002 0.128384 0.166720
0.138379 0.160208 0.202855
0.189024 0.202383 0.249885
0.259892 0.258195 0.310059
0.358064 0.327670 0.382403
0.476338 0.407139 0.458050
0.596977 0.488223 0.527322
0.087470 0.184777 0.203982
0.130841 0.225509 0.245640
0.188854 0.270711 0.290836
0.259329 0.322798 0.341929
0.341678 0.382860 0.399955
0.444099 0.449324 0.463003
0.555556 0.516156 0.522853
0.660526 0.576732 0.573190
0.111191 0.291086 0.283887
0.168788 0.339215 0.332696
0.245443 0.389433 0.381056
0.329958 0.440530 0.428704
0.416216 0.492367 0.476214
0.514566 0.549196 0.527923
0.614366 0.601430 0.573800
0.703675 0.644946 0.610088
0.145258 0.418443 0.378607
0.221519 0.469198 0.432139
0.310880 0.516331 0.479374
0.401202 0.556813 0.517611
0.485761 0.591264 0.547931
0.573406 0.634056 0.585579
0.659098 0.671721 0.618289
0.733979 0.701695 0.643468
0.197548 0.561072 0.491871
0.294627 0.605406 0.541045
0.395032 0.643435 0.581266
0.487067 0.672974 0.610585
0.563929 0.693731 0.629074
0.630020 0.710790 0.642482
0.700040 0.733142 0.661048
0.761506 0.751746 0.676120
0.271020 0.689492 0.600216
0.385548 0.722415 0.638493
0.491356 0.749234 0.668302
0.579461 0.768211 0.687953
0.645737 0.779013 0.697368
0.697526 0.784800 0.700507
0.745083 0.791507 0.704038
0.789317 0.798075 0.707684
0.360489 0.792774 0.689110
0.486809 0.813481 0.714545
0.590814 0.830272 0.734073
0.668801 0.841116 0.745708
0.721240 0.845285 0.748932
0.759773 0.845221 0.746801
0.790493 0.843185 0.741984
0.819619 0.841951 0.737987
0.064689 0.047115 0.106306
0.076100 0.050146 0.113661
0.089524 0.056715 0.128951
0.111194 0.072590 0.159511
0.147563 0.102922 0.210779
0.214136 0.157523 0.289384
0.318587 0.241007 0.386825
0.449835 0.348059 0.489089
0.075191 0.118481 0.178843
0.101423 0.138264 0.201317
0.131681 0.162622 0.231568
0.173912 0.198100 0.274186
0.234527 0.248898 0.331829
0.322739 0.316417 0.404859
0.436147 0.396994 0.484281
0.560556 0.484189 0.560498
0.093085 0.213184 0.260154
0.128970 0.240645 0.288194
0.180390 0.277042 0.326071
0.244881 0.323675 0.373727
0.321765 0.380859 0.430434
0.419983 0.447638 0.494332
0.531654 0.516836 0.556762
0.642558 0.582600 0.611562
0.118666 0.323800 0.345800
0.164324 0.355064 0.376675
0.234660 0.397194 0.417775
0.317155 0.445449 0.464023
0.404100 0.496919 0.512185
0.502602 0.554715 0.564548
0.605165 0.608774 0.611492
0.699875 0.655053 0.649526
0.152637 0.444771 0.434079
0.211844 0.478877 0.468885
0.295565 0.520484 0.510654
0.388559 0.561680 0.550505
0.480183 0.598879 0.584283
0.570265 0.642405 0.622436
0.659161 0.680891 0.655330
0.737892 0.711762 0.680691
0.199804 0.576447 0.533718
0.276976 0.608031 0.568341
0.374850 0.643927 0.606427
0.474368 0.676638 0.639836
0.561654 0.701422 0.663395
0.630749 0.719339 0.677836
0.703107 0.741855 0.696092
0.766831 0.760431 0.710560
0.263691 0.695834 0.629323
0.358672 0.720530 0.658292
0.466533 0.747707 0.688790
0.567123 0.771093 0.713950
0.646632 0.786543 0.729252
0.701818 0.793601 0.734048
0.750996 0.800500 0.737931
0.796287 0.806763 0.741130
0.340417 0.793237 0.708891
0.450634 0.809856 0.730032
0.562490 0.828434 0.752038
0.657704 0.843991 0.769599
0.725065 0.853121 0.779086
0.767129 0.854754 0.779111
0.799149 0.853193 0.775342
0.828636 0.851697 0.771514
0.066367 0.054275 0.137311
0.077540 0.057014 0.146185
0.090428 0.062422 0.160545
0.107254 0.073455 0.187061
0.132353 0.094616 0.231927
0.183685 0.142319 0.308246
0.271813 0.219469 0.405275
0.392944 0.324235 0.509722
0.078479 0.137461 0.227815
0.101937 0.152433 0.245405
0.128412 0.171031 0.269548
0.164052 0.199201 0.305590
0.214705 0.241846 0.357375
0.292790 0.306646 0.429194
0.397597 0.385788 0.509258
0.519864 0.475072 0.588231
0.099395 0.244423 0.321806
0.131135 0.263839 0.341911
0.175273 0.289904 0.369434
0.231631 0.326757 0.408187
0.301211 0.377171 0.460052
0.393623 0.443623 0.523596
0.502393 0.514206 0.587398
0.616466 0.584221 0.645419
0.128749 0.362015 0.413493
0.167440 0.382380 0.433364
0.226643 0.411212 0.461031
0.301235 0.449626 0.498096
0.387204 0.498061 0.544744
0.484767 0.556910 0.597836
0.588819 0.613368 0.646417
0.689078 0.663682 0.687201
0.166031 0.480934 0.499801
0.212870 0.501716 0.519464
0.281605 0.529756 0.546423
0.369313 0.564417 0.579664
0.470100 0.604885 0.617807
0.564840 0.650402 0.658157
0.658478 0.690965 0.692502
0.742465 0.723790 0.719046
0.211643 0.600938 0.585078
0.271915 0.621209 0.606654
0.353370 0.646502 0.632830
0.450373 0.675899 0.662886
0.553100 0.706674 0.693828
0.628993 0.727134 0.711501
0.706095 0.751395 0.731155
0.774028 0.771153 0.746300
0.268791 0.709125 0.666031
0.344782 0.725829 0.685832
0.437721 0.746134 0.708374
0.539999 0.768904 0.733119
0.640258 0.791284 0.757145
0.703235 0.801307 0.765604
0.756241 0.809705 0.771245
0.804461 0.816791 0.775112
0.334877 0.797791 0.733555
0.426522 0.809887 0.749693
0.527608 0.824905 0.767573
0.629548 0.841756 0.786946
0.721284 0.857899 0.805338
0.771321 0.862925 0.809238
0.806592 0.862836 0.807491
0.838025 0.861920 0.804660
0.067880 0.062594 0.178904
0.079199 0.066064 0.190705
0.092026 0.071064 0.205815
0.108096 0.080243 0.229441
0.129993 0.097323 0.267409
0.166981 0.134928 0.335678
0.238935 0.205637 0.430267
0.345509 0.305646 0.533397
0.081602 0.159392 0.287119
0.103960 0.172263 0.302423
0.127922 0.186977 0.322344
0.159341 0.208703 0.350906
0.203676 0.242622 0.392310
0.271836 0.300610 0.457551
0.367250 0.377730 0.536460
0.483071 0.466720 0.615423
0.105994 0.278411 0.391355
0.135709 0.293616 0.406611
0.174637 0.312532 0.426566
0.223394 0.339422 0.454922
0.284433 0.378612 0.495017
0.372303 0.440734 0.553938
0.477081 0.511977 0.617549
0.590235 0.584232 0.676430
0.139653 0.404675 0.487409
0.175620 0.419158 0.501335
0.227476 0.438641 0.519704
0.291668 0.465179 0.545028
0.367246 0.501571 0.579784
0.465763 0.558007 0.630312
0.570021 0.616420 0.679437
0.673038 0.669961 0.721676
0.181015 0.525882 0.572033
0.223870 0.539420 0.584973
0.283656 0.557565 0.602306
0.359009 0.580498 0.623983
0.448197 0.609773 0.651119
0.549997 0.655115 0.691625
0.647396 0.698159 0.727405
0.736564 0.734134 0.755905
0.228530 0.630370 0.640771
0.278698 0.642832 0.653357
0.346852 0.659670 0.670128
0.430140 0.680502 0.690765
0.524498 0.704801 0.714709
0.620594 0.731885 0.740809
0.706765 0.760326 0.764788
0.781225 0.783117 0.782658
0.282824 0.726823 0.707136
0.344292 0.737040 0.719363
0.422814 0.751148 0.734800
0.512984 0.768343 0.753056
0.608694 0.787512 0.773324
0.697843 0.805954 0.793007
0.759857 0.818061 0.802981
0.813553 0.827632 0.809211
0.341616 0.805700 0.762365
0.416193 0.813377 0.773390
0.504060 0.824686 0.786881
0.597785 0.838574 0.802552
0.690099 0.853813 0.819691
0.768753 0.867866 0.835716
0.812216 0.871061 0.837757
0.847530 0.871913 0.836815
0.069707 0.072331 0.234204
0.081051 0.077020 0.249664
0.093954 0.082445 0.266688
0.109816 0.090745 0.289120
0.130601 0.105042 0.321533
0.163125 0.136084 0.377116
0.221466 0.200334 0.463004
0.312929 0.295581 0.560940
0.085405 0.184204 0.356714
0.107486 0.196973 0.371220
0.129818 0.209813 0.388905
0.158106 0.227111 0.412220
0.197551 0.253470 0.444253
0.257734 0.299871 0.494977
0.346410 0.373881 0.567335
0.455908 0.462487 0.643702
0.113380 0.314843 0.466830
0.142569 0.328677 0.479412
0.178213 0.343627 0.494731
0.221233 0.363596 0.515574
0.274355 0.392697 0.544740
0.351966 0.441020 0.589064
0.455938 0.511196 0.648331
0.569404 0.585538 0.706579
0.151549 0.448153 0.562697
0.186581 0.460042 0.573279
0.233826 0.474103 0.585872
0.290297 0.492573 0.602930
0.355735 0.518351 0.626954
0.442800 0.560835 0.664102
0.551039 0.619341 0.711068
0.659101 0.676054 0.754200
0.197524 0.570839 0.642848
0.238692 0.580672 0.651960
0.292898 0.592793 0.663184
0.359256 0.607841 0.676946
0.436937 0.627576 0.694722
0.527417 0.660684 0.724237
0.632449 0.704547 0.760000
0.729803 0.743883 0.790646
0.247795 0.668716 0.702608
0.294879 0.676906 0.710800
0.356015 0.687689 0.721444
0.429153 0.701210 0.734681
0.511822 0.717688 0.750711
0.600300 0.738487 0.770788
0.697208 0.768833 0.797088
0.781774 0.794761 0.818130
0.299175 0.748109 0.750563
0.352981 0.754432 0.758444
0.421462 0.763833 0.768806
0.500789 0.775955 0.781560
0.586959 0.790353 0.796553
0.673986 0.806444 0.813793
0.752395 0.823409 0.830165
0.819298 0.837753 0.841920
0.352807 0.813915 0.791495
0.415226 0.818377 0.798752
0.491429 0.826518 0.808541
0.575534 0.837481 0.820664
0.662050 0.850419 0.834845
0.743628 0.864395 0.850782
0.807032 0.874499 0.861762
0.856119 0.880653 0.867138
0.072110 0.083989 0.303919
0.083136 0.090155 0.323026
0.095994 0.096385 0.342263
0.111812 0.104439 0.364231
0.132218 0.116935 0.392149
0.163126 0.142915 0.435468
0.213667 0.199246 0.505418
0.293085 0.290232 0.592120
0.089698 0.212183 0.434729
0.112269 0.225714 0.448945
0.133701 0.238213 0.465531
0.159668 0.252908 0.485308
0.195217 0.273401 0.509909
0.248807 0.308791 0.546552
0.329639 0.372514 0.604281
0.434485 0.459025 0.672882
0.121175 0.353790 0.545102
0.151270 0.367724 0.556285
0.185221 0.380810 0.568794
0.224072 0.396389 0.584475
0.270551 0.417847 0.605173
0.337964 0.452611 0.635256
0.434730 0.511863 0.682006
0.548928 0.585250 0.735420
0.163814 0.492201 0.636013
0.199593 0.503446 0.645066
0.244484 0.514534 0.654252
0.295594 0.527840 0.665843
0.352648 0.545889 0.681876
0.427128 0.574748 0.705964
0.529198 0.623074 0.743017
0.641621 0.679441 0.783831
0.214470 0.614044 0.708397
0.255648 0.622377 0.715609
0.306948 0.631220 0.723449
0.367379 0.641411 0.732391
0.435948 0.654396 0.743602
0.512856 0.675779 0.762418
0.612974 0.711272 0.791116
0.716859 0.750736 0.821629
0.267907 0.705347 0.759345
0.314302 0.711409 0.765409
0.371692 0.718700 0.772604
0.438039 0.727580 0.781210
0.511185 0.738442 0.791594
0.588519 0.752558 0.805155
0.682101 0.777267 0.827315
0.774286 0.803919 0.850026
0.318314 0.771213 0.794045
0.368829 0.775485 0.799419
0.431485 0.781968 0.806583
0.503015 0.790488 0.815533
0.580153 0.800842 0.826262
0.658572 0.813007 0.839171
0.739529 0.829300 0.855938
0.817186 0.846702 0.872209
0.367194 0.824220 0.822028
0.422261 0.826609 0.826730
0.490171 0.832483 0.833812
0.566002 0.841009 0.843090
0.645172 0.851432 0.854358
0.721945 0.863206 0.867632
0.793044 0.875686 0.881914
0.855451 0.886613 0.893311
