Assets/1__3DArt/KimSe/artstation_asset/LUTs_subway_asset/CUBE/Paranormal 05.cube
# LUT by SparkleStock. Enhanced with VOXCOLOR algorithms.
LUT_3D_SIZE 5
DOMAIN_MIN 0.000000 0.000000 0.000000
DOMAIN_MAX 0.903226 0.903226 0.903226
0.085958 0.054701 0.085958
0.139525 0.092347 0.132735
0.252928 0.173768 0.225515
0.440427 0.306810 0.343700
0.653511 0.455473 0.433424
0.106345 0.166529 0.154988
0.200402 0.259424 0.233837
0.338065 0.365307 0.323789
0.524428 0.489511 0.420889
0.710249 0.597006 0.490292
0.159880 0.375249 0.307243
0.283776 0.457013 0.379981
0.424945 0.533529 0.439631
0.593603 0.625997 0.507446
0.751625 0.699881 0.556070
0.276001 0.621836 0.511206
0.421998 0.667998 0.557450
0.551176 0.703841 0.585388
0.662368 0.733902 0.599922
0.784945 0.776581 0.624223
0.472110 0.799614 0.676608
0.609343 0.814320 0.693634
0.699318 0.821973 0.696868
0.763579 0.827251 0.689849
0.823072 0.835211 0.683852
0.096388 0.070960 0.141935
0.128063 0.089520 0.173430
0.201533 0.150184 0.259774
0.350880 0.274274 0.392631
0.577830 0.450963 0.525675
0.111768 0.193262 0.236420
0.191983 0.269612 0.315941
0.312655 0.366162 0.405259
0.489454 0.487949 0.507385
0.691914 0.604311 0.587050
0.151076 0.378866 0.369480
0.276655 0.467499 0.459780
0.421414 0.543373 0.522479
0.585501 0.629668 0.587509
0.748286 0.703057 0.636093
0.236313 0.603829 0.543934
0.412224 0.673042 0.619525
0.558644 0.714393 0.655650
0.671313 0.741274 0.669615
0.789436 0.778516 0.689504
0.389203 0.781852 0.698227
0.595647 0.816468 0.737934
0.714767 0.831631 0.753980
0.782980 0.836924 0.752416
0.834493 0.840552 0.743843
0.107306 0.093442 0.223861
0.132088 0.104967 0.251224
0.175140 0.141349 0.311085
0.278232 0.242917 0.432905
0.476601 0.419519 0.577420
0.127745 0.244759 0.349070
0.189594 0.290576 0.397353
0.287462 0.365755 0.469480
0.441348 0.480219 0.569202
0.645336 0.606095 0.659795
0.170793 0.426788 0.476411
0.263874 0.477967 0.527125
0.407949 0.548759 0.587984
0.573026 0.635876 0.655905
0.743989 0.710820 0.707300
0.242419 0.620482 0.614184
0.378719 0.667312 0.661189
0.547851 0.718594 0.707878
0.676072 0.748585 0.729345
0.796983 0.784223 0.749284
0.359522 0.776577 0.734230
0.541040 0.807158 0.765654
0.707806 0.835475 0.794615
0.795873 0.845569 0.803068
0.847471 0.847448 0.797032
0.117949 0.125842 0.330844
0.143435 0.138256 0.360756
0.178065 0.162166 0.400916
0.240841 0.233787 0.483329
0.393917 0.394772 0.619116
0.144964 0.307745 0.474951
0.198152 0.337554 0.503637
0.275932 0.383731 0.547211
0.406828 0.478180 0.624658
0.597370 0.605729 0.716272
0.199090 0.498087 0.601233
0.276504 0.525263 0.625115
0.393360 0.566195 0.658065
0.553650 0.643415 0.716718
0.728345 0.723769 0.771239
0.273512 0.653915 0.695143
0.374301 0.678758 0.717172
0.514422 0.714785 0.745922
0.674605 0.757317 0.779801
0.808370 0.797560 0.806822
0.368151 0.781199 0.779091
0.508181 0.801864 0.796982
0.663017 0.828235 0.819829
0.799751 0.854101 0.844003
0.860759 0.858167 0.845241
0.128308 0.172208 0.455898
0.156140 0.189259 0.486366
0.190151 0.210809 0.517244
0.244041 0.259075 0.566346
0.356797 0.395795 0.665143
0.162802 0.379664 0.598318
0.215373 0.404722 0.618324
0.281259 0.435759 0.645334
0.387015 0.493382 0.688160
0.568046 0.610201 0.763763
0.228566 0.568907 0.709418
0.305309 0.589513 0.723737
0.404271 0.614478 0.740625
0.529846 0.658301 0.771321
0.712498 0.736644 0.822487
0.311304 0.706422 0.781309
0.410625 0.724049 0.793819
0.528276 0.745156 0.808193
0.656473 0.771306 0.826471
0.806784 0.814825 0.858901
0.396829 0.790822 0.824283
0.515194 0.806568 0.834551
0.643105 0.826849 0.848876
0.765080 0.848613 0.866343
0.866242 0.869192 0.884722
