Assets/1__3DArt/KimSe/artstation_asset/LUTs_subway_asset/CUBE/Paranormal 03_S.cube
# LUT by SparkleStock. Enhanced with VOXCOLOR algorithms.
LUT_3D_SIZE 5
DOMAIN_MIN 0.000000 0.000000 0.000000
DOMAIN_MAX 0.903226 0.903226 0.903226
0.058608 0.031258 0.042979
0.103123 0.059128 0.078160
0.204931 0.119989 0.149325
0.381732 0.229934 0.263854
0.587152 0.374249 0.384300
0.080263 0.130348 0.108181
0.184827 0.210156 0.150099
0.335330 0.287155 0.201704
0.517651 0.390705 0.304101
0.676442 0.516892 0.438993
0.136602 0.340644 0.260861
0.269864 0.419022 0.310779
0.420902 0.478720 0.327758
0.593789 0.549280 0.389553
0.729746 0.637112 0.506291
0.254102 0.608074 0.478601
0.406707 0.653629 0.518286
0.538395 0.682567 0.527111
0.651631 0.700589 0.523266
0.765593 0.741413 0.584957
0.453503 0.806089 0.661562
0.585798 0.819719 0.674868
0.677281 0.823576 0.673371
0.744398 0.821590 0.662625
0.802794 0.823101 0.660360
0.062563 0.039789 0.076057
0.099141 0.049010 0.103139
0.185166 0.087621 0.173242
0.328773 0.186293 0.294052
0.530957 0.367213 0.456998
0.081741 0.155602 0.173866
0.186459 0.215705 0.229053
0.343563 0.267558 0.275597
0.530001 0.348572 0.354118
0.698310 0.488019 0.482350
0.125000 0.347595 0.315749
0.262459 0.426844 0.376232
0.425031 0.471271 0.374412
0.612825 0.517135 0.403071
0.770954 0.600633 0.495775
0.212143 0.593750 0.508771
0.393479 0.660145 0.570017
0.540143 0.688968 0.562609
0.661532 0.698338 0.522341
0.804513 0.727552 0.551354
0.366047 0.793546 0.682498
0.572452 0.826390 0.719575
0.690914 0.839411 0.721720
0.763584 0.839708 0.696807
0.829811 0.838952 0.669308
0.065540 0.050612 0.121052
0.090872 0.056599 0.143684
0.142640 0.078347 0.207594
0.252316 0.154566 0.329415
0.433727 0.330742 0.500048
0.090163 0.200701 0.268073
0.169744 0.237478 0.313867
0.305083 0.285864 0.384659
0.484025 0.358517 0.462290
0.662505 0.492411 0.571588
0.140010 0.401915 0.422477
0.245227 0.445190 0.460937
0.413626 0.485992 0.492660
0.613387 0.516793 0.515663
0.791574 0.584310 0.576351
0.216307 0.618808 0.580485
0.356231 0.660750 0.620730
0.528784 0.696764 0.639909
0.666968 0.703676 0.593572
0.834410 0.718412 0.597078
0.335210 0.795599 0.719628
0.515012 0.821458 0.750825
0.682617 0.847499 0.773803
0.774889 0.855515 0.750061
0.853739 0.854603 0.706553
0.068289 0.064815 0.190673
0.089820 0.072040 0.215352
0.122181 0.088317 0.261827
0.187604 0.143570 0.371822
0.341887 0.299834 0.542163
0.099920 0.253760 0.383789
0.158526 0.279163 0.413889
0.250115 0.316823 0.466695
0.403633 0.398880 0.560428
0.593185 0.519136 0.658372
0.161974 0.476721 0.549737
0.244345 0.498975 0.572118
0.375426 0.527221 0.603782
0.564705 0.573884 0.664742
0.758432 0.624734 0.707098
0.243956 0.663099 0.671302
0.345170 0.681418 0.689284
0.495018 0.704542 0.710819
0.665116 0.722167 0.726800
0.842994 0.725587 0.725323
0.342063 0.807708 0.769069
0.475259 0.821535 0.787047
0.635223 0.843340 0.809807
0.778520 0.865328 0.828136
0.866910 0.865507 0.792596
0.072110 0.083989 0.303919
0.092642 0.094821 0.337491
0.121608 0.109724 0.377433
0.173864 0.152285 0.449697
0.294155 0.289985 0.592778
0.111689 0.315879 0.520829
0.164281 0.340559 0.542751
0.230315 0.368311 0.574137
0.341167 0.424996 0.627733
0.531512 0.548877 0.722256
0.187896 0.553571 0.675532
0.262698 0.570294 0.689954
0.364949 0.589320 0.707917
0.499811 0.624105 0.742776
0.696044 0.693776 0.801040
0.279063 0.724643 0.771376
0.370415 0.734818 0.782375
0.492207 0.748793 0.796839
0.629724 0.766331 0.816018
0.802793 0.791404 0.848009
0.366014 0.824101 0.822206
0.470995 0.830293 0.831835
0.605185 0.845091 0.847881
0.740200 0.863331 0.868093
0.861670 0.879148 0.884138
