Assets/1__3DArt/KimSe/artstation_asset/LUTs_subway_asset/CUBE/Paranormal 04.cube
# LUT by SparkleStock. Enhanced with VOXCOLOR algorithms.
LUT_3D_SIZE 5
DOMAIN_MIN 0.000000 0.000000 0.000000
DOMAIN_MAX 0.903226 0.903226 0.903226
0.066422 0.070330 0.085958
0.119571 0.101635 0.132577
0.233526 0.176344 0.213006
0.429083 0.299673 0.319965
0.660774 0.445532 0.412691
0.082414 0.178566 0.158384
0.183817 0.262660 0.230826
0.330507 0.363843 0.313452
0.531538 0.485039 0.403860
0.734973 0.591930 0.473906
0.119280 0.375675 0.298129
0.261438 0.456074 0.368906
0.418076 0.534967 0.425647
0.603930 0.632032 0.487564
0.781827 0.708068 0.535040
0.210871 0.617913 0.485825
0.389817 0.672171 0.538693
0.538054 0.714227 0.564287
0.667619 0.749885 0.573437
0.812890 0.797915 0.593744
0.421364 0.807870 0.660365
0.587353 0.834731 0.681512
0.687708 0.846081 0.673979
0.763579 0.852587 0.656018
0.842527 0.863454 0.643451
0.072732 0.079554 0.135492
0.105071 0.091951 0.159888
0.180889 0.147159 0.233018
0.341202 0.260694 0.352460
0.590428 0.433229 0.487816
0.080554 0.207804 0.223385
0.170641 0.278152 0.294833
0.303204 0.370091 0.380624
0.495282 0.488890 0.480312
0.715860 0.608727 0.565075
0.101936 0.387548 0.345690
0.249844 0.475891 0.434202
0.416502 0.553509 0.501944
0.598342 0.641859 0.567189
0.778339 0.718500 0.616984
0.154630 0.607536 0.505008
0.378668 0.685393 0.594132
0.552364 0.732654 0.637114
0.683811 0.763486 0.650183
0.820022 0.804658 0.667568
0.298584 0.795930 0.662900
0.577305 0.841667 0.729186
0.714466 0.862581 0.742074
0.792580 0.869224 0.730685
0.860843 0.874934 0.715745
0.074686 0.094238 0.196353
0.102611 0.100094 0.214249
0.149427 0.131496 0.266901
0.263986 0.225464 0.384288
0.489632 0.395780 0.539461
0.086607 0.255213 0.316734
0.160600 0.295991 0.359925
0.272962 0.369142 0.433787
0.443760 0.482473 0.537792
0.668893 0.611336 0.638037
0.107621 0.443272 0.441242
0.224973 0.492105 0.491589
0.398838 0.564629 0.563131
0.585194 0.653317 0.636761
0.773555 0.732694 0.693147
0.146890 0.634811 0.569332
0.330120 0.685734 0.628728
0.541168 0.742549 0.691042
0.692364 0.777014 0.716419
0.828932 0.815472 0.736164
0.244352 0.797560 0.690605
0.504926 0.835589 0.749915
0.712734 0.870781 0.791609
0.812734 0.883034 0.793052
0.877301 0.886420 0.780279
0.076104 0.116436 0.275820
0.105225 0.123343 0.296063
0.145419 0.142955 0.335684
0.219572 0.209792 0.428594
0.400865 0.367037 0.588608
0.093102 0.311499 0.424260
0.160605 0.337614 0.452278
0.253489 0.382627 0.500394
0.403318 0.479235 0.592422
0.616863 0.610558 0.700960
0.120286 0.514576 0.557421
0.225365 0.541376 0.584772
0.373092 0.583385 0.627669
0.560743 0.663490 0.699651
0.755258 0.747890 0.762959
0.165514 0.680808 0.654682
0.311232 0.705778 0.685265
0.495167 0.744332 0.728227
0.688692 0.788301 0.773992
0.839197 0.831804 0.800941
0.246306 0.811419 0.738941
0.456034 0.835615 0.777986
0.660662 0.865554 0.818177
0.821013 0.893518 0.845126
0.891662 0.898850 0.839241
0.079924 0.148363 0.383828
0.111381 0.161320 0.408472
0.152593 0.178748 0.445557
0.219562 0.224337 0.511799
0.357276 0.360259 0.645000
0.101552 0.377866 0.545721
0.170651 0.401278 0.568842
0.251783 0.431237 0.601879
0.376279 0.490430 0.658532
0.580154 0.613201 0.757705
0.134636 0.588221 0.671836
0.242619 0.609577 0.692087
0.372798 0.635011 0.717994
0.526117 0.679854 0.759044
0.732918 0.760935 0.822376
0.190110 0.739478 0.751872
0.337653 0.758567 0.774225
0.498996 0.780773 0.799884
0.658964 0.806613 0.826013
0.832868 0.850841 0.861694
0.279379 0.831334 0.795939
0.458451 0.847616 0.822806
0.632969 0.868600 0.850453
0.783565 0.890918 0.874003
0.896415 0.909528 0.889052
