Assets/1__3DArt/KimSe/artstation_asset/LUTs_subway_asset/CUBE/Paranormal 04_S.cube
# LUT by SparkleStock. Enhanced with VOXCOLOR algorithms.
LUT_3D_SIZE 5
DOMAIN_MIN 0.000000 0.000000 0.000000
DOMAIN_MAX 0.903226 0.903226 0.903226
0.066422 0.070330 0.085958
0.121501 0.100784 0.130891
0.238922 0.172831 0.207334
0.434479 0.294947 0.312860
0.662050 0.444114 0.410422
0.082169 0.178652 0.158037
0.190466 0.249973 0.192435
0.349344 0.323562 0.233246
0.551416 0.431675 0.320494
0.742797 0.568196 0.440192
0.118343 0.375919 0.295593
0.261885 0.448681 0.338104
0.423624 0.506650 0.341381
0.616745 0.581638 0.386284
0.788760 0.682283 0.490808
0.208090 0.617913 0.478617
0.386960 0.669705 0.522860
0.535581 0.704938 0.525811
0.667033 0.731401 0.510233
0.815480 0.784464 0.561652
0.418953 0.807870 0.655118
0.584993 0.834488 0.675905
0.685741 0.845052 0.665545
0.762348 0.850254 0.643728
0.842555 0.861382 0.634954
0.072732 0.079554 0.135492
0.115612 0.087197 0.163853
0.211891 0.131350 0.233019
0.374256 0.240733 0.344187
0.600801 0.425828 0.483265
0.080387 0.207804 0.223385
0.191679 0.252886 0.266230
0.353890 0.295675 0.302109
0.553190 0.377373 0.370573
0.749733 0.528216 0.489648
0.101544 0.387548 0.344901
0.254705 0.456469 0.396532
0.429016 0.492798 0.387371
0.628233 0.536378 0.405388
0.812347 0.630608 0.491346
0.153037 0.607623 0.501934
0.375259 0.677727 0.571992
0.543366 0.708312 0.565564
0.677516 0.719685 0.518634
0.840915 0.755880 0.541030
0.297175 0.795980 0.660375
0.574881 0.840634 0.723129
0.709495 0.859221 0.723243
0.786793 0.863707 0.689244
0.865909 0.868392 0.655624
0.074686 0.094238 0.196353
0.106750 0.098129 0.216991
0.168168 0.123298 0.275600
0.295065 0.209857 0.386571
0.500802 0.388965 0.537727
0.086046 0.254855 0.316953
0.175728 0.281906 0.355108
0.318542 0.320783 0.414827
0.507382 0.389497 0.483076
0.708789 0.528742 0.586450
0.106950 0.443071 0.441142
0.232458 0.478151 0.476876
0.419025 0.509991 0.505886
0.626631 0.532785 0.520580
0.822649 0.604912 0.577435
0.145471 0.634893 0.568115
0.329017 0.679426 0.616475
0.534718 0.716866 0.643122
0.683382 0.720359 0.593610
0.861013 0.735967 0.592505
0.243319 0.797702 0.689406
0.503269 0.834637 0.746324
0.707583 0.866681 0.778375
0.802962 0.875172 0.747580
0.885455 0.875706 0.698136
0.076104 0.116436 0.275820
0.105712 0.122866 0.296615
0.149081 0.141215 0.338134
0.229265 0.205602 0.434717
0.406660 0.364215 0.589459
0.092679 0.310979 0.424765
0.165570 0.332815 0.453170
0.270461 0.366174 0.502005
0.435485 0.443779 0.590961
0.642537 0.562480 0.684830
0.119029 0.513410 0.557957
0.228363 0.535648 0.583127
0.383840 0.561418 0.618342
0.586999 0.602699 0.677056
0.793534 0.651190 0.716143
0.163971 0.680749 0.655358
0.311388 0.702052 0.681734
0.496909 0.727454 0.712497
0.686690 0.742165 0.730142
0.868760 0.740956 0.723604
0.245153 0.811551 0.738721
0.454846 0.835051 0.776609
0.658164 0.862674 0.812848
0.813567 0.884726 0.828219
0.897777 0.882683 0.785993
0.079924 0.148363 0.383828
0.111381 0.161269 0.408472
0.152794 0.178606 0.445657
0.220317 0.224035 0.512252
0.358099 0.359930 0.645494
0.100741 0.376701 0.547025
0.171399 0.399422 0.570269
0.254645 0.427470 0.603538
0.381790 0.483241 0.660007
0.586500 0.601966 0.757413
0.133151 0.586212 0.673876
0.242684 0.607015 0.694022
0.374905 0.629541 0.719135
0.531354 0.666077 0.759017
0.743415 0.733599 0.818461
0.188114 0.738118 0.753337
0.336740 0.756691 0.775192
0.498787 0.776761 0.799580
0.658782 0.796160 0.822167
0.841612 0.819820 0.851797
0.278199 0.831096 0.796588
0.457442 0.847330 0.822936
0.631955 0.867266 0.849637
0.781905 0.886853 0.870876
0.898860 0.898885 0.879431
