Assets/1__3DArt/KimSe/artstation_asset/LUTs_subway_asset/CUBE/Paranormal 02_S.cube
# LUT by SparkleStock. Enhanced with VOXCOLOR algorithms.
LUT_3D_SIZE 5
DOMAIN_MIN 0.000000 0.000000 0.000000
DOMAIN_MAX 0.903226 0.903226 0.903226
0.019536 0.027350 0.042979
0.079830 0.058167 0.085486
0.217716 0.120714 0.167254
0.451778 0.236945 0.287179
0.705817 0.396999 0.396432
0.047375 0.149679 0.113506
0.158987 0.233515 0.156646
0.337995 0.314349 0.212803
0.569187 0.428708 0.319663
0.776530 0.576713 0.456701
0.106771 0.400953 0.276411
0.241642 0.478832 0.325952
0.415017 0.532333 0.338484
0.633114 0.607713 0.403429
0.816744 0.713111 0.527136
0.222222 0.698310 0.510796
0.376841 0.740489 0.547960
0.533913 0.763735 0.551468
0.684202 0.774991 0.541615
0.841621 0.823649 0.609763
0.407129 0.893954 0.702477
0.564883 0.903962 0.711157
0.691334 0.904303 0.705545
0.788695 0.900958 0.692049
0.869941 0.901894 0.689793
0.025562 0.039088 0.087211
0.070572 0.047671 0.120370
0.176271 0.086287 0.201130
0.365856 0.189246 0.337439
0.624139 0.387711 0.504574
0.048745 0.179854 0.194229
0.160592 0.231882 0.245023
0.333714 0.279084 0.289078
0.554800 0.365494 0.370932
0.771803 0.526842 0.506074
0.094016 0.408267 0.343660
0.237592 0.475858 0.401454
0.415785 0.503314 0.388448
0.631167 0.545870 0.413145
0.829248 0.645544 0.511841
0.182265 0.681588 0.548541
0.371000 0.737527 0.608418
0.537668 0.751414 0.590433
0.683380 0.746787 0.539496
0.856272 0.779243 0.568647
0.346030 0.879651 0.732647
0.559262 0.904338 0.761552
0.707883 0.908680 0.756338
0.803062 0.903537 0.726001
0.884042 0.899221 0.695484
0.030336 0.050510 0.151396
0.061383 0.054250 0.178662
0.123833 0.075542 0.249155
0.264824 0.154702 0.386912
0.501425 0.347444 0.572361
0.055971 0.231199 0.311197
0.142551 0.261438 0.351456
0.291497 0.304436 0.417184
0.496637 0.377827 0.496306
0.720822 0.526658 0.613830
0.108275 0.465661 0.469774
0.221097 0.497847 0.502846
0.405279 0.520131 0.520180
0.623670 0.537790 0.531008
0.833149 0.612271 0.593333
0.188097 0.703785 0.632297
0.337299 0.737004 0.669014
0.528904 0.754538 0.675050
0.684126 0.739406 0.611184
0.869252 0.749337 0.608708
0.324685 0.877497 0.775284
0.509442 0.897877 0.799190
0.702178 0.911059 0.810558
0.811994 0.907094 0.777378
0.897021 0.898667 0.727190
0.033211 0.063043 0.247658
0.060359 0.067335 0.275667
0.101637 0.082546 0.324448
0.185973 0.145434 0.439352
0.386575 0.317591 0.624179
0.062913 0.291247 0.449432
0.128966 0.314411 0.477889
0.235438 0.349307 0.528566
0.413899 0.432781 0.619988
0.642928 0.560790 0.719893
0.128152 0.545278 0.616142
0.220237 0.562962 0.635125
0.366232 0.580269 0.658559
0.580548 0.614620 0.705577
0.800688 0.661032 0.740703
0.222980 0.746980 0.734732
0.332848 0.759113 0.748913
0.496803 0.769355 0.759833
0.687568 0.764675 0.755927
0.875622 0.753247 0.740512
0.340668 0.886496 0.828315
0.478837 0.897374 0.840908
0.654346 0.908528 0.852867
0.817217 0.914263 0.856058
0.906338 0.902975 0.811396
0.032392 0.080791 0.385702
0.060748 0.088304 0.416024
0.099899 0.103065 0.453807
0.171187 0.152249 0.524066
0.329266 0.314193 0.673481
0.070511 0.363178 0.601198
0.132586 0.387438 0.622575
0.215322 0.415028 0.653424
0.351997 0.472637 0.704305
0.578959 0.602373 0.793397
0.155199 0.629573 0.751137
0.242449 0.644863 0.764470
0.358560 0.660105 0.779550
0.519076 0.688887 0.807317
0.747080 0.751023 0.851521
0.265861 0.808499 0.839441
0.369344 0.817172 0.848157
0.503457 0.824909 0.856464
0.657339 0.831377 0.864241
0.850002 0.841532 0.879496
0.377118 0.903310 0.883266
0.487923 0.907894 0.888229
0.630942 0.914101 0.895233
0.780786 0.920546 0.902614
0.906467 0.922714 0.905396
