Assets/1__3DArt/KimSe/artstation_asset/LUTs_subway_asset/CUBE/Paranormal 05.cube
# LUT by SparkleStock. Enhanced with VOXCOLOR algorithms.
LUT_3D_SIZE 32
0.085958 0.054701 0.085958
0.092150 0.059002 0.091205
0.098342 0.063303 0.096451
0.104533 0.067604 0.101698
0.110725 0.071905 0.106944
0.116917 0.076206 0.112190
0.127756 0.083934 0.122006
0.139525 0.092347 0.132735
0.151294 0.100760 0.143464
0.163063 0.109173 0.154193
0.174832 0.117586 0.164922
0.192241 0.130096 0.178865
0.212470 0.144653 0.194415
0.232699 0.159211 0.209965
0.252928 0.173768 0.225515
0.273158 0.188326 0.241065
0.297452 0.205648 0.257537
0.325810 0.225736 0.274930
0.354169 0.245823 0.292323
0.382528 0.265910 0.309717
0.410887 0.285998 0.327110
0.440427 0.306810 0.343700
0.472331 0.329072 0.358683
0.504234 0.351333 0.373666
0.536138 0.373595 0.388649
0.568041 0.395856 0.403631
0.599157 0.417567 0.417449
0.626334 0.436520 0.425436
0.653511 0.455473 0.433424
0.680688 0.474426 0.441412
0.707866 0.493379 0.449399
0.735043 0.512332 0.457387
0.088227 0.067557 0.093332
0.095389 0.073532 0.099658
0.102550 0.079507 0.105983
0.109711 0.085482 0.112309
0.116873 0.091457 0.118635
0.124034 0.097433 0.124961
0.135599 0.106263 0.135170
0.148045 0.115664 0.146155
0.160491 0.125065 0.157140
0.172936 0.134466 0.168125
0.185382 0.143867 0.179110
0.203304 0.157023 0.193035
0.223963 0.172056 0.208430
0.244622 0.187089 0.223824
0.265281 0.202122 0.239219
0.285940 0.217156 0.254613
0.310427 0.234611 0.270765
0.338740 0.254488 0.287673
0.367053 0.274365 0.304582
0.395366 0.294242 0.321490
0.423679 0.314119 0.338399
0.453024 0.334525 0.354485
0.484433 0.355991 0.368929
0.515843 0.377457 0.383372
0.547252 0.398923 0.397815
0.578662 0.420388 0.412258
0.609246 0.441257 0.425596
0.635700 0.459140 0.433410
0.662155 0.477022 0.441224
0.688609 0.494905 0.449038
0.715064 0.512788 0.456852
0.741518 0.530671 0.464666
0.090496 0.080413 0.100705
0.098627 0.088062 0.108110
0.106758 0.095711 0.115516
0.114889 0.103360 0.122921
0.123020 0.111010 0.130326
0.131151 0.118659 0.137731
0.143442 0.128591 0.148333
0.156565 0.138980 0.159575
0.169687 0.149369 0.170816
0.182810 0.159759 0.182058
0.195933 0.170148 0.193299
0.214367 0.183950 0.207205
0.235456 0.199459 0.222444
0.256545 0.214968 0.237683
0.277634 0.230476 0.252922
0.298723 0.245985 0.268161
0.323401 0.263573 0.283993
0.351669 0.283240 0.300416
0.379936 0.302906 0.316840
0.408203 0.322573 0.333264
0.436470 0.342240 0.349687
0.465620 0.362241 0.365271
0.496536 0.382911 0.379174
0.527452 0.403580 0.393078
0.558367 0.424250 0.406981
0.589283 0.444920 0.420885
0.619335 0.464947 0.433744
0.645066 0.481760 0.441384
0.670798 0.498572 0.449024
0.696530 0.515384 0.456664
0.722261 0.532197 0.464304
0.747993 0.549009 0.471945
0.092765 0.093269 0.108078
0.101865 0.102592 0.116563
0.110966 0.111915 0.125048
0.120067 0.121239 0.133533
0.129167 0.130562 0.142017
0.138268 0.139885 0.150502
0.151285 0.150920 0.161497
0.165084 0.162297 0.172995
0.178884 0.173674 0.184492
0.192684 0.185051 0.195990
0.206484 0.196428 0.207487
0.225430 0.210877 0.221376
0.246949 0.226862 0.236459
0.268468 0.242846 0.251543
0.289987 0.258831 0.266626
0.311506 0.274815 0.281710
0.336376 0.292536 0.297221
0.364598 0.311992 0.313159
0.392819 0.331448 0.329098
0.421041 0.350904 0.345037
0.449262 0.370361 0.360976
0.478217 0.389956 0.376056
0.508639 0.409830 0.389420
0.539060 0.429704 0.402784
0.569482 0.449578 0.416147
0.599904 0.469452 0.429511
0.629423 0.488637 0.441892
0.654432 0.504379 0.449358
0.679441 0.520122 0.456824
0.704450 0.535864 0.464291
0.729459 0.551606 0.471757
0.754468 0.567348 0.479223
0.095033 0.106125 0.115452
0.105104 0.117122 0.125016
0.115174 0.128119 0.134580
0.125244 0.139117 0.144144
0.135315 0.150114 0.153708
0.145385 0.161112 0.163273
0.159128 0.173249 0.174661
0.173604 0.185614 0.186415
0.188081 0.197979 0.198169
0.202558 0.210344 0.209922
0.217034 0.222709 0.221676
0.236493 0.237804 0.235546
0.258442 0.254264 0.250474
0.280391 0.270725 0.265402
0.302340 0.287185 0.280330
0.324289 0.303645 0.295258
0.349351 0.321498 0.310449
0.377527 0.340744 0.325903
0.405703 0.359990 0.341357
0.433879 0.379236 0.356811
0.462054 0.398481 0.372265
0.490814 0.417671 0.386842
0.520742 0.436749 0.399666
0.550669 0.455828 0.412490
0.580597 0.474906 0.425314
0.610524 0.493984 0.438138
0.639512 0.512328 0.450040
0.663798 0.526999 0.457332
0.688085 0.541671 0.464625
0.712371 0.556343 0.471917
0.736657 0.571015 0.479210
0.760944 0.585687 0.486502
0.097302 0.118981 0.122825
0.108342 0.131652 0.133469
0.119382 0.144324 0.144112
0.130422 0.156995 0.154756
0.141462 0.169667 0.165400
0.152502 0.182338 0.176043
0.166970 0.195577 0.187825
0.182124 0.208930 0.199835
0.197278 0.222283 0.211845
0.212431 0.235636 0.223855
0.227585 0.248989 0.235864
0.247556 0.264731 0.249716
0.269935 0.281667 0.264488
0.292314 0.298603 0.279261
0.314693 0.315539 0.294033
0.337072 0.332475 0.308806
0.362326 0.350461 0.323677
0.390456 0.369496 0.338646
0.418586 0.388531 0.353615
0.446716 0.407567 0.368584
0.474846 0.426602 0.383553
0.503411 0.445387 0.397627
0.532844 0.463669 0.409912
0.562278 0.481951 0.422196
0.591712 0.500233 0.434480
0.621145 0.518516 0.446764
0.649601 0.536018 0.458188
0.673164 0.549619 0.465306
0.696728 0.563221 0.472425
0.720292 0.576822 0.479543
0.743855 0.590424 0.486662
0.767419 0.604025 0.493781
0.101619 0.141762 0.138115
0.113347 0.154835 0.149106
0.125074 0.167907 0.160098
0.136802 0.180980 0.171089
0.148530 0.194052 0.182080
0.160257 0.207124 0.193071
0.175391 0.220530 0.204725
0.191207 0.234002 0.216510
0.207022 0.247474 0.228296
0.222837 0.260946 0.240082
0.238653 0.274418 0.251867
0.258927 0.290150 0.265434
0.281431 0.307013 0.279891
0.303935 0.323876 0.294347
0.326439 0.340738 0.308804
0.348943 0.357601 0.323261
0.374157 0.375331 0.337724
0.402082 0.393927 0.352193
0.430006 0.412523 0.366662
0.457930 0.431120 0.381131
0.485854 0.449716 0.395600
0.514109 0.467963 0.409182
0.543026 0.485510 0.420987
0.571943 0.503057 0.432792
0.600860 0.520605 0.444598
0.629776 0.538152 0.456403
0.657703 0.554910 0.467396
0.680682 0.567724 0.474326
0.703660 0.580537 0.481255
0.726638 0.593350 0.488185
0.749616 0.606163 0.495115
0.772594 0.618977 0.502044
0.106345 0.166529 0.154988
0.118704 0.179748 0.166181
0.131063 0.192966 0.177373
0.143422 0.206185 0.188566
0.155781 0.219404 0.199759
0.168140 0.232623 0.210951
0.183928 0.246007 0.222371
0.200402 0.259424 0.233837
0.216876 0.272841 0.245302
0.233350 0.286258 0.256768
0.249824 0.299675 0.268233
0.270361 0.315267 0.281461
0.292929 0.331947 0.295570
0.315497 0.348627 0.309679
0.338065 0.365307 0.323789
0.360633 0.381987 0.337898
0.385760 0.399382 0.351935
0.413447 0.417494 0.365901
0.441133 0.435605 0.379867
0.468819 0.453717 0.393833
0.496506 0.471828 0.407799
0.524428 0.489511 0.420889
0.552824 0.506335 0.432228
0.581219 0.523160 0.443567
0.609614 0.539985 0.454906
0.638010 0.556809 0.466245
0.665409 0.572843 0.476817
0.687829 0.584925 0.483555
0.710249 0.597006 0.490292
0.732670 0.609088 0.497030
0.755090 0.621169 0.503767
0.777510 0.633251 0.510505
0.111072 0.191295 0.171862
0.124062 0.204661 0.183256
0.137052 0.218026 0.194649
0.150042 0.231391 0.206043
0.163032 0.244756 0.217437
0.176022 0.258121 0.228831
0.192465 0.271484 0.240018
0.209597 0.284846 0.251163
0.226730 0.298208 0.262308
0.243863 0.311571 0.273453
0.260995 0.324933 0.284599
0.281794 0.340385 0.297488
0.304426 0.356882 0.311250
0.327058 0.373378 0.325011
0.349690 0.389875 0.338773
0.372323 0.406372 0.352535
0.397363 0.423434 0.366147
0.424811 0.441060 0.379610
0.452260 0.458687 0.393072
0.479708 0.476314 0.406535
0.507157 0.493940 0.419998
0.534747 0.511059 0.432597
0.562621 0.527161 0.443470
0.590495 0.543263 0.454342
0.618369 0.559365 0.465214
0.646243 0.575467 0.476087
0.673115 0.590777 0.486238
0.694977 0.602126 0.492783
0.716839 0.613476 0.499329
0.738701 0.624825 0.505874
0.760563 0.636175 0.512420
0.782425 0.647525 0.518965
0.115798 0.216062 0.188735
0.129420 0.229574 0.200330
0.143041 0.243085 0.211925
0.156662 0.256597 0.223520
0.170284 0.270108 0.235116
0.183905 0.283620 0.246711
0.201001 0.296961 0.257664
0.218792 0.310268 0.268489
0.236584 0.323576 0.279314
0.254375 0.336883 0.290139
0.272166 0.350190 0.300964
0.293228 0.365502 0.313516
0.315924 0.381816 0.326929
0.338620 0.398130 0.340343
0.361316 0.414444 0.353757
0.384012 0.430758 0.367171
0.408966 0.447485 0.380358
0.436176 0.464627 0.393318
0.463387 0.481769 0.406278
0.490598 0.498911 0.419237
0.517808 0.516053 0.432197
0.545066 0.532607 0.444305
0.572419 0.547986 0.454711
0.599771 0.563365 0.465117
0.627124 0.578745 0.475523
0.654476 0.594124 0.485929
0.680820 0.608710 0.495659
0.702124 0.619327 0.502012
0.723429 0.629945 0.508365
0.744733 0.640563 0.514719
0.766037 0.651181 0.521072
0.787341 0.661798 0.527425
0.120525 0.240829 0.205609
0.134777 0.254487 0.217405
0.149030 0.268145 0.229201
0.163282 0.281803 0.240998
0.177535 0.295460 0.252794
0.191787 0.309118 0.264590
0.209538 0.322438 0.275310
0.227988 0.335691 0.285815
0.246438 0.348943 0.296320
0.264888 0.362195 0.306825
0.283338 0.375448 0.317330
0.304661 0.390619 0.329543
0.327421 0.406750 0.342609
0.350181 0.422881 0.355675
0.372942 0.439012 0.368742
0.395702 0.455143 0.381808
0.420568 0.471537 0.394570
0.447541 0.488194 0.407026
0.474514 0.504851 0.419483
0.501487 0.521508 0.431939
0.528459 0.538165 0.444396
0.555385 0.554155 0.456013
0.582216 0.568811 0.465952
0.609047 0.583468 0.475892
0.635878 0.598125 0.485831
0.662709 0.612781 0.495770
0.688526 0.626643 0.505080
0.709272 0.636529 0.511241
0.730018 0.646415 0.517402
0.750764 0.656300 0.523563
0.771510 0.666186 0.529724
0.792256 0.676072 0.535886
0.128969 0.272023 0.228690
0.143902 0.285413 0.240382
0.158834 0.298803 0.252075
0.173767 0.312192 0.263768
0.188699 0.325582 0.275460
0.203632 0.338971 0.287153
0.221811 0.351876 0.297538
0.240639 0.364683 0.307662
0.259467 0.377490 0.317786
0.278295 0.390297 0.327909
0.297123 0.403104 0.338033
0.318339 0.417469 0.349464
0.340748 0.432612 0.361548
0.363158 0.447754 0.373633
0.385567 0.462897 0.385717
0.407977 0.478040 0.397802
0.432461 0.493628 0.409803
0.459019 0.509660 0.421719
0.485577 0.525691 0.433636
0.512135 0.541723 0.445553
0.538693 0.557755 0.457470
0.565148 0.573094 0.468558
0.591397 0.587046 0.477988
0.617645 0.600998 0.487418
0.643894 0.614950 0.496848
0.670142 0.628903 0.506278
0.695380 0.642075 0.515118
0.715562 0.651351 0.521007
0.735744 0.660627 0.526897
0.755926 0.669904 0.532787
0.776108 0.679180 0.538677
0.796290 0.688456 0.544567
0.139273 0.306432 0.254874
0.154910 0.319346 0.266311
0.170547 0.332260 0.277747
0.186184 0.345174 0.289184
0.201821 0.358088 0.300620
0.217458 0.371001 0.312057
0.235952 0.383293 0.322056
0.255018 0.395460 0.331768
0.274084 0.407626 0.341480
0.293150 0.419793 0.351192
0.312216 0.431960 0.360905
0.333139 0.445184 0.371332
0.354990 0.458936 0.382118
0.376842 0.472689 0.392903
0.398693 0.486441 0.403689
0.420545 0.500194 0.414474
0.444498 0.514738 0.425546
0.470553 0.530075 0.436905
0.496608 0.545411 0.448264
0.522663 0.560748 0.459622
0.548718 0.576085 0.470981
0.574633 0.590728 0.481520
0.600269 0.603985 0.490420
0.625904 0.617242 0.499319
0.651540 0.630499 0.508219
0.677176 0.643756 0.517118
0.701808 0.656258 0.525464
0.721423 0.664985 0.531043
0.741037 0.673712 0.536622
0.760652 0.682439 0.542200
0.780267 0.691166 0.547779
0.799882 0.699894 0.553358
0.149577 0.340841 0.281059
0.165918 0.353279 0.292239
0.182259 0.365717 0.303419
0.198601 0.378155 0.314600
0.214942 0.390593 0.325780
0.231283 0.403032 0.336961
0.250093 0.414710 0.346574
0.269397 0.426236 0.355875
0.288701 0.437763 0.365175
0.308005 0.449289 0.374476
0.327308 0.460816 0.383776
0.347939 0.472899 0.393201
0.369232 0.485261 0.402687
0.390525 0.497623 0.412173
0.411819 0.509985 0.421660
0.433112 0.522347 0.431146
0.456535 0.535849 0.441290
0.482087 0.550490 0.452091
0.507639 0.565131 0.462891
0.533191 0.579773 0.473692
0.558742 0.594414 0.484493
0.584118 0.608362 0.494483
0.609141 0.620924 0.502852
0.634163 0.633486 0.511221
0.659186 0.646047 0.519590
0.684209 0.658609 0.527958
0.708236 0.670440 0.535810
0.727283 0.678619 0.541078
0.746331 0.686797 0.546346
0.765379 0.694975 0.551614
0.784426 0.703153 0.556881
0.803474 0.711332 0.562149
0.159880 0.375249 0.307243
0.176926 0.387212 0.318168
0.193972 0.399174 0.329092
0.211017 0.411137 0.340016
0.228063 0.423099 0.350940
0.245109 0.435062 0.361864
0.264235 0.446127 0.371092
0.283776 0.457013 0.379981
0.303318 0.467899 0.388870
0.322859 0.478785 0.397759
0.342401 0.489672 0.406648
0.362738 0.500615 0.415069
0.383474 0.511586 0.423256
0.404209 0.522558 0.431444
0.424945 0.533529 0.439631
0.445680 0.544500 0.447819
0.468572 0.556959 0.457034
0.493621 0.570905 0.467276
0.518670 0.584851 0.477519
0.543718 0.598798 0.487762
0.568767 0.612744 0.498004
0.593603 0.625997 0.507446
0.618013 0.637863 0.515284
0.642422 0.649729 0.523122
0.666832 0.661596 0.530960
0.691242 0.673462 0.538799
0.714664 0.684623 0.546157
0.733144 0.692252 0.551113
0.751625 0.699881 0.556070
0.770105 0.707511 0.561027
0.788586 0.715140 0.565983
0.807066 0.722770 0.570940
0.170184 0.409658 0.333428
0.187934 0.421145 0.344096
0.205684 0.432631 0.354764
0.223434 0.444118 0.365432
0.241184 0.455605 0.376100
0.258935 0.467092 0.386768
0.278376 0.477544 0.395610
0.298155 0.487790 0.404088
0.317935 0.498036 0.412565
0.337714 0.508282 0.421042
0.357494 0.518527 0.429519
0.377538 0.528330 0.436937
0.397716 0.537911 0.443825
0.417893 0.547492 0.450714
0.438071 0.557073 0.457602
0.458248 0.566654 0.464491
0.480609 0.578070 0.472777
0.505155 0.591321 0.482462
0.529701 0.604571 0.492147
0.554246 0.617822 0.501831
0.578792 0.631073 0.511516
0.603088 0.643631 0.520408
0.626885 0.654802 0.527716
0.650682 0.665973 0.535024
0.674479 0.677144 0.542331
0.698275 0.688316 0.549639
0.721092 0.698805 0.556503
0.739005 0.705886 0.561149
0.756918 0.712966 0.565794
0.774832 0.720047 0.570440
0.792745 0.727127 0.575086
0.810658 0.734208 0.579731
0.184245 0.444799 0.361598
0.202649 0.455655 0.371831
0.221054 0.466510 0.382065
0.239458 0.477366 0.392298
0.257862 0.488221 0.402532
0.276266 0.499077 0.412765
0.295904 0.508830 0.421123
0.315789 0.518362 0.429107
0.335673 0.527894 0.437090
0.355558 0.537426 0.445073
0.375443 0.546958 0.453056
0.395193 0.555801 0.459678
0.414877 0.564297 0.465620
0.434560 0.572794 0.471561
0.454243 0.581291 0.477503
0.473927 0.589788 0.483445
0.495492 0.600068 0.490752
0.518940 0.612129 0.499426
0.542388 0.624191 0.508100
0.565836 0.636252 0.516774
0.589284 0.648314 0.525448
0.612616 0.659847 0.533491
0.635718 0.670323 0.540272
0.658819 0.680799 0.547054
0.681921 0.691275 0.553836
0.705023 0.701751 0.560617
0.727166 0.711579 0.566983
0.744517 0.718165 0.571267
0.761867 0.724752 0.575552
0.779218 0.731338 0.579836
0.796569 0.737925 0.584120
0.813919 0.744511 0.588404
0.202064 0.480673 0.391752
0.221072 0.490742 0.401373
0.240080 0.500810 0.410994
0.259088 0.510879 0.420614
0.278096 0.520948 0.430235
0.297104 0.531017 0.439855
0.316819 0.539983 0.447631
0.336677 0.548729 0.455038
0.356534 0.557474 0.462445
0.376391 0.566220 0.469852
0.396248 0.574965 0.477259
0.415703 0.583026 0.483292
0.434956 0.590746 0.488639
0.454210 0.598465 0.493986
0.473463 0.606185 0.499333
0.492717 0.613904 0.504680
0.513221 0.622953 0.510959
0.534977 0.633331 0.518169
0.556732 0.643710 0.525379
0.578488 0.654088 0.532589
0.600243 0.664466 0.539799
0.622188 0.674645 0.546693
0.644512 0.684426 0.552953
0.666836 0.694207 0.559213
0.689160 0.703988 0.565473
0.711484 0.713768 0.571734
0.732887 0.722944 0.577596
0.749679 0.729091 0.581469
0.766472 0.735238 0.585341
0.783265 0.741386 0.589214
0.800057 0.747533 0.593087
0.816850 0.753681 0.596959
0.219883 0.516547 0.421907
0.239494 0.525829 0.430915
0.259106 0.535111 0.439923
0.278718 0.544393 0.448930
0.298330 0.553675 0.457938
0.317941 0.562957 0.466946
0.337735 0.571137 0.474139
0.357565 0.579095 0.480970
0.377394 0.587054 0.487800
0.397224 0.595013 0.494631
0.417054 0.602972 0.501461
0.436213 0.610252 0.506906
0.455036 0.617194 0.511658
0.473860 0.624136 0.516411
0.492683 0.631078 0.521163
0.511507 0.638020 0.525916
0.530950 0.645838 0.531165
0.551013 0.654533 0.536911
0.571076 0.663228 0.542658
0.591139 0.671923 0.548404
0.611202 0.680619 0.554151
0.631760 0.689444 0.559895
0.653306 0.698529 0.565634
0.674853 0.707615 0.571372
0.696399 0.716700 0.577111
0.717946 0.725786 0.582850
0.738607 0.734308 0.588209
0.754842 0.740017 0.591670
0.771076 0.745725 0.595131
0.787311 0.751433 0.598592
0.803546 0.757142 0.602053
0.819780 0.762850 0.605514
0.237701 0.552420 0.452062
0.257917 0.560916 0.460457
0.278132 0.569411 0.468852
0.298348 0.577907 0.477246
0.318563 0.586402 0.485641
0.338779 0.594897 0.494036
0.358650 0.602290 0.500647
0.378452 0.609462 0.506901
0.398255 0.616634 0.513155
0.418057 0.623806 0.519409
0.437859 0.630978 0.525664
0.456723 0.637478 0.530520
0.475116 0.643642 0.534678
0.493510 0.649807 0.538836
0.511903 0.655971 0.542993
0.530297 0.662135 0.547151
0.548679 0.668723 0.551371
0.567049 0.675735 0.555654
0.585420 0.682747 0.559937
0.603791 0.689759 0.564220
0.622161 0.696771 0.568502
0.641332 0.704242 0.573097
0.662101 0.712632 0.578314
0.682870 0.721023 0.583532
0.703638 0.729413 0.588749
0.724407 0.737803 0.593966
0.744328 0.745673 0.598822
0.760004 0.750942 0.601872
0.775681 0.756212 0.604921
0.791357 0.761481 0.607970
0.807034 0.766750 0.611020
0.822711 0.772019 0.614069
0.255520 0.588294 0.482217
0.276339 0.596003 0.489999
0.297159 0.603712 0.497780
0.317978 0.611420 0.505562
0.338797 0.619129 0.513344
0.359616 0.626838 0.521126
0.379565 0.633443 0.527155
0.399340 0.639829 0.532832
0.419115 0.646214 0.538510
0.438890 0.652599 0.544188
0.458665 0.658985 0.549866
0.477232 0.664704 0.554134
0.495196 0.670091 0.557697
0.513159 0.675477 0.561260
0.531123 0.680864 0.564823
0.549087 0.686251 0.568387
0.566408 0.691608 0.571578
0.583086 0.696937 0.574397
0.599764 0.702266 0.577216
0.616442 0.707594 0.580035
0.633121 0.712923 0.582854
0.650903 0.719041 0.586299
0.670895 0.726736 0.590995
0.690886 0.734431 0.595691
0.710878 0.742126 0.600387
0.730869 0.749821 0.605083
0.750048 0.757038 0.609436
0.765167 0.761868 0.612073
0.780285 0.766698 0.614711
0.795404 0.771528 0.617349
0.810522 0.776359 0.619986
0.825641 0.781189 0.622624
0.276001 0.621836 0.511206
0.297302 0.628773 0.518350
0.318604 0.635711 0.525495
0.339905 0.642648 0.532639
0.361206 0.649585 0.539784
0.382507 0.656522 0.546929
0.402394 0.662369 0.552360
0.421998 0.667998 0.557450
0.441602 0.673628 0.562539
0.461206 0.679257 0.567628
0.480810 0.684886 0.572718
0.498951 0.689867 0.576409
0.516359 0.694525 0.579402
0.533768 0.699183 0.582395
0.551176 0.703841 0.585388
0.568585 0.708499 0.588381
0.584915 0.712839 0.590720
0.600166 0.716863 0.592405
0.615417 0.720886 0.594089
0.630669 0.724910 0.595774
0.645920 0.728934 0.597459
0.662368 0.733902 0.599922
0.681210 0.740758 0.603941
0.700051 0.747614 0.607960
0.718893 0.754471 0.611979
0.737735 0.761327 0.615998
0.755860 0.767775 0.619722
0.770402 0.772178 0.621972
0.784945 0.776581 0.624223
0.799487 0.780984 0.626473
0.814029 0.785388 0.628724
0.828571 0.789791 0.630974
0.301808 0.650715 0.537863
0.323347 0.656911 0.544321
0.344886 0.663107 0.550780
0.366425 0.669304 0.557238
0.387964 0.675500 0.563697
0.409502 0.681696 0.570155
0.429048 0.686840 0.574962
0.448195 0.691774 0.579438
0.467341 0.696708 0.583915
0.486488 0.701642 0.588391
0.505635 0.706575 0.592868
0.523086 0.710905 0.596007
0.539690 0.714931 0.598479
0.556293 0.718958 0.600950
0.572897 0.722984 0.603422
0.589500 0.727011 0.605893
0.604980 0.730762 0.607734
0.619334 0.734236 0.608943
0.633689 0.737711 0.610152
0.648044 0.741186 0.611361
0.662398 0.744661 0.612570
0.677618 0.748887 0.614386
0.694566 0.754619 0.617417
0.711514 0.760350 0.620448
0.728462 0.766081 0.623479
0.745410 0.771812 0.626510
0.761855 0.777255 0.629355
0.775785 0.781256 0.631267
0.789714 0.785257 0.633179
0.803643 0.789257 0.635091
0.817573 0.793258 0.637003
0.831502 0.797259 0.638914
0.327614 0.679594 0.564520
0.349391 0.685049 0.570292
0.371168 0.690504 0.576065
0.392945 0.695959 0.581837
0.414721 0.701415 0.587610
0.436498 0.706870 0.593382
0.455702 0.711311 0.597564
0.474391 0.715550 0.601427
0.493081 0.719788 0.605291
0.511770 0.724027 0.609154
0.530459 0.728265 0.613018
0.547221 0.731942 0.615605
0.563020 0.735337 0.617555
0.578819 0.738733 0.619506
0.594617 0.742128 0.621456
0.610416 0.745524 0.623406
0.625044 0.748684 0.624747
0.638502 0.751610 0.625481
0.651961 0.754536 0.626214
0.665419 0.757462 0.626947
0.678877 0.760387 0.627681
0.692867 0.763873 0.628851
0.707922 0.768479 0.630894
0.722976 0.773085 0.632937
0.738031 0.777691 0.634980
0.753085 0.782297 0.637023
0.767850 0.786735 0.638988
0.781167 0.790334 0.640561
0.794483 0.793932 0.642135
0.807799 0.797530 0.643708
0.821116 0.801128 0.645281
0.834432 0.804726 0.646855
0.353421 0.708472 0.591177
0.375435 0.713186 0.596264
0.397450 0.717901 0.601350
0.419465 0.722615 0.606436
0.441479 0.727329 0.611522
0.463494 0.732043 0.616609
0.482356 0.735782 0.620165
0.500588 0.739325 0.623416
0.518820 0.742869 0.626666
0.537052 0.746412 0.629917
0.555284 0.749955 0.633168
0.571357 0.752979 0.635203
0.586350 0.755743 0.636632
0.601344 0.758508 0.638061
0.616338 0.761272 0.639489
0.631331 0.764036 0.640918
0.645109 0.766607 0.641761
0.657670 0.768984 0.642019
0.670232 0.771360 0.642276
0.682794 0.773737 0.642534
0.695355 0.776114 0.642792
0.708117 0.778859 0.643315
0.721278 0.782340 0.644370
0.734439 0.785821 0.645425
0.747600 0.789302 0.646480
0.760761 0.792782 0.647535
0.773845 0.796216 0.648620
0.786549 0.799411 0.649855
0.799252 0.802607 0.651090
0.811956 0.805803 0.652325
0.824659 0.808999 0.653560
0.837363 0.812194 0.654795
0.379227 0.737351 0.617834
0.401480 0.741324 0.622235
0.423732 0.745297 0.626635
0.445985 0.749271 0.631035
0.468237 0.753244 0.635435
0.490490 0.757217 0.639835
0.509010 0.760253 0.642767
0.526785 0.763101 0.645404
0.544559 0.765949 0.648042
0.562334 0.768797 0.650680
0.580108 0.771645 0.653317
0.595492 0.774016 0.654801
0.609681 0.776149 0.655709
0.623869 0.778282 0.656616
0.638058 0.780415 0.657523
0.652246 0.782548 0.658430
0.665173 0.784529 0.658775
0.676838 0.786357 0.658557
0.688504 0.788185 0.658339
0.700169 0.790013 0.658121
0.711834 0.791841 0.657903
0.723367 0.793845 0.657780
0.734634 0.796201 0.657847
0.745901 0.798556 0.657914
0.757168 0.800912 0.657981
0.768436 0.803268 0.658048
0.779840 0.805696 0.658253
0.791931 0.808489 0.659150
0.804021 0.811283 0.660046
0.816112 0.814076 0.660943
0.828202 0.816869 0.661839
0.840293 0.819662 0.662736
0.406223 0.764355 0.642861
0.428582 0.767634 0.646615
0.450942 0.770914 0.650369
0.473301 0.774193 0.654122
0.495660 0.777473 0.657876
0.518019 0.780752 0.661630
0.536083 0.783131 0.663971
0.553287 0.785330 0.666029
0.570491 0.787528 0.668087
0.587695 0.789727 0.670145
0.604900 0.791925 0.672204
0.619515 0.793691 0.673168
0.632836 0.795240 0.673586
0.646157 0.796789 0.674004
0.659478 0.798338 0.674422
0.672799 0.799887 0.674839
0.684835 0.801322 0.674718
0.695585 0.802642 0.674058
0.706336 0.803963 0.673398
0.717086 0.805283 0.672738
0.727836 0.806603 0.672077
0.738190 0.807942 0.671373
0.747752 0.809319 0.670580
0.757313 0.810696 0.669787
0.766874 0.812073 0.668995
0.776435 0.813450 0.668202
0.786307 0.814997 0.667635
0.797731 0.817397 0.668201
0.809155 0.819796 0.668767
0.820580 0.822196 0.669332
0.832004 0.824596 0.669898
0.843428 0.826996 0.670464
0.439167 0.781984 0.659735
0.460977 0.784806 0.663040
0.482787 0.787629 0.666345
0.504597 0.790451 0.669651
0.526408 0.793273 0.672956
0.548218 0.796095 0.676262
0.565245 0.798047 0.678185
0.581315 0.799825 0.679832
0.597385 0.801602 0.681478
0.613455 0.803380 0.683125
0.629525 0.805158 0.684772
0.642975 0.806551 0.685379
0.655116 0.807753 0.685468
0.667257 0.808954 0.685556
0.679398 0.810156 0.685645
0.691539 0.811357 0.685733
0.702481 0.812467 0.685310
0.712225 0.813486 0.684375
0.721970 0.814504 0.683441
0.731714 0.815523 0.682506
0.741458 0.816541 0.681572
0.750885 0.817597 0.680611
