Assets/1__3DArt/KimSe/artstation_asset/LUTs_subway_asset/CUBE/Paranormal 04_S.cube
# LUT by SparkleStock. Enhanced with VOXCOLOR algorithms.
LUT_3D_SIZE 8
DOMAIN_MIN 0.000000 0.000000 0.000000
DOMAIN_MAX 0.903226 0.903226 0.903226
0.066422 0.070330 0.085958
0.091756 0.083375 0.108267
0.133696 0.108204 0.139683
0.197046 0.147024 0.181622
0.285123 0.201426 0.234464
0.403474 0.275348 0.297231
0.536004 0.360455 0.359368
0.662050 0.444114 0.410422
0.073985 0.121186 0.119422
0.119371 0.155308 0.138950
0.180637 0.188981 0.161778
0.260454 0.229533 0.193045
0.359875 0.282453 0.236464
0.478811 0.352715 0.295572
0.601924 0.434652 0.362344
0.712986 0.516505 0.425400
0.085431 0.201906 0.173776
0.144441 0.245493 0.197262
0.218386 0.284329 0.210899
0.308405 0.325032 0.228512
0.414206 0.373138 0.260189
0.533209 0.435595 0.311595
0.649844 0.509522 0.377403
0.750954 0.584874 0.445878
0.104541 0.310599 0.249179
0.176359 0.355760 0.278239
0.259093 0.395304 0.288490
0.352324 0.432615 0.294531
0.455890 0.471817 0.309067
0.572978 0.523478 0.348421
0.684252 0.585615 0.407210
0.778520 0.650377 0.473537
0.135571 0.442609 0.343897
0.222812 0.484348 0.376305
0.312468 0.519953 0.391162
0.402755 0.549856 0.391478
0.494993 0.576890 0.385531
0.604452 0.614977 0.407413
0.709438 0.662516 0.452800
0.798182 0.713399 0.509016
0.190586 0.584214 0.451849
0.293635 0.618049 0.483379
0.388420 0.645957 0.499431
0.475902 0.668676 0.502528
0.557565 0.687386 0.496270
0.636726 0.704980 0.489025
0.729832 0.735809 0.513091
0.812124 0.770897 0.551054
0.283099 0.708803 0.557596
0.394393 0.733881 0.583369
0.487004 0.753066 0.595478
0.565246 0.767503 0.596619
0.633102 0.778376 0.589639
0.693674 0.787066 0.578149
0.759267 0.801388 0.579451
0.824774 0.820324 0.593971
0.418953 0.807870 0.655118
0.523661 0.825446 0.671542
0.601788 0.836624 0.675671
0.661325 0.843174 0.670772
0.709346 0.846793 0.659973
0.751689 0.849452 0.646757
0.794769 0.853479 0.636291
0.842555 0.861382 0.634954
0.070771 0.075056 0.113372
0.092006 0.079319 0.128216
0.131092 0.094434 0.155380
0.189295 0.123581 0.194697
0.268005 0.169786 0.246039
0.374938 0.241659 0.312173
0.502150 0.335329 0.385361
0.633375 0.437362 0.455107
0.074235 0.135280 0.152836
0.121642 0.158694 0.175438
0.184969 0.180966 0.197651
0.265096 0.209834 0.225530
0.362204 0.251681 0.263908
0.477769 0.315136 0.318677
0.599738 0.399742 0.386340
0.712994 0.495815 0.457988
0.082205 0.213860 0.205416
0.144780 0.251635 0.235129
0.222433 0.281079 0.247188
0.314957 0.310026 0.259438
0.421395 0.345571 0.284750
0.540336 0.398546 0.328365
0.658007 0.471070 0.390094
0.761404 0.555862 0.461657
0.095900 0.314758 0.274439
0.173350 0.362048 0.311682
0.260329 0.395903 0.318638
0.356451 0.423134 0.316964
0.461737 0.450735 0.323991
0.580029 0.491622 0.354281
0.693605 0.549354 0.406267
0.791424 0.618648 0.471963
0.117561 0.438114 0.360888
0.216738 0.489773 0.406082
0.311996 0.523596 0.418032
0.405001 0.546436 0.408969
0.499534 0.565384 0.393569
0.611018 0.592752 0.405592
0.719304 0.633618 0.441730
0.812688 0.684512 0.493528
0.157062 0.574011 0.461083
0.284399 0.622185 0.510498
0.389592 0.652008 0.527619
0.480264 0.670780 0.523292
0.562960 0.684336 0.507183
0.642787 0.695632 0.488493
0.739250 0.719485 0.501724
0.826951 0.751496 0.532025
0.228937 0.697649 0.561267
0.381686 0.736669 0.608608
0.491385 0.759861 0.626352
0.574462 0.773498 0.624581
0.643755 0.782397 0.611438
0.703727 0.787886 0.590505
0.769366 0.797701 0.580456
0.838475 0.813190 0.585149
0.340988 0.799569 0.655332
0.507307 0.827212 0.694759
0.609645 0.843086 0.707808
0.675492 0.851422 0.704365
0.725847 0.855668 0.692200
0.767204 0.857652 0.674163
0.808124 0.859834 0.655787
0.856061 0.865228 0.646186
0.073110 0.081256 0.143196
0.091595 0.082335 0.153893
0.123006 0.090469 0.177480
0.172329 0.111240 0.214452
0.242708 0.149546 0.265031
0.337085 0.215223 0.331732
0.455592 0.309593 0.410493
0.587596 0.420611 0.491515
0.076416 0.151469 0.193223
0.120289 0.168007 0.214671
0.178842 0.184339 0.240940
0.254444 0.206859 0.271849
0.347697 0.241454 0.308623
0.456663 0.299090 0.360427
0.574957 0.383374 0.427609
0.690976 0.486135 0.503005
0.083160 0.237049 0.251160
0.140253 0.264142 0.277660
0.217991 0.287217 0.297648
0.311865 0.309754 0.316065
0.418039 0.336409 0.338171
0.535471 0.380971 0.375223
0.653480 0.449524 0.430954
0.760601 0.536996 0.499938
0.094075 0.337705 0.318712
0.163850 0.373171 0.349940
0.255135 0.401794 0.365682
0.357479 0.423718 0.370816
0.464711 0.441925 0.372818
0.584559 0.472134 0.394346
0.700985 0.522638 0.436935
0.803283 0.590855 0.496252
0.110645 0.452342 0.396852
0.200695 0.494951 0.435498
0.302886 0.527671 0.455289
0.404900 0.549081 0.451709
0.502019 0.561098 0.429831
0.615569 0.578277 0.432811
0.727611 0.610930 0.458840
0.826483 0.658435 0.503315
0.139815 0.579109 0.486801
0.259460 0.621850 0.531877
0.377188 0.654374 0.557698
0.481021 0.675113 0.559170
0.565925 0.684680 0.536769
0.646779 0.690286 0.508172
0.747241 0.706441 0.510830
0.841143 0.733503 0.532943
0.195113 0.696559 0.577466
0.346422 0.733362 0.624071
0.476652 0.761414 0.652214
0.578335 0.779160 0.657952
0.650513 0.786850 0.641196
0.710835 0.789827 0.612078
0.777673 0.795338 0.591673
0.851597 0.806775 0.587506
0.285680 0.795343 0.663092
0.461756 0.823169 0.706178
0.593894 0.844556 0.731188
0.683631 0.857924 0.736853
0.737571 0.863276 0.724406
0.779185 0.865093 0.701803
0.819435 0.866143 0.675959
0.869132 0.869506 0.658985
0.074308 0.089322 0.177163
0.090963 0.090072 0.185933
0.115152 0.094628 0.205736
0.153744 0.109198 0.239286
0.211729 0.139561 0.288280
0.294726 0.197699 0.355188
0.402595 0.287358 0.436129
0.531338 0.399586 0.523020
0.079138 0.170270 0.239083
0.117508 0.182672 0.257735
0.167856 0.196028 0.285597
0.234593 0.215965 0.320281
0.319832 0.247552 0.360672
0.422329 0.300048 0.411343
0.535808 0.380743 0.476853
0.653824 0.483299 0.551966
0.086335 0.266064 0.305759
0.135798 0.283953 0.326708
0.208240 0.302481 0.352536
0.298202 0.322781 0.380146
0.401212 0.347169 0.408212
0.516603 0.385405 0.441679
0.634024 0.448398 0.491329
0.745190 0.532953 0.554334
0.096896 0.370644 0.375221
0.156180 0.392645 0.397201
0.245223 0.415531 0.420014
0.349436 0.435176 0.437120
0.459286 0.450677 0.446678
0.580012 0.472504 0.462689
0.698494 0.515015 0.496287
0.805438 0.577999 0.546403
0.112020 0.479920 0.446881
0.186885 0.507294 0.472840
0.288042 0.535148 0.497537
0.397007 0.555763 0.505855
0.503067 0.565722 0.493330
0.618386 0.573955 0.490333
0.733700 0.597636 0.507054
0.837659 0.639022 0.542470
0.135677 0.595904 0.525804
0.236038 0.626036 0.558174
0.355351 0.656480 0.587939
0.470658 0.679221 0.600010
0.567352 0.689604 0.585923
0.649493 0.690231 0.551632
0.753541 0.698642 0.545872
0.853073 0.719604 0.560217
0.179108 0.703904 0.604549
0.310828 0.732020 0.641017
0.448156 0.760366 0.673879
0.567437 0.781918 0.689979
0.654549 0.792457 0.681166
0.715953 0.793415 0.647667
0.784268 0.794929 0.619734
0.862862 0.802080 0.608679
0.251796 0.795604 0.678511
0.413037 0.819029 0.716007
0.560511 0.842337 0.747647
0.674598 0.860302 0.763949
0.745809 0.869785 0.759287
0.788542 0.871792 0.734555
0.828794 0.872096 0.703420
0.880654 0.873742 0.681059
0.075064 0.099579 0.216582
0.090585 0.100878 0.224913
0.111255 0.105140 0.240661
0.139598 0.116134 0.269101
0.180260 0.138872 0.314221
0.252736 0.189802 0.381642
0.349246 0.271779 0.463171
0.471289 0.379403 0.552450
0.081522 0.192052 0.289534
0.115118 0.202242 0.305665
0.156732 0.213787 0.329066
0.211604 0.233085 0.363875
0.283952 0.264862 0.411159
0.381042 0.313478 0.463306
0.489704 0.387980 0.526778
0.608177 0.484709 0.598865
0.090258 0.297274 0.365260
0.134576 0.311201 0.382899
0.196581 0.326240 0.405999
0.275636 0.346699 0.438834
0.370896 0.375171 0.481160
0.483887 0.411109 0.516564
0.600031 0.468211 0.561987
0.714859 0.545634 0.617814
0.102380 0.407260 0.438526
0.155448 0.422227 0.455254
0.233426 0.438909 0.475692
0.330580 0.457565 0.501870
0.441575 0.477809 0.532167
0.562035 0.496744 0.550022
0.681291 0.532422 0.577790
0.792631 0.587315 0.618381
0.118809 0.516017 0.506712
0.183311 0.531661 0.523433
0.272116 0.549843 0.543069
0.379961 0.567318 0.562056
0.500035 0.580877 0.576235
0.617211 0.584200 0.574866
0.734844 0.599487 0.585143
0.842806 0.632605 0.610938
0.141387 0.620932 0.574621
0.225761 0.640339 0.596011
0.330470 0.661886 0.618892
0.447257 0.682757 0.639168
0.564751 0.698861 0.649178
0.650874 0.696858 0.618852
0.757688 0.698363 0.608938
0.861238 0.712643 0.616756
0.178097 0.717924 0.640506
0.290261 0.737868 0.666873
0.413815 0.759712 0.693740
0.538981 0.781160 0.716794
0.653031 0.798546 0.728383
0.719432 0.799047 0.699108
0.789353 0.797185 0.668494
0.871347 0.800126 0.653349
0.237614 0.800382 0.701300
0.379555 0.818741 0.731416
0.518175 0.838417 0.760162
0.644418 0.857862 0.783575
0.747411 0.874347 0.795639
0.795551 0.877690 0.774976
0.836453 0.877539 0.742556
0.889858 0.877667 0.717721
0.075820 0.112813 0.263279
0.091488 0.115429 0.273220
0.110646 0.120076 0.287779
0.135207 0.129789 0.310950
0.168038 0.148777 0.347233
0.219877 0.191217 0.409531
0.305263 0.266047 0.491670
0.418401 0.366633 0.581992
0.084035 0.217581 0.346624
0.114830 0.227615 0.361191
0.150059 0.238472 0.380712
0.195107 0.255394 0.408703
0.254922 0.283577 0.448510
0.339759 0.334469 0.507999
0.444550 0.404466 0.573026
0.562495 0.493214 0.642831
0.094527 0.332091 0.429216
0.135667 0.344630 0.444047
0.189324 0.357924 0.463297
0.255427 0.375968 0.490414
0.335628 0.402906 0.528018
0.443067 0.448595 0.579777
0.559367 0.502686 0.627057
0.677816 0.571069 0.677763
0.108466 0.447505 0.506191
0.159179 0.460234 0.520034
0.228720 0.474233 0.537550
0.312444 0.490525 0.560516
0.408605 0.510997 0.590517
0.528809 0.543394 0.631186
0.649900 0.576444 0.660817
0.765952 0.621344 0.694067
0.127018 0.556463 0.573864
0.189291 0.568991 0.587644
0.269928 0.583451 0.604572
0.365736 0.597882 0.622751
0.474228 0.611571 0.641945
0.596943 0.628156 0.668702
0.716809 0.640322 0.681231
0.828543 0.663201 0.698777
0.153255 0.650694 0.628454
0.229281 0.663132 0.643276
0.321950 0.678067 0.660867
0.427012 0.693495 0.678937
0.539213 0.707250 0.694713
0.647079 0.714543 0.700898
0.757600 0.712550 0.696617
0.862651 0.719816 0.700345
0.189478 0.736635 0.682484
0.287080 0.750195 0.701112
0.396300 0.766174 0.721892
0.510824 0.782929 0.742105
0.623604 0.798437 0.758381
0.719076 0.807385 0.761350
0.793404 0.804290 0.738269
0.876245 0.803383 0.723233
0.242841 0.809237 0.731080
0.365952 0.822932 0.753882
0.490703 0.838592 0.777555
0.610180 0.855074 0.799293
0.717451 0.870921 0.815996
0.797575 0.882177 0.819918
0.843096 0.882719 0.794703
0.896276 0.881570 0.771936
0.077522 0.129198 0.318642
0.093823 0.133741 0.330559
0.112734 0.139468 0.345763
0.135812 0.148735 0.366816
0.165249 0.164886 0.397037
0.208891 0.199325 0.447381
0.279840 0.267292 0.523909
0.380318 0.361613 0.612347
0.087249 0.246749 0.410427
0.117338 0.257709 0.424270
0.148785 0.268713 0.441481
0.187376 0.283974 0.464530
0.238279 0.307906 0.496283
0.310840 0.350986 0.545329
0.409909 0.420589 0.611497
0.525621 0.505762 0.682031
0.099253 0.369739 0.497071
0.139777 0.382377 0.510268
0.188317 0.395161 0.526464
0.245203 0.411455 0.548186
0.312743 0.434987 0.577940
0.405418 0.475379 0.621865
0.521367 0.534774 0.675536
0.643521 0.601781 0.728601
0.115071 0.489290 0.574582
0.165871 0.501488 0.586685
0.230283 0.514340 0.601358
0.304092 0.529115 0.620080
0.386380 0.547924 0.644670
0.490854 0.578768 0.681004
0.614168 0.621358 0.721269
0.736234 0.666271 0.757944
0.136111 0.597916 0.639838
0.199071 0.609436 0.651809
0.275027 0.621986 0.666112
0.361719 0.634822 0.681853
0.457691 0.648228 0.699577
0.565854 0.666958 0.726508
0.688527 0.690894 0.753419
0.805859 0.714261 0.775375
0.165519 0.685731 0.688060
0.241874 0.696519 0.700659
0.329409 0.708862 0.715449
0.425368 0.721816 0.731289
0.526640 0.734390 0.747030
0.627659 0.744583 0.760643
0.741516 0.753747 0.774879
0.850153 0.761503 0.784985
0.204730 0.757775 0.727124
0.295991 0.768445 0.741869
0.395487 0.780919 0.758432
0.499396 0.794346 0.775484
0.603642 0.807640 0.791459
0.700225 0.817929 0.802434
0.786315 0.822198 0.802442
0.875129 0.822387 0.799238
0.258125 0.819094 0.762826
0.367545 0.829501 0.780483
0.479304 0.841861 0.799372
0.588653 0.855382 0.817897
0.691079 0.869138 0.834378
0.778091 0.881044 0.845101
0.841020 0.886397 0.841037
0.901665 0.886850 0.831181
0.079924 0.148363 0.383828
0.097037 0.155670 0.396684
0.116483 0.163162 0.412857
0.139481 0.172590 0.433347
0.167818 0.186564 0.459885
0.208130 0.214130 0.499843
0.269528 0.271829 0.563993
0.358099 0.359930 0.645494
0.090957 0.278954 0.480650
0.122187 0.290911 0.493747
0.151904 0.302652 0.509623
0.186541 0.317023 0.529414
0.231562 0.337180 0.554767
0.294958 0.371215 0.591887
0.385475 0.432474 0.649202
0.497836 0.514608 0.716726
0.104322 0.409242 0.567826
0.146305 0.422228 0.579923
0.192798 0.434902 0.593966
0.243950 0.449980 0.611571
0.302073 0.470320 0.634409
0.381515 0.502686 0.666832
0.489213 0.557457 0.715198
0.612632 0.625009 0.768273
0.121984 0.531099 0.642504
0.174708 0.543448 0.653623
0.237447 0.555609 0.666126
0.305306 0.569257 0.681231
0.376995 0.586363 0.700294
0.465722 0.612341 0.727166
0.580629 0.654852 0.765781
0.705337 0.703694 0.804909
0.145665 0.637789 0.702612
0.211205 0.649264 0.713628
0.285682 0.660815 0.725994
0.367054 0.672681 0.739328
0.453683 0.685652 0.754119
0.545585 0.703585 0.775078
0.659577 0.731883 0.804199
0.778449 0.761848 0.830774
0.178781 0.719725 0.744272
0.258202 0.730345 0.756081
0.344312 0.741412 0.769094
0.434655 0.752897 0.782846
0.526789 0.764694 0.796850
0.617002 0.776403 0.810226
0.722733 0.792848 0.831001
0.830254 0.808406 0.847962
0.222442 0.780752 0.772438
0.313537 0.790600 0.785599
0.408879 0.801231 0.799644
0.505662 0.812525 0.814095
0.601121 0.824148 0.828275
0.690336 0.834714 0.840143
0.776740 0.844857 0.852109
0.866123 0.852706 0.860523
0.278199 0.831096 0.796588
0.380293 0.839828 0.811428
0.483281 0.850033 0.826853
0.583746 0.861306 0.842194
0.678578 0.873131 0.856676
0.762301 0.884292 0.868330
0.832754 0.893166 0.876306
0.898860 0.898885 0.879431
