Assets/1__3DArt/KimSe/artstation_asset/LUTs_subway_asset/CUBE/Paranormal 02.cube
# LUT by SparkleStock. Enhanced with VOXCOLOR algorithms.
LUT_3D_SIZE 32
0.019536 0.027350 0.042979
0.026106 0.031179 0.048178
0.032676 0.035007 0.053377
0.039245 0.038836 0.058577
0.045815 0.042664 0.063776
0.052385 0.046493 0.068975
0.064469 0.052645 0.077679
0.077656 0.059262 0.087085
0.090842 0.065879 0.096491
0.104029 0.072496 0.105896
0.117216 0.079113 0.115302
0.138060 0.089133 0.128237
0.162732 0.100855 0.142936
0.187404 0.112576 0.157635
0.212076 0.124298 0.172334
0.236748 0.136020 0.187034
0.266903 0.150790 0.203387
0.302540 0.168608 0.221395
0.338178 0.186427 0.239403
0.373815 0.204246 0.257411
0.409453 0.222065 0.275418
0.446382 0.241427 0.293080
0.485895 0.263878 0.310048
0.525409 0.286329 0.327016
0.564922 0.308779 0.343984
0.604435 0.331230 0.360952
0.642530 0.353657 0.376864
0.673536 0.375966 0.387499
0.704541 0.398275 0.398133
0.735547 0.420584 0.408768
0.766552 0.442893 0.419402
0.797558 0.465201 0.430037
0.022845 0.040679 0.050542
0.030457 0.046502 0.056729
0.038070 0.052324 0.062916
0.045682 0.058147 0.069103
0.053295 0.063970 0.075290
0.060908 0.069792 0.081477
0.074050 0.077489 0.090903
0.088298 0.085561 0.100976
0.102546 0.093632 0.111050
0.116794 0.101704 0.121123
0.131042 0.109776 0.131197
0.152733 0.120982 0.144525
0.178146 0.133755 0.159480
0.203559 0.146529 0.174435
0.228972 0.159303 0.189391
0.254386 0.172076 0.204346
0.284856 0.187496 0.220746
0.320384 0.205562 0.238589
0.355911 0.223627 0.256432
0.391439 0.241693 0.274275
0.426967 0.259759 0.292118
0.463527 0.279064 0.309538
0.502153 0.300847 0.326113
0.540779 0.322629 0.342688
0.579405 0.344412 0.359262
0.618030 0.366195 0.375837
0.655209 0.387843 0.391374
0.685154 0.408816 0.401725
0.715098 0.429790 0.412076
0.745042 0.450763 0.422427
0.774987 0.471736 0.432778
0.804931 0.492709 0.443129
0.026153 0.054008 0.058104
0.034809 0.061825 0.065279
0.043464 0.069642 0.072454
0.052120 0.077458 0.079629
0.060775 0.085275 0.086804
0.069431 0.093092 0.093979
0.083631 0.102334 0.104126
0.098940 0.111860 0.114867
0.114249 0.121386 0.125609
0.129558 0.130912 0.136350
0.144867 0.140438 0.147091
0.167407 0.152830 0.160813
0.193561 0.166656 0.176024
0.219715 0.180482 0.191236
0.245869 0.194307 0.206447
0.272023 0.208133 0.221659
0.302809 0.224202 0.238104
0.338227 0.242515 0.255782
0.373645 0.260828 0.273461
0.409063 0.279140 0.291139
0.444481 0.297453 0.308818
0.480672 0.316700 0.325997
0.518410 0.337815 0.342178
0.556149 0.358930 0.358360
0.593887 0.380045 0.374541
0.631626 0.401160 0.390722
0.667888 0.422029 0.405884
0.696772 0.441667 0.415952
0.725655 0.461304 0.426019
0.754538 0.480942 0.436086
0.783421 0.500580 0.446154
0.812305 0.520217 0.456221
0.029462 0.067336 0.065666
0.039160 0.077147 0.073829
0.048858 0.086959 0.081992
0.058557 0.096770 0.090155
0.068255 0.106581 0.098318
0.077953 0.116392 0.106481
0.093212 0.127178 0.117350
0.109582 0.138159 0.128759
0.125952 0.149139 0.140168
0.142323 0.160120 0.151577
0.158693 0.171101 0.162986
0.182080 0.184679 0.177101
0.208975 0.199557 0.192568
0.235870 0.214434 0.208036
0.262765 0.229312 0.223504
0.289660 0.244190 0.238971
0.320762 0.260909 0.255462
0.356070 0.279468 0.272976
0.391378 0.298028 0.290490
0.426686 0.316588 0.308004
0.461994 0.335147 0.325517
0.497817 0.354336 0.342456
0.534668 0.374784 0.358244
0.571519 0.395231 0.374032
0.608370 0.415678 0.389820
0.645221 0.436125 0.405607
0.680568 0.456215 0.420395
0.708390 0.474517 0.430178
0.736212 0.492819 0.439962
0.764034 0.511121 0.449746
0.791856 0.529423 0.459530
0.819678 0.547725 0.469313
0.032770 0.080665 0.073229
0.043511 0.092470 0.082380
0.054253 0.104276 0.091531
0.064994 0.116081 0.100682
0.075735 0.127887 0.109833
0.086476 0.139692 0.118984
0.102793 0.152022 0.130573
0.120224 0.164458 0.142650
0.137656 0.176893 0.154727
0.155087 0.189328 0.166804
0.172519 0.201763 0.178880
0.196753 0.216528 0.193389
0.224389 0.232458 0.209112
0.252025 0.248387 0.224836
0.279661 0.264317 0.240560
0.307297 0.280247 0.256284
0.338715 0.297615 0.272820
0.373913 0.316422 0.290170
0.409111 0.335228 0.307519
0.444310 0.354035 0.324868
0.479508 0.372842 0.342217
0.514962 0.391973 0.358915
0.550925 0.411752 0.374309
0.586889 0.431532 0.389704
0.622853 0.451311 0.405098
0.658817 0.471090 0.420493
0.693247 0.490401 0.434905
0.720008 0.507368 0.444405
0.746768 0.524334 0.453905
0.773529 0.541300 0.463405
0.800290 0.558267 0.472906
0.827051 0.575233 0.482406
0.036079 0.093993 0.080791
0.047863 0.107793 0.090930
0.059647 0.121593 0.101069
0.071431 0.135393 0.111208
0.083215 0.149192 0.121347
0.094999 0.162992 0.131486
0.112374 0.176867 0.143796
0.130866 0.190756 0.156541
0.149359 0.204646 0.169286
0.167852 0.218536 0.182030
0.186344 0.232426 0.194775
0.211427 0.248377 0.209677
0.239804 0.265358 0.225657
0.268181 0.282340 0.241637
0.296558 0.299322 0.257617
0.324935 0.316303 0.273597
0.356668 0.334321 0.290179
0.391756 0.353375 0.307363
0.426845 0.372428 0.324548
0.461933 0.391482 0.341732
0.497022 0.410536 0.358917
0.532106 0.429609 0.375373
0.567183 0.448721 0.390375
0.602259 0.467832 0.405376
0.637336 0.486944 0.420377
0.672412 0.506056 0.435378
0.705926 0.524587 0.449415
0.731625 0.540218 0.458632
0.757325 0.555849 0.467848
0.783025 0.571480 0.477065
0.808725 0.587110 0.486281
0.834424 0.602741 0.495498
0.041553 0.120517 0.096467
0.054045 0.134855 0.107114
0.066537 0.149193 0.117760
0.079028 0.163531 0.128407
0.091520 0.177868 0.139054
0.104011 0.192206 0.149701
0.121956 0.206443 0.161972
0.140991 0.220659 0.174569
0.160027 0.234875 0.187166
0.179062 0.249091 0.199763
0.198098 0.263307 0.212359
0.223560 0.279534 0.227169
0.252236 0.296767 0.243085
0.280912 0.314001 0.259001
0.309588 0.331234 0.274917
0.338264 0.348467 0.290833
0.370076 0.366467 0.307221
0.405024 0.385234 0.324080
0.439972 0.404001 0.340940
0.474921 0.422769 0.357800
0.509869 0.441536 0.374660
0.544640 0.460154 0.390753
0.579058 0.478476 0.405315
0.613476 0.496798 0.419878
0.647894 0.515120 0.434440
0.682311 0.533442 0.449002
0.715150 0.551138 0.462632
0.740094 0.565708 0.471603
0.765037 0.580278 0.480574
0.789981 0.594847 0.489545
0.814924 0.609417 0.498516
0.839868 0.623987 0.507487
0.047461 0.149679 0.113766
0.060593 0.164264 0.124824
0.073725 0.178849 0.135883
0.086857 0.193434 0.146941
0.099989 0.208019 0.157999
0.113121 0.222604 0.169058
0.131539 0.236965 0.181139
0.151013 0.251282 0.193425
0.170488 0.265598 0.205710
0.189962 0.279915 0.217996
0.209437 0.294231 0.230282
0.235186 0.310553 0.244902
0.264072 0.327878 0.260690
0.292958 0.345203 0.276478
0.321844 0.362528 0.292266
0.350731 0.379852 0.308054
0.382575 0.397702 0.324199
0.417377 0.416075 0.340702
0.452179 0.434449 0.357205
0.486981 0.452823 0.373708
0.521783 0.471196 0.390211
0.556252 0.489281 0.405918
0.590057 0.506789 0.420032
0.623862 0.524297 0.434145
0.657667 0.541805 0.448259
0.691472 0.559312 0.462373
0.723684 0.576163 0.475590
0.747932 0.589726 0.484323
0.772180 0.603289 0.493057
0.796428 0.616853 0.501790
0.820677 0.630416 0.510523
0.844925 0.643980 0.519256
0.053370 0.178841 0.131065
0.067142 0.193673 0.142535
0.080914 0.208505 0.154005
0.094686 0.223337 0.165475
0.108459 0.238169 0.176945
0.122231 0.253001 0.188415
0.141121 0.267487 0.200305
0.161035 0.281904 0.212280
0.180948 0.296322 0.224255
0.200862 0.310739 0.236230
0.220776 0.325156 0.248204
0.246811 0.341573 0.262636
0.275908 0.358989 0.278296
0.305005 0.376405 0.293955
0.334101 0.393821 0.309615
0.363198 0.411238 0.325275
0.395074 0.428936 0.341178
0.429730 0.446916 0.357324
0.464385 0.464897 0.373470
0.499041 0.482877 0.389617
0.533696 0.500857 0.405763
0.567864 0.518409 0.421082
0.601056 0.535102 0.434748
0.634248 0.551796 0.448413
0.667440 0.568489 0.462079
0.700632 0.585183 0.475744
0.732217 0.601187 0.488548
0.755770 0.613744 0.497044
0.779323 0.626301 0.505539
0.802876 0.638858 0.514034
0.826429 0.651415 0.522530
0.849982 0.663973 0.531025
0.059278 0.208003 0.148363
0.073690 0.223082 0.160245
0.088103 0.238161 0.172127
0.102516 0.253240 0.184009
0.116928 0.268319 0.195890
0.131341 0.283398 0.207772
0.150704 0.298009 0.219472
0.171056 0.312527 0.231136
0.191409 0.327045 0.242799
0.211762 0.341563 0.254463
0.232114 0.356081 0.266127
0.258437 0.372592 0.280369
0.287744 0.390100 0.295901
0.317051 0.407607 0.311433
0.346358 0.425115 0.326964
0.375665 0.442623 0.342496
0.407573 0.460170 0.358157
0.442082 0.477757 0.373946
0.476592 0.495344 0.389735
0.511101 0.512931 0.405525
0.545610 0.530518 0.421314
0.579476 0.547536 0.436246
0.612055 0.563415 0.449464
0.644634 0.579295 0.462681
0.677213 0.595174 0.475898
0.709792 0.611053 0.489116
0.740751 0.626211 0.501506
0.763609 0.637762 0.509764
0.786466 0.649313 0.518021
0.809324 0.660864 0.526279
0.832182 0.672415 0.534537
0.855040 0.683965 0.542794
0.065186 0.237166 0.165662
0.080239 0.252492 0.177956
0.095292 0.267818 0.190249
0.110345 0.283143 0.202542
0.125398 0.298469 0.214836
0.140451 0.313795 0.227129
0.160286 0.328532 0.238639
0.181078 0.343150 0.249991
0.201870 0.357769 0.261344
0.222662 0.372387 0.272696
0.243453 0.387006 0.284049
0.270062 0.403611 0.298102
0.299580 0.421210 0.313506
0.329097 0.438810 0.328910
0.358615 0.456409 0.344313
0.388132 0.474008 0.359717
0.420072 0.491404 0.375135
0.454435 0.508598 0.390568
0.488798 0.525792 0.406001
0.523161 0.542985 0.421433
0.557524 0.560179 0.436866
0.591088 0.576663 0.451411
0.623054 0.591728 0.464180
0.655020 0.606793 0.476949
0.686986 0.621859 0.489718
0.718952 0.636924 0.502487
0.749284 0.651236 0.514464
0.771447 0.661780 0.522484
0.793609 0.672325 0.530504
0.815772 0.682869 0.538524
0.837934 0.693414 0.546543
0.860097 0.703958 0.554563
0.074560 0.274930 0.190902
0.090278 0.289948 0.203216
0.105995 0.304966 0.215531
0.121713 0.319984 0.227846
0.137431 0.335002 0.240160
0.153149 0.350020 0.252475
0.173359 0.364321 0.263678
0.194468 0.378479 0.274659
0.215577 0.392637 0.285639
0.236686 0.406795 0.296620
0.257795 0.420953 0.307601
0.284121 0.436694 0.320778
0.313056 0.453226 0.335053
0.341991 0.469758 0.349329
0.370926 0.486290 0.363604
0.399862 0.502822 0.377879
0.431352 0.519405 0.392485
0.465398 0.536041 0.407421
0.499443 0.552676 0.422356
0.533489 0.569312 0.437292
0.567535 0.585948 0.452227
0.600701 0.601780 0.466265
0.632109 0.616007 0.478506
0.663517 0.630234 0.490748
0.694926 0.644460 0.502989
0.726334 0.658687 0.515231
0.756104 0.672159 0.526717
0.777687 0.681855 0.534426
0.799270 0.691552 0.542134
0.820854 0.701249 0.549843
0.842437 0.710946 0.557552
0.864020 0.720643 0.565261
0.085667 0.316996 0.220111
0.102062 0.331428 0.232252
0.118456 0.345860 0.244393
0.134851 0.360293 0.256534
0.151246 0.374725 0.268675
0.167641 0.389158 0.280816
0.188177 0.402744 0.291654
0.209542 0.416161 0.302232
0.230907 0.429578 0.312810
0.252273 0.442995 0.323388
0.273638 0.456412 0.333967
0.299397 0.470808 0.345924
0.327353 0.485693 0.358571
0.355309 0.500579 0.371218
0.383266 0.515464 0.383865
0.411222 0.530349 0.396512
0.442022 0.545790 0.410020
0.475665 0.561785 0.424389
0.509308 0.577780 0.438757
0.542951 0.593775 0.453125
0.576594 0.609771 0.467494
0.609316 0.624893 0.480964
0.640193 0.638269 0.492639
0.671071 0.651644 0.504313
0.701948 0.665020 0.515987
0.732826 0.678396 0.527662
0.762067 0.691031 0.538617
0.783129 0.699959 0.545978
0.804191 0.708888 0.553339
0.825252 0.717816 0.560700
0.846314 0.726745 0.568061
0.867376 0.735673 0.575422
0.096774 0.359061 0.249321
0.113846 0.372908 0.261288
0.130918 0.386755 0.273255
0.147989 0.400602 0.285222
0.165061 0.414449 0.297189
0.182132 0.428296 0.309156
0.202995 0.441167 0.319630
0.224617 0.453843 0.329806
0.246238 0.466519 0.339981
0.267859 0.479195 0.350157
0.289480 0.491871 0.360333
0.314672 0.504923 0.371070
0.341650 0.518161 0.382089
0.368627 0.531400 0.393108
0.395605 0.544638 0.404127
0.422582 0.557877 0.415145
0.452691 0.572174 0.427555
0.485932 0.587529 0.441356
0.519173 0.602884 0.455158
0.552413 0.618239 0.468959
0.585654 0.633593 0.482760
0.617930 0.648005 0.495663
0.648277 0.660530 0.506771
0.678624 0.673055 0.517878
0.708971 0.685580 0.528985
0.739318 0.698105 0.540092
0.768030 0.709903 0.550517
0.788570 0.718063 0.557531
0.809111 0.726223 0.564544
0.829651 0.734383 0.571557
0.850191 0.742543 0.578571
0.870731 0.750703 0.585584
0.107881 0.401126 0.278530
0.125630 0.414388 0.290323
0.143379 0.427650 0.302117
0.161127 0.440911 0.313910
0.178876 0.454173 0.325703
0.196624 0.467434 0.337496
0.217814 0.479590 0.347606
0.239691 0.491525 0.357379
0.261568 0.503460 0.367152
0.283446 0.515395 0.376925
0.305323 0.527330 0.386699
0.329948 0.539037 0.396217
0.355947 0.550629 0.405607
0.381945 0.562221 0.414997
0.407944 0.573813 0.424388
0.433942 0.585405 0.433778
0.463361 0.598558 0.445090
0.496199 0.613273 0.458324
0.529037 0.627987 0.471559
0.561875 0.642702 0.484793
0.594713 0.657416 0.498027
0.626544 0.671117 0.510363
0.656361 0.682792 0.520903
0.686177 0.694466 0.531443
0.715993 0.706140 0.541983
0.745810 0.717815 0.552523
0.773993 0.728775 0.562417
0.794012 0.736167 0.569083
0.814031 0.743558 0.575749
0.834050 0.750950 0.582415
0.854068 0.758342 0.589080
0.874087 0.765733 0.595746
0.118989 0.443192 0.307740
0.137414 0.455868 0.319359
0.155840 0.468544 0.330978
0.174265 0.481220 0.342598
0.192691 0.493896 0.354217
0.211116 0.506572 0.365837
0.232632 0.518013 0.375582
0.254765 0.529207 0.384953
0.276899 0.540401 0.394323
0.299032 0.551595 0.403694
0.321166 0.562790 0.413065
0.345224 0.573151 0.421363
0.370243 0.583097 0.429125
0.395263 0.593042 0.436887
0.420283 0.602987 0.444649
0.445303 0.612933 0.452411
0.474030 0.624942 0.462626
0.506466 0.639017 0.475292
0.538902 0.653091 0.487959
0.571337 0.667165 0.500626
0.603773 0.681239 0.513293
0.635159 0.694230 0.525062
0.664444 0.705053 0.535035
0.693730 0.715877 0.545008
0.723016 0.726701 0.554981
0.752302 0.737524 0.564953
0.779956 0.747648 0.574317
0.799453 0.754271 0.580635
0.818951 0.760894 0.586953
0.838448 0.767517 0.593272
0.857946 0.774140 0.599590
0.877443 0.780763 0.605908
0.133499 0.485872 0.340163
0.152542 0.497761 0.351330
0.171585 0.509650 0.362496
0.190628 0.521540 0.373663
0.209671 0.533429 0.384830
0.228714 0.545318 0.395996
0.250470 0.555912 0.405190
0.272768 0.566246 0.413989
0.295066 0.576580 0.422787
0.317364 0.586914 0.431586
0.339662 0.597248 0.440385
0.363308 0.606476 0.447718
0.387628 0.615150 0.454318
0.411948 0.623823 0.460919
0.436268 0.632497 0.467519
0.460588 0.641171 0.474119
0.488335 0.651882 0.483108
0.519508 0.664629 0.494485
0.550681 0.677377 0.505862
0.581854 0.690125 0.517239
0.613028 0.702873 0.528616
0.643375 0.714717 0.539328
0.672071 0.724754 0.548711
0.700767 0.734790 0.558094
0.729462 0.744827 0.567477
0.758158 0.754864 0.576859
0.785239 0.764222 0.585664
0.804247 0.770187 0.591575
0.823255 0.776151 0.597486
0.842263 0.782116 0.603397
0.861271 0.788080 0.609308
0.880279 0.794045 0.615219
0.151412 0.529166 0.375801
0.171013 0.540068 0.386235
0.190614 0.550969 0.396670
0.210215 0.561870 0.407105
0.229816 0.572772 0.417540
0.249417 0.583673 0.427975
0.271327 0.593286 0.436429
0.293698 0.602641 0.444486
0.316070 0.611997 0.452544
0.338441 0.621352 0.460602
0.360813 0.630707 0.468660
0.384202 0.639011 0.475283
0.408102 0.646788 0.481188
0.432001 0.654565 0.487093
0.455900 0.662342 0.492998
0.479799 0.670120 0.498903
0.506274 0.679376 0.506537
0.535325 0.690111 0.515902
0.564376 0.700846 0.525266
0.593427 0.711581 0.534631
0.622478 0.722317 0.543995
0.651194 0.732578 0.553162
0.679240 0.741892 0.561931
0.707286 0.751206 0.570701
0.735332 0.760521 0.579471
0.763378 0.769835 0.588241
0.789842 0.778499 0.596457
0.808393 0.783915 0.601901
0.826943 0.789330 0.607346
0.845494 0.794746 0.612790
0.864044 0.800162 0.618235
0.882595 0.805577 0.623680
0.169325 0.572461 0.411438
0.189484 0.582374 0.421141
0.209643 0.592287 0.430844
0.229803 0.602201 0.440547
0.249962 0.612114 0.450250
0.270121 0.622027 0.459953
0.292184 0.630660 0.467667
0.314629 0.639036 0.474984
0.337074 0.647413 0.482301
0.359518 0.655789 0.489618
0.381963 0.664166 0.496935
0.405096 0.671545 0.502847
0.428575 0.678426 0.508057
0.452053 0.685307 0.513266
0.475531 0.692188 0.518476
0.499010 0.699069 0.523686
0.524213 0.706870 0.529967
0.551142 0.715593 0.537319
0.578070 0.724315 0.544671
0.604999 0.733038 0.552023
0.631927 0.741761 0.559375
0.659012 0.750440 0.566995
0.686409 0.759031 0.575152
0.713805 0.767623 0.583309
0.741202 0.776214 0.591466
0.768599 0.784805 0.599623
0.794445 0.792776 0.607250
0.812538 0.797643 0.612228
0.830631 0.802510 0.617206
0.848724 0.807376 0.622184
0.866818 0.812243 0.627162
0.884911 0.817110 0.632140
0.187239 0.615755 0.447076
0.207956 0.624680 0.456047
0.228673 0.633606 0.465018
0.249390 0.642531 0.473989
0.270107 0.651456 0.482960
0.290824 0.660382 0.491931
0.313042 0.668034 0.498906
0.335560 0.675432 0.505482
0.358077 0.682829 0.512058
0.380595 0.690227 0.518634
0.403113 0.697625 0.525210
0.425990 0.704080 0.530411
0.449048 0.710064 0.534926
0.472105 0.716049 0.539440
0.495163 0.722033 0.543955
0.518220 0.728017 0.548469
0.542152 0.734365 0.553396
0.566959 0.741075 0.558736
0.591765 0.747785 0.564075
0.616571 0.754495 0.569414
0.641377 0.761205 0.574754
0.666831 0.768301 0.580828
0.693578 0.776170 0.588372
0.720325 0.784039 0.595916
0.747072 0.791907 0.603460
0.773819 0.799776 0.611004
0.799048 0.807053 0.618043
0.816684 0.811371 0.622554
0.834319 0.815689 0.627066
0.851955 0.820007 0.631577
0.869591 0.824324 0.636089
0.887227 0.828642 0.640600
0.205152 0.659049 0.482713
0.226427 0.666987 0.490952
0.247702 0.674924 0.499192
0.268977 0.682861 0.507431
0.290252 0.690799 0.515670
0.311528 0.698736 0.523909
0.333899 0.705408 0.530145
0.356490 0.711827 0.535980
0.379081 0.718246 0.541815
0.401672 0.724665 0.547650
0.424263 0.731083 0.553485
0.446884 0.736615 0.557976
0.469521 0.741703 0.561795
0.492158 0.746791 0.565614
0.514794 0.751878 0.569434
0.537431 0.756966 0.573253
0.560091 0.761859 0.576826
0.582775 0.766556 0.580153
0.605459 0.771254 0.583480
0.628143 0.775951 0.586806
0.650827 0.780649 0.590133
0.674649 0.786162 0.594661
0.700747 0.793309 0.601593
0.726844 0.800455 0.608524
0.752942 0.807601 0.615455
0.779040 0.814747 0.622386
0.803651 0.821330 0.628836
0.820829 0.825099 0.632881
0.838008 0.828868 0.636926
0.855186 0.832637 0.640971
0.872364 0.836406 0.645016
0.889543 0.840175 0.649061
0.225460 0.698799 0.517027
0.247211 0.705785 0.524464
0.268962 0.712771 0.531902
0.290712 0.719757 0.539339
0.312463 0.726743 0.546776
0.334214 0.733729 0.554214
0.356635 0.739467 0.559683
0.379189 0.744956 0.564758
0.401743 0.750445 0.569834
0.424298 0.755933 0.574910
0.446852 0.761422 0.579985
0.469111 0.766083 0.583764
0.491224 0.770329 0.586894
0.513336 0.774575 0.590024
0.535448 0.778821 0.593154
0.557560 0.783067 0.596284
0.579082 0.786772 0.598751
0.600012 0.789936 0.600553
0.620943 0.793100 0.602355
0.641873 0.796263 0.604157
0.662804 0.799427 0.605959
0.685059 0.803619 0.609180
0.709965 0.809869 0.615239
0.734870 0.816118 0.621298
0.759776 0.822368 0.627357
0.784681 0.828618 0.633416
0.808222 0.834374 0.639065
0.824940 0.837661 0.642662
0.841658 0.840948 0.646258
0.858376 0.844235 0.649855
0.875093 0.847522 0.653452
0.891811 0.850809 0.657048
0.250557 0.731459 0.548694
0.272619 0.737566 0.555189
0.294681 0.743674 0.561684
0.316743 0.749782 0.568180
0.338805 0.755890 0.574675
0.360867 0.761998 0.581170
0.383126 0.766896 0.585819
0.405424 0.771552 0.590098
0.427722 0.776208 0.594378
0.450020 0.780865 0.598658
0.472318 0.785521 0.602938
0.494005 0.789416 0.606000
0.515385 0.792930 0.608453
0.536765 0.796445 0.610906
0.558146 0.799959 0.613359
0.579526 0.803473 0.615812
0.600174 0.806524 0.617666
0.620089 0.809112 0.618919
0.640004 0.811699 0.620172
0.659919 0.814286 0.621425
0.679834 0.816874 0.622679
0.700654 0.820267 0.625070
0.723281 0.825273 0.629739
0.745909 0.830278 0.634407
0.768536 0.835284 0.639076
0.791164 0.840289 0.643744
0.812729 0.844950 0.648166
0.828980 0.847890 0.651351
0.845231 0.850829 0.654536
0.861483 0.853769 0.657721
0.877734 0.856708 0.660906
0.893986 0.859648 0.664091
0.275655 0.764118 0.580362
0.298028 0.769348 0.585914
0.320401 0.774578 0.591467
0.342774 0.779807 0.597020
0.365146 0.785037 0.602573
0.387519 0.790266 0.608126
0.409617 0.794324 0.611954
0.431659 0.798148 0.615438
0.453701 0.801972 0.618922
0.475743 0.805796 0.622406
0.497785 0.809620 0.625890
0.518898 0.812749 0.628235
0.539546 0.815532 0.630011
0.560195 0.818315 0.631788
0.580843 0.821097 0.633564
0.601492 0.823880 0.635340
0.621266 0.826276 0.636580
0.640166 0.828287 0.637285
0.659065 0.830298 0.637989
0.677965 0.832309 0.638694
0.696865 0.834320 0.639398
0.716248 0.836915 0.640960
0.736598 0.840676 0.644238
0.756947 0.844438 0.647516
0.777297 0.848199 0.650794
0.797647 0.851960 0.654072
0.817236 0.855527 0.657266
0.833020 0.858119 0.660040
0.848805 0.860711 0.662813
0.864590 0.863302 0.665586
0.880375 0.865894 0.668360
0.896160 0.868486 0.671133
0.300752 0.796778 0.612029
0.323436 0.801130 0.616639
0.346120 0.805481 0.621250
0.368804 0.809832 0.625861
0.391488 0.814184 0.630471
0.414172 0.818535 0.635082
0.436108 0.821753 0.638090
0.457893 0.824745 0.640778
0.479679 0.827736 0.643466
0.501465 0.830727 0.646154
0.523251 0.833719 0.648842
0.543791 0.836083 0.650471
0.563708 0.838134 0.651570
0.583624 0.840184 0.652669
0.603541 0.842235 0.653769
0.623458 0.844286 0.654868
0.642358 0.846028 0.655495
0.660242 0.847463 0.655651
0.678127 0.848898 0.655806
0.696011 0.850332 0.655962
0.713895 0.851767 0.656118
0.731842 0.853563 0.656850
0.749914 0.856080 0.658738
0.767986 0.858597 0.660625
0.786058 0.861114 0.662513
0.804130 0.863632 0.664401
0.821742 0.866103 0.666367
0.837061 0.868348 0.668729
0.852379 0.870592 0.671090
0.867697 0.872836 0.673452
0.883016 0.875081 0.675814
0.898334 0.877325 0.678176
0.325850 0.829438 0.643696
0.348845 0.832911 0.647364
0.371840 0.836384 0.651033
0.394835 0.839857 0.654701
0.417830 0.843331 0.658369
0.440825 0.846804 0.662038
0.462599 0.849182 0.664226
0.484128 0.851341 0.666118
0.505658 0.853500 0.668010
0.527188 0.855659 0.669902
0.548718 0.857818 0.671794
0.568684 0.859416 0.672707
0.587869 0.860735 0.673129
0.607054 0.862054 0.673551
0.626239 0.863373 0.673974
0.645424 0.864692 0.674396
0.663450 0.865780 0.674410
0.680319 0.866639 0.674017
0.697188 0.867497 0.673624
0.714057 0.868355 0.673230
0.730926 0.869214 0.672837
0.747436 0.870210 0.672740
0.763230 0.871484 0.673237
0.779024 0.872757 0.673734
0.794818 0.874030 0.674232
0.810612 0.875303 0.674729
0.826249 0.876680 0.675468
0.841101 0.878577 0.677418
0.855953 0.880473 0.679368
0.870805 0.882370 0.681318
0.885656 0.884267 0.683268
0.900508 0.886163 0.685218
0.351593 0.859545 0.672937
0.374857 0.862215 0.675736
0.398120 0.864885 0.678536
0.421383 0.867555 0.681335
0.444646 0.870224 0.684134
0.467910 0.872894 0.686934
0.489464 0.874503 0.688364
0.510677 0.875899 0.689522
0.531889 0.877296 0.690679
0.553102 0.878692 0.691836
0.574315 0.880089 0.692993
0.593650 0.880987 0.693247
0.612047 0.881635 0.693049
0.630443 0.882283 0.692850
0.648840 0.882931 0.692652
0.667236 0.883578 0.692454
0.684344 0.884067 0.691907
0.700162 0.884396 0.691012
0.715981 0.884726 0.690118
0.731799 0.885055 0.689223
0.747617 0.885384 0.688328
0.762735 0.885672 0.687498
0.776451 0.885874 0.686798
0.790167 0.886077 0.686098
0.803883 0.886280 0.685398
0.817598 0.886483 0.684698
0.831406 0.886908 0.684370
0.845671 0.888446 0.685896
0.859935 0.889985 0.687422
0.874200 0.891523 0.688948
0.888465 0.893062 0.690474
0.902730 0.894600 0.692000
0.380566 0.876892 0.690047
0.403885 0.879131 0.692343
0.427203 0.881371 0.694639
0.450521 0.883611 0.696935
0.473839 0.885850 0.699231
0.497157 0.888090 0.701528
0.518203 0.889284 0.702516
0.538793 0.890269 0.703244
0.559384 0.891254 0.703971
0.579974 0.892239 0.704698
0.600565 0.893224 0.705425
0.618979 0.893740 0.705310
0.636306 0.894022 0.704773
0.653632 0.894304 0.704237
0.670958 0.894587 0.703700
0.688284 0.894869 0.703163
0.704244 0.895028 0.702315
0.718836 0.895065 0.701155
0.733429 0.895101 0.699994
0.748021 0.895138 0.698834
0.762614 0.895174 0.697674
0.776554 0.895199 0.696591
