Assets/1__3DArt/KimSe/artstation_asset/LUTs_subway_asset/CUBE/Paranormal 02.cube
# LUT by SparkleStock. Enhanced with VOXCOLOR algorithms.
LUT_3D_SIZE 8
DOMAIN_MIN 0.000000 0.000000 0.000000
DOMAIN_MAX 0.903226 0.903226 0.903226
0.019536 0.027350 0.042979
0.045815 0.042664 0.063776
0.090842 0.065879 0.096491
0.162732 0.100855 0.142936
0.266903 0.150790 0.203387
0.409453 0.222065 0.275418
0.564922 0.308779 0.343984
0.704541 0.398275 0.398133
0.032770 0.080665 0.073229
0.075735 0.127887 0.109833
0.137656 0.176893 0.154727
0.224389 0.232458 0.209112
0.338715 0.297615 0.272820
0.479508 0.372842 0.342217
0.622853 0.451311 0.405098
0.746768 0.524334 0.453905
0.053370 0.178841 0.131065
0.108459 0.238169 0.176945
0.180948 0.296322 0.224255
0.275908 0.358989 0.278296
0.395074 0.428936 0.341178
0.533696 0.500857 0.405763
0.667440 0.568489 0.462079
0.779323 0.626301 0.505539
0.085667 0.316996 0.220111
0.151246 0.374725 0.268675
0.230907 0.429578 0.312810
0.327353 0.485693 0.358571
0.442022 0.545790 0.410020
0.576594 0.609771 0.467494
0.701948 0.665020 0.515987
0.804191 0.708888 0.553339
0.133499 0.485872 0.340163
0.209671 0.533429 0.384830
0.295066 0.576580 0.422787
0.387628 0.615150 0.454318
0.488335 0.651882 0.483108
0.613028 0.702873 0.528616
0.729462 0.744827 0.567477
0.823255 0.776151 0.597486
0.205152 0.659049 0.482713
0.290252 0.690799 0.515670
0.379081 0.718246 0.541815
0.469521 0.741703 0.561795
0.560091 0.761859 0.576826
0.650827 0.780649 0.590133
0.752942 0.807601 0.615455
0.838008 0.828868 0.636926
0.300752 0.796778 0.612029
0.391488 0.814184 0.630471
0.479679 0.827736 0.643466
0.563708 0.838134 0.651570
0.642358 0.846028 0.655495
0.713895 0.851767 0.656118
0.786058 0.861114 0.662513
0.852379 0.870592 0.671090
0.409540 0.894238 0.707157
0.503032 0.901477 0.714329
0.586878 0.905212 0.717263
0.660564 0.906410 0.716498
0.724144 0.905989 0.712722
0.777611 0.904964 0.707020
0.825045 0.904128 0.702212
0.871986 0.905311 0.701296
0.023128 0.034157 0.066422
0.041503 0.040542 0.079608
0.073858 0.057731 0.108859
0.129159 0.087633 0.155682
0.214888 0.132610 0.220506
0.345143 0.202128 0.303954
0.502831 0.295503 0.391132
0.658594 0.401983 0.468505
0.034459 0.095960 0.111162
0.071220 0.134707 0.151147
0.123532 0.177659 0.196907
0.199051 0.229104 0.252171
0.302894 0.291923 0.318509
0.440345 0.368113 0.392524
0.589857 0.451807 0.462025
0.725803 0.533472 0.518569
0.051808 0.190288 0.170633
0.103677 0.247775 0.227835
0.172840 0.303297 0.279451
0.262091 0.362717 0.334001
0.373097 0.429485 0.396237
0.509302 0.501558 0.460968
0.647876 0.571922 0.518386
0.767855 0.633906 0.563271
0.078227 0.318782 0.253398
0.146270 0.383094 0.319639
0.228370 0.439171 0.370455
0.323732 0.493132 0.416604
0.432584 0.549659 0.465870
0.562596 0.611667 0.520449
0.689306 0.667178 0.567508
0.795859 0.712784 0.604057
0.117002 0.477578 0.363661
0.204605 0.538445 0.431289
0.295725 0.585154 0.477217
0.390220 0.622937 0.509827
0.490121 0.658149 0.538110
0.609007 0.705707 0.579066
0.723592 0.746228 0.614564
0.818151 0.777541 0.642048
0.177677 0.644900 0.497575
0.284861 0.692226 0.554513
0.383404 0.724614 0.589167
0.476692 0.748116 0.610661
0.567195 0.767474 0.626105
0.654842 0.784645 0.638261
0.753389 0.809427 0.659463
0.836615 0.829375 0.677192
0.264252 0.782873 0.623866
0.385078 0.813589 0.662493
0.486270 0.832077 0.683399
0.574314 0.843491 0.693789
0.653810 0.851594 0.699037
0.723090 0.856488 0.699829
0.791225 0.864250 0.704073
0.854272 0.872077 0.709428
0.369478 0.884571 0.721690
0.495506 0.900536 0.741525
0.594029 0.908295 0.750781
0.672975 0.911229 0.753127
0.738433 0.911887 0.751473
0.790342 0.910768 0.746848
0.834094 0.909124 0.741633
0.876876 0.908995 0.738640
0.026318 0.040695 0.094821
0.041455 0.043543 0.104957
0.064187 0.053929 0.128549
0.104463 0.076433 0.171465
0.171348 0.115155 0.237072
0.283191 0.179081 0.326442
0.433959 0.272947 0.425961
0.596905 0.388709 0.520242
0.037717 0.113787 0.157265
0.069407 0.142868 0.190744
0.111742 0.177126 0.231984
0.174305 0.222307 0.285454
0.264365 0.281934 0.353050
0.391634 0.356535 0.431003
0.541463 0.443245 0.508077
0.688052 0.533822 0.574791
0.054960 0.215071 0.228340
0.099221 0.258452 0.274918
0.162502 0.307060 0.324491
0.245075 0.363100 0.379987
0.347804 0.427570 0.442541
0.479317 0.499322 0.508542
0.620853 0.572217 0.568530
0.749680 0.639618 0.616971
0.079603 0.341871 0.312262
0.138145 0.391825 0.366368
0.219486 0.444696 0.418122
0.315364 0.498723 0.468002
0.421482 0.553576 0.517204
0.548826 0.614644 0.570541
0.677721 0.670989 0.616605
0.789389 0.718517 0.652419
0.113884 0.489483 0.412089
0.191721 0.540664 0.470337
0.286252 0.588274 0.520059
0.387086 0.629113 0.558702
0.489046 0.664018 0.588039
0.604488 0.709348 0.626408
0.718524 0.749162 0.659627
0.814887 0.780770 0.685317
0.166692 0.646493 0.532184
0.266092 0.689048 0.584133
0.373431 0.725176 0.625011
0.477306 0.753025 0.653554
0.570793 0.772548 0.670513
0.657557 0.788982 0.682597
0.754144 0.812334 0.701154
0.836577 0.831437 0.716425
0.244154 0.778783 0.648020
0.360549 0.808387 0.685581
0.475724 0.831504 0.713330
0.578084 0.847341 0.730580
0.661218 0.856146 0.737965
0.730419 0.860890 0.739593
0.796464 0.867788 0.742844
0.857403 0.874574 0.746317
0.341947 0.878724 0.740603
0.467095 0.895705 0.761744
0.583186 0.907754 0.776826
0.678778 0.914511 0.784924
0.748420 0.916333 0.786108
0.800774 0.915567 0.782903
0.842723 0.913725 0.778022
0.882785 0.912866 0.774076
0.029107 0.047202 0.130222
0.043354 0.049037 0.140285
0.060779 0.054549 0.159190
0.089526 0.069968 0.195784
0.138286 0.100843 0.256396
0.229016 0.157658 0.347474
0.365358 0.247452 0.453681
0.526554 0.365829 0.558778
0.041079 0.133589 0.211389
0.069065 0.154282 0.236239
0.103903 0.179896 0.270324
0.154861 0.217580 0.318587
0.229913 0.271836 0.383575
0.343292 0.343671 0.463943
0.487486 0.430667 0.546698
0.639791 0.527183 0.621947
0.059854 0.247131 0.297437
0.097209 0.275492 0.328290
0.153412 0.313865 0.369924
0.227806 0.363351 0.421915
0.321184 0.424110 0.483095
0.445236 0.495265 0.550595
0.586361 0.569731 0.613313
0.722684 0.642130 0.665900
0.086242 0.377412 0.386113
0.133622 0.408821 0.420153
0.208924 0.452339 0.464550
0.301861 0.502486 0.513442
0.406251 0.555987 0.563184
0.530664 0.616854 0.616642
0.661225 0.674351 0.662688
0.778884 0.724483 0.698883
0.121275 0.516262 0.477471
0.182806 0.549866 0.515076
0.272005 0.591288 0.559182
0.375503 0.632301 0.599984
0.483983 0.669311 0.633076
0.598858 0.713836 0.670813
0.714168 0.753810 0.702834
0.813731 0.786171 0.727415
0.169692 0.660636 0.581551
0.250161 0.690580 0.617503
0.355014 0.724189 0.656047
0.466097 0.754471 0.688709
0.569725 0.777122 0.710406
0.658509 0.793734 0.723445
0.755140 0.816504 0.740777
0.838255 0.835361 0.754732
0.239186 0.783146 0.682134
0.336928 0.805516 0.709942
0.453499 0.828698 0.738078
0.567519 0.847864 0.760284
0.663634 0.859955 0.772688
0.735388 0.865167 0.775913
0.801382 0.871846 0.779197
0.861734 0.878232 0.781933
0.327674 0.876870 0.763872
0.436991 0.891154 0.781183
0.558381 0.904768 0.798094
0.669057 0.914903 0.810800
0.753557 0.919835 0.816823
0.808537 0.919724 0.815669
0.850492 0.918069 0.811770
0.889384 0.916981 0.807819
0.031447 0.053889 0.174461
0.045474 0.055268 0.186116
0.061993 0.059221 0.203231
0.084016 0.069738 0.232990
0.117467 0.091902 0.282789
0.187028 0.141655 0.370994
0.303559 0.224645 0.478826
0.454699 0.340384 0.589114
0.043601 0.155133 0.273632
0.069328 0.170369 0.292949
0.100558 0.189274 0.319643
0.143399 0.219044 0.359423
0.204623 0.265128 0.416492
0.302924 0.333710 0.496127
0.436183 0.418446 0.580875
0.587168 0.516206 0.660454
0.064504 0.282145 0.372953
0.098723 0.301884 0.394178
0.147939 0.328442 0.423812
0.212877 0.366993 0.465616
0.295673 0.420732 0.521322
0.409905 0.490760 0.589013
0.546617 0.565528 0.653540
0.687278 0.641263 0.709512
0.095206 0.418845 0.466848
0.136652 0.438734 0.487805
0.200931 0.467553 0.517224
0.284887 0.506725 0.556175
0.385980 0.556774 0.604407
0.506326 0.617526 0.658357
0.637069 0.676258 0.705375
0.760987 0.729627 0.743328
0.135678 0.553633 0.553215
0.185318 0.572948 0.574280
0.259245 0.600312 0.602685
0.356672 0.634409 0.636547
0.473132 0.674048 0.673976
0.590519 0.718973 0.712514
0.708810 0.759927 0.744304
0.813021 0.793563 0.768445
0.183802 0.684084 0.640682
0.247862 0.702672 0.662573
0.335412 0.725956 0.688497
0.442819 0.752803 0.717176
0.561203 0.780558 0.745538
0.656635 0.798716 0.760949
0.755850 0.821914 0.778455
0.841488 0.841238 0.792110
0.247575 0.794378 0.723616
0.327199 0.809433 0.742036
0.427088 0.826534 0.762244
0.541013 0.844937 0.783352
0.657593 0.862460 0.802798
0.736968 0.869316 0.808988
0.805458 0.876472 0.813316
0.867086 0.883130 0.816308
0.326631 0.878964 0.791164
0.418662 0.889775 0.804032
0.526315 0.900918 0.817413
0.641057 0.912129 0.831008
0.750089 0.922029 0.843174
0.812714 0.923440 0.845320
0.856928 0.922303 0.843079
0.896307 0.921419 0.839931
0.032959 0.061074 0.231935
0.047279 0.062891 0.246078
0.063676 0.066454 0.263296
0.084675 0.074897 0.289006
0.113862 0.092689 0.329401
0.163664 0.135123 0.401798
0.259338 0.212015 0.505898
0.393682 0.322612 0.616216
0.045553 0.179735 0.347059
0.070326 0.192691 0.363426
0.099384 0.207281 0.385186
0.138255 0.229662 0.416185
0.192581 0.265862 0.460535
0.276222 0.329053 0.529575
0.396178 0.411505 0.612876
0.539272 0.507887 0.693204
0.069383 0.320329 0.454974
0.102285 0.335710 0.470698
0.146571 0.354672 0.492056
0.203897 0.382163 0.522255
0.277522 0.423108 0.564296
0.383397 0.489108 0.625320
0.513223 0.563909 0.689534
0.652379 0.640474 0.746413
0.104464 0.465432 0.552113
0.144546 0.479528 0.566304
0.201767 0.498581 0.585499
0.274776 0.524757 0.611572
0.364172 0.561156 0.646581
0.482724 0.619297 0.696933
0.611705 0.679061 0.744047
0.738421 0.734161 0.782729
0.150150 0.600898 0.635956
0.197378 0.613485 0.649064
0.262808 0.630458 0.666517
0.346832 0.651718 0.687707
0.449299 0.678942 0.713398
0.572101 0.723593 0.751496
0.692711 0.765721 0.783639
0.802195 0.801035 0.808259
0.205154 0.713199 0.703224
0.259209 0.723925 0.715572
0.332597 0.738737 0.731526
0.424466 0.757194 0.750564
0.532100 0.778737 0.771933
0.646999 0.802628 0.793931
0.753425 0.828000 0.813431
0.844265 0.848818 0.827886
0.267390 0.810466 0.768764
0.332722 0.819454 0.779739
0.416690 0.830919 0.792768
0.515839 0.844374 0.807519
0.624972 0.859021 0.823241
0.730405 0.872515 0.837189
0.807079 0.881604 0.844258
0.872826 0.889407 0.848618
0.338865 0.884952 0.821620
0.415065 0.892137 0.830244
0.507645 0.900380 0.839752
0.610569 0.909324 0.850051
0.716550 0.918458 0.860762
0.808675 0.926333 0.870175
0.860781 0.926679 0.870954
0.902850 0.926485 0.869516
0.033211 0.069991 0.302958
0.047946 0.072613 0.319345
0.064689 0.076497 0.337201
0.085679 0.084128 0.360274
0.113729 0.099208 0.393171
0.157676 0.134812 0.449638
0.235928 0.208837 0.540329
0.352110 0.316489 0.643847
0.047098 0.208144 0.429279
0.072172 0.220790 0.444151
0.100125 0.233316 0.462809
0.136301 0.250882 0.487376
0.185887 0.278755 0.520678
0.260369 0.328920 0.572485
0.370158 0.409630 0.646567
0.504242 0.505992 0.723224
0.074709 0.361973 0.540771
0.108080 0.375838 0.553548
0.149494 0.390683 0.569584
0.201211 0.410812 0.591296
0.266821 0.440705 0.621147
0.361167 0.491137 0.665495
0.487402 0.564635 0.723607
0.624966 0.642610 0.778743
0.115276 0.513682 0.635879
0.155828 0.525195 0.646550
0.208799 0.538753 0.659369
0.273707 0.556522 0.676423
0.352044 0.581527 0.699890
0.457517 0.624171 0.735423
0.588454 0.682849 0.778839
0.719173 0.739830 0.816969
0.167245 0.648818 0.713538
0.214412 0.658088 0.722503
0.274831 0.669060 0.733343
0.349046 0.682199 0.746111
0.437851 0.699410 0.761975
0.547041 0.730760 0.788189
0.673943 0.772235 0.818690
0.791220 0.809385 0.843623
0.227420 0.751995 0.769755
0.279961 0.759216 0.777602
0.346803 0.768346 0.787145
0.427594 0.779463 0.798361
0.521115 0.792759 0.811284
0.624744 0.809543 0.826629
0.740638 0.835610 0.846776
0.841274 0.857997 0.862487
0.290274 0.831337 0.815158
0.348388 0.836725 0.821728
0.421520 0.843870 0.829698
0.507875 0.852603 0.839018
0.604667 0.862682 0.849526
0.705515 0.873705 0.860761
0.797537 0.885888 0.871481
0.875397 0.896490 0.878970
0.357162 0.892730 0.852164
0.421934 0.896966 0.857298
0.501462 0.902439 0.863509
0.591954 0.908937 0.870734
0.688842 0.916220 0.878857
0.782587 0.923945 0.887675
0.853689 0.928773 0.893594
0.908120 0.931767 0.896103
0.032392 0.080791 0.385702
0.047803 0.084688 0.402620
0.065279 0.089656 0.420566
0.086782 0.097472 0.441410
0.114776 0.111026 0.467943
0.157076 0.141166 0.510042
0.225768 0.208294 0.581094
0.328360 0.314357 0.672823
0.048456 0.240435 0.516165
0.074812 0.253686 0.529518
0.102614 0.265907 0.545919
0.137097 0.280865 0.565745
0.183199 0.302549 0.590244
0.250986 0.340352 0.626181
0.351036 0.410248 0.683230
0.478576 0.504986 0.751492
0.080845 0.406827 0.625529
0.115914 0.420645 0.636340
0.156139 0.433589 0.648908
0.203995 0.449260 0.664721
0.263063 0.471185 0.685253
0.346638 0.506635 0.714109
0.463647 0.567925 0.758122
0.600173 0.644030 0.807319
0.127828 0.562944 0.714156
0.170163 0.573732 0.722877
0.221142 0.584329 0.731834
0.280497 0.596968 0.743001
0.349782 0.614120 0.758078
0.441373 0.642094 0.779827
0.563961 0.689215 0.812231
0.697605 0.744279 0.846373
0.186776 0.695350 0.782698
0.235434 0.703238 0.789465
0.293420 0.711065 0.796527
0.361054 0.719457 0.804192
0.439025 0.729907 0.813380
0.532442 0.748992 0.828529
0.652025 0.781121 0.851150
0.774699 0.816759 0.873873
0.252337 0.789702 0.828743
0.305896 0.795419 0.834216
0.369481 0.801238 0.839968
0.442790 0.807649 0.846234
0.524910 0.815193 0.853290
0.613870 0.825269 0.861952
0.723775 0.845289 0.877475
0.830764 0.866878 0.892716
0.316398 0.854445 0.859247
0.372470 0.858246 0.863489
0.439735 0.862658 0.868280
0.517084 0.867896 0.873722
0.602625 0.874097 0.879893
0.691857 0.881433 0.887017
0.783947 0.892395 0.896829
0.870709 0.904380 0.906494
0.378947 0.903667 0.882968
0.437366 0.906035 0.885698
0.507980 0.909343 0.889425
0.588323 0.913559 0.894032
0.675232 0.918627 0.899444
0.761974 0.924544 0.905877
0.839540 0.930913 0.913088
0.905465 0.936637 0.919247
