Assets/1__3DArt/KimSe/artstation_asset/LUTs_subway_asset/CUBE/Paranormal 01_S.cube
# LUT by SparkleStock. Enhanced with VOXCOLOR algorithms.
LUT_3D_SIZE 5
DOMAIN_MIN 0.000000 0.000000 0.000000
DOMAIN_MAX 0.903226 0.903226 0.903226
0.031258 0.058608 0.085958
0.096105 0.101642 0.132601
0.223435 0.177644 0.208177
0.424790 0.292465 0.312324
0.653811 0.424601 0.408074
0.044437 0.179314 0.164118
0.165414 0.248770 0.193247
0.337441 0.320086 0.233499
0.543477 0.421878 0.321387
0.732457 0.551505 0.442629
0.077175 0.387325 0.304793
0.233270 0.451774 0.337912
0.414723 0.501632 0.341591
0.613886 0.570464 0.392679
0.780579 0.669008 0.502503
0.188263 0.636819 0.488432
0.374310 0.674630 0.520860
0.535896 0.701675 0.526523
0.672566 0.722130 0.521229
0.811601 0.773701 0.581445
0.443988 0.817653 0.648911
0.601512 0.832599 0.668881
0.706243 0.840145 0.670728
0.779390 0.844189 0.661626
0.844667 0.851893 0.660150
0.045193 0.079184 0.132884
0.092159 0.094364 0.161734
0.197882 0.144914 0.229134
0.364118 0.251485 0.340172
0.587725 0.419580 0.484748
0.055175 0.213429 0.231794
0.172447 0.255716 0.269712
0.343798 0.297057 0.302228
0.547081 0.373456 0.369676
0.742971 0.515096 0.491876
0.068250 0.399656 0.364535
0.230067 0.461800 0.406451
0.419243 0.491334 0.389515
0.624252 0.530013 0.407244
0.807125 0.620058 0.496966
0.135392 0.626921 0.530496
0.362894 0.684874 0.582904
0.540463 0.706939 0.569647
0.678310 0.713399 0.525688
0.837433 0.747677 0.552434
0.335413 0.813998 0.685765
0.588448 0.840598 0.722788
0.722472 0.853428 0.727273
0.798187 0.856721 0.703484
0.865970 0.859367 0.675747
0.057655 0.106960 0.188625
0.091319 0.116422 0.210562
0.158428 0.147666 0.268556
0.289580 0.235465 0.378533
0.484902 0.397686 0.534101
0.078790 0.269485 0.323997
0.167882 0.292910 0.358468
0.313029 0.327596 0.415516
0.503408 0.391277 0.482518
0.701539 0.521554 0.590134
0.090400 0.455634 0.466886
0.215520 0.486209 0.494318
0.410709 0.510956 0.511987
0.623264 0.528790 0.522730
0.819221 0.596425 0.581401
0.139372 0.652356 0.607568
0.319449 0.689122 0.641307
0.529890 0.716940 0.653119
0.681718 0.715543 0.599133
0.857957 0.729551 0.598722
0.291640 0.818354 0.733759
0.524278 0.840382 0.762627
0.715531 0.860953 0.783625
0.809236 0.867788 0.758075
0.884021 0.867568 0.712540
0.074560 0.142983 0.265028
0.103964 0.153856 0.285276
0.148226 0.177307 0.326881
0.230127 0.243415 0.425464
0.393896 0.387752 0.582148
0.108409 0.335100 0.431301
0.174758 0.354034 0.457313
0.276009 0.383230 0.503836
0.435051 0.452493 0.591516
0.634082 0.562075 0.688610
0.129962 0.532317 0.584818
0.230410 0.549470 0.603972
0.385186 0.568754 0.630471
0.585919 0.600900 0.683446
0.789630 0.644520 0.723723
0.177618 0.696908 0.699897
0.312192 0.713223 0.714857
0.494631 0.730700 0.731110
0.684466 0.738934 0.738298
0.866108 0.734962 0.729910
0.302371 0.831744 0.790146
0.484523 0.845424 0.806200
0.668525 0.861442 0.825239
0.814305 0.877251 0.837666
0.894884 0.875852 0.797431
0.098058 0.189113 0.370609
0.126850 0.204843 0.395548
0.165738 0.226730 0.432014
0.228471 0.273276 0.498957
0.349628 0.392017 0.638166
0.142913 0.407621 0.555743
0.200800 0.427487 0.576074
0.274197 0.451971 0.606587
0.389608 0.501476 0.661573
0.579532 0.608479 0.761022
0.177978 0.610034 0.702838
0.270944 0.625507 0.717977
0.391572 0.642502 0.736004
0.537878 0.671735 0.770880
0.739324 0.730810 0.829441
0.234652 0.758759 0.797557
0.362290 0.770873 0.809297
0.510538 0.783577 0.822539
0.662545 0.796841 0.837700
0.838568 0.814664 0.864483
0.344725 0.851003 0.847827
0.495656 0.859559 0.856025
0.648790 0.870148 0.868474
0.784792 0.882648 0.883027
0.894566 0.893457 0.890550
