Assets/1__3DArt/KimSe/artstation_asset/LUTs_subway_asset/CUBE/Paranormal 02.cube
# LUT by SparkleStock. Enhanced with VOXCOLOR algorithms.
LUT_3D_SIZE 5
DOMAIN_MIN 0.000000 0.000000 0.000000
DOMAIN_MAX 0.903226 0.903226 0.903226
0.019536 0.027350 0.042979
0.077656 0.059262 0.087085
0.212076 0.124298 0.172334
0.446382 0.241427 0.293080
0.704541 0.398275 0.398133
0.047461 0.149679 0.113766
0.151013 0.251282 0.193425
0.321844 0.362528 0.292266
0.556252 0.489281 0.405918
0.772180 0.603289 0.493057
0.107881 0.401126 0.278530
0.239691 0.491525 0.357379
0.407944 0.573813 0.424388
0.626544 0.671117 0.510363
0.814031 0.743558 0.575749
0.225460 0.698799 0.517027
0.379189 0.744956 0.564758
0.535448 0.778821 0.593154
0.685059 0.803619 0.609180
0.841658 0.840948 0.646258
0.409540 0.894238 0.707157
0.566909 0.904639 0.716966
0.693076 0.906243 0.714748
0.790374 0.904727 0.705684
0.871986 0.905311 0.701296
0.025562 0.039088 0.087211
0.058683 0.050465 0.115040
0.142296 0.097427 0.198478
0.331341 0.204459 0.344419
0.613948 0.393776 0.509226
0.048857 0.179966 0.194285
0.135683 0.261157 0.280238
0.281958 0.361368 0.380538
0.503602 0.487509 0.497956
0.744034 0.616269 0.594404
0.094424 0.408486 0.344623
0.230946 0.504090 0.447070
0.402518 0.584665 0.519738
0.609720 0.675117 0.597636
0.803433 0.749184 0.657743
0.183884 0.681914 0.552033
0.374124 0.749994 0.634723
0.546947 0.788393 0.673033
0.693107 0.810582 0.688836
0.841591 0.842718 0.714588
0.347540 0.879792 0.735424
0.561690 0.906201 0.768520
0.713353 0.914783 0.777958
0.810429 0.914150 0.773234
0.881203 0.911879 0.765413
0.030336 0.050510 0.151396
0.056834 0.055220 0.174868
0.103651 0.080638 0.238063
0.231349 0.165609 0.383038
0.489852 0.352558 0.574177
0.056421 0.231602 0.311197
0.124318 0.276965 0.361886
0.240616 0.355539 0.448104
0.433416 0.476485 0.568245
0.685235 0.616664 0.678689
0.108874 0.465913 0.469976
0.211553 0.517150 0.524472
0.382010 0.590930 0.596595
0.588421 0.681151 0.675969
0.793471 0.759512 0.734815
0.190027 0.704258 0.634451
0.338191 0.747063 0.685200
0.535397 0.792915 0.735081
0.697429 0.819012 0.757920
0.846223 0.849665 0.779936
0.326204 0.877639 0.777292
0.511291 0.899519 0.803735
0.707567 0.917968 0.826479
0.824066 0.921539 0.830553
0.892873 0.919155 0.824056
0.033211 0.063043 0.247658
0.059720 0.067497 0.275109
0.097819 0.083327 0.321495
0.175579 0.147779 0.431688
0.380372 0.319334 0.623045
0.063265 0.292098 0.449401
0.122864 0.319711 0.479238
0.216178 0.366331 0.531925
0.378561 0.469865 0.629988
0.618783 0.612495 0.744137
0.129807 0.546932 0.616110
0.216447 0.570599 0.639886
0.353769 0.608405 0.677300
0.553349 0.687010 0.745083
0.767825 0.770607 0.805398
0.225273 0.747097 0.734820
0.332100 0.764774 0.754735
0.494580 0.793120 0.783785
0.690782 0.827857 0.817074
0.854075 0.862074 0.841533
0.342529 0.886629 0.829243
0.480292 0.898501 0.843230
0.657006 0.913282 0.860078
0.825486 0.927955 0.877394
0.904358 0.927773 0.876612
0.032392 0.080791 0.385702
0.060698 0.088304 0.415974
0.099757 0.103065 0.453565
0.170290 0.152400 0.523462
0.328360 0.314357 0.672823
0.071067 0.364535 0.600360
0.131476 0.389310 0.621774
0.212008 0.419016 0.652806
0.346065 0.480472 0.704357
0.572720 0.614579 0.795714
0.156830 0.631865 0.750034
0.242440 0.648033 0.763679
0.356310 0.666712 0.780427
0.513695 0.705203 0.810768
0.737654 0.782116 0.860741
0.268577 0.810329 0.838700
0.370662 0.819543 0.847919
0.503648 0.830284 0.858550
0.657798 0.845324 0.871991
0.843168 0.878146 0.896920
0.378947 0.903667 0.882968
0.489071 0.908419 0.888390
0.631790 0.916033 0.896665
0.782742 0.926069 0.907563
0.905465 0.936637 0.919247
