Assets/1__3DArt/KimSe/artstation_asset/LUTs_subway_asset/CUBE/Paranormal 04_S.cube
# LUT by SparkleStock. Enhanced with VOXCOLOR algorithms.
LUT_3D_SIZE 32
0.066422 0.070330 0.085958
0.072756 0.073591 0.091536
0.079089 0.076852 0.097113
0.085423 0.080113 0.102690
0.091756 0.083375 0.108267
0.098090 0.086636 0.113845
0.109307 0.093363 0.122100
0.121501 0.100784 0.130891
0.133696 0.108204 0.139683
0.145890 0.115625 0.148474
0.158084 0.123045 0.157265
0.176108 0.134121 0.168766
0.197046 0.147024 0.181622
0.217984 0.159928 0.194478
0.238922 0.172831 0.207334
0.259861 0.185734 0.220190
0.285123 0.201426 0.234464
0.314711 0.219906 0.250156
0.344299 0.238387 0.265847
0.373886 0.256867 0.281539
0.403474 0.275348 0.297231
0.434479 0.294947 0.312860
0.468321 0.316783 0.328363
0.502162 0.338619 0.343865
0.536004 0.360455 0.359368
0.569845 0.382292 0.374871
0.602970 0.403844 0.389531
0.632510 0.423979 0.399976
0.662050 0.444114 0.410422
0.691591 0.464248 0.420867
0.721131 0.484383 0.431313
0.750672 0.504518 0.441758
0.068313 0.083044 0.094324
0.075900 0.087622 0.099728
0.083486 0.092201 0.105131
0.091073 0.096780 0.110535
0.098660 0.101358 0.115938
0.106247 0.105937 0.121341
0.118664 0.113082 0.128996
0.132048 0.120740 0.137101
0.145431 0.128399 0.145206
0.158815 0.136057 0.153312
0.172198 0.143715 0.161417
0.191155 0.154821 0.172262
0.212898 0.167651 0.184478
0.234641 0.180482 0.196693
0.256384 0.193312 0.208909
0.278128 0.206142 0.221124
0.303811 0.221682 0.234964
0.333435 0.239934 0.250427
0.363060 0.258186 0.265890
0.392684 0.276438 0.281353
0.422308 0.294689 0.296816
0.453100 0.314072 0.312424
0.486228 0.335716 0.328320
0.519356 0.357360 0.344216
0.552484 0.379004 0.360112
0.585612 0.400648 0.376008
0.617954 0.422033 0.391171
0.646369 0.442122 0.402669
0.674784 0.462211 0.414166
0.703200 0.482300 0.425664
0.731615 0.502389 0.437161
0.760030 0.522478 0.448659
0.070204 0.095758 0.102690
0.079044 0.101654 0.107920
0.087884 0.107550 0.113149
0.096724 0.113446 0.118379
0.105564 0.119341 0.123609
0.114404 0.125237 0.128838
0.128021 0.132800 0.135892
0.142594 0.140696 0.143311
0.157166 0.148593 0.150730
0.171739 0.156489 0.158149
0.186312 0.164385 0.165568
0.206202 0.175522 0.175758
0.228750 0.188279 0.187333
0.251298 0.201036 0.198909
0.273846 0.213792 0.210484
0.296395 0.226549 0.222059
0.322499 0.241939 0.235464
0.352160 0.259962 0.250698
0.381821 0.277985 0.265933
0.411481 0.296008 0.281167
0.441142 0.314031 0.296402
0.471721 0.333197 0.311988
0.504135 0.354649 0.328277
0.536550 0.376101 0.344567
0.568964 0.397553 0.360856
0.601378 0.419005 0.377146
0.632939 0.440223 0.392812
0.660229 0.460266 0.405361
0.687518 0.480309 0.417911
0.714808 0.500352 0.430460
0.742098 0.520396 0.443010
0.769388 0.540439 0.455559
0.072094 0.108472 0.111056
0.082187 0.115685 0.116112
0.092281 0.122899 0.121168
0.102374 0.130112 0.126223
0.112467 0.137325 0.131279
0.122561 0.144538 0.136335
0.137378 0.152519 0.142788
0.153140 0.160653 0.149521
0.168902 0.168787 0.156254
0.184664 0.176921 0.162987
0.200426 0.185055 0.169720
0.221248 0.196222 0.179254
0.244602 0.208906 0.190189
0.267955 0.221589 0.201124
0.291308 0.234273 0.212059
0.314662 0.246957 0.222994
0.341187 0.262196 0.235964
0.370884 0.279990 0.250970
0.400582 0.297785 0.265975
0.430279 0.315579 0.280981
0.459976 0.333373 0.295987
0.490342 0.352323 0.311552
0.522042 0.373583 0.328235
0.553743 0.394843 0.344917
0.585444 0.416102 0.361600
0.617145 0.437362 0.378283
0.647923 0.458412 0.394453
0.674088 0.478409 0.408054
0.700252 0.498407 0.421656
0.726417 0.518404 0.435257
0.752582 0.538402 0.448859
0.778747 0.558399 0.462460
0.073985 0.121186 0.119422
0.085331 0.129717 0.124304
0.096678 0.138247 0.129186
0.108024 0.146778 0.134068
0.119371 0.155308 0.138950
0.130718 0.163839 0.143832
0.146735 0.172237 0.149684
0.163686 0.180609 0.155731
0.180637 0.188981 0.161778
0.197588 0.197353 0.167825
0.214539 0.205725 0.173872
0.236295 0.216922 0.182750
0.260454 0.229533 0.193045
0.284612 0.242143 0.203339
0.308770 0.254754 0.213634
0.332929 0.267364 0.223928
0.359875 0.282453 0.236464
0.389609 0.300018 0.251241
0.419343 0.317584 0.266018
0.449077 0.335149 0.280795
0.478811 0.352715 0.295572
0.508962 0.371448 0.311116
0.539950 0.392516 0.328192
0.570937 0.413584 0.345268
0.601924 0.434652 0.362344
0.632911 0.455719 0.379421
0.662907 0.476601 0.396093
0.687947 0.496553 0.410747
0.712986 0.516505 0.425400
0.738026 0.536456 0.440054
0.763066 0.556408 0.454707
0.788105 0.576360 0.469361
0.075875 0.133901 0.127788
0.088475 0.143748 0.132496
0.101075 0.153596 0.137204
0.113675 0.163444 0.141912
0.126275 0.173292 0.146620
0.138874 0.183140 0.151328
0.156091 0.191956 0.156580
0.174232 0.200565 0.161941
0.192372 0.209175 0.167302
0.210513 0.217785 0.172663
0.228653 0.226395 0.178023
0.251342 0.237623 0.186246
0.276306 0.250160 0.195900
0.301269 0.262697 0.205555
0.326232 0.275235 0.215209
0.351196 0.287772 0.224863
0.378562 0.302709 0.236964
0.408333 0.320046 0.251513
0.438104 0.337383 0.266061
0.467874 0.354720 0.280609
0.497645 0.372057 0.295158
0.527583 0.390574 0.310680
0.557857 0.411449 0.328149
0.588130 0.432325 0.345619
0.618404 0.453201 0.363088
0.648678 0.474076 0.380558
0.677892 0.494790 0.397734
0.701806 0.514696 0.413439
0.725720 0.534602 0.429145
0.749635 0.554508 0.444850
0.773549 0.574414 0.460556
0.797463 0.594320 0.476261
0.078908 0.155398 0.142298
0.092289 0.165709 0.147328
0.105669 0.176021 0.152358
0.119050 0.186332 0.157387
0.132430 0.196643 0.162417
0.145810 0.206954 0.167447
0.163736 0.216021 0.171959
0.182570 0.224838 0.176366
0.201404 0.233655 0.180774
0.220238 0.242472 0.185182
0.239072 0.251289 0.189590
0.262255 0.262380 0.196967
0.287611 0.274608 0.205828
0.312968 0.286836 0.214689
0.338325 0.299063 0.223551
0.363682 0.311291 0.232412
0.391244 0.325807 0.243854
0.421013 0.342610 0.257876
0.450782 0.359413 0.271899
0.480552 0.376217 0.285921
0.510321 0.393020 0.299943
0.540109 0.410995 0.315101
0.569936 0.431313 0.332529
0.599763 0.451630 0.349958
0.629590 0.471948 0.367386
0.659417 0.492266 0.384815
0.688147 0.512452 0.402044
0.711394 0.531985 0.418275
0.734640 0.551517 0.434507
0.757887 0.571050 0.450738
0.781133 0.590582 0.466970
0.804380 0.610115 0.483201
0.082169 0.178652 0.158037
0.096236 0.189256 0.163488
0.110303 0.199860 0.168938
0.124369 0.210464 0.174389
0.138436 0.221068 0.179840
0.152502 0.231672 0.185290
0.171037 0.240955 0.189033
0.190466 0.249973 0.192435
0.209895 0.258992 0.195836
0.229324 0.268010 0.199238
0.248752 0.277029 0.202639
0.272340 0.287949 0.209132
0.298008 0.299820 0.217170
0.323676 0.311691 0.225208
0.349344 0.323562 0.233246
0.375011 0.335433 0.241284
0.402725 0.349473 0.252022
0.432485 0.365681 0.265458
0.462245 0.381890 0.278895
0.492005 0.398099 0.292332
0.521765 0.414307 0.305769
0.551416 0.431675 0.320494
0.580849 0.451362 0.337794
0.610283 0.471048 0.355094
0.639717 0.490735 0.372395
0.669150 0.510421 0.389695
0.697457 0.530009 0.406887
0.720127 0.549102 0.423540
0.742797 0.568196 0.440192
0.765467 0.587289 0.456845
0.788138 0.606382 0.473497
0.810808 0.625476 0.490149
0.085431 0.201906 0.173776
0.100183 0.212803 0.179648
0.114936 0.223700 0.185519
0.129689 0.234597 0.191390
0.144441 0.245493 0.197262
0.159194 0.256390 0.203133
0.178339 0.265889 0.206108
0.198362 0.275109 0.208503
0.218386 0.284329 0.210899
0.238409 0.293548 0.213294
0.258432 0.302768 0.215689
0.282426 0.313517 0.221297
0.308405 0.325032 0.228512
0.334384 0.336546 0.235727
0.360362 0.348060 0.242941
0.386341 0.359574 0.250156
0.414206 0.373138 0.260189
0.443957 0.388753 0.273041
0.473707 0.404367 0.285892
0.503458 0.419981 0.298743
0.533209 0.435595 0.311595
0.562723 0.452356 0.325886
0.591763 0.471411 0.343059
0.620803 0.490466 0.360231
0.649844 0.509522 0.377403
0.678884 0.528577 0.394576
0.706766 0.547565 0.411731
0.728860 0.566220 0.428804
0.750954 0.584874 0.445878
0.773048 0.603528 0.462951
0.795142 0.622182 0.480024
0.817236 0.640837 0.497097
0.088692 0.225161 0.189515
0.104131 0.236350 0.195807
0.119569 0.247540 0.202100
0.135008 0.258729 0.208392
0.150447 0.269919 0.214684
0.165886 0.281108 0.220977
0.185640 0.290824 0.223183
0.206258 0.300245 0.224572
0.226877 0.309665 0.225961
0.247495 0.319086 0.227350
0.268113 0.328507 0.228739
0.292512 0.339086 0.233463
0.318802 0.350243 0.239854
0.345091 0.361401 0.246245
0.371381 0.372558 0.252637
0.397671 0.383716 0.259028
0.425687 0.396804 0.268357
0.455428 0.411824 0.280623
0.485170 0.426843 0.292889
0.514911 0.441863 0.305155
0.544653 0.456882 0.317420
0.574030 0.473036 0.331279
0.602677 0.491460 0.348323
0.631323 0.509885 0.365368
0.659970 0.528309 0.382412
0.688617 0.546733 0.399456
0.716076 0.565122 0.416575
0.737593 0.583337 0.434069
0.759111 0.601552 0.451563
0.780629 0.619767 0.469057
0.802146 0.637982 0.486551
0.823664 0.656198 0.504045
0.091953 0.248415 0.205254
0.108078 0.259897 0.211967
0.124203 0.271379 0.218680
0.140328 0.282861 0.225394
0.156453 0.294344 0.232107
0.172577 0.305826 0.238820
0.192942 0.315758 0.240257
0.214155 0.325380 0.240640
0.235367 0.335002 0.241023
0.256580 0.344624 0.241406
0.277793 0.354247 0.241788
0.302597 0.364654 0.245628
0.329198 0.375455 0.251196
0.355799 0.386256 0.256764
0.382400 0.397057 0.262332
0.409001 0.407857 0.267900
0.437167 0.420470 0.276524
0.466900 0.434895 0.288205
0.496632 0.449320 0.299885
0.526365 0.463745 0.311566
0.556097 0.478169 0.323246
0.585337 0.493717 0.336672
0.613590 0.511510 0.353588
0.641844 0.529303 0.370504
0.670097 0.547095 0.387420
0.698351 0.564888 0.404336
0.725386 0.582678 0.421419
0.746327 0.600454 0.439334
0.767268 0.618230 0.457249
0.788209 0.636006 0.475163
0.809151 0.653782 0.493078
0.830092 0.671559 0.510993
0.097641 0.277939 0.225972
0.114635 0.289403 0.232990
0.131629 0.300867 0.240008
0.148622 0.312331 0.247026
0.165616 0.323795 0.254044
0.182610 0.335259 0.261062
0.203417 0.345117 0.262464
0.224986 0.354654 0.262743
0.246556 0.364190 0.263022
0.268125 0.373727 0.263301
0.289695 0.383264 0.263580
0.314342 0.393210 0.266523
0.340528 0.403362 0.270799
0.366714 0.413513 0.275074
0.392900 0.423664 0.279349
0.419086 0.433815 0.283624
0.446953 0.445742 0.291175
0.476499 0.459444 0.302002
0.506045 0.473146 0.312828
0.535592 0.486848 0.323655
0.565138 0.500551 0.334481
0.594131 0.515343 0.347163
0.622015 0.532315 0.363555
0.649900 0.549288 0.379946
0.677785 0.566260 0.396338
0.705669 0.583233 0.412730
0.732329 0.600227 0.429352
0.752865 0.617326 0.447126
0.773400 0.634425 0.464901
0.793936 0.651524 0.482675
0.814472 0.668623 0.500450
0.835007 0.685722 0.518224
0.104541 0.310599 0.249179
0.122496 0.321889 0.256444
0.140450 0.333179 0.263709
0.158405 0.344469 0.270974
0.176359 0.355760 0.278239
0.194314 0.367050 0.285504
0.215479 0.376688 0.287237
0.237286 0.385996 0.287864
0.259093 0.395304 0.288490
0.280900 0.404612 0.289117
0.302708 0.413920 0.289743
0.326916 0.423260 0.291784
0.352324 0.432615 0.294531
0.377733 0.441971 0.297279
0.403141 0.451326 0.300026
0.428550 0.460681 0.302774
0.455890 0.471817 0.309067
0.485162 0.484732 0.318905
0.514434 0.497648 0.328744
0.543706 0.510563 0.338583
0.572978 0.523478 0.348421
0.601669 0.537441 0.360203
0.629197 0.553499 0.375872
0.656724 0.569557 0.391541
0.684252 0.585615 0.407210
0.711780 0.601672 0.422879
0.738089 0.617771 0.438829
0.758305 0.634074 0.456183
0.778520 0.650377 0.473537
0.798736 0.666681 0.490890
0.818951 0.682984 0.508244
0.839167 0.699287 0.525598
0.111442 0.343259 0.272386
0.130357 0.354375 0.279898
0.149272 0.365492 0.287410
0.168187 0.376608 0.294922
0.187102 0.387724 0.302434
0.206017 0.398840 0.309946
0.227540 0.408259 0.312010
0.249585 0.417339 0.312984
0.271630 0.426418 0.313958
0.293676 0.435497 0.314932
0.315721 0.444577 0.315907
0.339490 0.453310 0.317045
0.364121 0.461869 0.318264
0.388752 0.470429 0.319484
0.413382 0.478988 0.320704
0.438013 0.487547 0.321924
0.464828 0.497892 0.326959
0.493825 0.510020 0.335809
0.522823 0.522149 0.344660
0.551820 0.534278 0.353511
0.580818 0.546406 0.362361
0.609207 0.559540 0.373244
0.636378 0.574683 0.388190
0.663549 0.589826 0.403136
0.690720 0.604969 0.418083
0.717891 0.620112 0.433029
0.743849 0.635315 0.448306
0.763745 0.650823 0.465239
0.783640 0.666330 0.482172
0.803535 0.681837 0.499105
0.823431 0.697345 0.516038
0.843326 0.712852 0.532971
0.118343 0.375919 0.295593
0.138218 0.386861 0.303352
0.158094 0.397804 0.311111
0.177969 0.408746 0.318870
0.197845 0.419689 0.326629
0.217720 0.430631 0.334388
0.239602 0.439831 0.336782
0.261885 0.448681 0.338104
0.284168 0.457532 0.339426
0.306451 0.466383 0.340748
0.328734 0.475233 0.342070
0.352064 0.483359 0.342305
0.375917 0.491123 0.341997
0.399770 0.498886 0.341689
0.423624 0.506650 0.341381
0.447477 0.514414 0.341073
0.473765 0.523966 0.344851
0.502488 0.535308 0.352713
0.531212 0.546650 0.360576
0.559935 0.557992 0.368439
0.588658 0.569334 0.376301
0.616745 0.581638 0.386284
0.643559 0.595866 0.400508
0.670373 0.610095 0.414732
0.697187 0.624323 0.428955
0.724002 0.638551 0.443179
0.749609 0.652860 0.457784
0.769185 0.667571 0.474296
0.788760 0.682283 0.490808
0.808335 0.696994 0.507320
0.827910 0.711705 0.523832
0.847485 0.726417 0.540344
0.125243 0.408579 0.318799
0.146079 0.419347 0.326805
0.166915 0.430116 0.334811
0.187751 0.440885 0.342818
0.208587 0.451653 0.350824
0.229423 0.462422 0.358830
0.251663 0.471402 0.361555
0.274184 0.480024 0.363225
0.296705 0.488646 0.364894
0.319226 0.497268 0.366564
0.341747 0.505890 0.368233
0.364637 0.513409 0.367566
0.387713 0.520376 0.365730
0.410789 0.527344 0.363894
0.433865 0.534312 0.362059
0.456941 0.541280 0.360223
0.482703 0.550041 0.362743
0.511152 0.560596 0.369617
0.539600 0.571152 0.376492
0.568049 0.581707 0.383367
0.596498 0.592262 0.390241
0.624283 0.603737 0.399325
0.650740 0.617050 0.412826
0.677198 0.630363 0.426327
0.703655 0.643677 0.439828
0.730112 0.656990 0.453328
0.755370 0.670404 0.467261
0.774625 0.684319 0.483352
0.793879 0.698235 0.499444
0.813134 0.712151 0.515535
0.832389 0.726066 0.531626
0.851644 0.739982 0.547718
0.135571 0.442609 0.343897
0.157381 0.453044 0.351999
0.179191 0.463479 0.360101
0.201001 0.473913 0.368203
0.222812 0.484348 0.376305
0.244622 0.494783 0.384407
0.267143 0.503414 0.387347
0.289805 0.511683 0.389254
0.312468 0.519953 0.391162
0.335130 0.528223 0.393069
0.357793 0.536493 0.394976
0.380310 0.543492 0.393959
0.402755 0.549856 0.391478
0.425199 0.556220 0.388997
0.447644 0.562584 0.386517
0.470089 0.568948 0.384036
0.494993 0.576890 0.385531
0.522358 0.586412 0.391001
0.549722 0.595933 0.396472
0.577087 0.605455 0.401942
0.604452 0.614977 0.407413
0.631369 0.625443 0.415234
0.657392 0.637801 0.427756
0.683415 0.650158 0.440278
0.709438 0.662516 0.452800
0.735461 0.674873 0.465322
0.760303 0.687342 0.478316
0.779243 0.700370 0.493666
0.798182 0.713399 0.509016
0.817121 0.726427 0.524367
0.836061 0.739455 0.539717
0.855000 0.752483 0.555067
0.149325 0.478010 0.370885
0.172123 0.487951 0.378932
0.194921 0.497892 0.386979
0.217719 0.507833 0.395027
0.240518 0.517773 0.403074
0.263316 0.527714 0.411121
0.286039 0.535866 0.414158
0.308748 0.543660 0.416194
0.331456 0.551454 0.418229
0.354164 0.559248 0.420265
0.376873 0.567042 0.422300
0.399082 0.573609 0.421483
0.421042 0.579561 0.419240
0.443001 0.585513 0.416998
0.464961 0.591465 0.414755
0.486921 0.597418 0.412512
0.510636 0.604514 0.413216
0.536107 0.612755 0.416866
0.561578 0.620996 0.420516
0.587049 0.629237 0.424166
0.612520 0.637477 0.427816
0.638005 0.646758 0.434012
0.663515 0.658118 0.445299
0.689026 0.669479 0.456586
0.714537 0.680839 0.467873
0.740047 0.692199 0.479160
0.764411 0.703674 0.490947
0.783039 0.715724 0.505237
0.801667 0.727773 0.519526
0.820296 0.739823 0.533815
0.838924 0.751872 0.548104
0.857552 0.763921 0.562393
0.163078 0.513411 0.397873
0.186865 0.522858 0.405865
0.210651 0.532305 0.413858
0.234437 0.541752 0.421850
0.258224 0.551199 0.429842
0.282010 0.560645 0.437835
0.304936 0.568319 0.440969
0.327690 0.575637 0.443133
0.350444 0.582955 0.445296
0.373198 0.590274 0.447460
0.395952 0.597592 0.449623
0.417854 0.603725 0.449008
0.439328 0.609266 0.447003
0.460803 0.614807 0.444998
0.482278 0.620347 0.442993
0.503753 0.625888 0.440988
0.526279 0.632138 0.440901
0.549857 0.639098 0.442730
0.573434 0.646058 0.444560
0.597011 0.653018 0.446389
0.620589 0.659978 0.448219
0.644640 0.668073 0.452789
0.669638 0.678436 0.462842
0.694637 0.688799 0.472894
0.719635 0.699162 0.482946
0.744633 0.709525 0.492998
0.768518 0.720007 0.503579
0.786836 0.731077 0.516807
0.805153 0.742148 0.530035
0.823470 0.753218 0.543263
0.841787 0.764289 0.556491
0.860105 0.775359 0.569719
0.176832 0.548812 0.424861
0.201607 0.557765 0.432799
0.226381 0.566718 0.440736
0.251155 0.575671 0.448673
0.275930 0.584624 0.456611
0.300704 0.593577 0.464548
0.323833 0.600771 0.467781
0.346632 0.607614 0.470072
0.369432 0.614456 0.472364
0.392232 0.621299 0.474655
0.415032 0.628142 0.476947
0.436625 0.633842 0.476533
0.457615 0.638971 0.474766
0.478605 0.644100 0.472999
0.499595 0.649229 0.471232
0.520585 0.654358 0.469464
0.541922 0.659762 0.468585
0.563606 0.665441 0.468595
0.585290 0.671121 0.468604
0.606974 0.676800 0.468613
0.628657 0.682479 0.468622
0.651275 0.689388 0.471567
0.675761 0.698754 0.480384
0.700247 0.708120 0.489201
0.724733 0.717486 0.498019
0.749220 0.726852 0.506836
0.772626 0.736339 0.516211
0.790632 0.746430 0.528378
0.808638 0.756522 0.540545
0.826645 0.766614 0.552712
0.844651 0.776706 0.564878
0.862657 0.786797 0.577045
0.190586 0.584214 0.451849
0.216349 0.592672 0.459732
0.242111 0.601131 0.467614
0.267873 0.609590 0.475497
0.293635 0.618049 0.483379
0.319398 0.626508 0.491262
0.342729 0.633223 0.494592
0.365575 0.639590 0.497012
0.388420 0.645957 0.499431
0.411266 0.652324 0.501851
0.434112 0.658691 0.504270
0.455397 0.663959 0.504058
0.475902 0.668676 0.502528
0.496407 0.673393 0.500999
0.516912 0.678111 0.499470
0.537418 0.682828 0.497941
0.557565 0.687386 0.496270
0.577355 0.691784 0.494459
0.597146 0.696183 0.492648
0.616936 0.700582 0.490836
0.636726 0.704980 0.489025
0.657911 0.710703 0.490345
0.681884 0.719071 0.497927
0.705858 0.727440 0.505509
0.729832 0.735809 0.513091
0.753806 0.744178 0.520674
0.776733 0.752671 0.528843
0.794428 0.761784 0.539949
0.812124 0.770897 0.551054
0.829819 0.780010 0.562160
0.847514 0.789123 0.573266
0.865209 0.798235 0.584371
0.208090 0.617913 0.478617
0.234651 0.625857 0.486322
0.261212 0.633800 0.494028
0.287774 0.641744 0.501734
0.314335 0.649687 0.509439
0.340896 0.657631 0.517145
0.364249 0.663841 0.520443
0.386960 0.669705 0.522860
0.409672 0.675569 0.525276
0.432383 0.681433 0.527693
0.455094 0.687297 0.530109
0.475922 0.692103 0.529987
0.495809 0.696382 0.528595
0.515695 0.700660 0.527203
0.535581 0.704938 0.525811
0.555467 0.709216 0.524419
0.574505 0.713059 0.522218
0.592694 0.716467 0.519208
0.610883 0.719874 0.516199
0.629073 0.723282 0.513189
0.647262 0.726690 0.510179
0.667033 0.731401 0.510233
0.689967 0.738721 0.516412
0.712901 0.746041 0.522592
0.735835 0.753361 0.528771
0.758769 0.760681 0.534950
0.780772 0.768141 0.541758
0.798126 0.776303 0.551705
0.815480 0.784464 0.561652
0.832834 0.792626 0.571599
0.850187 0.800787 0.581545
0.867541 0.808949 0.591492
0.233093 0.648210 0.504943
0.260075 0.655595 0.512228
0.287057 0.662981 0.519513
0.314039 0.670366 0.526798
0.341021 0.677752 0.534082
0.368003 0.685137 0.541367
0.391014 0.690790 0.544374
0.413232 0.696095 0.546525
0.435449 0.701401 0.548677
0.457667 0.706707 0.550828
0.479884 0.712013 0.552979
0.499956 0.716304 0.552726
0.518954 0.720089 0.551270
0.537953 0.723873 0.549814
0.556952 0.727657 0.548358
0.575951 0.731441 0.546902
0.594037 0.734831 0.544692
0.611211 0.737827 0.541728
0.628385 0.740823 0.538764
0.645559 0.743819 0.535800
0.662733 0.746815 0.532836
0.681128 0.750868 0.532340
0.701967 0.757035 0.536782
0.722806 0.763203 0.541223
0.743645 0.769370 0.545664
0.764484 0.775537 0.550106
0.784676 0.781888 0.555239
0.801627 0.789153 0.563832
0.818578 0.796418 0.572425
0.835529 0.803683 0.581018
0.852480 0.810948 0.589611
0.869432 0.818213 0.598204
0.258096 0.678506 0.531269
0.285499 0.685334 0.538133
0.312902 0.692161 0.544998
0.340304 0.698989 0.551862
0.367707 0.705816 0.558726
0.395110 0.712644 0.565590
0.417780 0.717738 0.568305
0.439503 0.722486 0.570191
0.461227 0.727234 0.572077
0.482950 0.731981 0.573963
0.504673 0.736729 0.575849
0.523989 0.740505 0.575465
0.542100 0.743796 0.573945
0.560212 0.747086 0.572424
0.578323 0.750376 0.570904
0.596435 0.753666 0.569384
0.613570 0.756604 0.567165
0.629728 0.759188 0.564247
0.645887 0.761772 0.561329
0.662045 0.764356 0.558410
0.678203 0.766941 0.555492
0.695224 0.770335 0.554448
0.713968 0.775350 0.557151
0.732712 0.780364 0.559854
0.751456 0.785379 0.562558
0.770200 0.790394 0.565261
0.788579 0.795634 0.568720
0.805127 0.802002 0.575959
0.821676 0.808371 0.583198
0.838225 0.814739 0.590437
0.854774 0.821108 0.597676
0.871322 0.827476 0.604916
0.283099 0.708803 0.557596
0.310923 0.715072 0.564039
0.338746 0.721342 0.570482
0.366570 0.727611 0.576925
0.394393 0.733881 0.583369
0.422217 0.740150 0.589812
0.444545 0.744686 0.592236
0.465775 0.748876 0.593857
0.487004 0.753066 0.595478
0.508234 0.757256 0.597099
0.529463 0.761446 0.598719
0.548022 0.764706 0.598203
0.565246 0.767503 0.596619
0.582470 0.770299 0.595035
0.599695 0.773095 0.593451
0.616919 0.775891 0.591867
0.633102 0.778376 0.589639
0.648245 0.780548 0.586766
0.663388 0.782721 0.583894
0.678531 0.784894 0.581021
0.693674 0.787066 0.578149
0.709319 0.789802 0.576556
0.725968 0.793664 0.577521
0.742618 0.797526 0.578486
0.759267 0.801388 0.579451
0.775916 0.805250 0.580416
0.792482 0.809380 0.582201
0.808628 0.814852 0.588086
0.824774 0.820324 0.593971
0.840920 0.825796 0.599857
0.857067 0.831268 0.605742
0.873213 0.836740 0.611627
0.308102 0.739100 0.583922
0.336346 0.744811 0.589945
0.364591 0.750522 0.595967
0.392835 0.756234 0.601989
0.421079 0.761945 0.608012
0.449324 0.767657 0.614034
0.471311 0.771635 0.616168
0.492046 0.775267 0.617523
0.512782 0.778898 0.618878
0.533517 0.782530 0.620234
0.554252 0.786162 0.621589
0.572055 0.788907 0.620942
0.588392 0.791210 0.619294
0.604729 0.793512 0.617646
0.621066 0.795814 0.615998
0.637403 0.798116 0.614350
0.652635 0.800148 0.612112
0.666762 0.801909 0.609285
0.680890 0.803670 0.606459
0.695017 0.805431 0.603632
0.709145 0.807192 0.600805
0.723415 0.809269 0.598663
0.737969 0.811978 0.597890
0.752524 0.814688 0.597117
0.767078 0.817397 0.596344
0.781632 0.820106 0.595571
0.796385 0.823127 0.595682
0.812129 0.827702 0.600213
0.827872 0.832278 0.604745
0.843616 0.836853 0.609276
0.859360 0.841429 0.613807
0.875103 0.846004 0.618339
0.335862 0.767695 0.609650
0.364271 0.772875 0.615201
0.392680 0.778056 0.620752
0.421089 0.783237 0.626304
0.449498 0.788418 0.631855
0.477907 0.793599 0.637406
0.499352 0.797035 0.639189
0.519405 0.800122 0.640218
0.539457 0.803210 0.641247
0.559510 0.806297 0.642277
0.579562 0.809385 0.643306
0.596470 0.811626 0.642468
0.611807 0.813443 0.640696
0.627144 0.815260 0.638924
0.642480 0.817078 0.637153
0.657817 0.818895 0.635381
0.672022 0.820484 0.633081
0.685096 0.821844 0.630253
0.698170 0.823204 0.627425
0.711244 0.824564 0.624596
0.724318 0.825924 0.621768
0.737252 0.827396 0.619136
0.749907 0.829093 0.616894
0.762562 0.830790 0.614653
0.775216 0.832487 0.612412
0.787871 0.834184 0.610171
0.800953 0.836222 0.608845
0.816169 0.839967 0.612100
0.831385 0.843711 0.615356
0.846601 0.847456 0.618611
0.861817 0.851200 0.621866
0.877033 0.854945 0.625121
0.377408 0.787782 0.632384
0.404701 0.792570 0.637213
0.431994 0.797357 0.642041
0.459287 0.802144 0.646870
0.486580 0.806932 0.651699
0.513873 0.811719 0.656527
0.533775 0.814694 0.657664
0.552199 0.817305 0.658061
0.570623 0.819917 0.658459
0.589047 0.822529 0.658857
0.607471 0.825141 0.659255
0.622794 0.826930 0.657926
0.636566 0.828308 0.655734
0.650338 0.829687 0.653541
0.664111 0.831065 0.651349
0.677883 0.832443 0.649156
0.690684 0.833639 0.646527
0.702514 0.834651 0.643461
0.714344 0.835663 0.640395
0.726174 0.836676 0.637329
0.738003 0.837688 0.634263
0.749800 0.838825 0.631432
