Assets/1__3DArt/KimSe/artstation_asset/LUTs_subway_asset/CUBE/Paranormal 01.cube
# LUT by SparkleStock. Enhanced with VOXCOLOR algorithms.
LUT_3D_SIZE 5
DOMAIN_MIN 0.000000 0.000000 0.000000
DOMAIN_MAX 0.903226 0.903226 0.903226
0.031258 0.058608 0.085958
0.094836 0.103242 0.134113
0.218843 0.182725 0.213533
0.419623 0.298137 0.319154
0.652535 0.426303 0.409918
0.044523 0.179314 0.164693
0.157309 0.261406 0.230196
0.317580 0.359042 0.312470
0.522668 0.473407 0.404796
0.724626 0.574713 0.476727
0.078113 0.387152 0.307259
0.231226 0.459146 0.367362
0.407749 0.529230 0.423562
0.601253 0.618580 0.494033
0.773974 0.693983 0.547330
0.191256 0.636819 0.495088
0.376435 0.677098 0.536248
0.537693 0.710187 0.564401
0.673641 0.740529 0.584163
0.809755 0.786425 0.615097
0.446256 0.817653 0.653307
0.603589 0.832983 0.674589
0.708027 0.841215 0.679418
0.780772 0.846680 0.674549
0.845161 0.855516 0.673375
0.045193 0.079184 0.132884
0.081557 0.099768 0.157626
0.167008 0.163061 0.229092
0.331471 0.274383 0.348354
0.577635 0.428023 0.489208
0.055175 0.213541 0.231961
0.148840 0.283228 0.301032
0.292547 0.373717 0.383217
0.489153 0.484485 0.482318
0.708107 0.594412 0.571262
0.068547 0.399656 0.365589
0.222207 0.482553 0.446624
0.405062 0.552872 0.507065
0.594627 0.633565 0.573498
0.771313 0.705697 0.629501
0.136915 0.626921 0.533652
0.365616 0.692870 0.606240
0.549248 0.731194 0.643340
0.686174 0.756639 0.660859
0.815253 0.794171 0.686658
0.336781 0.813998 0.688299
0.590988 0.841743 0.729043
0.727691 0.856621 0.747006
0.804628 0.861870 0.746573
0.860043 0.865287 0.740425
0.057655 0.106960 0.188625
0.087002 0.118321 0.207076
0.139719 0.156295 0.259340
0.258761 0.253345 0.376010
0.474016 0.405535 0.535734
0.078974 0.269934 0.323997
0.151838 0.309283 0.365456
0.268258 0.380013 0.437530
0.441005 0.486209 0.540046
0.660941 0.603367 0.645680
0.090947 0.455835 0.467087
0.205185 0.501692 0.511719
0.387806 0.569044 0.575464
0.582434 0.649353 0.645866
0.768343 0.721428 0.706650
0.141058 0.652356 0.609391
0.319488 0.695850 0.655176
0.535440 0.743784 0.704738
0.691349 0.771926 0.728371
0.823790 0.805999 0.753234
0.293016 0.818354 0.735443
0.525975 0.841383 0.766632
0.720987 0.865229 0.797619
0.819374 0.874637 0.806236
0.874214 0.875933 0.801204
0.074560 0.142983 0.265028
0.103096 0.154099 0.284632
0.144492 0.178977 0.324031
0.220693 0.247219 0.418869
0.388508 0.390821 0.581156
0.108923 0.335559 0.431101
0.169640 0.359761 0.457009
0.259895 0.401777 0.503189
0.404604 0.490854 0.594359
0.608442 0.610294 0.707149
0.131459 0.533889 0.584767
0.226520 0.555979 0.606650
0.373918 0.593096 0.642814
0.560595 0.664482 0.710512
0.750433 0.740308 0.777249
0.179205 0.696982 0.699971
0.311034 0.717197 0.719237
0.491309 0.748715 0.750081
0.686356 0.787882 0.787747
0.834900 0.823430 0.817508
0.303922 0.831744 0.790942
0.485842 0.846041 0.808296
0.671047 0.864460 0.831548
0.822338 0.886314 0.856094
0.887603 0.889510 0.855938
0.098058 0.189113 0.370609
0.126800 0.204843 0.395447
0.165496 0.226830 0.431831
0.227725 0.273692 0.498230
0.348887 0.392181 0.637589
0.143720 0.408872 0.554508
0.200080 0.429534 0.574948
0.271532 0.456097 0.605071
0.384550 0.509198 0.660112
0.573291 0.619840 0.761931
0.179812 0.612214 0.701347
0.271131 0.628521 0.716799
0.389717 0.648533 0.735642
0.532842 0.685975 0.771905
0.728566 0.758103 0.835406
0.236846 0.760017 0.796734
0.363575 0.772890 0.808824
0.510825 0.787884 0.823575
0.663018 0.808037 0.842736
0.829093 0.845337 0.877576
0.345965 0.851181 0.847649
0.496779 0.859915 0.856015
0.649758 0.871481 0.869490
0.786600 0.886762 0.886860
0.891796 0.903563 0.902118
