Assets/1__3DArt/KimSe/artstation_asset/LUTs_subway_asset/CUBE/Paranormal 05_S.cube
# LUT by SparkleStock. Enhanced with VOXCOLOR algorithms.
LUT_3D_SIZE 8
DOMAIN_MIN 0.000000 0.000000 0.000000
DOMAIN_MAX 0.903226 0.903226 0.903226
0.085958 0.054701 0.085958
0.111481 0.071716 0.106755
0.153610 0.099712 0.141345
0.216440 0.142235 0.189728
0.302533 0.201670 0.250699
0.415589 0.281453 0.320273
0.539044 0.370373 0.384017
0.654646 0.454055 0.431439
0.095033 0.106125 0.115263
0.137242 0.144802 0.137523
0.195642 0.181916 0.163208
0.272072 0.225463 0.198296
0.366892 0.281459 0.246698
0.479070 0.355240 0.309978
0.593109 0.440233 0.378284
0.694177 0.523732 0.440764
0.110938 0.191429 0.171350
0.164027 0.238913 0.198288
0.231937 0.279486 0.213804
0.315893 0.320930 0.233523
0.415436 0.369688 0.268474
0.526632 0.433218 0.322765
0.633916 0.508909 0.390172
0.725125 0.586346 0.459843
0.138635 0.306597 0.253511
0.201250 0.353752 0.284377
0.274850 0.392734 0.295077
0.359629 0.428302 0.301903
0.455506 0.465653 0.318528
0.563848 0.515961 0.360340
0.665167 0.578156 0.420901
0.749169 0.644446 0.489370
0.182591 0.444799 0.358604
0.256037 0.485550 0.389744
0.333665 0.518634 0.403427
0.413525 0.545050 0.403419
0.496496 0.568197 0.398492
0.596240 0.602843 0.422850
0.690393 0.648554 0.470271
0.768090 0.699672 0.529080
0.252353 0.588294 0.476766
0.335606 0.617775 0.502929
0.415783 0.641454 0.516612
0.491728 0.660150 0.519568
0.563155 0.675064 0.514732
0.632015 0.688926 0.510109
0.713580 0.716658 0.536600
0.784172 0.750516 0.577040
0.349372 0.708472 0.584371
0.437552 0.726683 0.602631
0.514881 0.740872 0.612868
0.582469 0.751674 0.615840
0.641528 0.759803 0.612636
0.692555 0.766176 0.605012
0.746632 0.777738 0.609312
0.800331 0.794906 0.626326
0.469558 0.799614 0.672354
0.554713 0.808853 0.683234
0.621868 0.815160 0.688818
0.675123 0.819282 0.689533
0.718160 0.821957 0.685958
0.753252 0.824055 0.678707
0.785792 0.826707 0.672020
0.821882 0.832974 0.673126
0.091819 0.063398 0.115073
0.112658 0.071631 0.130893
0.150725 0.089394 0.161440
0.207067 0.121573 0.206896
0.282675 0.172335 0.266824
0.383584 0.250362 0.341374
0.501233 0.348503 0.418877
0.621811 0.451054 0.487126
0.098406 0.120091 0.156380
0.140237 0.146927 0.178876
0.199041 0.172272 0.201878
0.275074 0.204050 0.232112
0.367880 0.248824 0.274556
0.477769 0.315523 0.333634
0.591800 0.402050 0.403781
0.696140 0.497978 0.476096
0.111200 0.200608 0.212339
0.165167 0.241057 0.242157
0.234614 0.272099 0.252700
0.320244 0.302268 0.264221
0.421307 0.339111 0.290939
0.534293 0.393283 0.336664
0.644731 0.466541 0.400082
0.740110 0.551515 0.473590
0.133579 0.306664 0.287487
0.199244 0.354830 0.324566
0.274473 0.388240 0.328048
0.360758 0.414643 0.323208
0.458943 0.441654 0.329641
0.570680 0.482056 0.360981
0.677098 0.539697 0.414347
0.767301 0.609451 0.482528
0.169064 0.436011 0.383121
0.251184 0.485350 0.426027
0.331368 0.516979 0.432887
0.411929 0.537465 0.419025
0.496876 0.553852 0.401263
0.601020 0.579273 0.413831
0.701820 0.618984 0.451146
0.787713 0.669916 0.505378
0.227410 0.574237 0.493232
0.327835 0.616612 0.535127
0.414091 0.642420 0.545713
0.491171 0.658188 0.537072
0.563397 0.669204 0.519472
0.634391 0.678486 0.501246
0.722698 0.700426 0.515629
0.802605 0.731639 0.547856
0.310938 0.694024 0.596568
0.426300 0.725375 0.630654
0.514741 0.743557 0.642130
0.585527 0.754033 0.638886
0.645898 0.760948 0.627107
0.697738 0.765309 0.608601
0.754322 0.773695 0.600569
0.815119 0.788245 0.607014
0.415951 0.788210 0.683893
0.539705 0.807874 0.706605
0.623411 0.818545 0.716439
0.682177 0.824076 0.716779
0.727683 0.827387 0.710351
0.763190 0.829258 0.697623
0.795411 0.830900 0.682563
0.834135 0.835393 0.675034
0.097948 0.073701 0.151956
0.115140 0.078544 0.165806
0.144821 0.089481 0.192892
0.191511 0.112958 0.234746
0.257855 0.154738 0.292038
0.345474 0.226342 0.366069
0.453412 0.325929 0.448725
0.573329 0.438278 0.528293
0.104742 0.138670 0.205886
0.141854 0.158173 0.227050
0.194545 0.177119 0.252587
0.264964 0.202000 0.283882
0.353343 0.238882 0.323018
0.456591 0.299372 0.378258
0.566909 0.385598 0.447835
0.673767 0.488034 0.523868
0.117489 0.222474 0.267333
0.165116 0.252122 0.292921
0.232105 0.276551 0.308466
0.317080 0.300245 0.323203
0.417719 0.328429 0.344934
0.529879 0.374196 0.383031
0.641598 0.443145 0.440055
0.741591 0.529974 0.510770
0.138023 0.325130 0.340245
0.195534 0.361931 0.370321
0.271526 0.390228 0.379043
0.361062 0.411702 0.377322
0.461002 0.430226 0.376441
0.575620 0.460645 0.397609
0.686676 0.510909 0.440751
0.783179 0.578726 0.502108
0.168717 0.444714 0.426615
0.241283 0.486024 0.462340
0.324351 0.516725 0.473791
0.410223 0.536105 0.461505
0.496989 0.546616 0.434144
0.604888 0.563205 0.435936
0.711829 0.595277 0.462092
0.805683 0.642587 0.508331
0.218238 0.574042 0.525150
0.310304 0.612453 0.562387
0.403678 0.640961 0.578309
0.489246 0.658786 0.571493
0.563039 0.666907 0.544657
0.636163 0.671843 0.514484
0.731080 0.687194 0.517083
0.820084 0.713934 0.540250
0.289831 0.688601 0.619051
0.400677 0.719202 0.651543
0.501887 0.741981 0.668817
0.585337 0.756328 0.668533
0.648115 0.762860 0.650938
0.701339 0.765753 0.622843
0.761388 0.771086 0.603512
0.829769 0.782400 0.600217
0.380513 0.780637 0.699998
0.505923 0.801927 0.723539
0.608794 0.817629 0.738790
0.684595 0.827511 0.743033
0.733741 0.832147 0.735205
0.770623 0.834517 0.717297
0.804066 0.835884 0.694421
0.846816 0.839073 0.679129
0.104187 0.086163 0.197393
0.118891 0.090506 0.211121
0.140908 0.098032 0.234646
0.176523 0.115206 0.271484
0.230101 0.148347 0.323942
0.305669 0.211547 0.394827
0.401861 0.306674 0.476796
0.516455 0.420993 0.560093
0.112298 0.161317 0.262984
0.143683 0.176675 0.282259
0.187586 0.192263 0.309012
0.248134 0.213850 0.342220
0.327202 0.246811 0.381884
0.423300 0.301531 0.433637
0.528119 0.384334 0.499882
0.635842 0.486921 0.574139
0.126820 0.252575 0.332264
0.166733 0.273035 0.352305
0.227095 0.292639 0.372546
0.306244 0.313571 0.394226
0.401917 0.338845 0.418941
0.511695 0.378059 0.451599
0.622795 0.441389 0.501339
0.726726 0.525110 0.564933
0.148469 0.355351 0.405126
0.195568 0.379203 0.425626
0.267278 0.401892 0.439949
0.355820 0.421001 0.447712
0.455958 0.436732 0.451331
0.571610 0.459206 0.465322
0.685417 0.501504 0.498356
0.787364 0.563679 0.549561
0.178343 0.466088 0.482151
0.236300 0.493821 0.505370
0.315946 0.520194 0.520586
0.405025 0.538975 0.517719
0.497365 0.547905 0.496368
0.607634 0.556792 0.490553
0.719193 0.580505 0.506275
0.819594 0.621643 0.542613
0.221815 0.584658 0.568087
0.296561 0.612608 0.593563
0.388505 0.639650 0.612223
0.480775 0.659547 0.613279
0.562601 0.668800 0.591370
0.637539 0.669886 0.553722
0.737752 0.678575 0.546752
0.834376 0.699708 0.561239
0.283465 0.690766 0.649632
0.377043 0.714771 0.673627
0.480563 0.738321 0.693264
0.575144 0.756309 0.699493
0.648807 0.765692 0.686504
0.703782 0.767524 0.652806
0.767147 0.770044 0.625146
0.842318 0.777897 0.614155
0.361212 0.777013 0.720478
0.471917 0.795608 0.739828
0.582358 0.813600 0.757233
0.674294 0.827684 0.766612
0.737076 0.835932 0.763410
0.776034 0.839197 0.742952
0.811266 0.840730 0.714602
0.858193 0.843009 0.693610
0.110402 0.101312 0.251581
0.123862 0.106184 0.266188
0.142030 0.113256 0.285991
0.167304 0.126864 0.316266
0.203820 0.152495 0.361253
0.268411 0.207096 0.427563
0.352375 0.293959 0.505446
0.458218 0.403986 0.586955
0.119904 0.187608 0.326759
0.146914 0.200932 0.344321
0.182383 0.214525 0.367458
0.230539 0.234909 0.399607
0.295152 0.267157 0.442099
0.384763 0.316989 0.491162
0.483839 0.393186 0.551829
0.590470 0.490012 0.620028
0.136996 0.287364 0.403346
0.171731 0.303448 0.420195
0.222241 0.319354 0.438808
0.289597 0.339732 0.464842
0.374448 0.367659 0.499746
0.480322 0.403880 0.531126
0.589314 0.461155 0.574295
0.695939 0.537769 0.628629
0.161891 0.392153 0.476515
0.202428 0.408597 0.491787
0.263657 0.425218 0.504989
0.343663 0.443016 0.521241
0.440455 0.462375 0.541921
0.554232 0.481842 0.555340
0.668320 0.517486 0.581045
0.774373 0.571661 0.621380
0.194477 0.496536 0.544769
0.242260 0.513441 0.559614
0.310032 0.531104 0.571162
0.395599 0.547227 0.578535
0.496032 0.559656 0.580779
0.606802 0.564387 0.574704
0.720762 0.580312 0.582772
0.825622 0.613397 0.608639
0.235058 0.603085 0.617788
0.295522 0.621695 0.633913
0.373843 0.641353 0.647105
0.464684 0.660000 0.655619
0.560251 0.674456 0.654407
0.638240 0.673710 0.619107
0.741763 0.676532 0.606840
0.843458 0.691507 0.614039
0.289167 0.698866 0.685913
0.366492 0.716327 0.702106
0.456833 0.734997 0.716800
0.553206 0.753335 0.728236
0.645783 0.768622 0.731170
0.705202 0.770697 0.700453
0.771256 0.770882 0.669478
0.851264 0.775344 0.653844
0.355876 0.777145 0.744824
0.450519 0.792102 0.759338
0.550561 0.808076 0.773638
0.648698 0.823961 0.786626
0.735066 0.837862 0.794372
0.779499 0.842850 0.777412
0.816802 0.844796 0.747736
0.866960 0.846434 0.724136
0.116452 0.120596 0.314538
0.130204 0.126639 0.331047
0.146696 0.134260 0.349331
0.167956 0.146575 0.373386
0.196569 0.167961 0.407523
0.240961 0.213194 0.462856
0.313508 0.291666 0.535372
0.409532 0.393655 0.612478
0.127856 0.218162 0.396742
0.152327 0.231184 0.412920
0.181760 0.244174 0.432617
0.220539 0.262340 0.458413
0.272816 0.290881 0.492931
0.348006 0.341205 0.542914
0.442201 0.411691 0.599631
0.547171 0.499761 0.660966
0.147577 0.325456 0.476621
0.179267 0.339845 0.490968
0.222052 0.354190 0.506955
0.277143 0.372468 0.528738
0.346828 0.398782 0.559265
0.442858 0.442623 0.600816
0.550358 0.496081 0.641411
0.659386 0.563298 0.687164
0.175643 0.434051 0.550449
0.213494 0.447487 0.562803
0.266816 0.461515 0.574562
0.334127 0.477348 0.589656
0.415799 0.496954 0.611118
0.523339 0.527686 0.642063
0.637088 0.560254 0.666538
0.746674 0.604416 0.697227
0.211615 0.536915 0.615519
0.256272 0.549523 0.626668
0.316088 0.563284 0.636645
0.390366 0.576809 0.645416
0.479072 0.589764 0.654468
0.588237 0.605704 0.672592
0.701957 0.618259 0.681061
0.809574 0.641260 0.697383
0.254683 0.626193 0.669218
0.306923 0.638920 0.680173
0.374195 0.652929 0.689920
0.453889 0.667023 0.697934
0.542857 0.679766 0.703262
0.635672 0.687396 0.701904
0.740938 0.687416 0.693836
0.843439 0.696130 0.696367
0.304816 0.710557 0.724243
0.370045 0.723098 0.734831
0.447941 0.737257 0.745513
0.533977 0.752108 0.755219
0.623017 0.766337 0.762287
0.704438 0.775938 0.760811
0.774092 0.775320 0.736680
0.855014 0.776570 0.721079
0.363481 0.780334 0.771774
0.443813 0.791906 0.781746
0.531852 0.805231 0.792798
0.621977 0.819485 0.803892
0.708346 0.833660 0.813644
0.779064 0.845230 0.817965
0.821063 0.847962 0.795290
0.871946 0.848879 0.774014
0.122344 0.144133 0.383166
0.136999 0.151836 0.401090
0.153287 0.160580 0.418750
0.172873 0.172364 0.438963
0.197744 0.190466 0.465056
0.233890 0.227186 0.506240
0.292541 0.297713 0.568083
0.376220 0.392096 0.638290
0.135774 0.252604 0.468858
0.159447 0.266095 0.483732
0.185452 0.279206 0.500847
0.218129 0.295813 0.521599
0.261593 0.320133 0.547950
0.324591 0.362642 0.586901
0.412005 0.430982 0.639586
0.514053 0.513895 0.696521
0.158590 0.365861 0.548667
0.189241 0.379877 0.560955
0.227315 0.393659 0.574465
0.273710 0.410433 0.591896
0.330867 0.433746 0.615592
0.411760 0.472558 0.649654
0.516153 0.529681 0.691938
0.627070 0.594232 0.735547
0.190234 0.476086 0.619606
0.227389 0.488497 0.629888
0.275863 0.501342 0.639901
0.333831 0.515991 0.652532
0.401802 0.534490 0.670367
0.492423 0.563995 0.697882
0.604183 0.604884 0.729268
0.717027 0.648230 0.759982
0.229682 0.576608 0.679404
0.273877 0.587576 0.688339
0.329085 0.599441 0.696906
0.394916 0.611741 0.705386
0.471554 0.624874 0.715333
0.564182 0.643213 0.734904
0.675521 0.666644 0.755433
0.785418 0.689633 0.774116
0.275117 0.658251 0.724393
0.326517 0.668506 0.732795
0.388669 0.679962 0.740859
0.459948 0.692026 0.748636
0.538635 0.704078 0.756183
0.623127 0.714957 0.763563
0.726154 0.725065 0.773380
0.828675 0.733697 0.781627
0.323693 0.726299 0.763310
0.383502 0.736356 0.771020
0.453036 0.747844 0.779193
0.529508 0.760218 0.787477
0.610004 0.772760 0.795390
0.689934 0.783564 0.801475
0.767397 0.789850 0.799658
0.851655 0.792179 0.795590
0.377505 0.784195 0.797890
0.448153 0.793597 0.804929
0.525755 0.804783 0.813309
0.606530 0.817116 0.822435
0.686801 0.829895 0.831731
0.760515 0.841751 0.840322
0.817781 0.849355 0.837834
0.875174 0.852130 0.829408
0.128308 0.172208 0.455898
0.143829 0.181667 0.473712
0.160386 0.191818 0.490511
0.179412 0.203660 0.507985
0.202603 0.219383 0.528270
0.234956 0.248474 0.557525
0.284645 0.307829 0.604873
0.357456 0.395466 0.665472
0.143390 0.290162 0.541042
0.167683 0.303847 0.554120
0.192144 0.317397 0.569070
0.221136 0.333096 0.585988
0.258711 0.353728 0.605701
0.312637 0.387290 0.633224
0.391315 0.446706 0.675735
0.490121 0.525506 0.726840
0.169392 0.407382 0.617562
0.200790 0.421169 0.627949
0.236666 0.434613 0.639228
0.277598 0.450245 0.652985
0.325820 0.470691 0.670623
0.393590 0.502029 0.694757
0.488467 0.554272 0.730917
0.599391 0.618434 0.772000
0.204821 0.517045 0.683146
0.243052 0.529220 0.691919
0.289374 0.541271 0.700185
0.341490 0.554935 0.710264
0.399457 0.572102 0.724057
0.474247 0.597464 0.744046
0.575251 0.638276 0.773369
0.688120 0.685022 0.804641
0.247862 0.613475 0.736193
0.293525 0.624093 0.743774
0.346886 0.635044 0.751081
0.407528 0.646576 0.758587
0.475147 0.659483 0.767466
0.551315 0.677682 0.782909
0.650792 0.705562 0.805679
0.758607 0.734935 0.827991
0.295877 0.688379 0.773883
0.349066 0.697972 0.780878
0.409304 0.708357 0.787834
0.475250 0.719373 0.795050
0.545607 0.730942 0.802803
0.619353 0.743390 0.811627
0.710813 0.760389 0.828485
0.808298 0.776501 0.843600
0.344410 0.744244 0.800992
0.404007 0.753391 0.807311
0.469825 0.763602 0.814040
0.539913 0.774562 0.821257
0.612375 0.785918 0.828937
0.684698 0.796999 0.836709
0.759871 0.808659 0.846760
0.841584 0.818133 0.854788
0.394940 0.790644 0.824639
0.461157 0.798984 0.829845
0.532096 0.808889 0.836318
0.605204 0.819859 0.843779
0.678058 0.831369 0.851966
0.746913 0.842526 0.860661
0.809489 0.853152 0.869208
0.870565 0.861034 0.873740
