Assets/1__3DArt/KimSe/artstation_asset/LUTs_subway_asset/CUBE/Paranormal 05_S.cube
# LUT by SparkleStock. Enhanced with VOXCOLOR algorithms.
LUT_3D_SIZE 32
0.085958 0.054701 0.085958
0.092339 0.058955 0.091158
0.098720 0.063208 0.096357
0.105101 0.067462 0.101556
0.111481 0.071716 0.106755
0.117862 0.075970 0.111954
0.129127 0.083453 0.121210
0.141368 0.091583 0.131277
0.153610 0.099712 0.141345
0.165851 0.107842 0.151412
0.178093 0.115971 0.161479
0.195880 0.128103 0.174792
0.216440 0.142235 0.189728
0.237000 0.156367 0.204663
0.257560 0.170499 0.219599
0.278120 0.184631 0.234535
0.302533 0.201670 0.250699
0.330797 0.221616 0.268092
0.359061 0.241561 0.285486
0.387325 0.261507 0.302879
0.415589 0.281453 0.320273
0.444893 0.302312 0.337083
0.476277 0.324999 0.352728
0.507661 0.347686 0.368372
0.539044 0.370373 0.384017
0.570428 0.393060 0.399661
0.601048 0.415203 0.414140
0.627847 0.434629 0.422789
0.654646 0.454055 0.431439
0.681445 0.473481 0.440088
0.708244 0.492906 0.448738
0.735043 0.512332 0.457387
0.088227 0.067557 0.093284
0.095651 0.073165 0.098575
0.103074 0.078772 0.103866
0.110498 0.084380 0.109156
0.117922 0.089988 0.114447
0.125345 0.095595 0.119737
0.137622 0.103510 0.128323
0.150870 0.111887 0.137567
0.164118 0.120263 0.146811
0.177366 0.128640 0.156055
0.190613 0.137016 0.165299
0.209157 0.149102 0.177776
0.230348 0.163042 0.191870
0.251539 0.176982 0.205964
0.272731 0.190922 0.220058
0.293922 0.204862 0.234152
0.318622 0.221617 0.249699
0.346832 0.241188 0.266699
0.375041 0.260758 0.283699
0.403250 0.280329 0.300699
0.431460 0.299899 0.317699
0.460495 0.320436 0.334387
0.491184 0.342903 0.350453
0.521872 0.365371 0.366518
0.552561 0.387838 0.382584
0.583249 0.410305 0.398649
0.613108 0.432293 0.413709
0.638818 0.451884 0.423739
0.664529 0.471474 0.433770
0.690239 0.491065 0.443801
0.715949 0.510655 0.453832
0.741660 0.530245 0.463862
0.090496 0.080413 0.100611
0.098962 0.087374 0.105993
0.107429 0.094336 0.111375
0.115895 0.101298 0.116757
0.124362 0.108259 0.122139
0.132828 0.115221 0.127521
0.146118 0.123567 0.135435
0.160372 0.132191 0.143856
0.174626 0.140814 0.152277
0.188880 0.149438 0.160697
0.203134 0.158061 0.169118
0.222434 0.170101 0.180760
0.244256 0.183849 0.194012
0.266079 0.197597 0.207265
0.287901 0.211345 0.220517
0.309724 0.225093 0.233769
0.334712 0.241564 0.248699
0.362867 0.260760 0.265305
0.391021 0.279955 0.281912
0.419175 0.299151 0.298519
0.447330 0.318346 0.315125
0.476097 0.338559 0.331692
0.506090 0.360807 0.348178
0.536084 0.383055 0.364664
0.566077 0.405303 0.381150
0.596070 0.427551 0.397637
0.625168 0.449383 0.413277
0.649790 0.469138 0.424689
0.674411 0.488893 0.436101
0.699033 0.508649 0.447513
0.723655 0.528404 0.458925
0.748277 0.548159 0.470338
0.092765 0.093269 0.107937
0.102274 0.101584 0.113410
0.111783 0.109900 0.118884
0.121293 0.118215 0.124357
0.130802 0.126531 0.129831
0.140311 0.134846 0.135304
0.154613 0.143624 0.142548
0.169873 0.152495 0.150145
0.185134 0.161365 0.157742
0.200394 0.170236 0.165340
0.215654 0.179106 0.172937
0.235710 0.191100 0.183744
0.258164 0.204656 0.196154
0.280618 0.218212 0.208565
0.303072 0.231768 0.220976
0.325525 0.245323 0.233387
0.350802 0.261512 0.247699
0.378901 0.280332 0.263912
0.407001 0.299152 0.280125
0.435101 0.317973 0.296338
0.463200 0.336793 0.312552
0.491699 0.356683 0.328996
0.520997 0.378711 0.345903
0.550295 0.400740 0.362810
0.579593 0.422768 0.379717
0.608891 0.444796 0.396624
0.637228 0.466473 0.412846
0.660761 0.486393 0.425639
0.684294 0.506313 0.438432
0.707827 0.526232 0.451226
0.731361 0.546152 0.464019
0.754894 0.566072 0.476813
0.095033 0.106125 0.115263
0.105585 0.115794 0.120828
0.116138 0.125464 0.126393
0.126690 0.135133 0.131958
0.137242 0.144802 0.137523
0.147794 0.154472 0.143088
0.163108 0.163681 0.149660
0.179375 0.172799 0.156434
0.195642 0.181916 0.163208
0.211908 0.191034 0.169982
0.228175 0.200151 0.176757
0.248987 0.212099 0.186727
0.272072 0.225463 0.198296
0.295157 0.238827 0.209866
0.318242 0.252190 0.221435
0.341327 0.265554 0.233004
0.366892 0.281459 0.246698
0.394936 0.299904 0.262518
0.422981 0.318349 0.278338
0.451026 0.336795 0.294158
0.479070 0.355240 0.309978
0.507301 0.374807 0.326301
0.535904 0.396616 0.343628
0.564506 0.418424 0.360956
0.593109 0.440233 0.378284
0.621712 0.462042 0.395612
0.649288 0.483563 0.412414
0.671733 0.503648 0.426589
0.694177 0.523732 0.440764
0.716622 0.543816 0.454938
0.739066 0.563901 0.469113
0.761511 0.583985 0.483288
0.097302 0.118981 0.122589
0.108897 0.130004 0.128245
0.120492 0.141027 0.133902
0.132087 0.152051 0.139558
0.143682 0.163074 0.145215
0.155277 0.174097 0.150871
0.171604 0.183738 0.156773
0.188877 0.193103 0.162724
0.206150 0.202467 0.168674
0.223423 0.211832 0.174625
0.240696 0.221196 0.180576
0.262264 0.233099 0.189711
0.285980 0.246270 0.200439
0.309696 0.259442 0.211166
0.333412 0.272613 0.221894
0.357128 0.285785 0.232621
0.382981 0.301406 0.245698
0.410971 0.319476 0.261125
0.438961 0.337546 0.276551
0.466951 0.355617 0.291978
0.494941 0.373687 0.307404
0.522903 0.392930 0.323605
0.550810 0.414520 0.341354
0.578718 0.436109 0.359102
0.606625 0.457698 0.376851
0.634533 0.479287 0.394599
0.661348 0.500653 0.411983
0.682704 0.520902 0.427539
0.704060 0.541151 0.443095
0.725416 0.561400 0.458651
0.746772 0.581649 0.474207
0.768128 0.601898 0.489763
0.101579 0.141802 0.137792
0.113790 0.153233 0.143776
0.126001 0.164665 0.149761
0.138213 0.176097 0.155745
0.150424 0.187529 0.161729
0.162635 0.198961 0.167713
0.179464 0.208711 0.172793
0.197217 0.218124 0.177692
0.214970 0.227537 0.182591
0.232724 0.236951 0.187489
0.250477 0.246364 0.192388
0.272402 0.257972 0.200581
0.296414 0.270677 0.210421
0.320426 0.283382 0.220262
0.344438 0.296087 0.230102
0.368450 0.308792 0.239942
0.394420 0.323836 0.252279
0.422347 0.341218 0.267114
0.450274 0.358601 0.281949
0.478202 0.375984 0.296784
0.506129 0.393366 0.311619
0.533896 0.411941 0.327418
0.561345 0.432899 0.345146
0.588793 0.453857 0.362873
0.616242 0.474815 0.380600
0.643690 0.495773 0.398327
0.670015 0.516565 0.415807
0.690716 0.536529 0.432051
0.711418 0.556493 0.448295
0.732120 0.576457 0.464539
0.752822 0.596421 0.480783
0.773524 0.616385 0.497026
0.106259 0.166615 0.154571
0.119000 0.178267 0.160930
0.131742 0.189918 0.167290
0.144483 0.201570 0.173649
0.157225 0.213221 0.180008
0.169967 0.224873 0.186368
0.187197 0.234667 0.190595
0.205325 0.244089 0.194396
0.223454 0.253512 0.198197
0.241582 0.262934 0.201998
0.259710 0.272356 0.205799
0.281913 0.283620 0.213029
0.306154 0.295803 0.221972
0.330395 0.307987 0.230916
0.354635 0.320170 0.239860
0.378876 0.332354 0.248803
0.404928 0.346762 0.260377
0.432791 0.363395 0.274581
0.460654 0.380027 0.288784
0.488517 0.396660 0.302988
0.516381 0.413292 0.317192
0.543968 0.431129 0.332534
0.571005 0.451373 0.350151
0.598042 0.471618 0.367769
0.625079 0.491862 0.385386
0.652116 0.512107 0.403004
0.678002 0.532242 0.420484
0.698137 0.551831 0.437276
0.718272 0.571420 0.454069
0.738406 0.591009 0.470862
0.758541 0.610597 0.487654
0.778676 0.630186 0.504447
0.110938 0.191429 0.171350
0.124210 0.203300 0.178084
0.137482 0.215171 0.184819
0.150754 0.227042 0.191553
0.164027 0.238913 0.198288
0.177299 0.250785 0.205022
0.194930 0.260623 0.208397
0.213434 0.270054 0.211100
0.231937 0.279486 0.213804
0.250440 0.288917 0.216507
0.268943 0.298349 0.219210
0.291424 0.309268 0.225476
0.315893 0.320930 0.233523
0.340363 0.332592 0.241570
0.364832 0.344254 0.249617
0.389301 0.355916 0.257665
0.415436 0.369688 0.268474
0.443235 0.385571 0.282047
0.471034 0.401453 0.295620
0.498833 0.417336 0.309192
0.526632 0.433218 0.322765
0.554040 0.450317 0.337649
0.580665 0.469848 0.355157
0.607291 0.489379 0.372664
0.633916 0.508909 0.390172
0.660541 0.528440 0.407680
0.685990 0.547919 0.425160
0.705558 0.567132 0.442501
0.725125 0.586346 0.459843
0.744693 0.605560 0.477184
0.764260 0.624774 0.494526
0.783828 0.643988 0.511867
0.115617 0.216243 0.188129
0.129420 0.228334 0.195238
0.143223 0.240424 0.202348
0.157025 0.252515 0.209457
0.170828 0.264606 0.216567
0.184631 0.276696 0.223676
0.202663 0.286579 0.226199
0.221542 0.296019 0.227805
0.240420 0.305460 0.229410
0.259298 0.314901 0.231015
0.278177 0.324341 0.232621
0.300935 0.334915 0.237923
0.325633 0.346056 0.245074
0.350331 0.357197 0.252225
0.375029 0.368338 0.259375
0.399727 0.379478 0.266526
0.425944 0.392615 0.276572
0.453679 0.407747 0.289513
0.481414 0.422879 0.302455
0.509149 0.438012 0.315396
0.536884 0.453144 0.328337
0.564112 0.469505 0.342764
0.590326 0.488322 0.360162
0.616539 0.507139 0.377560
0.642753 0.525957 0.394958
0.668966 0.544774 0.412356
0.693978 0.563595 0.429836
0.712978 0.582434 0.447726
0.731978 0.601273 0.465617
0.750979 0.620111 0.483507
0.769979 0.638950 0.501397
0.788979 0.657789 0.519288
0.120296 0.241057 0.204908
0.134630 0.253367 0.212392
0.148963 0.265677 0.219877
0.163296 0.277988 0.227361
0.177630 0.290298 0.234846
0.191963 0.302608 0.242330
0.210396 0.312534 0.244001
0.229650 0.321984 0.244509
0.248903 0.331434 0.245016
0.268157 0.340884 0.245524
0.287410 0.350334 0.246032
0.310446 0.360563 0.250371
0.335373 0.371183 0.256625
0.360299 0.381802 0.262879
0.385226 0.392421 0.269133
0.410153 0.403040 0.275387
0.436452 0.415541 0.284669
0.464123 0.429923 0.296980
0.491794 0.444305 0.309290
0.519465 0.458688 0.321600
0.547136 0.473070 0.333910
0.574184 0.488692 0.347879
0.599986 0.506796 0.365168
0.625788 0.524900 0.382456
0.651590 0.543004 0.399744
0.677392 0.561108 0.417032
0.701965 0.579272 0.434512
0.720399 0.597735 0.452951
0.738832 0.616199 0.471391
0.757265 0.634663 0.489830
0.775698 0.653126 0.508269
0.794131 0.671590 0.526708
0.128567 0.272236 0.227705
0.143535 0.284381 0.235357
0.158503 0.296527 0.243009
0.173470 0.308672 0.250662
0.188438 0.320818 0.258314
0.203406 0.332963 0.265966
0.222100 0.342682 0.267512
0.241539 0.351915 0.267837
0.260979 0.361149 0.268162
0.280418 0.370382 0.268487
0.299858 0.379616 0.268811
0.322612 0.389238 0.272170
0.347023 0.399055 0.277046
0.371434 0.408873 0.281922
0.395846 0.418690 0.286798
0.420257 0.428507 0.291674
0.446175 0.440171 0.299832
0.473599 0.453681 0.311273
0.501023 0.467191 0.322714
0.528447 0.480701 0.334155
0.555871 0.494211 0.345596
0.582618 0.508944 0.358818
0.608008 0.526120 0.375600
0.633398 0.543297 0.392382
0.658788 0.560474 0.409164
0.684178 0.577651 0.425946
0.708337 0.594928 0.442993
0.726337 0.612706 0.461365
0.744337 0.630483 0.479737
0.762338 0.648261 0.498109
0.780338 0.666038 0.516481
0.798338 0.683816 0.534854
0.138635 0.306597 0.253511
0.154289 0.318386 0.261228
0.169942 0.330175 0.268944
0.185596 0.341963 0.276660
0.201250 0.353752 0.284377
0.216903 0.365541 0.292093
0.235788 0.374926 0.293878
0.255319 0.383830 0.294478
0.274850 0.392734 0.295077
0.294381 0.401638 0.295676
0.313912 0.410542 0.296275
0.336105 0.419426 0.298646
0.359629 0.428302 0.301903
0.383153 0.437177 0.305159
0.406677 0.446052 0.308416
0.430201 0.454927 0.311673
0.455506 0.465653 0.318528
0.482592 0.478230 0.328981
0.509677 0.490807 0.339434
0.536763 0.503384 0.349887
0.563848 0.515961 0.360340
0.590232 0.529726 0.372668
0.615210 0.545869 0.388745
0.640189 0.562013 0.404823
0.665167 0.578156 0.420901
0.690146 0.594299 0.436978
0.713900 0.610574 0.453376
0.731535 0.627510 0.471373
0.749169 0.644446 0.489370
0.766803 0.661382 0.507367
0.784438 0.678318 0.525364
0.802072 0.695254 0.543361
0.148702 0.340959 0.279318
0.165042 0.352391 0.287098
0.181382 0.363823 0.294879
0.197722 0.375254 0.302659
0.214061 0.386686 0.310439
0.230401 0.398118 0.318220
0.249477 0.407169 0.320244
0.269099 0.415744 0.321118
0.288721 0.424319 0.321992
0.308344 0.432893 0.322865
0.327966 0.441468 0.323739
0.349598 0.449615 0.325122
0.372235 0.457548 0.326759
0.394872 0.465480 0.328397
0.417508 0.473413 0.330034
0.440145 0.481346 0.331672
0.464837 0.491134 0.337223
0.491584 0.502778 0.346688
0.518331 0.514422 0.356153
0.545078 0.526066 0.365618
0.571825 0.537710 0.375083
0.597846 0.550509 0.386518
0.622413 0.565618 0.401891
0.646980 0.580728 0.417264
0.671547 0.595837 0.432637
0.696114 0.610947 0.448011
0.719464 0.626220 0.463759
0.736732 0.642314 0.481381
0.754001 0.658409 0.499003
0.771269 0.674503 0.516625
0.788537 0.690598 0.534247
0.805806 0.706692 0.551869
0.158770 0.375320 0.305124
0.175795 0.386395 0.312969
0.192821 0.397470 0.320813
0.209847 0.408545 0.328657
0.226873 0.419621 0.336502
0.243899 0.430696 0.344346
0.263165 0.439413 0.346610
0.282879 0.447658 0.347758
0.302593 0.455904 0.348906
0.322307 0.464149 0.350055
0.342021 0.472394 0.351203
0.363091 0.479803 0.351598
0.384841 0.486794 0.351616
0.406590 0.493784 0.351634
0.428339 0.500775 0.351652
0.450089 0.507765 0.351671
0.474168 0.516616 0.355918
0.500576 0.527327 0.364396
0.526985 0.538038 0.372873
0.553394 0.548748 0.381350
0.579803 0.559459 0.389827
0.605460 0.571292 0.400368
0.629615 0.585367 0.415037
0.653771 0.599443 0.429706
0.677926 0.613519 0.444374
0.702081 0.627594 0.459043
0.725027 0.641866 0.474142
0.741930 0.657119 0.491389
0.758832 0.672372 0.508636
0.775735 0.687624 0.525883
0.792637 0.702877 0.543130
0.809540 0.718130 0.560377
0.168837 0.409681 0.330931
0.186549 0.420400 0.338839
0.204261 0.431118 0.346748
0.221973 0.441837 0.354656
0.239685 0.452555 0.362564
0.257397 0.463273 0.370473
0.276853 0.471656 0.372976
0.296659 0.479572 0.374399
0.316464 0.487488 0.375821
0.336270 0.495405 0.377244
0.356075 0.503321 0.378666
0.376585 0.509992 0.378073
0.397447 0.516040 0.376472
0.418309 0.522088 0.374872
0.439171 0.528137 0.373271
0.460033 0.534185 0.371670
0.483499 0.542098 0.374614
0.509569 0.551876 0.382103
0.535639 0.561653 0.389592
0.561709 0.571431 0.397081
0.587780 0.581209 0.404570
0.613074 0.592074 0.414218
0.636818 0.605116 0.428182
0.660561 0.618158 0.442147
0.684305 0.631200 0.456111
0.708049 0.644242 0.470076
0.730591 0.657512 0.484525
0.747127 0.671923 0.501396
0.763664 0.686335 0.518268
0.780200 0.700746 0.535140
0.796737 0.715157 0.552012
0.813273 0.729568 0.568884
0.182591 0.444799 0.358604
0.200952 0.454987 0.366389
0.219314 0.465175 0.374174
0.237675 0.475362 0.381959
0.256037 0.485550 0.389744
0.274398 0.495738 0.397529
0.293990 0.503670 0.400179
0.313827 0.511152 0.401803
0.333665 0.518634 0.403427
0.353502 0.526115 0.405051
0.373339 0.533597 0.406674
0.393381 0.539674 0.405697
0.413525 0.545050 0.403419
0.433669 0.550426 0.401141
0.453813 0.555802 0.398864
0.473957 0.561178 0.396586
0.496496 0.568197 0.398492
0.521432 0.576859 0.404581
0.546368 0.585520 0.410671
0.571304 0.594182 0.416760
0.596240 0.602843 0.422850
0.620617 0.612612 0.431245
0.643875 0.624592 0.444254
0.667134 0.636573 0.457262
0.690393 0.648554 0.470271
0.713652 0.660535 0.483279
0.735731 0.672761 0.496809
0.751910 0.686216 0.512944
0.768090 0.699672 0.529080
0.784270 0.713127 0.545215
0.800450 0.726582 0.561351
0.816629 0.740037 0.577486
0.200032 0.480673 0.388144
0.219006 0.490156 0.395618
0.237980 0.499640 0.403092
0.256955 0.509123 0.410566
0.275929 0.518606 0.418040
0.294904 0.528090 0.425514
0.314574 0.535455 0.428219
0.334384 0.542397 0.429971
0.354194 0.549339 0.431723
0.374004 0.556281 0.433475
0.393814 0.563222 0.435227
0.413481 0.568852 0.434469
0.433076 0.573825 0.432457
0.452671 0.578799 0.430444
0.472266 0.583772 0.428431
0.491861 0.588746 0.426419
0.513161 0.594914 0.427552
0.536167 0.602276 0.431830
0.559172 0.609639 0.436108
0.582178 0.617002 0.440386
0.605184 0.624364 0.444665
0.628088 0.632903 0.451450
0.650788 0.643795 0.463251
0.673489 0.654688 0.475052
0.696190 0.665580 0.486853
0.718890 0.676472 0.498654
0.740446 0.687613 0.510994
0.756279 0.699998 0.526032
0.772111 0.712383 0.541070
0.787943 0.724768 0.556107
0.803775 0.737152 0.571145
0.819607 0.749537 0.586183
0.217472 0.516547 0.417685
0.237059 0.525326 0.424848
0.256647 0.534105 0.432011
0.276234 0.542884 0.439173
0.295822 0.551663 0.446336
0.315409 0.560442 0.453499
0.335159 0.567240 0.456260
0.354941 0.573642 0.458139
0.374724 0.580044 0.460019
0.394506 0.586446 0.461899
0.414289 0.592848 0.463779
0.433580 0.598029 0.463241
0.452627 0.602600 0.461494
0.471673 0.607171 0.459746
0.490719 0.611742 0.457999
0.509765 0.616313 0.456252
0.529826 0.621630 0.456612
0.550901 0.627694 0.459079
0.571976 0.633758 0.461546
0.593052 0.639821 0.464012
0.614127 0.645885 0.466479
0.635558 0.653195 0.471655
0.657701 0.662999 0.482248
0.679844 0.672802 0.492842
0.701987 0.682606 0.503435
0.724129 0.692409 0.514029
0.745162 0.702465 0.525180
0.760647 0.713779 0.539120
0.776131 0.725094 0.553060
0.791616 0.736408 0.567000
0.807100 0.747723 0.580940
0.822585 0.759037 0.594880
0.234913 0.552420 0.447225
0.255113 0.560495 0.454077
0.275313 0.568570 0.460929
0.295514 0.576644 0.467781
0.315714 0.584719 0.474633
0.335914 0.592793 0.481484
0.355743 0.599024 0.484300
0.375498 0.604887 0.486308
0.395253 0.610749 0.488316
0.415009 0.616611 0.490324
0.434764 0.622474 0.492332
0.453680 0.627207 0.492013
0.472177 0.631375 0.490531
0.490675 0.635544 0.489049
0.509172 0.639712 0.487567
0.527669 0.643881 0.486085
0.546490 0.648347 0.485672
0.565635 0.653112 0.486327
0.584781 0.657876 0.486983
0.603926 0.662641 0.487639
0.623071 0.667405 0.488294
0.643029 0.673487 0.491860
0.664614 0.682202 0.501246
0.686199 0.690917 0.510632
0.707783 0.699632 0.520017
0.729368 0.708347 0.529403
0.749878 0.717316 0.539365
0.765015 0.727561 0.552207
0.780152 0.737805 0.565050
0.795289 0.748049 0.577892
0.810425 0.758293 0.590734
0.825562 0.768538 0.603576
0.252353 0.588294 0.476766
0.273167 0.595664 0.483306
0.293980 0.603035 0.489847
0.314793 0.610405 0.496388
0.335606 0.617775 0.502929
0.356419 0.625145 0.509470
0.376328 0.630809 0.512340
0.396055 0.636132 0.514476
0.415783 0.641454 0.516612
0.435511 0.646777 0.518748
0.455238 0.652100 0.520884
0.473780 0.656384 0.520785
0.491728 0.660150 0.519568
0.509676 0.663916 0.518351
0.527625 0.667682 0.517135
0.545573 0.671448 0.515918
0.563155 0.675064 0.514732
0.580370 0.678529 0.513576
0.597585 0.681995 0.512421
0.614800 0.685460 0.511265
0.632015 0.688926 0.510109
0.650500 0.693778 0.512065
0.671527 0.701405 0.520243
0.692553 0.709031 0.528421
0.713580 0.716658 0.536600
0.734607 0.724284 0.544778
0.754594 0.732168 0.553551
0.769383 0.741342 0.565295
0.784172 0.750516 0.577040
0.798961 0.759690 0.588784
0.813751 0.768864 0.600529
0.828540 0.778038 0.612273
0.272520 0.621836 0.505250
0.293824 0.628502 0.511407
0.315128 0.635168 0.517563
0.336432 0.641834 0.523720
0.357736 0.648500 0.529877
0.379040 0.655165 0.536033
0.398891 0.660260 0.538870
0.418451 0.665039 0.541043
0.438011 0.669819 0.543215
0.457571 0.674599 0.545388
0.477130 0.679379 0.547560
0.495203 0.683210 0.547618
0.512533 0.686568 0.546618
0.529862 0.689925 0.545618
0.547191 0.693282 0.544617
0.564521 0.696640 0.543617
0.580991 0.699568 0.541958
0.596602 0.702067 0.539641
0.612213 0.704565 0.537323
0.627824 0.707064 0.535006
0.643435 0.709563 0.532688
0.660494 0.713404 0.533411
0.680451 0.719930 0.540214
0.700407 0.726456 0.547017
0.720363 0.732981 0.553820
0.740320 0.739507 0.560623
0.759354 0.746301 0.568052
0.773777 0.754442 0.578607
0.788200 0.762582 0.589162
0.802624 0.770722 0.599717
0.817047 0.778862 0.610273
0.831470 0.787002 0.620828
0.298137 0.650715 0.531624
0.319688 0.656676 0.537250
0.341239 0.662638 0.542876
0.362790 0.668599 0.548502
0.384341 0.674561 0.554128
0.405893 0.680522 0.559754
0.425411 0.685041 0.562380
0.444522 0.689272 0.564406
0.463634 0.693503 0.566433
0.482746 0.697734 0.568459
0.501857 0.701965 0.570485
0.519275 0.705333 0.570573
0.535845 0.708270 0.569692
0.552415 0.711206 0.568811
0.568985 0.714143 0.567929
0.585555 0.717079 0.567048
0.601170 0.719646 0.565517
0.615829 0.721843 0.563337
0.630489 0.724040 0.561157
0.645149 0.726237 0.558977
0.659808 0.728434 0.556796
0.675535 0.731699 0.557040
0.693397 0.737099 0.562133
0.711258 0.742500 0.567225
0.729119 0.747900 0.572317
0.746981 0.753300 0.577410
0.764202 0.758997 0.583184
0.778223 0.766177 0.592367
0.792244 0.773357 0.601550
0.806265 0.780536 0.610733
0.820285 0.787716 0.619916
0.834306 0.794895 0.629099
0.323754 0.679594 0.557998
0.345552 0.684851 0.563093
0.367351 0.690108 0.568188
0.389149 0.695365 0.573284
0.410947 0.700622 0.578379
0.432745 0.705879 0.583475
0.451931 0.709823 0.585891
0.470594 0.713505 0.587770
0.489258 0.717187 0.589650
0.507921 0.720869 0.591530
0.526584 0.724552 0.593410
0.543346 0.727456 0.593529
0.559157 0.729972 0.592766
0.574968 0.732487 0.592004
0.590778 0.735003 0.591242
0.606589 0.737519 0.590479
0.621349 0.739724 0.589077
0.635057 0.741619 0.587034
0.648765 0.743515 0.584990
0.662473 0.745410 0.582947
0.676182 0.747305 0.580904
0.690576 0.749993 0.580670
0.706342 0.754268 0.584051
0.722109 0.758544 0.587433
0.737876 0.762819 0.590815
0.753642 0.767094 0.594196
0.769051 0.771693 0.598316
0.782669 0.777912 0.606127
0.796287 0.784131 0.613938
0.809905 0.790350 0.621749
0.823524 0.796570 0.629560
0.837142 0.802789 0.637371
0.349372 0.708472 0.584371
0.371417 0.713025 0.588936
0.393462 0.717577 0.593501
0.415507 0.722130 0.598066
0.437552 0.726683 0.602631
0.459597 0.731235 0.607195
0.478451 0.734605 0.609401
0.496666 0.737738 0.611134
0.514881 0.740872 0.612868
0.533096 0.744005 0.614601
0.551311 0.747138 0.616335
0.567417 0.749579 0.616484
0.582469 0.751674 0.615840
0.597520 0.753769 0.615197
0.612572 0.755864 0.614554
0.627623 0.757958 0.613910
0.641528 0.759803 0.612636
0.654284 0.761396 0.610730
0.667041 0.762989 0.608824
0.679798 0.764582 0.606918
0.692555 0.766176 0.605012
0.705617 0.768288 0.604299
0.719288 0.771438 0.605970
0.732960 0.774588 0.607641
0.746632 0.777738 0.609312
0.760303 0.780888 0.610983
0.773899 0.784389 0.613449
0.787115 0.789648 0.619887
0.800331 0.794906 0.626326
0.813546 0.800165 0.632765
0.826762 0.805423 0.639203
0.839978 0.810682 0.645642
0.374989 0.737351 0.610745
0.397281 0.741199 0.614779
0.419573 0.745047 0.618813
0.441865 0.748896 0.622848
0.464158 0.752744 0.626882
0.486450 0.756592 0.630916
0.504971 0.759387 0.632911
0.522738 0.761971 0.634498
0.540505 0.764556 0.636085
0.558271 0.767140 0.637673
0.576038 0.769724 0.639260
0.591489 0.771702 0.639439
0.605781 0.773376 0.638915
0.620073 0.775050 0.638390
0.634365 0.776724 0.637866
0.648658 0.778398 0.637341
0.661706 0.779881 0.636195
0.673512 0.781172 0.634426
0.685317 0.782464 0.632658
0.697123 0.783755 0.630889
0.708928 0.785046 0.629120
0.720658 0.786582 0.627928
0.732234 0.788607 0.627888
0.743811 0.790632 0.627849
0.755388 0.792656 0.627809
0.766965 0.794681 0.627769
0.778747 0.797085 0.628581
0.791561 0.801383 0.633647
0.804374 0.805681 0.638714
0.817187 0.809979 0.643780
0.830001 0.814277 0.648847
0.842814 0.818575 0.653913
0.401969 0.764355 0.635771
0.424374 0.767543 0.639296
0.446779 0.770731 0.642821
0.469184 0.773919 0.646346
0.491589 0.777107 0.649871
0.513994 0.780295 0.653397
0.532065 0.782544 0.655166
0.549269 0.784605 0.656584
0.566474 0.786667 0.658001
0.583678 0.788728 0.659419
0.600882 0.790790 0.660837
0.615589 0.792326 0.661009
0.629047 0.793601 0.660558
0.642506 0.794876 0.660107
0.655964 0.796150 0.659655
0.669422 0.797425 0.659204
0.681571 0.798562 0.658145
0.692412 0.799562 0.656479
0.703252 0.800563 0.654812
0.714092 0.801563 0.653146
0.724933 0.802563 0.651479
0.735390 0.803582 0.649875
0.745081 0.804639 0.648396
0.754771 0.805695 0.646917
0.764462 0.806752 0.645439
0.774153 0.807808 0.643960
0.784275 0.809256 0.643355
0.796553 0.812663 0.647123
0.808831 0.816069 0.650890
0.821109 0.819475 0.654657
0.833387 0.822881 0.658425
0.845665 0.826287 0.662192
0.435764 0.781984 0.654063
0.457610 0.784733 0.657185
0.479457 0.787482 0.660308
0.501304 0.790231 0.663430
0.523151 0.792980 0.666553
0.544998 0.795729 0.669675
0.562031 0.797577 0.671141
0.578101 0.799245 0.672275
0.594171 0.800913 0.673410
0.610241 0.802581 0.674544
0.626311 0.804249 0.675678
0.639834 0.805460 0.675652
0.652085 0.806442 0.675045
0.664336 0.807424 0.674438
0.676586 0.808405 0.673832
0.688837 0.809387 0.673225
0.699866 0.810259 0.672052
0.709672 0.811022 0.670312
0.719479 0.811784 0.668572
0.729286 0.812546 0.666833
0.739092 0.813309 0.665093
0.748580 0.814108 0.663413
