Assets/1__3DArt/KimSe/artstation_asset/LUTs_subway_asset/CUBE/Paranormal 01.cube
# LUT by SparkleStock. Enhanced with VOXCOLOR algorithms.
LUT_3D_SIZE 8
DOMAIN_MIN 0.000000 0.000000 0.000000
DOMAIN_MAX 0.903226 0.903226 0.903226
0.031258 0.058608 0.085958
0.061696 0.080350 0.110158
0.108070 0.112269 0.143330
0.175265 0.155784 0.186971
0.266675 0.211533 0.241278
0.387861 0.280350 0.303856
0.523699 0.354996 0.362968
0.652535 0.426303 0.409918
0.038442 0.116838 0.123770
0.087030 0.156729 0.156166
0.148858 0.201925 0.195979
0.228689 0.254759 0.242999
0.329155 0.316271 0.296410
0.451073 0.385088 0.353865
0.579593 0.453636 0.406391
0.696805 0.514770 0.447412
0.046697 0.204128 0.181000
0.108355 0.250764 0.217549
0.186359 0.298567 0.256582
0.278696 0.352382 0.301364
0.383890 0.414408 0.352842
0.504571 0.479701 0.404863
0.625617 0.541217 0.451010
0.732759 0.593336 0.486751
0.063744 0.318902 0.259144
0.138758 0.364111 0.295925
0.229521 0.407601 0.330852
0.329540 0.454238 0.368382
0.435027 0.507094 0.411103
0.551646 0.565702 0.457196
0.664310 0.619060 0.496683
0.761844 0.662786 0.527046
0.097751 0.456584 0.357218
0.189176 0.494859 0.390614
0.287007 0.530067 0.420692
0.387296 0.563216 0.447547
0.488239 0.597177 0.473468
0.595526 0.644606 0.511054
0.697991 0.688234 0.542994
0.785507 0.723728 0.567349
0.168648 0.602537 0.468195
0.274563 0.629395 0.495005
0.375999 0.653290 0.517667
0.471445 0.675108 0.536399
0.559983 0.695841 0.551891
0.640778 0.717363 0.566497
0.728581 0.747525 0.588264
0.804992 0.774499 0.605801
0.288385 0.726433 0.570664
0.397691 0.742728 0.590522
0.493014 0.756510 0.605489
0.575639 0.768440 0.615904
0.646908 0.779085 0.622370
0.706699 0.788727 0.626072
0.765916 0.802374 0.633580
0.823390 0.817601 0.641077
0.446256 0.817653 0.653307
0.543414 0.827442 0.667565
0.620955 0.834448 0.676152
0.682635 0.839389 0.679626
0.731987 0.842954 0.678823
0.771317 0.845899 0.675304
0.806866 0.849292 0.673035
0.845161 0.855516 0.673375
0.039765 0.069573 0.112427
0.059665 0.080923 0.125356
0.095190 0.106390 0.153063
0.150126 0.145502 0.194911
0.227924 0.197920 0.250060
0.338572 0.266738 0.319371
0.474117 0.347361 0.392900
0.615253 0.431785 0.460719
0.045047 0.134536 0.157264
0.085476 0.168115 0.190515
0.139557 0.209654 0.229524
0.211804 0.260020 0.276195
0.305287 0.319491 0.331297
0.424485 0.388308 0.393559
0.556849 0.460094 0.453759
0.683561 0.527377 0.504446
0.049637 0.218295 0.214987
0.106157 0.265507 0.260182
0.180954 0.313154 0.301920
0.269840 0.365340 0.346522
0.370597 0.424317 0.397571
0.490115 0.488084 0.451750
0.614485 0.550314 0.501585
0.727734 0.604827 0.541848
0.059426 0.324397 0.289045
0.135139 0.377897 0.340336
0.227434 0.424257 0.380395
0.327446 0.469810 0.417782
0.430357 0.519201 0.458561
0.544841 0.574556 0.503960
0.658441 0.626499 0.544536
0.758717 0.670445 0.577054
0.081340 0.452656 0.380533
0.183534 0.505851 0.433580
0.287259 0.545782 0.470280
0.390173 0.578596 0.497604
0.491524 0.610704 0.522604
0.596069 0.654087 0.557258
0.697265 0.694774 0.588178
0.784651 0.728763 0.612784
0.134380 0.592901 0.485948
0.265796 0.636946 0.533882
0.378706 0.666706 0.564077
0.478260 0.688822 0.584005
0.568283 0.708395 0.599412
0.647808 0.727458 0.612220
0.732984 0.754377 0.631834
0.807092 0.778737 0.648157
0.234064 0.717431 0.586881
0.384736 0.747986 0.624236
0.497310 0.767060 0.646561
0.585415 0.779873 0.659505
0.659176 0.790242 0.667324
0.718604 0.798539 0.670549
0.774919 0.809821 0.675905
0.828720 0.822272 0.681535
0.375725 0.814756 0.671804
0.526595 0.831216 0.696705
0.625809 0.841847 0.711569
0.693992 0.848523 0.718888
0.746650 0.852764 0.720782
0.786287 0.855199 0.718146
0.819471 0.857209 0.714565
0.853788 0.861128 0.712552
0.046800 0.082681 0.139832
0.063004 0.089445 0.148748
0.088941 0.106481 0.169436
0.131403 0.137993 0.205992
0.195912 0.186382 0.260492
0.292082 0.252503 0.332596
0.419507 0.334248 0.414703
0.563047 0.425099 0.496665
0.054948 0.156451 0.196050
0.089726 0.181897 0.223446
0.134465 0.215463 0.257557
0.196163 0.260138 0.301712
0.279696 0.317189 0.357397
0.390068 0.384756 0.422452
0.520159 0.458643 0.489624
0.653399 0.532341 0.551160
0.058585 0.244260 0.261706
0.106380 0.280557 0.298509
0.174897 0.323172 0.338792
0.258569 0.373076 0.384270
0.354401 0.430317 0.435677
0.470454 0.492981 0.491699
0.596114 0.556176 0.545638
0.715584 0.614074 0.591814
0.064496 0.347607 0.337017
0.128589 0.390135 0.379158
0.219228 0.435345 0.421189
0.320549 0.482088 0.462384
0.423154 0.530220 0.503158
0.537187 0.583874 0.548754
0.652860 0.635086 0.590705
0.757005 0.679298 0.625191
0.079797 0.466354 0.422087
0.168946 0.511994 0.468227
0.276458 0.554386 0.509433
0.386859 0.590909 0.542373
0.490752 0.622443 0.567702
0.594887 0.663442 0.600845
0.696457 0.702260 0.631431
0.785135 0.735101 0.656454
0.120371 0.597261 0.518933
0.241273 0.637864 0.562958
0.365223 0.672619 0.599413
0.478154 0.699712 0.625945
0.571956 0.719165 0.642347
0.652144 0.736627 0.654536
0.736601 0.761375 0.672776
0.810056 0.783812 0.688388
0.202976 0.716983 0.613076
0.350341 0.746760 0.648970
0.481729 0.771176 0.677702
0.588212 0.788844 0.697183
0.666516 0.799685 0.706979
0.727179 0.807228 0.710734
0.782556 0.816804 0.715099
0.834441 0.827266 0.719707
0.326759 0.814045 0.694353
0.485376 0.830699 0.718963
0.609760 0.845091 0.739184
0.699098 0.855374 0.752309
0.756739 0.860791 0.757190
0.797830 0.863278 0.756196
0.830170 0.864307 0.752457
0.862082 0.866662 0.749395
0.053779 0.098168 0.170854
0.069288 0.103346 0.179111
0.089320 0.113950 0.194579
0.121323 0.137191 0.224772
0.171816 0.178083 0.274679
0.252678 0.240582 0.347344
0.366605 0.320360 0.433589
0.504012 0.412484 0.523914
0.066513 0.181903 0.239817
0.097329 0.200070 0.260096
0.134334 0.225080 0.287818
0.185551 0.262088 0.327307
0.257045 0.313969 0.380854
0.356161 0.380000 0.447546
0.479032 0.454284 0.519493
0.613358 0.532045 0.589576
0.072016 0.277664 0.316086
0.112139 0.301576 0.340716
0.172897 0.335623 0.375032
0.248950 0.379959 0.418232
0.337592 0.433991 0.469233
0.447737 0.495968 0.526859
0.571249 0.559787 0.584312
0.694733 0.620911 0.636297
0.077354 0.382102 0.395626
0.128583 0.409211 0.422422
0.212125 0.447410 0.459595
0.310663 0.491780 0.501174
0.413076 0.539199 0.543527
0.526025 0.592231 0.589999
0.642833 0.643320 0.633715
0.751145 0.688615 0.670849
0.089627 0.493036 0.476420
0.159284 0.523336 0.506386
0.260710 0.561312 0.544023
0.374321 0.599094 0.579852
0.485894 0.633064 0.609262
0.591985 0.673204 0.642420
0.695863 0.711105 0.673486
0.787390 0.743318 0.699244
0.122883 0.612930 0.563399
0.220383 0.642120 0.594074
0.342264 0.675458 0.629161
0.464754 0.705792 0.660051
0.570762 0.728684 0.681299
0.653811 0.745647 0.694013
0.739672 0.769277 0.711843
0.814246 0.790539 0.727361
0.192202 0.724046 0.647410
0.317490 0.746945 0.674256
0.452971 0.771881 0.703217
0.575184 0.793367 0.727422
0.668707 0.807853 0.742343
0.732547 0.815382 0.747416
0.788866 0.824016 0.751826
0.840651 0.833300 0.756247
0.298667 0.816064 0.720736
0.442762 0.830131 0.740442
0.578517 0.845537 0.761657
0.688205 0.858811 0.779149
0.761977 0.867522 0.789270
0.806138 0.870582 0.790372
0.839098 0.871158 0.787389
0.870192 0.872627 0.784361
0.061814 0.116200 0.207602
0.076957 0.120811 0.215878
0.095625 0.129175 0.229730
0.120799 0.145624 0.254428
0.157300 0.175271 0.295412
0.223562 0.233232 0.366632
0.321059 0.309464 0.453856
0.445655 0.399410 0.547885
0.078793 0.210327 0.288604
0.106679 0.223861 0.304227
0.139254 0.242346 0.326092
0.182212 0.270983 0.359105
0.241125 0.313975 0.406880
0.328899 0.377962 0.473926
0.441124 0.450933 0.547777
0.570078 0.529156 0.622123
0.088553 0.315041 0.374604
0.124748 0.331680 0.392072
0.177658 0.355524 0.416926
0.243875 0.390075 0.452578
0.322460 0.437432 0.500605
0.424641 0.498574 0.559250
0.542292 0.562422 0.619026
0.666022 0.625745 0.675516
0.096240 0.422832 0.459291
0.140614 0.440118 0.476417
0.211854 0.465987 0.501587
0.300794 0.501376 0.536012
0.400506 0.546275 0.579378
0.510577 0.599080 0.627097
0.626324 0.650556 0.672908
0.738085 0.697931 0.713547
0.107855 0.529085 0.538852
0.164174 0.546991 0.556013
0.248056 0.572701 0.580651
0.355014 0.605171 0.611760
0.476726 0.642990 0.647477
0.586789 0.683478 0.682216
0.694358 0.721330 0.714582
0.789956 0.753641 0.741535
0.138147 0.637141 0.615586
0.216162 0.656076 0.634645
0.318435 0.679788 0.658756
0.437849 0.707493 0.686889
0.562346 0.736506 0.715771
0.652314 0.754835 0.730859
0.742074 0.778469 0.749507
0.819589 0.799350 0.765661
0.198495 0.737350 0.687811
0.301916 0.753643 0.706167
0.420025 0.772429 0.727391
0.544433 0.793336 0.750692
0.662561 0.814115 0.773162
0.734260 0.823263 0.781024
0.793800 0.831923 0.786534
0.847369 0.840842 0.791582
0.290070 0.821124 0.750519
0.415027 0.832423 0.765233
0.540245 0.844926 0.781886
0.658242 0.858762 0.799941
0.758985 0.872502 0.817012
0.810791 0.877365 0.821275
0.846293 0.878215 0.819844
0.878184 0.879416 0.817687
0.071834 0.137374 0.252787
0.087124 0.142571 0.262233
0.105212 0.150484 0.275806
0.128349 0.164164 0.297430
0.159471 0.187480 0.331846
0.208315 0.232708 0.393552
0.289980 0.304988 0.479556
0.398744 0.392104 0.574183
0.093058 0.241893 0.345059
0.118824 0.253633 0.358567
0.147911 0.268084 0.376383
0.185518 0.289778 0.402593
0.236559 0.323281 0.441335
0.311560 0.379406 0.502947
0.412977 0.451220 0.577297
0.532672 0.528810 0.653241
0.107166 0.354926 0.438390
0.140821 0.368114 0.452062
0.187361 0.385289 0.470421
0.244692 0.410101 0.496843
0.313383 0.446266 0.534557
0.407840 0.503134 0.591204
0.519104 0.567203 0.652422
0.638822 0.631120 0.710926
0.118879 0.468109 0.527016
0.160957 0.480583 0.539468
0.223933 0.498109 0.556783
0.300950 0.522353 0.580759
0.388452 0.555627 0.613503
0.496059 0.606652 0.661972
0.609168 0.658891 0.709541
0.720998 0.707527 0.752265
0.133421 0.574562 0.606322
0.186553 0.586326 0.617916
0.260936 0.603073 0.634148
0.353724 0.624569 0.654780
0.461041 0.651807 0.680643
0.575453 0.692824 0.718711
0.684046 0.731705 0.752898
0.782760 0.765551 0.781835
0.162542 0.666810 0.670760
0.229437 0.678470 0.681873
0.316046 0.694415 0.697366
0.418778 0.714289 0.716789
0.532421 0.737509 0.739385
0.643962 0.762940 0.763354
0.741960 0.788414 0.785127
0.824489 0.809938 0.802982
0.218914 0.755237 0.731178
0.305643 0.765955 0.742797
0.406691 0.779328 0.757240
0.516525 0.795077 0.774186
0.628638 0.812596 0.792819
0.728369 0.829941 0.810111
0.796610 0.840577 0.818663
0.854414 0.850041 0.825234
0.300401 0.829540 0.782891
0.406637 0.837897 0.793101
0.517332 0.847553 0.805309
0.626347 0.858548 0.819305
0.727465 0.870711 0.834417
0.807741 0.883157 0.847901
0.851026 0.885830 0.849298
0.885812 0.887443 0.848498
0.084060 0.161700 0.307424
0.099496 0.168457 0.318530
0.117351 0.176981 0.332915
0.139345 0.189346 0.353060
0.167619 0.208451 0.382357
0.209047 0.244238 0.432476
0.274616 0.307728 0.512137
0.366749 0.390240 0.604470
0.109162 0.276855 0.409260
0.133847 0.288343 0.421801
0.160363 0.300722 0.437323
0.193654 0.317769 0.458750
0.238280 0.343442 0.489341
0.303240 0.387350 0.538251
0.395205 0.454963 0.609000
0.505787 0.531730 0.684843
0.127512 0.396982 0.506918
0.160102 0.408893 0.518804
0.202010 0.422378 0.533141
0.251984 0.440612 0.552919
0.311223 0.467050 0.581152
0.393883 0.510717 0.625148
0.501426 0.573098 0.684586
0.618226 0.638038 0.744243
0.143605 0.513573 0.595845
0.185093 0.524152 0.606262
0.242172 0.537036 0.618820
0.309426 0.553936 0.635546
0.384708 0.577259 0.658819
0.479364 0.615491 0.695684
0.593452 0.667324 0.742896
0.707228 0.717666 0.787501
0.162234 0.619466 0.672287
0.214945 0.628805 0.681356
0.283001 0.640359 0.692689
0.364504 0.654616 0.706389
0.457193 0.673033 0.723697
0.558315 0.703011 0.752196
0.671605 0.742300 0.787456
0.775857 0.778022 0.818807
0.193477 0.705176 0.730041
0.258535 0.713750 0.738138
0.337560 0.724496 0.748601
0.427952 0.737561 0.761371
0.526577 0.753136 0.776457
0.627793 0.772306 0.794710
0.733753 0.799411 0.819204
0.824234 0.822971 0.839996
0.245812 0.777063 0.775725
0.324330 0.784742 0.783412
0.413598 0.794176 0.793129
0.510162 0.805376 0.804842
0.610213 0.818283 0.818365
0.706534 0.832917 0.833195
0.789637 0.847879 0.846714
0.858728 0.860534 0.857409
0.320114 0.838957 0.814846
0.412768 0.845038 0.821503
0.509967 0.852304 0.830033
0.607636 0.860816 0.840387
0.701764 0.870643 0.852347
0.784822 0.882252 0.865215
0.845799 0.890799 0.873020
0.892277 0.896073 0.876682
0.098058 0.189113 0.370609
0.113640 0.197627 0.383630
0.131499 0.207424 0.399821
0.152933 0.219530 0.419938
0.179559 0.235849 0.445733
0.216681 0.264202 0.485593
0.271439 0.316573 0.552166
0.348887 0.392181 0.637589
0.126411 0.314477 0.479208
0.150898 0.326022 0.491171
0.175564 0.337780 0.505786
0.205370 0.352213 0.524460
0.244719 0.372103 0.549026
0.301233 0.404823 0.585771
0.383004 0.461498 0.644526
0.486042 0.534981 0.715814
0.148651 0.440416 0.578303
0.181561 0.451835 0.589095
0.220357 0.463439 0.600964
0.264346 0.477616 0.616381
0.315102 0.496955 0.637611
0.386094 0.527959 0.669103
0.484343 0.580036 0.717966
0.599061 0.643408 0.774640
0.169091 0.558652 0.664517
0.211571 0.568604 0.674004
0.264986 0.578943 0.683507
0.324649 0.591291 0.695372
0.389032 0.607593 0.711800
0.469359 0.633443 0.737099
0.575156 0.676101 0.775617
0.690725 0.725537 0.818437
0.192156 0.662355 0.735275
0.246211 0.670844 0.743371
0.310673 0.679661 0.751758
0.383997 0.689624 0.760967
0.464366 0.702003 0.772255
0.549203 0.721372 0.791199
0.655185 0.753179 0.820144
0.763633 0.788328 0.850873
0.226576 0.742113 0.785723
0.293050 0.749578 0.792672
0.368304 0.757430 0.800232
0.450043 0.766113 0.808661
0.535847 0.776126 0.818295
0.621998 0.788862 0.830322
0.721619 0.811076 0.851213
0.817119 0.834736 0.872796
0.277636 0.801517 0.820157
0.354237 0.807855 0.825805
0.437225 0.814871 0.832558
0.524083 0.822753 0.840564
0.612175 0.831675 0.849881
0.696735 0.842136 0.860563
0.779636 0.856363 0.874010
0.856629 0.871134 0.887705
0.345965 0.851181 0.847649
0.431176 0.855842 0.851832
0.519005 0.861395 0.857632
0.606727 0.867863 0.865079
0.691632 0.875325 0.874079
0.768431 0.884374 0.884327
0.834923 0.894680 0.894283
0.891796 0.903563 0.902118
