Assets/1__3DArt/KimSe/artstation_asset/LUTs_subway_asset/CUBE/Paranormal 03.cube
# LUT by SparkleStock. Enhanced with VOXCOLOR algorithms.
LUT_3D_SIZE 5
DOMAIN_MIN 0.000000 0.000000 0.000000
DOMAIN_MAX 0.903226 0.903226 0.903226
0.058608 0.031258 0.042979
0.101107 0.060223 0.079341
0.198771 0.123400 0.153153
0.375147 0.233928 0.268337
0.585450 0.375241 0.385576
0.080436 0.130348 0.108441
0.177538 0.218995 0.185014
0.312391 0.317976 0.276636
0.490897 0.433269 0.384298
0.665423 0.536001 0.472144
0.137784 0.340644 0.262980
0.269672 0.424615 0.340120
0.415045 0.500794 0.408735
0.576982 0.589609 0.489646
0.719914 0.657785 0.550814
0.257584 0.608074 0.484801
0.409695 0.655461 0.533652
0.541166 0.689653 0.565292
0.652497 0.715518 0.585671
0.761800 0.751712 0.617570
0.456056 0.806089 0.665958
0.588017 0.819962 0.680384
0.679006 0.824404 0.681805
0.745486 0.823327 0.674884
0.802685 0.823270 0.668826
0.062563 0.039789 0.076057
0.087800 0.052058 0.096771
0.149725 0.098390 0.165542
0.290037 0.200799 0.294702
0.518923 0.373086 0.459129
0.081772 0.155571 0.173891
0.163702 0.230686 0.250933
0.284962 0.323424 0.342615
0.458139 0.439883 0.454018
0.651860 0.555970 0.553121
0.125718 0.347462 0.316452
0.258069 0.440175 0.410816
0.408694 0.517636 0.482096
0.568663 0.602283 0.558030
0.718644 0.671395 0.617276
0.214312 0.593561 0.511606
0.397557 0.665709 0.591467
0.547720 0.707163 0.632025
0.660217 0.731149 0.650708
0.767303 0.762079 0.675893
0.367789 0.793303 0.684931
0.574940 0.827141 0.725509
0.695057 0.841531 0.740160
0.766290 0.842424 0.737546
0.817429 0.839605 0.729563
0.065540 0.050612 0.121052
0.086455 0.057553 0.139406
0.121909 0.083434 0.194152
0.216390 0.165103 0.319622
0.420714 0.335773 0.499188
0.090546 0.200956 0.267813
0.153131 0.244691 0.314515
0.252679 0.318625 0.393383
0.407769 0.432407 0.505287
0.610174 0.561641 0.617275
0.140679 0.401945 0.422457
0.237548 0.453836 0.473089
0.388910 0.526640 0.542746
0.556071 0.614873 0.622302
0.719073 0.689470 0.684496
0.218308 0.618639 0.581808
0.357958 0.665039 0.632406
0.533919 0.716266 0.685482
0.663940 0.746411 0.711857
0.777843 0.777476 0.735620
0.336770 0.795274 0.720927
0.516979 0.821978 0.754410
0.687127 0.850276 0.786679
0.779723 0.859414 0.794353
0.833322 0.856825 0.788158
0.068289 0.064815 0.190673
0.089099 0.072121 0.214550
0.118112 0.089032 0.257854
0.176065 0.146159 0.363141
0.335135 0.301852 0.539703
0.100261 0.254427 0.383356
0.152959 0.281704 0.411867
0.230564 0.327086 0.461379
0.365100 0.424215 0.555951
0.559993 0.559050 0.670803
0.163293 0.477713 0.549313
0.241090 0.502582 0.572875
0.362314 0.542735 0.610700
0.529225 0.621496 0.681055
0.703435 0.705210 0.748079
0.245558 0.663143 0.671346
0.344766 0.684132 0.692550
0.491693 0.717040 0.725324
0.658877 0.758308 0.766374
0.792776 0.797908 0.798265
0.343746 0.807708 0.769600
0.476653 0.821842 0.788562
0.637319 0.845387 0.814947
0.783009 0.871008 0.844220
0.849815 0.874286 0.844671
0.072110 0.083989 0.303919
0.092591 0.094821 0.337440
0.121265 0.109724 0.377090
0.172817 0.152445 0.448961
0.293085 0.290232 0.592120
0.111876 0.317007 0.519612
0.163131 0.341806 0.541421
0.226880 0.371002 0.572093
0.334474 0.430479 0.625077
0.523092 0.558076 0.721661
0.188944 0.555304 0.673736
0.262533 0.572466 0.688127
0.362325 0.593536 0.706472
0.492229 0.634938 0.741663
0.680512 0.716382 0.803401
0.280963 0.725629 0.770457
0.371518 0.736257 0.781470
0.492018 0.751876 0.796940
0.627633 0.774270 0.818937
0.787190 0.816175 0.856504
0.367194 0.824220 0.822028
0.471872 0.830656 0.831796
0.605758 0.846124 0.848581
0.740571 0.866220 0.871051
0.855451 0.886613 0.893311
