Assets/1__3DArt/KimSe/artstation_asset/LUTs_subway_asset/CUBE/Paranormal 01_S.cube
# LUT by SparkleStock. Enhanced with VOXCOLOR algorithms.
LUT_3D_SIZE 8
DOMAIN_MIN 0.000000 0.000000 0.000000
DOMAIN_MAX 0.903226 0.903226 0.903226
0.031258 0.058608 0.085958
0.062074 0.079783 0.109591
0.109764 0.110197 0.141392
0.178818 0.151743 0.182937
0.272047 0.205672 0.234858
0.393233 0.274489 0.296869
0.527024 0.351026 0.358407
0.653811 0.424601 0.408074
0.038442 0.116838 0.123392
0.090482 0.152357 0.140730
0.158773 0.187992 0.162920
0.244817 0.229354 0.193793
0.348750 0.280722 0.236346
0.469497 0.346465 0.295137
0.592480 0.422368 0.361993
0.702819 0.498413 0.424949
0.046563 0.204128 0.180377
0.111532 0.246215 0.199716
0.195068 0.283187 0.211335
0.293956 0.321913 0.228538
0.405002 0.367842 0.260841
0.525621 0.426364 0.312991
0.641392 0.496190 0.380016
0.740826 0.568722 0.449587
0.063185 0.318981 0.257623
0.140229 0.360836 0.281097
0.233836 0.395805 0.288116
0.338234 0.428866 0.293778
0.449304 0.464947 0.310606
0.568155 0.513078 0.352510
0.677949 0.572410 0.413915
0.769547 0.636218 0.482496
0.096365 0.456804 0.353712
0.188869 0.492750 0.378942
0.288009 0.522755 0.389921
0.389614 0.547507 0.390059
0.492119 0.570058 0.387434
0.603542 0.604723 0.414207
0.706212 0.650116 0.463713
0.790926 0.700962 0.523322
0.165938 0.602568 0.462043
0.272494 0.628121 0.484931
0.374488 0.649497 0.497404
0.470311 0.667199 0.501164
0.559113 0.682048 0.498905
0.640823 0.696075 0.497869
0.730735 0.724733 0.527493
0.807508 0.759863 0.569836
0.284824 0.726433 0.563441
0.394454 0.742082 0.581548
0.490052 0.754884 0.592212
0.572928 0.765211 0.596240
0.644458 0.773455 0.594789
0.704628 0.779895 0.589972
0.765153 0.791554 0.597010
0.823562 0.809890 0.616153
0.443988 0.817653 0.648911
0.541255 0.827222 0.662621
0.618906 0.834009 0.670114
0.680742 0.838593 0.671963
0.730313 0.841571 0.669050
0.769863 0.843669 0.663037
0.805814 0.845717 0.657944
0.844667 0.851893 0.660150
0.039765 0.069573 0.112427
0.063410 0.079039 0.127862
0.107764 0.099403 0.154681
0.171829 0.132313 0.193116
0.255196 0.179509 0.243518
0.364088 0.247740 0.309773
0.491072 0.333328 0.384583
0.622458 0.425254 0.456461
0.045047 0.134536 0.157179
0.096374 0.158119 0.177765
0.165139 0.182514 0.198632
0.250661 0.212804 0.225431
0.351900 0.253572 0.262811
0.469304 0.313177 0.317234
0.591317 0.391634 0.385633
0.704408 0.480694 0.458695
0.049607 0.218295 0.214536
0.116068 0.253998 0.240863
0.201510 0.281988 0.249784
0.301567 0.309627 0.259957
0.412561 0.343437 0.284617
0.533492 0.392757 0.328201
0.651104 0.460794 0.390994
0.753745 0.541267 0.464303
0.059239 0.324415 0.287952
0.140825 0.368243 0.320491
0.237215 0.398066 0.322609
0.342936 0.421778 0.317908
0.454462 0.446810 0.324685
0.574908 0.484454 0.355881
0.688081 0.539021 0.409768
0.784467 0.606074 0.477930
0.080746 0.452706 0.378461
0.185271 0.499010 0.416821
0.289084 0.527830 0.422871
0.391755 0.546021 0.410513
0.494757 0.560803 0.395236
0.608398 0.585335 0.409530
0.715755 0.623932 0.448414
0.806978 0.673898 0.503281
0.132755 0.592908 0.482107
0.264363 0.633240 0.521299
0.375875 0.656725 0.531855
0.473482 0.670604 0.525027
0.562213 0.680517 0.510328
0.643989 0.688830 0.495339
0.738606 0.710580 0.512113
0.822834 0.742029 0.545740
0.231638 0.717431 0.581871
0.381712 0.746329 0.615299
0.492963 0.762668 0.627586
0.579465 0.771918 0.626058
0.651869 0.778105 0.616487
0.711463 0.781646 0.600682
0.772872 0.789400 0.595034
0.836559 0.804088 0.603211
0.374115 0.814756 0.668616
0.524500 0.830742 0.692458
0.623048 0.840701 0.703800
0.690450 0.846547 0.705544
0.742349 0.849838 0.700182
0.781781 0.851222 0.688692
0.816666 0.852018 0.675155
0.856948 0.856036 0.668815
0.046800 0.082681 0.139832
0.066383 0.087695 0.151426
0.101478 0.100272 0.174605
0.155923 0.124883 0.210595
0.231425 0.165320 0.260256
0.327296 0.229130 0.326817
0.443897 0.316131 0.407674
0.573769 0.416381 0.492480
0.054948 0.156243 0.196050
0.100645 0.172177 0.215811
0.162304 0.189515 0.241176
0.241797 0.212937 0.271216
0.338955 0.247002 0.306819
0.449401 0.301610 0.358152
0.566921 0.380092 0.426690
0.682251 0.475583 0.504948
0.058585 0.244139 0.261524
0.117519 0.269148 0.284953
0.200396 0.290442 0.301555
0.299929 0.311519 0.317314
0.410262 0.336731 0.338079
0.529604 0.378019 0.374590
0.647542 0.442139 0.431283
0.754290 0.524750 0.502582
0.064330 0.347607 0.336407
0.136175 0.380356 0.363456
0.234500 0.405314 0.373314
0.344680 0.423942 0.373727
0.457521 0.439835 0.373844
0.579670 0.467160 0.395081
0.696297 0.514410 0.438668
0.798033 0.579565 0.500162
0.079193 0.466354 0.420726
0.172044 0.504947 0.453509
0.281202 0.532942 0.466023
0.391645 0.549722 0.456554
0.496110 0.557877 0.431976
0.611957 0.572775 0.435272
0.724006 0.603144 0.462739
0.821963 0.649060 0.509565
0.119029 0.597261 0.516268
0.240757 0.634061 0.551850
0.363445 0.660345 0.568860
0.473287 0.675847 0.564594
0.563497 0.681874 0.540767
0.646048 0.684813 0.513548
0.745564 0.699197 0.518054
0.837462 0.725435 0.542399
0.200967 0.716983 0.609420
0.348058 0.745126 0.641401
0.477648 0.765686 0.659888
0.581099 0.778122 0.661652
0.655940 0.783023 0.646305
0.716054 0.784177 0.620607
0.779396 0.788098 0.603251
0.849260 0.798754 0.601450
0.325419 0.814045 0.691984
0.483678 0.830270 0.715507
0.606972 0.843607 0.732124
0.694607 0.852609 0.737889
0.750279 0.856805 0.731012
0.790576 0.858187 0.714119
0.825674 0.858238 0.692412
0.868937 0.860525 0.678149
0.053779 0.098168 0.170854
0.071130 0.102328 0.180825
0.097323 0.110431 0.200568
0.139693 0.128544 0.233462
0.202716 0.161899 0.281711
0.287463 0.219769 0.347991
0.392066 0.303066 0.430468
0.515611 0.403812 0.521239
0.066513 0.181586 0.239817
0.105106 0.193097 0.257126
0.156421 0.206357 0.284711
0.225144 0.226256 0.319008
0.313138 0.257194 0.358323
0.416766 0.307429 0.408460
0.528302 0.382823 0.475475
0.644059 0.478013 0.554221
0.071886 0.277306 0.316086
0.121129 0.293125 0.334290
0.196088 0.309414 0.357058
0.289372 0.327550 0.382123
0.395086 0.349856 0.408653
0.511984 0.385149 0.441340
0.628741 0.443912 0.491889
0.739124 0.523546 0.557682
0.076983 0.381889 0.395413
0.135759 0.401754 0.413720
0.229050 0.421210 0.430574
0.338793 0.437345 0.442303
0.452921 0.449989 0.448895
0.575810 0.469098 0.463862
0.694564 0.508428 0.497814
0.801279 0.568109 0.549906
0.088887 0.493036 0.475617
0.163099 0.517824 0.496725
0.268714 0.541437 0.513844
0.384360 0.557472 0.514639
0.496722 0.563575 0.496842
0.614517 0.569692 0.492767
0.730411 0.591176 0.509746
0.834144 0.630625 0.546721
0.121454 0.612930 0.561462
0.220624 0.639058 0.586040
0.342579 0.663809 0.606331
0.462426 0.681077 0.610296
0.563691 0.687488 0.591553
0.647482 0.685648 0.556538
0.751236 0.692617 0.551138
0.849791 0.712621 0.566672
0.190186 0.724046 0.644603
0.315891 0.745637 0.668469
0.450081 0.766605 0.689484
0.568911 0.782004 0.697800
0.657483 0.788887 0.686980
0.719011 0.788212 0.655130
0.784620 0.788524 0.628973
0.860285 0.795011 0.619229
0.297345 0.816064 0.718888
0.441437 0.829802 0.737712
0.576187 0.844070 0.756197
0.683781 0.855711 0.767053
0.754642 0.862647 0.764876
0.796809 0.864545 0.744856
0.832898 0.864274 0.717133
0.879569 0.865200 0.696838
0.061814 0.116200 0.207602
0.077848 0.120469 0.216750
0.099380 0.127606 0.232857
0.129858 0.141871 0.261262
0.174086 0.168098 0.306033
0.249099 0.219784 0.372917
0.341636 0.296713 0.455083
0.455553 0.392562 0.547213
0.078775 0.210156 0.288622
0.111291 0.219595 0.303663
0.152453 0.230762 0.326940
0.207321 0.249281 0.361641
0.279984 0.279458 0.408312
0.377788 0.326158 0.460058
0.483409 0.395804 0.524569
0.597289 0.484805 0.600077
0.088128 0.314393 0.374615
0.130147 0.326059 0.390120
0.192540 0.338708 0.410762
0.272326 0.356161 0.441475
0.367360 0.380933 0.482419
0.480888 0.413825 0.517008
0.595350 0.466812 0.563251
0.708119 0.539342 0.622152
0.095532 0.422101 0.459291
0.145430 0.434771 0.473037
0.224755 0.448183 0.488488
0.324496 0.462898 0.509628
0.437163 0.478969 0.536282
0.558980 0.494752 0.552668
0.677950 0.527307 0.580587
0.788722 0.579143 0.623318
0.107144 0.528935 0.538724
0.167882 0.542797 0.551277
0.257723 0.557562 0.564203
0.369459 0.570818 0.575333
0.494315 0.580187 0.582247
0.613860 0.580777 0.578751
0.732194 0.593931 0.588320
0.840091 0.625088 0.615097
0.136601 0.637119 0.614433
0.216674 0.653611 0.629635
0.320692 0.670631 0.644149
0.439481 0.686287 0.655453
0.560399 0.697493 0.657631
0.648078 0.693045 0.624612
0.755114 0.693162 0.613703
0.858320 0.706325 0.621818
0.196307 0.737350 0.685685
0.300562 0.752517 0.701996
0.418557 0.768237 0.717826
0.540623 0.783320 0.731097
0.653822 0.795332 0.736120
0.720503 0.794329 0.706537
0.788613 0.791542 0.676521
0.868619 0.793922 0.661760
0.288638 0.821124 0.749028
0.413815 0.832104 0.763094
0.538598 0.843759 0.777845
0.654914 0.855819 0.792046
0.752523 0.866942 0.801294
0.800581 0.870250 0.784006
0.838519 0.870058 0.754286
0.888056 0.869923 0.730913
0.071834 0.137374 0.252787
0.087575 0.142522 0.262520
0.106741 0.149915 0.277036
0.131986 0.162594 0.300269
0.166481 0.184430 0.336807
0.219978 0.227627 0.400324
0.301367 0.298872 0.482905
0.405019 0.388330 0.574937
0.092893 0.241869 0.345224
0.121150 0.251393 0.358810
0.154616 0.262023 0.377894
0.198264 0.278352 0.405582
0.256675 0.305002 0.445025
0.339649 0.352505 0.504624
0.440241 0.418109 0.570380
0.551766 0.499114 0.642887
0.106552 0.354260 0.438486
0.143396 0.364897 0.451862
0.195130 0.376122 0.469063
0.259930 0.391483 0.494293
0.338180 0.414746 0.530620
0.442600 0.455163 0.581390
0.555584 0.504990 0.629094
0.670277 0.568213 0.682452
0.117738 0.466823 0.527016
0.163036 0.477122 0.538614
0.230753 0.488057 0.552185
0.314183 0.500709 0.571051
0.409868 0.516908 0.597859
0.527810 0.543664 0.636337
0.646952 0.573098 0.665711
0.761212 0.614759 0.700941
0.131874 0.573218 0.606303
0.187943 0.583123 0.616382
0.266194 0.594075 0.627743
0.362455 0.604608 0.639511
0.472853 0.614222 0.652557
0.595221 0.625728 0.675743
0.714503 0.635091 0.687130
0.825546 0.656078 0.705687
0.161038 0.666618 0.670595
0.229529 0.676774 0.679923
0.318577 0.687923 0.690116
0.422892 0.698883 0.700037
0.536052 0.708194 0.708078
0.644459 0.711829 0.709106
0.755331 0.707683 0.702659
0.859974 0.713621 0.706218
0.216670 0.755237 0.730064
0.304130 0.765182 0.740408
0.405877 0.776198 0.751528
0.515320 0.787413 0.762315
0.625016 0.797647 0.770878
0.718714 0.803405 0.770243
0.791928 0.799203 0.746437
0.873371 0.797714 0.731177
0.298860 0.829540 0.781949
0.405315 0.837664 0.791595
0.515936 0.846676 0.802528
0.624186 0.856328 0.814016
0.723427 0.866200 0.824653
0.799645 0.874943 0.829089
0.842957 0.875570 0.805520
0.893624 0.874562 0.783692
0.084060 0.161700 0.307424
0.099630 0.168457 0.318597
0.117848 0.176839 0.333412
0.140523 0.188867 0.354096
0.169889 0.207425 0.384001
0.213092 0.242498 0.435614
0.279307 0.305580 0.514442
0.369585 0.388900 0.605462
0.108851 0.276611 0.409693
0.134766 0.287141 0.422301
0.163145 0.297887 0.438504
0.198945 0.312615 0.460746
0.246704 0.335281 0.491943
0.315399 0.375359 0.541129
0.408542 0.439306 0.608638
0.516104 0.516388 0.681867
0.126795 0.396083 0.507516
0.160904 0.406934 0.519329
0.205220 0.417823 0.533486
0.258568 0.431780 0.553244
0.322130 0.452184 0.581566
0.409865 0.487789 0.624406
0.520031 0.541446 0.678340
0.636168 0.602487 0.733644
0.142392 0.512088 0.596424
0.185414 0.521795 0.606645
0.244852 0.531808 0.618016
0.315212 0.543367 0.633172
0.394399 0.558419 0.654740
0.494591 0.584021 0.688759
0.613137 0.621321 0.728193
0.731079 0.661906 0.766365
0.160502 0.617845 0.672729
0.214766 0.626410 0.681553
0.284833 0.635467 0.691163
0.368220 0.644628 0.701552
0.462722 0.654268 0.714132
0.568256 0.668223 0.737579
0.687608 0.687643 0.762618
0.802251 0.708005 0.785205
0.191569 0.704269 0.730239
0.257669 0.712121 0.737841
0.338202 0.720666 0.746250
0.429826 0.729405 0.755180
0.528749 0.737784 0.764352
0.628311 0.744529 0.773384
0.740176 0.749842 0.784712
0.846997 0.755309 0.794238
0.243493 0.776783 0.775446
0.322437 0.784044 0.782646
0.412428 0.792229 0.790852
0.509300 0.800828 0.799628
0.608551 0.809242 0.808322
0.701581 0.816033 0.814904
0.785123 0.818124 0.812624
0.871717 0.816988 0.808275
0.318646 0.838957 0.814544
0.411378 0.844889 0.820936
0.508772 0.851718 0.828779
0.606339 0.859230 0.837733
0.699680 0.867228 0.847259
0.780571 0.875554 0.855764
0.839897 0.880236 0.851808
0.897866 0.880513 0.841923
0.098058 0.189113 0.370609
0.113640 0.197627 0.383630
0.131577 0.207424 0.399977
0.153120 0.219484 0.420176
0.179883 0.235680 0.445929
0.217335 0.263813 0.486229
0.272514 0.316239 0.553058
0.349628 0.392017 0.638166
0.126033 0.313861 0.480013
0.151190 0.325151 0.491915
0.176431 0.336430 0.506728
0.206903 0.350175 0.525650
0.247120 0.369183 0.550386
0.304620 0.400810 0.587315
0.387365 0.456384 0.645807
0.489834 0.529647 0.715959
0.147670 0.438916 0.579645
0.181386 0.450022 0.590254
0.221258 0.460904 0.602132
0.266477 0.473833 0.617717
0.318556 0.491315 0.639167
0.391086 0.519680 0.670484
0.490869 0.568697 0.718636
0.606152 0.629583 0.773226
0.167501 0.556527 0.666063
0.210773 0.566180 0.675352
0.265446 0.575724 0.684638
0.326497 0.586510 0.696333
0.392261 0.600208 0.712609
0.474500 0.621684 0.737322
0.582281 0.658762 0.774587
0.700566 0.702455 0.814310
0.190121 0.660220 0.736668
0.245009 0.668403 0.744712
0.310452 0.676472 0.752745
0.384761 0.684895 0.761289
0.466155 0.694473 0.771624
0.552830 0.708214 0.789459
0.660990 0.731736 0.816416
0.774923 0.757774 0.843000
0.224402 0.740674 0.786658
0.291438 0.747770 0.793531
0.367344 0.755021 0.800688
0.449740 0.762461 0.808344
0.536077 0.770170 0.816726
0.622171 0.778553 0.826430
0.723474 0.790802 0.844403
0.827170 0.803361 0.860691
0.275479 0.800849 0.820660
0.352264 0.806982 0.826260
0.435664 0.813609 0.832611
0.522893 0.820526 0.839746
0.611052 0.827573 0.847559
0.694873 0.834673 0.855451
0.777055 0.842133 0.864880
0.862778 0.848003 0.872066
0.344725 0.851003 0.847827
0.429937 0.855600 0.851993
0.517946 0.860986 0.857561
0.605790 0.866968 0.864477
0.690571 0.873452 0.872534
0.766825 0.880797 0.881032
0.832120 0.888284 0.888230
0.894566 0.893457 0.890550
