Assets/1__3DArt/KimSe/artstation_asset/LUTs_subway_asset/CUBE/Underground 04_S.cube
# LUT by SparkleStock. Enhanced with VOXCOLOR algorithms.
LUT_3D_SIZE 5
DOMAIN_MIN 0.000000 0.000000 0.000000
DOMAIN_MAX 0.903226 0.903226 0.903226
0.011722 0.003907 0.003907
0.143700 0.014747 0.019961
0.362125 0.034251 0.035291
0.596282 0.056513 0.048233
0.753823 0.072614 0.061034
0.071590 0.079491 0.091173
0.126093 0.105735 0.078408
0.325917 0.147292 0.069771
0.579423 0.167758 0.060075
0.754526 0.157942 0.050779
0.173351 0.203135 0.225641
0.190945 0.220900 0.214365
0.261391 0.258727 0.196246
0.489003 0.327315 0.205822
0.712567 0.340413 0.178649
0.336012 0.379495 0.399370
0.342938 0.385869 0.396180
0.358604 0.398986 0.386308
0.391660 0.418233 0.377522
0.624230 0.516081 0.409247
0.548253 0.572799 0.575273
0.552200 0.576465 0.576955
0.554825 0.577483 0.574089
0.558645 0.579218 0.571716
0.601467 0.604204 0.580884
0.012115 0.014502 0.124109
0.103543 0.064166 0.117848
0.307467 0.090716 0.162813
0.568540 0.103562 0.206882
0.750454 0.111190 0.233621
0.043208 0.146524 0.192014
0.202514 0.201829 0.228534
0.403299 0.221366 0.224702
0.641257 0.222945 0.225175
0.815569 0.212172 0.222515
0.153931 0.241705 0.268179
0.307371 0.355695 0.348948
0.403472 0.385864 0.320428
0.617344 0.405175 0.295186
0.815587 0.385449 0.259850
0.330020 0.389322 0.411283
0.482611 0.520792 0.514261
0.516313 0.550412 0.497420
0.559553 0.564728 0.452712
0.768762 0.598336 0.429393
0.548794 0.577212 0.581104
0.668038 0.679477 0.669783
0.687100 0.699572 0.674799
0.692825 0.704203 0.653293
0.740261 0.721117 0.633396
0.019016 0.038513 0.306660
0.118681 0.100990 0.293898
0.221507 0.186835 0.265727
0.461674 0.245535 0.353262
0.701670 0.253315 0.420375
0.036871 0.217764 0.402678
0.201801 0.254827 0.426024
0.379307 0.316737 0.400278
0.608165 0.336740 0.429517
0.805776 0.324186 0.453934
0.090887 0.387370 0.453453
0.283002 0.445160 0.493919
0.465626 0.477464 0.486688
0.672074 0.469084 0.469180
0.859152 0.448043 0.458665
0.278686 0.454398 0.479542
0.481294 0.568371 0.571369
0.607847 0.643289 0.613982
0.660748 0.655010 0.562661
0.850878 0.645906 0.519932
0.525491 0.595273 0.598112
0.679719 0.702296 0.693284
0.768085 0.775817 0.754617
0.782336 0.791194 0.733839
0.831668 0.800469 0.691055
0.032305 0.082705 0.508425
0.157362 0.137783 0.509784
0.293592 0.263842 0.465980
0.361352 0.373987 0.420520
0.611717 0.455590 0.545694
0.053145 0.259050 0.587814
0.214599 0.298570 0.625606
0.414674 0.388896 0.600418
0.541011 0.498902 0.561114
0.748040 0.526799 0.630761
0.106950 0.497799 0.690720
0.275394 0.516471 0.704567
0.489437 0.540097 0.689831
0.655222 0.601766 0.654734
0.839843 0.585549 0.675332
0.171468 0.641457 0.689262
0.381668 0.685497 0.713762
0.580757 0.714628 0.726032
0.730275 0.721712 0.720650
0.887634 0.695423 0.697181
0.444465 0.666149 0.671459
0.634334 0.739070 0.733646
0.766687 0.802049 0.789509
0.847084 0.851057 0.828408
0.887674 0.851349 0.787544
0.050100 0.145866 0.668447
0.184748 0.185234 0.673839
0.374369 0.302822 0.658216
0.517559 0.468306 0.614473
0.594400 0.578122 0.607976
0.073017 0.299524 0.720175
0.231656 0.346305 0.765155
0.446144 0.427102 0.756807
0.630932 0.573703 0.724473
0.722245 0.679923 0.712941
0.142900 0.523697 0.807846
0.294229 0.543373 0.826645
0.506432 0.578040 0.826704
0.703629 0.664542 0.807148
0.812255 0.748295 0.790815
0.243120 0.724783 0.863217
0.402937 0.740949 0.872968
0.580272 0.752838 0.870891
0.754300 0.769209 0.862738
0.873566 0.812763 0.845215
0.363432 0.796614 0.828549
0.552065 0.830544 0.851653
0.710012 0.858226 0.871747
0.830401 0.879906 0.887050
0.914888 0.893486 0.889355
