Assets/1__3DArt/KimSe/artstation_asset/LUTs_subway_asset/CUBE/Underground 03_S.cube
# LUT by SparkleStock. Enhanced with VOXCOLOR algorithms.
LUT_3D_SIZE 5
DOMAIN_MIN 0.000000 0.000000 0.000000
DOMAIN_MAX 0.903226 0.903226 0.903226
0.050794 0.023443 0.035165
0.177376 0.027784 0.039600
0.374075 0.042121 0.036780
0.585860 0.058521 0.037693
0.737768 0.070550 0.045973
0.113033 0.094135 0.113593
0.163506 0.120600 0.099119
0.348218 0.155980 0.078925
0.579442 0.169770 0.060801
0.741637 0.154494 0.051681
0.214069 0.212675 0.229800
0.229868 0.230951 0.219013
0.294332 0.268392 0.198342
0.505432 0.332090 0.200990
0.714536 0.339260 0.180414
0.366426 0.383450 0.378888
0.372991 0.389490 0.375382
0.385908 0.402617 0.365562
0.416465 0.422474 0.356988
0.633903 0.513569 0.393202
0.555122 0.564827 0.539037
0.558452 0.565605 0.538785
0.559791 0.567151 0.537422
0.562938 0.569314 0.535862
0.604087 0.593355 0.548148
0.054575 0.026791 0.157359
0.142353 0.075155 0.139949
0.330353 0.093995 0.165614
0.565292 0.096892 0.191339
0.736814 0.095483 0.212038
0.088700 0.156725 0.208244
0.234176 0.210413 0.238475
0.420190 0.226276 0.228875
0.642022 0.220581 0.222428
0.809363 0.199687 0.215016
0.199453 0.249501 0.268216
0.335759 0.359506 0.342593
0.422767 0.390773 0.318200
0.624942 0.406806 0.293091
0.816587 0.380222 0.260469
0.362996 0.391381 0.389658
0.497078 0.514607 0.488546
0.527314 0.545122 0.475960
0.569299 0.562184 0.436210
0.772151 0.592318 0.419753
0.556917 0.565594 0.542095
0.663637 0.660951 0.633282
0.681758 0.680450 0.639973
0.687597 0.686638 0.621247
0.734464 0.703517 0.604398
0.054984 0.042735 0.331025
0.151623 0.099360 0.307356
0.256739 0.190731 0.268597
0.474231 0.239242 0.336016
0.693371 0.230011 0.394865
0.074706 0.213374 0.406750
0.229593 0.248625 0.424889
0.398711 0.316481 0.396046
0.612315 0.330618 0.418863
0.801386 0.304848 0.439114
0.146324 0.385191 0.433261
0.322427 0.440521 0.475418
0.481221 0.475892 0.476758
0.676045 0.467297 0.463873
0.860073 0.439094 0.453850
0.326600 0.452711 0.450885
0.502109 0.559035 0.542559
0.612864 0.632579 0.591199
0.664022 0.649091 0.549446
0.852710 0.640020 0.513701
0.541449 0.583260 0.559742
0.676805 0.682166 0.657128
0.760420 0.754348 0.722722
0.775610 0.772132 0.707073
0.826293 0.783833 0.669660
0.051597 0.069755 0.513270
0.169187 0.114246 0.508212
0.312027 0.248100 0.452595
0.389346 0.375037 0.400214
0.611337 0.439352 0.514724
0.072474 0.238352 0.581515
0.225464 0.273255 0.617086
0.421311 0.367544 0.585176
0.550481 0.490972 0.538627
0.743086 0.506584 0.605041
0.134016 0.480394 0.662946
0.299082 0.497142 0.682012
0.497129 0.520716 0.671447
0.657187 0.591904 0.634774
0.837248 0.571059 0.658698
0.237040 0.630289 0.644587
0.430970 0.671054 0.678034
0.598875 0.700503 0.699796
0.731465 0.710985 0.703551
0.889049 0.686435 0.686065
0.485139 0.652908 0.632231
0.644994 0.719751 0.699114
0.762969 0.781004 0.759397
0.842604 0.833518 0.805736
0.885791 0.837124 0.770851
0.049801 0.104959 0.661483
0.170014 0.136500 0.668773
0.360986 0.256958 0.645541
0.515080 0.443678 0.586241
0.593058 0.565463 0.573195
0.072734 0.262880 0.708951
0.218660 0.306689 0.759258
0.429522 0.385246 0.747170
0.619933 0.542843 0.700673
0.713782 0.657222 0.679798
0.138541 0.498491 0.788193
0.290508 0.516095 0.813187
0.496762 0.546939 0.814337
0.692371 0.635118 0.788268
0.804033 0.725988 0.763450
0.244208 0.710226 0.837831
0.407857 0.723650 0.855427
0.579328 0.732414 0.855839
0.746821 0.746542 0.848234
0.869611 0.795174 0.826548
0.400886 0.785365 0.800867
0.571084 0.815384 0.829577
0.711860 0.842522 0.853882
0.825776 0.865096 0.871756
0.914754 0.880961 0.875310
