Assets/1__3DArt/KimSe/artstation_asset/LUTs_subway_asset/CUBE/Underground 01_S.cube
# LUT by SparkleStock. Enhanced with VOXCOLOR algorithms.
LUT_3D_SIZE 8
DOMAIN_MIN 0.000000 0.000000 0.000000
DOMAIN_MAX 0.903226 0.903226 0.903226
0.046886 0.058608 0.042979
0.121375 0.063145 0.060562
0.211533 0.069424 0.075600
0.315389 0.077522 0.088723
0.429958 0.087518 0.100587
0.548497 0.099996 0.112119
0.659632 0.114995 0.124282
0.761401 0.131522 0.137697
0.086778 0.103604 0.092702
0.113990 0.113557 0.088914
0.196682 0.127324 0.088078
0.309345 0.140106 0.088016
0.432092 0.148987 0.087713
0.555608 0.155610 0.090024
0.667938 0.162314 0.095771
0.767371 0.169583 0.104204
0.131088 0.151948 0.144834
0.142127 0.162651 0.136473
0.190515 0.179976 0.126129
0.279343 0.200163 0.118628
0.403932 0.219306 0.116253
0.533254 0.229820 0.113905
0.651583 0.235557 0.114515
0.755457 0.238670 0.117239
0.181945 0.205924 0.201426
0.189739 0.214602 0.195528
0.208359 0.231026 0.182957
0.259937 0.253336 0.171952
0.356077 0.279056 0.167950
0.484838 0.302231 0.170689
0.608755 0.315841 0.171760
0.720255 0.322837 0.171669
0.240884 0.267155 0.263886
0.245751 0.272687 0.260532
0.256790 0.284162 0.252227
0.274745 0.299630 0.240725
0.309553 0.319700 0.231068
0.419469 0.356834 0.245680
0.542166 0.386127 0.255530
0.660331 0.406425 0.259020
0.310079 0.337485 0.333459
0.313043 0.340382 0.332008
0.319070 0.346423 0.327783
0.328535 0.355061 0.321440
0.343089 0.365909 0.314308
0.371917 0.379479 0.311210
0.469147 0.422042 0.338356
0.583434 0.463375 0.358929
0.387625 0.413329 0.408232
0.389662 0.414689 0.407707
0.392688 0.417172 0.406068
0.397018 0.420717 0.403432
0.402921 0.425180 0.400074
0.411038 0.430187 0.396952
0.447123 0.447762 0.407140
0.523388 0.486786 0.431535
0.469195 0.488432 0.485171
0.470500 0.488871 0.485061
0.471546 0.489466 0.484718
0.472714 0.490262 0.484096
0.474318 0.491304 0.483218
0.476733 0.492732 0.482339
0.479514 0.494250 0.481919
0.511861 0.515053 0.496395
0.049155 0.064091 0.101776
0.099054 0.093657 0.102234
0.187016 0.101948 0.124822
0.298507 0.102093 0.152241
0.421273 0.103783 0.173014
0.545960 0.110260 0.189231
0.660437 0.122795 0.205102
0.762846 0.139389 0.222347
0.066506 0.128700 0.130275
0.132699 0.154390 0.146191
0.229410 0.164329 0.159392
0.344722 0.167855 0.169603
0.468584 0.171815 0.177218
0.593148 0.178102 0.185006
0.707687 0.188292 0.195160
0.809507 0.201757 0.208103
0.113780 0.172500 0.166058
0.178408 0.210116 0.195766
0.245591 0.230679 0.199084
0.338069 0.243210 0.194441
0.464786 0.253714 0.193857
0.593589 0.259927 0.193204
0.712244 0.265065 0.195147
0.817213 0.270301 0.199623
0.174749 0.215401 0.211903
0.233979 0.267008 0.252716
0.270845 0.295962 0.251691
0.327824 0.314741 0.237379
0.429928 0.331777 0.229396
0.560558 0.344938 0.227125
0.684288 0.351048 0.224336
0.795259 0.352747 0.221631
0.238627 0.270814 0.269112
0.297678 0.329402 0.317780
0.325749 0.357967 0.320615
0.348247 0.375281 0.303592
0.391380 0.395084 0.287850
0.508576 0.421425 0.290739
0.633322 0.439051 0.290876
0.751109 0.448403 0.286987
0.309433 0.338656 0.336637
0.370320 0.398688 0.390040
0.393506 0.423491 0.397861
0.405210 0.435079 0.385545
0.425171 0.448649 0.371662
0.463320 0.463437 0.360240
0.567659 0.496430 0.372763
0.685085 0.525211 0.380242
0.387368 0.413353 0.410214
0.448802 0.472056 0.465583
0.469323 0.492906 0.477577
0.474815 0.499067 0.470488
0.483598 0.506608 0.461533
0.497598 0.515024 0.451503
0.541242 0.531909 0.451270
0.623563 0.563708 0.462257
0.469086 0.488212 0.486049
0.529089 0.544262 0.541531
0.547723 0.562076 0.556127
0.549708 0.564583 0.553118
0.552523 0.567805 0.548841
0.557393 0.571763 0.543241
0.564990 0.576300 0.537186
0.602577 0.595431 0.542920
0.051692 0.070109 0.164189
0.100432 0.104073 0.163073
0.164024 0.130096 0.170722
0.255763 0.144337 0.193377
0.379546 0.146702 0.230513
0.511728 0.149355 0.257322
0.635128 0.157110 0.280564
0.745504 0.169434 0.303674
0.060602 0.143653 0.196347
0.137516 0.168461 0.216776
0.223275 0.191634 0.227454
0.327808 0.205117 0.240477
0.454002 0.206223 0.261606
0.583531 0.209055 0.277169
0.703546 0.216856 0.292517
0.810267 0.229360 0.309884
0.089837 0.204984 0.222229
0.173246 0.239283 0.256583
0.257430 0.266518 0.270729
0.359732 0.281928 0.277233
0.487179 0.284818 0.284374
0.616204 0.287465 0.289333
0.735751 0.292721 0.296319
0.842199 0.301069 0.306315
0.144164 0.252068 0.250486
0.225675 0.303229 0.296886
0.297880 0.339876 0.317348
0.378860 0.361674 0.319860
0.481372 0.370741 0.312932
0.611050 0.377666 0.311166
0.733262 0.382037 0.310667
0.843348 0.385681 0.312169
0.221964 0.289286 0.288577
0.302642 0.355579 0.347973
0.362970 0.403866 0.378128
0.408034 0.435272 0.379345
0.454156 0.453183 0.359094
0.575179 0.469380 0.354149
0.700136 0.478178 0.349107
0.816799 0.481091 0.343166
0.300185 0.347797 0.346899
0.382265 0.420096 0.413623
0.437585 0.471093 0.450964
0.471016 0.501786 0.457558
0.492524 0.516412 0.438140
0.537100 0.531622 0.419393
0.646404 0.555302 0.419940
0.765568 0.573186 0.418361
0.382330 0.417615 0.415583
0.463928 0.490746 0.485605
0.516492 0.540354 0.527552
0.543554 0.567400 0.539762
0.552904 0.576683 0.526086
0.571058 0.587805 0.509332
0.621026 0.603659 0.499561
0.708174 0.628276 0.499288
0.466716 0.489907 0.488374
0.545452 0.561289 0.559087
0.595257 0.608123 0.603190
0.618387 0.631396 0.619648
0.621380 0.636084 0.612284
0.628087 0.642533 0.601702
0.640386 0.650099 0.589584
0.683032 0.667481 0.586742
0.054654 0.076821 0.231793
0.108834 0.105649 0.235202
0.157779 0.147800 0.229190
0.223590 0.183412 0.235686
0.320963 0.200860 0.266782
0.452840 0.209002 0.309485
0.584087 0.215527 0.344218
0.705116 0.223633 0.376064
0.061600 0.152157 0.272185
0.135776 0.170943 0.294060
0.211553 0.206626 0.300065
0.300096 0.238502 0.307423
0.408767 0.253765 0.327052
0.539681 0.258243 0.355288
0.665440 0.263906 0.379064
0.779329 0.272699 0.402764
0.074408 0.233347 0.302299
0.156687 0.254950 0.330707
0.251087 0.285085 0.348877
0.356325 0.311017 0.360426
0.471711 0.324480 0.369530
0.600809 0.326280 0.385078
0.723017 0.330788 0.399727
0.833349 0.339113 0.416444
0.111238 0.297676 0.322540
0.196221 0.331669 0.357689
0.295404 0.366522 0.388751
0.397935 0.393895 0.405341
0.500615 0.408512 0.404725
0.628835 0.410589 0.408988
0.750425 0.413687 0.414282
0.860942 0.419108 0.422457
0.181499 0.335145 0.337893
0.268471 0.386637 0.386582
0.358208 0.439052 0.431094
0.435839 0.478843 0.452560
0.502518 0.498524 0.444365
0.622334 0.504886 0.437538
0.744582 0.508042 0.433111
0.858635 0.509501 0.430863
0.274040 0.373456 0.374308
0.362905 0.436281 0.433951
0.446071 0.499288 0.489283
0.509252 0.547034 0.519577
0.548693 0.571740 0.514698
0.594800 0.585482 0.491595
0.705692 0.600286 0.484491
0.824512 0.609589 0.478618
0.365768 0.431604 0.430630
0.453163 0.499028 0.495962
0.531847 0.564901 0.557059
0.587064 0.613343 0.593850
0.613410 0.636658 0.595726
0.632466 0.648644 0.574306
0.685992 0.662538 0.557452
0.775768 0.680292 0.549182
0.457224 0.496798 0.495684
0.540115 0.565214 0.563543
0.613813 0.630260 0.626930
0.663485 0.676546 0.667702
0.683005 0.696736 0.676151
0.689837 0.704512 0.661925
0.705196 0.714180 0.644774
0.751484 0.729431 0.634894
0.058128 0.084265 0.305479
0.113040 0.106580 0.312748
0.173006 0.152494 0.308289
0.224193 0.205547 0.296452
0.269679 0.252008 0.289553
0.381687 0.277604 0.342190
0.512290 0.291597 0.390670
0.641456 0.300188 0.434467
0.064141 0.157296 0.345394
0.132916 0.172699 0.373467
0.213661 0.209407 0.381527
0.289745 0.258655 0.377220
0.359290 0.308595 0.373193
0.477034 0.326462 0.411562
0.603928 0.336283 0.447076
0.725266 0.343408 0.480446
0.075096 0.247624 0.393721
0.148549 0.261509 0.421473
0.244012 0.287547 0.436526
0.340887 0.327147 0.440807
0.431548 0.373473 0.440876
0.553685 0.383002 0.465772
0.678313 0.387675 0.489467
0.794806 0.392290 0.513211
0.091588 0.336826 0.424646
0.170028 0.356225 0.449870
0.273254 0.379685 0.471460
0.382565 0.411612 0.486380
0.488559 0.448317 0.494527
0.611715 0.451882 0.505956
0.733533 0.452972 0.518630
0.846503 0.456009 0.533531
0.123126 0.406754 0.426489
0.211749 0.438900 0.459269
0.315328 0.472804 0.490647
0.425081 0.505541 0.518674
0.535203 0.532214 0.539443
0.647769 0.534963 0.536575
0.764766 0.536038 0.538670
0.875415 0.539347 0.544984
0.225675 0.422599 0.429239
0.320767 0.470991 0.476557
0.416510 0.521276 0.522660
0.508044 0.571284 0.565240
0.588691 0.615283 0.596318
0.637025 0.627536 0.576509
0.746299 0.634276 0.567943
0.862115 0.637476 0.563026
0.331070 0.461481 0.462829
0.426291 0.519117 0.519349
0.514728 0.577039 0.574147
0.594469 0.634111 0.625636
0.659843 0.684546 0.665286
0.682469 0.697994 0.647544
0.736625 0.709042 0.628235
0.825878 0.720408 0.616195
0.435052 0.512964 0.512569
0.525095 0.575392 0.574807
0.605379 0.636081 0.634113
0.676117 0.694726 0.690222
0.732558 0.745823 0.735627
0.743099 0.757118 0.725621
0.759613 0.767861 0.706611
0.807000 0.780293 0.692376
0.062098 0.092205 0.385450
0.114668 0.108519 0.394916
0.180587 0.150817 0.395244
0.246264 0.211481 0.384627
0.301337 0.279495 0.365633
0.338404 0.323826 0.358406
0.442003 0.362043 0.410814
0.564930 0.386045 0.469156
0.067818 0.161138 0.419511
0.130398 0.174959 0.455785
0.210514 0.208216 0.467254
0.295744 0.262544 0.462250
0.374437 0.332451 0.449203
0.428006 0.383331 0.441192
0.534316 0.415222 0.483070
0.653004 0.433056 0.530414
0.078377 0.251826 0.471418
0.143790 0.262770 0.504468
0.235526 0.286565 0.521681
0.337352 0.329457 0.525729
0.434334 0.390601 0.520203
0.504747 0.444211 0.512766
0.615025 0.466794 0.544485
0.731634 0.476606 0.580849
0.093454 0.352860 0.522492
0.161890 0.364538 0.546159
0.259519 0.382877 0.564585
0.371315 0.413557 0.575751
0.482570 0.458542 0.578610
0.568988 0.509605 0.573306
0.682842 0.522212 0.594935
0.798054 0.524585 0.620280
0.114509 0.450012 0.554963
0.191158 0.468546 0.578862
0.288987 0.488867 0.596984
0.402464 0.511859 0.611961
0.522539 0.539629 0.624048
0.620931 0.581888 0.623414
0.736108 0.586066 0.634875
0.849314 0.583680 0.649047
0.152656 0.506400 0.537369
0.243026 0.537668 0.567986
0.346934 0.571098 0.597830
0.457055 0.605120 0.626293
0.565659 0.637764 0.651394
0.657384 0.663691 0.663395
0.767067 0.664789 0.664969
0.875987 0.663229 0.667343
0.263052 0.524352 0.533903
0.362787 0.567771 0.575913
0.463178 0.612590 0.617982
0.559806 0.657656 0.659071
0.648133 0.700977 0.696913
0.717890 0.735313 0.721859
0.774290 0.745038 0.712002
0.857590 0.750391 0.702428
0.384805 0.550855 0.553473
0.484574 0.602952 0.605087
0.576421 0.654823 0.655713
0.659057 0.706099 0.705011
0.730773 0.755527 0.751407
0.784365 0.796931 0.786501
0.804349 0.810674 0.776042
0.848175 0.818912 0.761837
0.067171 0.101091 0.469046
0.116302 0.112258 0.478633
0.184310 0.148337 0.483576
0.259833 0.207657 0.478295
0.331186 0.284584 0.460411
0.375889 0.357530 0.435767
0.425791 0.405761 0.442154
0.509923 0.445901 0.483151
0.072233 0.165926 0.495788
0.129503 0.178452 0.539701
0.206441 0.206761 0.554311
0.295755 0.258694 0.550869
0.387113 0.335113 0.537827
0.450868 0.415099 0.516252
0.509477 0.466561 0.519157
0.594756 0.503739 0.553282
0.082461 0.253431 0.544627
0.141966 0.263294 0.584926
0.228621 0.285412 0.605889
0.330415 0.327044 0.611445
0.434505 0.391221 0.605086
0.515859 0.471417 0.588298
0.584447 0.522882 0.588621
0.672748 0.554516 0.615701
0.097282 0.356975 0.601733
0.158868 0.365251 0.628366
0.250714 0.382241 0.648499
0.360510 0.412127 0.660035
0.475321 0.458629 0.661616
0.571433 0.530247 0.651544
0.650239 0.578441 0.650191
0.742591 0.603355 0.670147
0.116300 0.467142 0.652375
0.183989 0.478387 0.674030
0.275172 0.492210 0.686967
0.386863 0.511804 0.697067
0.511237 0.541423 0.706677
0.618220 0.595055 0.705474
0.706384 0.636763 0.703392
0.802796 0.655019 0.716278
0.140542 0.557975 0.665908
0.220139 0.577308 0.688824
0.317233 0.597627 0.707021
0.426684 0.619531 0.722229
0.542847 0.643686 0.735602
0.655496 0.672053 0.746392
0.749775 0.703810 0.744955
0.847789 0.716965 0.751209
0.200827 0.599211 0.646874
0.293815 0.629402 0.675898
0.396286 0.660849 0.703744
0.502718 0.692924 0.730431
0.608004 0.724901 0.755828
0.704722 0.755106 0.778796
0.780199 0.778336 0.782944
0.867769 0.787423 0.784793
0.303760 0.620723 0.634917
0.405689 0.660451 0.672745
0.507129 0.700949 0.710306
0.604510 0.741461 0.747486
0.694659 0.781190 0.783954
0.771990 0.818398 0.818098
0.826311 0.841669 0.831838
0.882426 0.852196 0.833094
0.073181 0.110268 0.553878
0.118494 0.117410 0.561824
0.185865 0.146803 0.569831
0.267079 0.200887 0.570247
0.352384 0.278650 0.557948
0.419652 0.369977 0.531272
0.454852 0.437484 0.507641
0.502659 0.490175 0.515816
0.077115 0.171798 0.573168
0.130322 0.183118 0.623688
0.203062 0.206181 0.640648
0.293092 0.252405 0.639116
0.393869 0.327233 0.629149
0.479254 0.422720 0.605935
0.527026 0.498144 0.583109
0.580703 0.553737 0.588657
0.086686 0.255194 0.616083
0.142397 0.264676 0.664272
0.224088 0.285289 0.689188
0.323373 0.323389 0.696548
0.431182 0.383952 0.690991
0.531091 0.475278 0.673147
0.591405 0.554440 0.652467
0.652014 0.610148 0.655528
0.101429 0.357099 0.672294
0.158982 0.364010 0.704190
0.246014 0.381217 0.728041
0.352113 0.410221 0.741502
0.467103 0.454505 0.743281
0.576436 0.531698 0.732635
0.648597 0.609085 0.715581
0.716803 0.662188 0.716531
0.120615 0.471928 0.730856
0.182860 0.479237 0.753639
0.268839 0.490479 0.765937
0.377303 0.509953 0.775578
0.502051 0.541824 0.785808
0.616213 0.595679 0.783896
0.699049 0.664780 0.772051
0.774962 0.712522 0.771535
0.142954 0.584094 0.770906
0.214586 0.595478 0.790454
0.304597 0.607839 0.802177
0.409960 0.623249 0.809638
0.526977 0.643754 0.815817
0.649293 0.673973 0.823202
0.741314 0.726390 0.818552
0.823462 0.764901 0.817944
0.172221 0.658317 0.765800
0.257087 0.677391 0.786191
0.355733 0.697435 0.803134
0.463211 0.718536 0.817759
0.574896 0.740830 0.831161
0.685087 0.765008 0.844813
0.778103 0.796277 0.852716
0.862226 0.822012 0.855384
0.239723 0.695084 0.742982
0.337790 0.723005 0.769032
0.441843 0.752000 0.794057
0.547164 0.781208 0.818317
0.649467 0.809890 0.841922
0.742365 0.837130 0.864292
0.824193 0.862223 0.884782
0.892460 0.881482 0.893184
