Assets/1__3DArt/KimSe/artstation_asset/LUTs_subway_asset/CUBE/Underground 02.cube
# LUT by SparkleStock. Enhanced with VOXCOLOR algorithms.
LUT_3D_SIZE 8
DOMAIN_MIN 0.000000 0.000000 0.000000
DOMAIN_MAX 0.903226 0.903226 0.903226
0.031258 0.042979 0.050794
0.097239 0.044114 0.061381
0.183174 0.047257 0.074379
0.287723 0.051857 0.088527
0.408153 0.057363 0.102706
0.537847 0.063035 0.115562
0.660136 0.068707 0.127630
0.766403 0.074174 0.141179
0.062452 0.084950 0.099193
0.078815 0.087109 0.102608
0.152662 0.096875 0.105945
0.263139 0.106440 0.107152
0.392864 0.110721 0.105267
0.530315 0.110684 0.102316
0.657191 0.109306 0.101259
0.765982 0.108247 0.103807
0.099673 0.132947 0.153886
0.101460 0.135612 0.155727
0.134592 0.142597 0.157427
0.213129 0.156548 0.158384
0.340056 0.175996 0.156725
0.487235 0.183107 0.143461
0.626455 0.183129 0.128641
0.746631 0.180249 0.116916
0.145205 0.189098 0.215660
0.146723 0.191690 0.217746
0.148959 0.194549 0.220234
0.184090 0.206431 0.223555
0.272878 0.231073 0.226361
0.417788 0.257699 0.219012
0.568227 0.269623 0.198134
0.703754 0.273080 0.175050
0.201071 0.254583 0.284501
0.202187 0.256589 0.286111
0.203774 0.258825 0.288097
0.205855 0.261169 0.290174
0.222427 0.269169 0.293612
0.337496 0.316598 0.307193
0.488039 0.349721 0.294302
0.636774 0.369550 0.269132
0.272157 0.329828 0.358801
0.273127 0.331249 0.359679
0.274049 0.332588 0.360726
0.275130 0.334030 0.361900
0.278510 0.336449 0.363344
0.296245 0.344359 0.366094
0.411416 0.394924 0.381403
0.555248 0.440416 0.377334
0.358210 0.409327 0.432786
0.359156 0.410528 0.433054
0.359708 0.411250 0.433456
0.360103 0.411831 0.433891
0.360553 0.412511 0.434316
0.361334 0.413347 0.434895
0.400454 0.432687 0.442239
0.496362 0.474167 0.452065
0.454732 0.487014 0.502202
0.456233 0.488386 0.502043
0.456579 0.488977 0.501906
0.456406 0.489113 0.501765
0.456225 0.489121 0.501664
0.456445 0.489530 0.501963
0.456557 0.490071 0.502394
0.496964 0.511747 0.511652
0.035606 0.050542 0.094655
0.071875 0.078461 0.101144
0.147381 0.088173 0.125284
0.253589 0.089065 0.154898
0.381795 0.088095 0.181171
0.521442 0.087033 0.201638
0.652220 0.087558 0.219000
0.764860 0.090097 0.236983
0.049822 0.111248 0.133833
0.103442 0.138039 0.156946
0.195063 0.147404 0.174514
0.312968 0.148606 0.188203
0.446205 0.148364 0.199276
0.582504 0.147714 0.207675
0.705631 0.147685 0.215746
0.810417 0.148860 0.225475
0.088208 0.154756 0.175158
0.148471 0.193064 0.213672
0.203260 0.206412 0.229846
0.289939 0.212580 0.234415
0.425616 0.221806 0.234459
0.569688 0.222062 0.226411
0.700065 0.218170 0.218092
0.810514 0.213394 0.212908
0.140362 0.200148 0.225394
0.204342 0.251179 0.274539
0.225250 0.268481 0.291381
0.265363 0.276161 0.292761
0.364131 0.289701 0.289698
0.511478 0.302437 0.276706
0.653549 0.302713 0.255671
0.777082 0.297404 0.235557
0.199687 0.259943 0.288160
0.269468 0.317371 0.341249
0.291176 0.335855 0.358437
0.293273 0.338141 0.360718
0.311046 0.344193 0.362454
0.436753 0.378199 0.361597
0.583282 0.396329 0.340483
0.720568 0.402787 0.312438
0.271797 0.332700 0.359972
0.347438 0.391469 0.411989
0.370153 0.409458 0.427978
0.371183 0.410661 0.429129
0.374547 0.412395 0.430188
0.393174 0.417760 0.430625
0.510072 0.457505 0.433217
0.647610 0.490188 0.419559
0.358509 0.411053 0.432932
0.436921 0.468412 0.481733
0.460067 0.485544 0.496224
0.460441 0.485966 0.496542
0.460766 0.486183 0.496779
0.460909 0.486381 0.496877
0.500683 0.501672 0.499143
0.592538 0.535457 0.500948
0.456251 0.488575 0.502092
0.533074 0.543433 0.547038
0.555694 0.559771 0.560214
0.555797 0.559922 0.560167
0.555612 0.559649 0.559918
0.555369 0.559595 0.559632
0.555243 0.559500 0.559548
0.593832 0.578099 0.564827
0.040088 0.059979 0.144811
0.073600 0.092497 0.153837
0.122159 0.121032 0.167848
0.203596 0.139168 0.195761
0.326035 0.143799 0.238871
0.473976 0.139737 0.272237
0.618238 0.134354 0.298538
0.744361 0.130960 0.323318
0.048626 0.129674 0.188971
0.114930 0.158670 0.216666
0.187771 0.188064 0.231651
0.286870 0.205298 0.249952
0.420500 0.204586 0.279117
0.564905 0.199028 0.300542
0.697250 0.193635 0.317976
0.809831 0.190542 0.335487
0.072673 0.189205 0.224816
0.152149 0.228320 0.265976
0.224921 0.258264 0.288563
0.323284 0.274088 0.303109
0.461984 0.274702 0.316115
0.605213 0.270222 0.322208
0.732146 0.265046 0.327218
0.838447 0.261223 0.334232
0.118517 0.237455 0.260895
0.204203 0.291560 0.313295
0.270651 0.326151 0.345644
0.344461 0.342947 0.361051
0.445684 0.346278 0.363226
0.589015 0.351010 0.357911
0.719442 0.348612 0.348584
0.829941 0.343796 0.341129
0.187196 0.278925 0.304796
0.280533 0.345808 0.367114
0.346062 0.390006 0.407507
0.378229 0.410935 0.426436
0.395766 0.414604 0.426771
0.525619 0.433939 0.418823
0.663770 0.439769 0.398252
0.787649 0.437127 0.375539
0.264686 0.342454 0.367588
0.364831 0.413970 0.431384
0.430312 0.461087 0.473378
0.460350 0.482875 0.492844
0.462992 0.483515 0.493117
0.481318 0.485891 0.491846
0.595793 0.513898 0.486083
0.723930 0.534027 0.468503
0.354682 0.415859 0.436016
0.457544 0.487410 0.497414
0.521277 0.534303 0.538567
0.548949 0.555582 0.557595
0.548632 0.555167 0.557267
0.547893 0.554417 0.556565
0.586560 0.564975 0.554853
0.671915 0.590349 0.551383
0.454689 0.490901 0.502971
0.554803 0.560342 0.560488
0.613950 0.605597 0.600189
0.638421 0.625971 0.618875
0.637910 0.625422 0.618354
0.637041 0.624638 0.617449
0.636217 0.623798 0.616694
0.671622 0.638781 0.618722
0.044941 0.070897 0.201103
0.085088 0.098451 0.214849
0.119356 0.142221 0.220008
0.172048 0.182192 0.235908
0.261569 0.205006 0.273551
0.404619 0.210398 0.323456
0.558932 0.204832 0.361967
0.700585 0.197213 0.395883
0.053186 0.143068 0.251215
0.121431 0.167109 0.280543
0.179015 0.212056 0.292022
0.252059 0.252128 0.305627
0.358664 0.270385 0.333876
0.505647 0.268075 0.371755
0.650105 0.259129 0.400944
0.776635 0.250530 0.427896
0.065276 0.221845 0.293125
0.145386 0.250196 0.327244
0.230201 0.289157 0.350550
0.327720 0.322271 0.367747
0.444169 0.338198 0.383921
0.587634 0.333940 0.409166
0.719071 0.327016 0.429686
0.830501 0.321545 0.449923
0.096364 0.285508 0.324287
0.183594 0.324844 0.363753
0.284926 0.364906 0.400735
0.385745 0.395096 0.425060
0.483731 0.408949 0.433433
0.623830 0.408143 0.444184
0.748535 0.404116 0.451883
0.852937 0.400329 0.460734
0.155884 0.324786 0.347821
0.252676 0.379074 0.398827
0.353172 0.433412 0.448091
0.428120 0.470324 0.480737
0.476445 0.481899 0.489371
0.603744 0.487096 0.485719
0.729724 0.486113 0.476851
0.838822 0.481687 0.469001
0.243778 0.368141 0.390183
0.348181 0.431292 0.447114
0.447185 0.493783 0.502982
0.516209 0.536937 0.541421
0.544715 0.551260 0.554036
0.561620 0.550612 0.552396
0.670496 0.566955 0.544055
0.787336 0.576323 0.529097
0.341018 0.429859 0.447470
0.447783 0.496111 0.504862
0.542387 0.560691 0.562226
0.604983 0.605338 0.602535
0.626456 0.620605 0.616723
0.624675 0.618817 0.615087
0.661013 0.624262 0.610957
0.738766 0.641028 0.605138
0.446262 0.497885 0.508090
0.549672 0.564348 0.563588
0.635610 0.627979 0.620619
0.689899 0.671855 0.661574
0.707248 0.687287 0.676764
0.705674 0.685774 0.675312
0.703962 0.684092 0.673749
0.735709 0.695023 0.673225
0.050376 0.082973 0.263067
0.094512 0.105074 0.280564
0.141244 0.151156 0.290963
0.179267 0.205995 0.293028
0.214706 0.256251 0.295562
0.327879 0.285354 0.354433
0.479940 0.290738 0.406101
0.633233 0.285581 0.451160
0.059481 0.153919 0.311734
0.128741 0.176105 0.347461
0.196376 0.218211 0.363830
0.252735 0.274283 0.366327
0.304972 0.332566 0.367433
0.432290 0.349832 0.416629
0.581063 0.347026 0.459462
0.721347 0.337366 0.497977
0.072120 0.243340 0.369408
0.149597 0.265408 0.403285
0.239758 0.297363 0.424710
0.320717 0.345858 0.432424
0.390645 0.404493 0.433441
0.524748 0.411902 0.471712
0.664940 0.404696 0.505870
0.790001 0.394356 0.537792
0.086636 0.330587 0.411080
0.170314 0.357169 0.441311
0.275401 0.385436 0.468173
0.377993 0.425160 0.485789
0.470584 0.473312 0.494644
0.604012 0.474971 0.519198
0.731569 0.468390 0.543532
0.840711 0.461701 0.568050
0.111426 0.397419 0.424842
0.208037 0.435325 0.461077
0.315954 0.473046 0.495099
0.429307 0.509782 0.526391
0.543925 0.540890 0.552646
0.659736 0.541526 0.561473
0.772639 0.540625 0.573757
0.869161 0.540699 0.588390
0.204004 0.417227 0.436411
0.312192 0.467891 0.482764
0.419321 0.518795 0.528597
0.521664 0.569169 0.573370
0.608758 0.612533 0.611677
0.631753 0.612990 0.613012
0.734246 0.619169 0.609590
0.839116 0.620797 0.604716
0.311356 0.459651 0.473625
0.423499 0.516982 0.523994
0.525297 0.573988 0.575055
0.615681 0.630103 0.626291
0.686664 0.678454 0.671156
0.691954 0.679872 0.672516
0.726439 0.680917 0.668910
0.796444 0.689574 0.664238
0.426181 0.514061 0.521458
0.535084 0.574794 0.572816
0.626610 0.633870 0.626171
0.702891 0.691211 0.680690
0.760197 0.740428 0.729180
0.763965 0.743088 0.732113
0.762391 0.741311 0.730491
0.790694 0.747892 0.728241
0.056804 0.096207 0.329993
0.103136 0.113625 0.349832
0.158906 0.156163 0.365788
0.213115 0.216650 0.373024
0.257738 0.284598 0.370692
0.288652 0.330240 0.371161
0.406147 0.365337 0.425294
0.552486 0.380555 0.482135
0.067666 0.164518 0.373245
0.137534 0.186214 0.416640
0.210373 0.223029 0.437870
0.280803 0.278998 0.443830
0.343414 0.350539 0.441231
0.386888 0.404402 0.438939
0.509328 0.430780 0.486142
0.649298 0.437033 0.537224
0.082476 0.255556 0.433279
0.158092 0.275546 0.472123
0.250106 0.303895 0.496740
0.341554 0.349947 0.507498
0.419626 0.415110 0.506523
0.475762 0.474276 0.501823
0.598364 0.492167 0.542728
0.728171 0.491422 0.588328
0.098297 0.355500 0.492344
0.175865 0.375235 0.521112
0.279638 0.398145 0.545791
0.388789 0.432205 0.561823
0.486290 0.481533 0.566572
0.555284 0.541247 0.560592
0.674414 0.551614 0.594588
0.792000 0.546586 0.633667
0.114579 0.448989 0.533587
0.200519 0.474624 0.561644
0.305411 0.499255 0.584412
0.423268 0.524246 0.603912
0.542874 0.553669 0.619222
0.624123 0.606525 0.615872
0.737180 0.611070 0.641432
0.842123 0.605172 0.671637
0.140121 0.501730 0.527299
0.244777 0.537969 0.560942
0.357465 0.573710 0.592914
0.472923 0.608648 0.623091
0.584269 0.642111 0.650268
0.672081 0.671105 0.667302
0.777127 0.673211 0.682275
0.871333 0.671696 0.698449
0.249473 0.522321 0.532508
0.364751 0.567040 0.572432
0.475805 0.611847 0.612755
0.579520 0.656317 0.653216
0.672134 0.699016 0.692574
0.741902 0.732956 0.724478
0.782738 0.735566 0.731117
0.844876 0.738659 0.734490
0.379392 0.552032 0.555019
0.495117 0.602883 0.599068
0.596734 0.653330 0.645158
0.684049 0.703291 0.692846
0.756488 0.751620 0.740627
0.808009 0.791655 0.781616
0.813776 0.795549 0.785911
0.839292 0.797797 0.783789
0.064965 0.110859 0.399441
0.112272 0.124691 0.420280
0.174479 0.161673 0.439931
0.241753 0.220143 0.452247
0.304053 0.294730 0.453358
0.341993 0.364962 0.443118
0.393553 0.410479 0.455621
0.494422 0.444965 0.494829
0.077583 0.176901 0.436789
0.147974 0.197882 0.486037
0.223278 0.228882 0.510600
0.302777 0.279806 0.519766
0.381599 0.353387 0.519977
0.434383 0.430744 0.508788
0.494182 0.478676 0.517860
0.593781 0.509162 0.553178
0.094651 0.265601 0.493252
0.169320 0.284643 0.537520
0.261737 0.310702 0.566113
0.358478 0.352439 0.580413
0.447723 0.414475 0.581991
0.513756 0.493285 0.571345
0.580170 0.542166 0.577616
0.675790 0.568650 0.609725
0.112763 0.368241 0.556507
0.186472 0.384518 0.587273
0.288894 0.406095 0.614019
0.400353 0.437112 0.632203
0.504151 0.482187 0.638654
0.581606 0.554552 0.630650
0.653402 0.602267 0.634707
0.743938 0.624878 0.663453
0.129228 0.474132 0.613201
0.206748 0.492429 0.638726
0.307824 0.510813 0.657550
0.426280 0.531717 0.673804
0.550416 0.560107 0.688025
0.639063 0.616532 0.686136
0.715576 0.660360 0.688676
0.801123 0.679413 0.713188
0.141889 0.557610 0.634552
0.232044 0.582848 0.661414
0.338220 0.606751 0.683841
0.454570 0.630195 0.703152
0.574472 0.654386 0.720215
0.684167 0.682907 0.734195
0.766258 0.718602 0.736885
0.847378 0.735042 0.755322
0.189185 0.597168 0.625705
0.297731 0.630637 0.656913
0.411073 0.663337 0.686567
0.524451 0.695414 0.714983
0.633406 0.726879 0.742407
0.730399 0.757060 0.768742
0.795874 0.780136 0.780122
0.866547 0.790834 0.794372
0.294400 0.620195 0.621925
0.412376 0.660302 0.657492
0.523711 0.700039 0.693906
0.625824 0.739441 0.731148
0.716644 0.778345 0.769006
0.791977 0.815568 0.806486
0.839419 0.836409 0.827995
0.882886 0.844922 0.839694
0.076033 0.127331 0.470314
0.123200 0.138113 0.490775
0.189271 0.168892 0.512134
0.266416 0.221818 0.528019
0.345713 0.295867 0.533630
0.407822 0.381437 0.524598
0.439513 0.444127 0.512090
0.493858 0.491908 0.522829
0.089773 0.191415 0.501978
0.160165 0.210970 0.554196
0.236181 0.236302 0.580497
0.321251 0.280328 0.592060
0.413561 0.349837 0.596003
0.490505 0.437820 0.586446
0.532483 0.507644 0.572572
0.590791 0.557897 0.581146
0.108257 0.276158 0.552036
0.182547 0.294265 0.600363
0.274503 0.318416 0.632082
0.373345 0.355192 0.649333
0.470266 0.410232 0.654106
0.557570 0.493802 0.646300
0.608534 0.567549 0.632314
0.669069 0.618718 0.639650
0.128170 0.376539 0.612599
0.199910 0.390841 0.646330
0.301085 0.412536 0.676045
0.412531 0.441651 0.697241
0.519406 0.481292 0.706894
0.612399 0.551727 0.703034
0.671110 0.624982 0.690501
0.733118 0.675199 0.697325
0.146467 0.485856 0.674756
0.218554 0.499529 0.700288
0.316708 0.515447 0.718759
0.434434 0.536135 0.735826
0.560403 0.565062 0.752903
0.657450 0.613955 0.755330
0.723260 0.681216 0.746152
0.786788 0.728174 0.753021
0.158585 0.587819 0.719368
0.236484 0.604958 0.742534
0.336036 0.621592 0.759727
0.450785 0.639162 0.773613
0.573556 0.659238 0.786324
0.690939 0.685637 0.799091
0.766226 0.738711 0.796286
0.831953 0.778288 0.803760
0.168792 0.654781 0.722849
0.263210 0.678243 0.747412
0.371228 0.700807 0.768770
0.486800 0.723072 0.787938
0.604089 0.745527 0.805904
0.714265 0.768642 0.824007
0.799467 0.800671 0.835854
0.870578 0.827871 0.847447
0.225437 0.690179 0.710520
0.336056 0.720007 0.738624
0.449637 0.749288 0.765955
0.561470 0.778229 0.792861
0.667291 0.806857 0.819557
0.760104 0.834432 0.845810
0.838903 0.860335 0.871171
0.898916 0.879925 0.887165
