Assets/1__3DArt/KimSe/artstation_asset/LUTs_subway_asset/CUBE/Underground 05.cube
# LUT by SparkleStock. Enhanced with VOXCOLOR algorithms.
LUT_3D_SIZE 5
DOMAIN_MIN 0.000000 0.000000 0.000000
DOMAIN_MAX 0.903226 0.903226 0.903226
0.019536 0.003907 0.011722
0.134357 0.015416 0.021222
0.360424 0.043806 0.024341
0.617315 0.078168 0.029273
0.778605 0.100106 0.040506
0.071054 0.060948 0.076553
0.102920 0.069165 0.078449
0.299656 0.110183 0.073804
0.585087 0.153461 0.055172
0.772987 0.168818 0.040513
0.174343 0.166805 0.181543
0.177239 0.169171 0.183404
0.218638 0.184891 0.187717
0.467876 0.277696 0.195580
0.723268 0.332875 0.156475
0.346662 0.334988 0.336130
0.348814 0.337082 0.336460
0.350360 0.338823 0.337881
0.364924 0.347775 0.342827
0.628002 0.489780 0.372903
0.561030 0.540707 0.524290
0.563652 0.541516 0.524340
0.563359 0.541800 0.524532
0.562988 0.541983 0.524743
0.606167 0.573022 0.540482
0.024003 0.013069 0.116806
0.095044 0.054606 0.096660
0.297894 0.091784 0.117093
0.581620 0.119386 0.149538
0.769272 0.132459 0.184248
0.050284 0.119191 0.171139
0.207854 0.185600 0.214506
0.422658 0.213310 0.205431
0.673234 0.226215 0.200724
0.821766 0.226646 0.206230
0.157988 0.203071 0.222566
0.319204 0.323180 0.329336
0.396899 0.347212 0.341464
0.624007 0.384448 0.310955
0.806987 0.384222 0.264995
0.341179 0.344663 0.346004
0.496330 0.484165 0.477711
0.522316 0.507222 0.499794
0.532362 0.510975 0.498763
0.739802 0.580301 0.470496
0.562225 0.542384 0.526159
0.668288 0.650875 0.636562
0.685490 0.668003 0.654665
0.683946 0.666832 0.653630
0.714235 0.683884 0.654982
0.036197 0.040624 0.289968
0.114048 0.087921 0.263575
0.207171 0.163922 0.207905
0.458265 0.233575 0.279512
0.709749 0.249617 0.363691
0.050316 0.194474 0.382110
0.201938 0.242974 0.404468
0.376680 0.325049 0.362169
0.618940 0.356862 0.397641
0.798412 0.344959 0.439386
0.105971 0.350755 0.417216
0.297439 0.423263 0.470596
0.486748 0.481341 0.488128
0.703913 0.486183 0.480430
0.845552 0.471012 0.481019
0.295002 0.415076 0.422765
0.496087 0.537603 0.534655
0.630778 0.624313 0.615155
0.657372 0.635010 0.622297
0.818672 0.641697 0.573438
0.542035 0.563093 0.547620
0.679034 0.674347 0.661230
0.761276 0.749347 0.738068
0.771536 0.758861 0.747990
0.792815 0.763147 0.740155
0.051148 0.093182 0.491685
0.153761 0.132089 0.482390
0.285862 0.234919 0.412382
0.359547 0.337487 0.345813
0.615643 0.430368 0.489590
0.067121 0.249451 0.572272
0.211354 0.293747 0.605516
0.403749 0.380054 0.565791
0.530353 0.504742 0.508036
0.731499 0.536371 0.605128
0.125657 0.482238 0.672543
0.280276 0.504169 0.688796
0.487414 0.533893 0.677187
0.655848 0.631638 0.632155
0.813095 0.620801 0.680380
0.201432 0.620639 0.661596
0.399680 0.667230 0.690707
0.591384 0.705683 0.713218
0.749917 0.732460 0.728281
0.866915 0.715292 0.727023
0.471212 0.644859 0.635462
0.637788 0.715919 0.706052
0.757145 0.778360 0.769211
0.836808 0.829899 0.820854
0.855465 0.826292 0.812036
0.062594 0.172665 0.653102
0.175439 0.198568 0.651829
0.359066 0.291575 0.623009
0.513475 0.438407 0.564000
0.600188 0.551373 0.560383
0.082383 0.309214 0.704945
0.225779 0.364909 0.744796
0.429154 0.426882 0.729622
0.615582 0.558034 0.689897
0.709525 0.664815 0.681134
0.158696 0.529513 0.793695
0.293954 0.550513 0.810802
0.490850 0.576428 0.807058
0.684274 0.655892 0.782551
0.787447 0.747182 0.768040
0.269126 0.727183 0.850495
0.410039 0.738706 0.860277
0.568933 0.743229 0.856285
0.736191 0.756306 0.848048
0.845925 0.812273 0.831751
0.394218 0.792900 0.815608
0.557424 0.818950 0.837116
0.695405 0.841121 0.855435
0.807676 0.861079 0.871437
0.887113 0.876667 0.879507
