Assets/1__3DArt/KimSe/artstation_asset/LUTs_subway_asset/CUBE/Underground 01.cube
# LUT by SparkleStock. Enhanced with VOXCOLOR algorithms.
LUT_3D_SIZE 8
DOMAIN_MIN 0.000000 0.000000 0.000000
DOMAIN_MAX 0.903226 0.903226 0.903226
0.046886 0.058608 0.042979
0.120997 0.063524 0.060940
0.210375 0.070448 0.076624
0.313364 0.079302 0.090583
0.427272 0.089960 0.103273
0.545811 0.102438 0.114806
0.657891 0.116649 0.126023
0.760692 0.132230 0.138406
0.086778 0.103604 0.092702
0.105415 0.105885 0.097928
0.180686 0.118158 0.104299
0.289165 0.132171 0.108098
0.412092 0.142555 0.107451
0.539267 0.150788 0.105517
0.656934 0.158925 0.105465
0.762174 0.167749 0.108364
0.131490 0.151814 0.145102
0.133740 0.153430 0.146822
0.167457 0.161271 0.150097
0.244506 0.177749 0.153377
0.366190 0.201517 0.154283
0.502623 0.216807 0.144793
0.631422 0.227146 0.134196
0.745914 0.234470 0.125897
0.182993 0.205286 0.202229
0.184828 0.206804 0.203998
0.187381 0.209399 0.206665
0.221922 0.221955 0.211085
0.307832 0.248632 0.216343
0.442740 0.280876 0.213928
0.580779 0.302782 0.200505
0.706934 0.316705 0.184850
0.242759 0.265524 0.265540
0.244009 0.266604 0.266979
0.245769 0.268422 0.268929
0.248031 0.270938 0.271380
0.263945 0.279688 0.276018
0.372562 0.328215 0.293107
0.509391 0.369104 0.289490
0.644316 0.398911 0.275698
0.313277 0.334531 0.336626
0.313942 0.335171 0.337480
0.314909 0.336032 0.338636
0.316110 0.337377 0.340026
0.319437 0.340126 0.341884
0.336574 0.348841 0.345946
0.439982 0.402244 0.367846
0.567290 0.454793 0.375862
0.391674 0.409524 0.412281
0.391997 0.409969 0.412549
0.392329 0.410289 0.413085
0.392743 0.410748 0.413760
0.393316 0.411521 0.414499
0.394231 0.412625 0.415413
0.429496 0.432985 0.425039
0.511498 0.478418 0.443744
0.471748 0.486022 0.487723
0.472175 0.486241 0.487723
0.472187 0.486305 0.487879
0.472074 0.486351 0.488098
0.472059 0.486488 0.488318
0.472278 0.486817 0.488537
0.472772 0.487421 0.488848
0.506322 0.510319 0.501962
0.049155 0.064091 0.101776
0.095602 0.096377 0.099392
0.179503 0.109211 0.122205
0.288042 0.113125 0.151496
0.410128 0.116044 0.174524
0.536718 0.120911 0.191911
0.654531 0.129706 0.207397
0.760381 0.142293 0.223495
0.066506 0.128700 0.130275
0.129776 0.154839 0.149152
0.224911 0.167181 0.167110
0.340129 0.173516 0.181698
0.465116 0.179532 0.191742
0.590256 0.186499 0.199290
0.704325 0.195755 0.206943
0.805584 0.207114 0.216097
0.114078 0.172470 0.166118
0.178837 0.207755 0.202480
0.234722 0.221841 0.218688
0.318115 0.231889 0.224698
0.445842 0.247577 0.226947
0.578503 0.256790 0.221494
0.699981 0.263492 0.215646
0.806779 0.269475 0.212195
0.175546 0.214952 0.212146
0.237577 0.262652 0.260889
0.258071 0.278927 0.277397
0.296483 0.288190 0.279869
0.389966 0.306166 0.280163
0.525729 0.327036 0.272700
0.657131 0.338315 0.257783
0.774644 0.344178 0.242861
0.240106 0.269391 0.269767
0.302401 0.324626 0.325277
0.322069 0.342240 0.342997
0.324295 0.344507 0.345320
0.340903 0.351482 0.348227
0.457117 0.390009 0.353611
0.590993 0.417667 0.341961
0.718694 0.434878 0.323375
0.312088 0.336055 0.338364
0.375044 0.394365 0.396122
0.394283 0.412045 0.413875
0.395448 0.413094 0.415090
0.398576 0.414946 0.416293
0.416171 0.421480 0.418055
0.520725 0.466071 0.429712
0.645067 0.506696 0.428157
0.390850 0.410048 0.412629
0.453011 0.468276 0.470367
0.471617 0.485583 0.487532
0.472105 0.485965 0.487953
0.472354 0.486271 0.488322
0.472726 0.486780 0.488694
0.508121 0.503756 0.494192
0.588653 0.541822 0.505464
0.471309 0.486131 0.487613
0.531368 0.542216 0.543970
0.549302 0.558868 0.560442
0.549579 0.559086 0.560466
0.549414 0.559027 0.560443
0.549194 0.558979 0.560347
0.549088 0.559043 0.560168
0.581913 0.579055 0.569786
0.051692 0.070109 0.164189
0.097432 0.106646 0.160121
0.155077 0.138401 0.164663
0.241044 0.158871 0.186823
0.361860 0.165417 0.227199
0.497122 0.165782 0.257180
0.625955 0.167780 0.281601
0.741749 0.173912 0.304484
0.060809 0.143653 0.196347
0.136191 0.170530 0.216633
0.216077 0.202149 0.224670
0.316507 0.223726 0.238648
0.443788 0.228051 0.266776
0.575863 0.229158 0.286289
0.697161 0.232451 0.302194
0.804223 0.239369 0.317798
0.090079 0.204911 0.222229
0.174471 0.239488 0.259073
0.251474 0.269256 0.278334
0.348723 0.288690 0.291422
0.478744 0.295922 0.304941
0.609940 0.299606 0.311024
0.728293 0.303735 0.315806
0.831552 0.309590 0.322016
0.144708 0.251583 0.250435
0.229449 0.301214 0.301264
0.295878 0.333998 0.333590
0.367341 0.352343 0.349776
0.461727 0.360849 0.353186
0.593361 0.373969 0.350683
0.715345 0.381339 0.343982
0.822701 0.386158 0.338232
0.223327 0.287924 0.288499
0.308179 0.351841 0.353091
0.368177 0.394608 0.395700
0.397863 0.415089 0.415972
0.414200 0.419638 0.417147
0.533861 0.445710 0.414822
0.661784 0.461375 0.400988
0.780062 0.468847 0.383806
0.302683 0.345300 0.347455
0.387596 0.416125 0.418010
0.444147 0.463034 0.464579
0.470464 0.484751 0.486204
0.472911 0.485436 0.486640
0.490105 0.489260 0.486407
0.594221 0.523188 0.488908
0.713661 0.551388 0.480611
0.385647 0.414370 0.416717
0.468469 0.487220 0.489105
0.521868 0.534759 0.536296
0.545835 0.556280 0.557711
0.545534 0.555954 0.557531
0.545052 0.555527 0.557116
0.580009 0.568178 0.558402
0.657935 0.597855 0.562737
0.468843 0.487844 0.489184
0.547848 0.559396 0.560917
0.597927 0.605572 0.607055
0.620075 0.626292 0.627651
0.619728 0.625955 0.627222
0.618932 0.625288 0.626645
0.618080 0.624651 0.625800
0.649698 0.641084 0.631596
0.054654 0.076821 0.231793
0.107309 0.107174 0.233361
0.150902 0.153998 0.222629
0.209974 0.196196 0.225857
0.301884 0.220089 0.257903
0.435402 0.227663 0.305266
0.573011 0.227996 0.343063
0.700629 0.228925 0.376123
0.061978 0.152157 0.272124
0.134540 0.172170 0.292709
0.201460 0.218313 0.291595
0.281309 0.261949 0.295105
0.386714 0.284222 0.319361
0.521530 0.286967 0.355953
0.652368 0.285495 0.383713
0.770092 0.286025 0.408229
0.074802 0.233257 0.302220
0.156317 0.255514 0.330229
0.246792 0.293418 0.346885
0.347726 0.329571 0.358605
0.460722 0.351451 0.371549
0.591820 0.353703 0.395612
0.713392 0.354408 0.414066
0.820563 0.357124 0.431320
0.111743 0.297246 0.322355
0.197500 0.330999 0.358383
0.298863 0.368675 0.394222
0.399098 0.400195 0.417670
0.493603 0.419061 0.424402
0.622023 0.425479 0.434789
0.739197 0.429179 0.441211
0.841736 0.432829 0.447950
0.182570 0.334011 0.337500
0.271979 0.384242 0.388492
0.366378 0.436575 0.439988
0.437975 0.472903 0.474957
0.484823 0.485540 0.484804
0.602017 0.497688 0.482801
0.720447 0.504892 0.475486
0.827245 0.508183 0.468027
0.276428 0.371127 0.374049
0.367325 0.432846 0.435981
0.454880 0.495031 0.497504
0.516985 0.538311 0.540058
0.543799 0.552868 0.554106
0.559480 0.553542 0.552864
0.660975 0.575840 0.549551
0.773593 0.592438 0.539159
0.369057 0.428343 0.430765
0.457392 0.495628 0.497766
0.538586 0.561092 0.562824
0.593991 0.606327 0.607734
0.614289 0.621848 0.623161
0.612760 0.620280 0.621797
0.646516 0.627955 0.619720
0.720952 0.648690 0.618630
0.459351 0.494671 0.495881
0.542461 0.563306 0.564565
0.617031 0.628287 0.629616
0.666972 0.672875 0.674208
0.684630 0.688582 0.689848
0.683227 0.687197 0.688662
0.681565 0.685791 0.687146
0.711774 0.698107 0.689199
0.058128 0.084265 0.305479
0.112338 0.107281 0.311876
0.169992 0.155400 0.305042
0.216585 0.212745 0.289034
0.255739 0.265187 0.277557
0.365124 0.294186 0.334305
0.501166 0.303502 0.387236
0.636873 0.305425 0.433676
0.064501 0.157296 0.345205
0.132003 0.173400 0.371953
0.208326 0.215948 0.375335
0.275685 0.275660 0.363708
0.334015 0.338146 0.353066
0.452574 0.358561 0.402118
0.586061 0.361362 0.445158
0.713655 0.359153 0.482415
0.075829 0.247624 0.393464
0.147926 0.261826 0.420257
0.241026 0.292290 0.433043
0.330081 0.343783 0.431281
0.407917 0.407945 0.423701
0.531617 0.420322 0.461451
0.659524 0.419365 0.493745
0.777258 0.415976 0.521963
0.092350 0.336676 0.424378
0.170049 0.356075 0.449225
0.273599 0.381603 0.471547
0.379570 0.422734 0.485032
0.477633 0.475676 0.490056
0.600949 0.483134 0.512273
0.719938 0.482474 0.532684
0.826238 0.481406 0.552040
0.123674 0.406135 0.426176
0.212778 0.438232 0.459039
0.317820 0.473362 0.492271
0.430192 0.509909 0.524947
0.542902 0.542857 0.553273
0.650434 0.548967 0.558067
0.757844 0.553023 0.565741
0.854063 0.557126 0.575501
0.227705 0.420748 0.428567
0.323905 0.468695 0.476775
0.422094 0.518852 0.525953
0.517854 0.569584 0.574801
0.600394 0.613734 0.616785
0.622206 0.615099 0.617878
0.719930 0.626163 0.614516
0.823932 0.633022 0.608364
0.334195 0.458449 0.462208
0.430079 0.516135 0.519678
0.520081 0.573922 0.576954
0.602860 0.630912 0.633164
0.670110 0.679940 0.681344
0.675692 0.681434 0.682965
0.708595 0.684498 0.679981
0.778636 0.696304 0.676189
0.437138 0.510892 0.512244
0.527389 0.573529 0.575010
0.608249 0.634209 0.635549
0.680352 0.692653 0.693894
0.738000 0.742374 0.743738
0.742393 0.745047 0.746602
0.740994 0.743662 0.745283
0.769718 0.751471 0.744124
0.062098 0.092205 0.385450
0.114406 0.108781 0.394629
0.179488 0.152016 0.393997
0.243388 0.214508 0.381636
0.295551 0.285300 0.360206
0.328679 0.333034 0.350649
0.434081 0.369989 0.406313
0.561116 0.390075 0.467706
0.068032 0.161138 0.419322
0.129892 0.175222 0.454743
0.208137 0.211444 0.463799
0.289547 0.271034 0.454959
0.362217 0.347919 0.437240
0.408825 0.406220 0.426333
0.517772 0.436264 0.475523
0.641557 0.447787 0.528972
0.078921 0.251826 0.471057
0.143402 0.262888 0.503426
0.233890 0.288918 0.519076
0.332105 0.338057 0.519356
0.422030 0.409997 0.507765
0.483141 0.475477 0.496236
0.593987 0.497834 0.537483
0.712591 0.501950 0.581959
0.094393 0.352771 0.522036
0.161860 0.364449 0.545376
0.259166 0.383813 0.563554
0.369281 0.419431 0.572933
0.475762 0.475017 0.571625
0.551664 0.542094 0.560899
0.662456 0.556966 0.592475
0.774133 0.555890 0.626877
0.115782 0.449674 0.554480
0.191638 0.468201 0.578244
0.289594 0.489249 0.596759
0.404139 0.514355 0.613052
0.524624 0.547491 0.626531
0.613327 0.607256 0.620891
0.721588 0.615734 0.641167
0.824859 0.612647 0.664093
0.153655 0.505562 0.536672
0.244199 0.536766 0.567395
0.349075 0.570552 0.598288
0.460964 0.605839 0.628977
0.571338 0.641140 0.657800
0.660215 0.672250 0.676220
0.761112 0.676857 0.684800
0.854950 0.676971 0.693080
0.265341 0.522210 0.532916
0.365333 0.565741 0.575376
0.466462 0.610694 0.618578
0.564627 0.656136 0.661961
0.655121 0.700108 0.703859
0.725558 0.734729 0.736595
0.765249 0.738305 0.741224
0.828615 0.742581 0.740988
0.386562 0.549222 0.552819
0.486455 0.601443 0.604791
0.578611 0.653340 0.656075
0.662094 0.704587 0.706717
0.735263 0.753817 0.755604
0.790021 0.793974 0.795726
0.796438 0.798136 0.799987
0.823199 0.801220 0.797272
0.067171 0.101091 0.469046
0.116234 0.112325 0.478566
0.184033 0.148661 0.483165
0.258990 0.208586 0.477236
0.329269 0.286554 0.458371
0.372252 0.360951 0.432275
0.422031 0.409384 0.439503
0.507791 0.447992 0.481957
0.072422 0.165926 0.495355
0.129281 0.178614 0.538993
0.205584 0.208100 0.552661
0.293518 0.262230 0.547585
0.382377 0.341818 0.532272
0.442202 0.425914 0.508055
0.500131 0.478339 0.512889
0.587178 0.513234 0.550307
0.082973 0.253431 0.543847
0.141795 0.263380 0.583921
0.227876 0.286428 0.604207
0.328290 0.330824 0.608013
0.429432 0.400142 0.598551
0.505222 0.487551 0.577865
0.571434 0.542159 0.580272
0.658982 0.573005 0.611896
0.098200 0.356896 0.600823
0.158941 0.365172 0.627344
0.250377 0.382637 0.647272
0.359441 0.414798 0.657778
0.472213 0.466518 0.656885
0.562050 0.548222 0.641944
0.636300 0.602315 0.642034
0.723900 0.628940 0.667249
0.117598 0.466866 0.651563
0.184454 0.478110 0.673170
0.275300 0.492335 0.686171
0.387239 0.512971 0.696507
0.511635 0.545485 0.705901
0.613323 0.610349 0.700104
0.694964 0.660391 0.698343
0.782195 0.682778 0.716633
0.141760 0.557443 0.665029
0.220982 0.576776 0.688042
0.318124 0.597423 0.706598
0.428034 0.620159 0.722456
0.544988 0.646038 0.736793
0.658428 0.678734 0.748918
0.745855 0.719078 0.747328
0.831023 0.737478 0.758091
0.202332 0.597884 0.645872
0.295336 0.628197 0.675069
0.398030 0.659847 0.703392
0.505055 0.692317 0.731016
0.611434 0.725064 0.757981
0.709937 0.757112 0.783666
0.778824 0.781953 0.792765
0.852602 0.792996 0.800623
0.304730 0.619713 0.634300
0.406769 0.659550 0.672244
0.508373 0.700130 0.710106
0.606154 0.740743 0.747910
0.697052 0.780652 0.785470
0.775493 0.818318 0.821532
0.825783 0.839201 0.841255
0.871296 0.847605 0.849433
0.073181 0.110268 0.553878
0.118494 0.117410 0.561824
0.185865 0.146803 0.569753
0.266988 0.200979 0.570014
0.352073 0.278961 0.557495
0.419122 0.370508 0.530600
0.453827 0.438417 0.506749
0.501918 0.490833 0.515240
0.077383 0.171798 0.572204
0.130114 0.183203 0.622970
0.202698 0.206575 0.639803
0.292506 0.253459 0.637839
0.392735 0.329323 0.627218
0.477221 0.425941 0.603274
0.523697 0.502608 0.579911
0.577404 0.557929 0.586451
0.087469 0.255194 0.614346
0.142313 0.264682 0.662809
0.223668 0.285578 0.687718
0.322650 0.324603 0.694654
0.429779 0.386929 0.688190
0.528185 0.480728 0.669003
0.586251 0.562683 0.647128
0.645488 0.619303 0.651669
0.102663 0.357053 0.670164
0.159244 0.363885 0.702324
0.245780 0.381281 0.726292
0.351567 0.411095 0.739527
0.466047 0.457178 0.740526
0.573579 0.538060 0.728012
0.642529 0.620206 0.708928
0.707331 0.675992 0.711649
0.122055 0.471772 0.728802
0.183562 0.479002 0.751890
0.268958 0.490433 0.764346
0.377171 0.510306 0.774037
0.501839 0.543154 0.784010
0.614505 0.601059 0.780164
0.693386 0.676847 0.765543
0.763753 0.729008 0.766888
0.144504 0.583829 0.769249
0.215544 0.595134 0.789003
0.305119 0.607683 0.800958
0.410254 0.623457 0.808600
0.527294 0.644536 0.814848
0.649961 0.676180 0.822144
0.738283 0.735736 0.814955
0.813514 0.779144 0.816083
0.173407 0.657759 0.764473
0.258143 0.676876 0.784982
0.356642 0.697057 0.802164
0.464068 0.718386 0.817112
0.575890 0.741054 0.830913
0.686527 0.766150 0.845138
0.778635 0.800899 0.852903
0.856453 0.829324 0.857860
0.240290 0.694673 0.742296
0.338421 0.722657 0.768392
0.442472 0.751716 0.793553
0.547819 0.781014 0.818040
0.650238 0.809860 0.841976
0.743373 0.837518 0.864883
0.825674 0.863385 0.886177
0.889614 0.882657 0.897179
