Assets/1__3DArt/KimSe/artstation_asset/LUTs_subway_asset/CUBE/Underground 04.cube
# LUT by SparkleStock. Enhanced with VOXCOLOR algorithms.
LUT_3D_SIZE 32
0.011722 0.003907 0.003907
0.027413 0.005183 0.006223
0.043105 0.006459 0.008539
0.058797 0.007736 0.010855
0.074489 0.009012 0.013171
0.090181 0.010288 0.015487
0.115562 0.012549 0.017921
0.142881 0.015006 0.020379
0.170200 0.017464 0.022837
0.197519 0.019922 0.025294
0.224838 0.022380 0.027752
0.257072 0.025436 0.029958
0.291764 0.028792 0.032037
0.326456 0.032148 0.034117
0.361149 0.035504 0.036197
0.395841 0.038859 0.038276
0.430013 0.042144 0.040191
0.463665 0.045358 0.041939
0.497318 0.048572 0.043688
0.530970 0.051786 0.045437
0.564622 0.055000 0.047186
0.595597 0.057931 0.048919
0.621214 0.060294 0.050620
0.646831 0.062657 0.052322
0.672449 0.065020 0.054023
0.698066 0.067384 0.055725
0.722061 0.069636 0.057442
0.737942 0.071338 0.059238
0.753823 0.073040 0.061034
0.769703 0.074741 0.062830
0.785584 0.076443 0.064626
0.801465 0.078144 0.066422
0.019284 0.013455 0.015062
0.032021 0.014520 0.016984
0.044758 0.015586 0.018907
0.057495 0.016652 0.020829
0.070232 0.017718 0.022752
0.082969 0.018783 0.024675
0.107690 0.021543 0.026708
0.134808 0.024641 0.028763
0.161925 0.027739 0.030818
0.189043 0.030837 0.032874
0.216161 0.033935 0.034929
0.248731 0.037229 0.036470
0.284026 0.040622 0.037753
0.319322 0.044014 0.039037
0.354618 0.047407 0.040321
0.389914 0.050799 0.041605
0.424741 0.053960 0.042732
0.459097 0.056891 0.043703
0.493454 0.059821 0.044675
0.527811 0.062752 0.045646
0.562168 0.065682 0.046617
0.593752 0.068286 0.047634
0.619790 0.070238 0.048740
0.645828 0.072189 0.049847
0.671866 0.074141 0.050954
0.697904 0.076092 0.052061
0.722268 0.077932 0.053220
0.738259 0.079213 0.054641
0.754249 0.080494 0.056062
0.770240 0.081774 0.057483
0.786231 0.083055 0.058904
0.802221 0.084336 0.060325
0.026846 0.023002 0.026216
0.036629 0.023857 0.027745
0.046411 0.024713 0.029275
0.056193 0.025568 0.030804
0.065975 0.026423 0.032333
0.075757 0.027279 0.033862
0.099818 0.030537 0.035494
0.126735 0.034275 0.037147
0.153651 0.038014 0.038800
0.180567 0.041752 0.040453
0.207484 0.045491 0.042105
0.240389 0.049023 0.042982
0.276289 0.052452 0.043469
0.312189 0.055881 0.043957
0.348088 0.059310 0.044445
0.383988 0.062739 0.044933
0.419468 0.065777 0.045274
0.454530 0.068423 0.045467
0.489591 0.071070 0.045661
0.524652 0.073717 0.045855
0.559713 0.076364 0.046048
0.591907 0.078642 0.046348
0.618366 0.080182 0.046861
0.644825 0.081721 0.047373
0.671284 0.083261 0.047885
0.697743 0.084801 0.048397
0.722475 0.086228 0.048999
0.738576 0.087088 0.050045
0.754676 0.087948 0.051090
0.770777 0.088808 0.052136
0.786877 0.089667 0.053182
0.802978 0.090527 0.054228
0.034409 0.032550 0.037371
0.041236 0.033194 0.038506
0.048063 0.033839 0.039642
0.054891 0.034484 0.040778
0.061718 0.035129 0.041914
0.068546 0.035774 0.043050
0.091946 0.039531 0.044281
0.118661 0.043910 0.045531
0.145377 0.048288 0.046781
0.172092 0.052667 0.048032
0.198807 0.057046 0.049282
0.232048 0.060816 0.049493
0.268551 0.064282 0.049185
0.305055 0.067747 0.048877
0.341558 0.071213 0.048569
0.378062 0.074678 0.048261
0.414196 0.077593 0.047815
0.449962 0.079956 0.047232
0.485727 0.082319 0.046648
0.521493 0.084682 0.046064
0.557258 0.087046 0.045480
0.590062 0.088997 0.045063
0.616942 0.090125 0.044981
0.643822 0.091254 0.044898
0.670701 0.092382 0.044816
0.697581 0.093510 0.044734
0.722683 0.094524 0.044777
0.738893 0.094963 0.045448
0.755103 0.095402 0.046119
0.771313 0.095841 0.046789
0.787524 0.096280 0.047460
0.803734 0.096719 0.048131
0.041971 0.042097 0.048525
0.045844 0.042532 0.049267
0.049716 0.042966 0.050010
0.053589 0.043401 0.050752
0.057462 0.043835 0.051495
0.061334 0.044270 0.052238
0.084075 0.048525 0.053068
0.110588 0.053544 0.053915
0.137102 0.058563 0.054763
0.163616 0.063582 0.055611
0.190130 0.068601 0.056459
0.223706 0.072609 0.056005
0.260813 0.076111 0.054901
0.297921 0.079614 0.053797
0.335028 0.083116 0.052694
0.372135 0.086618 0.051590
0.408924 0.089409 0.050357
0.445394 0.091488 0.048996
0.481864 0.093568 0.047634
0.518334 0.095648 0.046273
0.554804 0.097727 0.044911
0.588217 0.099353 0.043778
0.615518 0.100069 0.043101
0.642818 0.100786 0.042424
0.670119 0.101502 0.041747
0.697420 0.102219 0.041070
0.722890 0.102819 0.040555
0.739210 0.102838 0.040851
0.755530 0.102856 0.041147
0.771850 0.102874 0.041442
0.788170 0.102892 0.041738
0.804490 0.102911 0.042034
0.049533 0.051644 0.059679
0.050451 0.051869 0.060029
0.051369 0.052093 0.060378
0.052287 0.052317 0.060727
0.053205 0.052541 0.061076
0.054122 0.052765 0.061425
0.076203 0.057519 0.061854
0.102515 0.063178 0.062300
0.128828 0.068838 0.062745
0.155141 0.074497 0.063190
0.181453 0.080157 0.063635
0.215365 0.084403 0.062517
0.253076 0.087941 0.060617
0.290787 0.091480 0.058718
0.328498 0.095019 0.056818
0.366209 0.098558 0.054918
0.403652 0.101225 0.052899
0.440826 0.103021 0.050760
0.478000 0.104817 0.048620
0.515175 0.106613 0.046481
0.552349 0.108409 0.044342
0.586372 0.109708 0.042492
0.614094 0.110013 0.041221
0.641815 0.110318 0.039949
0.669537 0.110623 0.038678
0.697258 0.110928 0.037406
0.723098 0.111115 0.036333
0.739527 0.110712 0.036254
0.755957 0.110310 0.036175
0.772387 0.109907 0.036095
0.788817 0.109505 0.036016
0.805246 0.109102 0.035937
0.060286 0.065091 0.075088
0.060711 0.065318 0.075386
0.061137 0.065546 0.075685
0.061562 0.065773 0.075984
0.061987 0.066000 0.076283
0.062413 0.066227 0.076582
0.080946 0.070365 0.076966
0.103101 0.075285 0.077367
0.125256 0.080205 0.077768
0.147411 0.085125 0.078169
0.169566 0.090045 0.078570
0.201782 0.094953 0.077796
0.239030 0.099855 0.076434
0.276277 0.104757 0.075073
0.313525 0.109659 0.073711
0.350772 0.114560 0.072350
0.388480 0.118221 0.070294
0.426649 0.120641 0.067545
0.464817 0.123060 0.064796
0.502986 0.125480 0.062047
0.541154 0.127900 0.059298
0.576250 0.129635 0.056719
0.605200 0.130001 0.054480
0.634150 0.130367 0.052240
0.663101 0.130733 0.050000
0.692051 0.131098 0.047760
0.719036 0.131275 0.045736
0.736193 0.130505 0.044786
0.753350 0.129735 0.043836
0.770507 0.128965 0.042886
0.787664 0.128195 0.041936
0.804821 0.127425 0.040986
0.071677 0.079318 0.091347
0.072102 0.079591 0.091664
0.072527 0.079864 0.091981
0.072953 0.080137 0.092298
0.073378 0.080409 0.092615
0.073804 0.080682 0.092932
0.088213 0.083982 0.093342
0.105419 0.087886 0.093771
0.122624 0.091791 0.094199
0.139830 0.095696 0.094627
0.157036 0.099600 0.095056
0.187152 0.105255 0.094828
0.223722 0.111786 0.094271
0.260293 0.118316 0.093715
0.296863 0.124846 0.093158
0.333434 0.131376 0.092602
0.371329 0.136253 0.090661
0.410550 0.139478 0.087336
0.449770 0.142703 0.084010
0.488991 0.145927 0.080685
0.528211 0.149152 0.077360
0.564472 0.151476 0.074049
0.594813 0.151997 0.070766
0.625153 0.152518 0.067483
0.655494 0.153040 0.064201
0.685835 0.153561 0.060918
0.714120 0.153808 0.057863
0.732128 0.152681 0.055943
0.750136 0.151555 0.054024
0.768144 0.150428 0.052104
0.786151 0.149301 0.050185
0.804159 0.148174 0.048265
0.083067 0.093544 0.107606
0.083493 0.093863 0.107941
0.083918 0.094182 0.108277
0.084344 0.094500 0.108612
0.084769 0.094819 0.108947
0.085194 0.095138 0.109283
0.095479 0.097599 0.109719
0.107736 0.100488 0.110174
0.119993 0.103377 0.110630
0.132250 0.106266 0.111086
0.144506 0.109155 0.111542
0.172521 0.115558 0.111860
0.208415 0.123716 0.112108
0.244308 0.131874 0.112357
0.280202 0.140033 0.112605
0.316095 0.148191 0.112854
0.354179 0.154286 0.111027
0.394451 0.158315 0.107126
0.434723 0.162345 0.103224
0.474996 0.166375 0.099322
0.515268 0.170404 0.095421
0.552694 0.173316 0.091378
0.584425 0.173993 0.087052
0.616156 0.174670 0.082727
0.647888 0.175347 0.078401
0.679619 0.176024 0.074076
0.709205 0.176341 0.069990
0.728063 0.174858 0.067101
0.746922 0.173374 0.064211
0.765780 0.171891 0.061322
0.784639 0.170407 0.058433
0.803498 0.168924 0.055544
0.094458 0.107771 0.123865
0.094884 0.108135 0.124218
0.095309 0.108500 0.124572
0.095734 0.108864 0.124926
0.096160 0.109229 0.125280
0.096585 0.109593 0.125633
0.102746 0.111215 0.126095
0.110054 0.113089 0.126578
0.117361 0.114963 0.127062
0.124669 0.116837 0.127545
0.131977 0.118711 0.128028
0.157890 0.125860 0.128892
0.193107 0.135647 0.129945
0.228324 0.145433 0.130999
0.263540 0.155220 0.132052
0.298757 0.165007 0.133106
0.337028 0.172318 0.131394
0.378352 0.177152 0.126916
0.419677 0.181987 0.122438
0.461001 0.186822 0.117960
0.502325 0.191657 0.113482
0.540916 0.195157 0.108707
0.574038 0.195990 0.103339
0.607159 0.196822 0.097971
0.640281 0.197655 0.092602
0.673403 0.198487 0.087234
0.704289 0.198874 0.082117
0.723999 0.197034 0.078258
0.743708 0.195193 0.074399
0.763417 0.193353 0.070540
0.783127 0.191513 0.066681
0.802836 0.189673 0.062822
0.105849 0.121998 0.140124
0.106274 0.122408 0.140496
0.106700 0.122818 0.140868
0.107125 0.123228 0.141240
0.107551 0.123638 0.141612
0.107976 0.124048 0.141984
0.110012 0.124832 0.142471
0.112371 0.125690 0.142982
0.114730 0.126549 0.143493
0.117088 0.127407 0.144004
0.119447 0.128266 0.144514
0.143260 0.136162 0.145924
0.177799 0.147577 0.147782
0.212339 0.158992 0.149641
0.246879 0.170407 0.151499
0.281419 0.181822 0.153358
0.319877 0.190350 0.151760
0.362253 0.195990 0.146706
0.404630 0.201629 0.141652
0.447006 0.207269 0.136597
0.489383 0.212909 0.131543
0.529138 0.216998 0.126037
0.563650 0.217986 0.119625
0.598162 0.218974 0.113214
0.632675 0.219962 0.106803
0.667187 0.220950 0.100392
0.699374 0.221407 0.094244
0.719934 0.219210 0.089416
0.740494 0.217013 0.084587
0.761054 0.214816 0.079758
0.781614 0.212619 0.074930
0.802174 0.210422 0.070101
0.121494 0.140447 0.160384
0.121901 0.140860 0.160744
0.122308 0.141273 0.161104
0.122715 0.141686 0.161464
0.123122 0.142099 0.161824
0.123529 0.142513 0.162184
0.124172 0.143015 0.162677
0.124863 0.143535 0.163197
0.125554 0.144055 0.163717
0.126244 0.144574 0.164236
0.126935 0.145094 0.164756
0.147138 0.152252 0.166193
0.177098 0.162728 0.168088
0.207058 0.173204 0.169983
0.237017 0.183679 0.171879
0.266977 0.194155 0.173774
0.303061 0.203113 0.172757
0.345270 0.210552 0.168828
0.387479 0.217991 0.164899
0.429687 0.225429 0.160970
0.471896 0.232868 0.157041
0.511995 0.238493 0.152134
0.547873 0.240490 0.145271
0.583752 0.242488 0.138409
0.619630 0.244485 0.131546
0.655508 0.246482 0.124684
0.689050 0.247824 0.118000
0.710906 0.245886 0.112207
0.732762 0.243948 0.106415
0.754618 0.242010 0.100623
0.776474 0.240072 0.094831
0.798330 0.238135 0.089039
0.139265 0.161007 0.182646
0.139645 0.161402 0.182978
0.140024 0.161797 0.183311
0.140404 0.162191 0.183643
0.140784 0.162586 0.183976
0.141163 0.162981 0.184308
0.141779 0.163480 0.184797
0.142442 0.164000 0.185316
0.143106 0.164520 0.185836
0.143769 0.165040 0.186356
0.144432 0.165560 0.186876
0.160272 0.171235 0.188081
0.183700 0.179488 0.189629
0.207128 0.187741 0.191176
0.230556 0.195994 0.192724
0.253984 0.204247 0.194271
0.286413 0.213241 0.194069
0.327845 0.222976 0.192115
0.369276 0.232711 0.190162
0.410707 0.242446 0.188209
0.452138 0.252181 0.186256
0.492170 0.259816 0.182615
0.529402 0.263249 0.175597
0.566634 0.266683 0.168579
0.603867 0.270116 0.161561
0.641099 0.273550 0.154543
0.676021 0.276183 0.147569
0.699396 0.274812 0.140816
0.722771 0.273441 0.134063
0.746145 0.272071 0.127311
0.769520 0.270700 0.120558
0.792895 0.269329 0.113805
0.157037 0.181567 0.204908
0.157389 0.181943 0.205213
0.157741 0.182320 0.205518
0.158093 0.182697 0.205822
0.158445 0.183073 0.206127
0.158797 0.183450 0.206432
0.159386 0.183946 0.206916
0.160022 0.184466 0.207436
0.160658 0.184986 0.207956
0.161293 0.185506 0.208476
0.161929 0.186025 0.208996
0.173405 0.190219 0.209969
0.190302 0.196249 0.211169
0.207198 0.202279 0.212369
0.224094 0.208309 0.213569
0.240991 0.214339 0.214769
0.269766 0.223370 0.215380
0.310419 0.235401 0.215403
0.351073 0.247432 0.215426
0.391726 0.259463 0.215449
0.432380 0.271494 0.215472
0.472345 0.281138 0.213096
0.510931 0.286008 0.205922
0.549517 0.290878 0.198749
0.588103 0.295747 0.191575
0.626689 0.300617 0.184402
0.662993 0.304541 0.177138
0.687886 0.303738 0.169425
0.712780 0.302934 0.161712
0.737673 0.302131 0.153998
0.762566 0.301327 0.146285
0.787459 0.300524 0.138572
0.174808 0.202127 0.227169
0.175133 0.202485 0.227447
0.175457 0.202843 0.227724
0.175782 0.203202 0.228002
0.176107 0.203560 0.228279
0.176432 0.203918 0.228557
0.176993 0.204411 0.229036
0.177601 0.204931 0.229556
0.178210 0.205451 0.230076
0.178818 0.205971 0.230596
0.179426 0.206491 0.231116
0.186539 0.209202 0.231857
0.196903 0.213009 0.232710
0.207268 0.216817 0.233562
0.217633 0.220624 0.234414
0.227997 0.224431 0.235266
0.253118 0.233498 0.236692
0.292994 0.247825 0.238691
0.332870 0.262152 0.240690
0.372746 0.276480 0.242689
0.412622 0.290807 0.244687
0.452519 0.302460 0.243577
0.492459 0.308766 0.236248
0.532399 0.315072 0.228919
0.572340 0.321378 0.221590
0.612280 0.327684 0.214261
0.649965 0.332900 0.206708
0.676377 0.332664 0.198034
0.702788 0.332427 0.189360
0.729200 0.332191 0.180686
0.755612 0.331955 0.172012
0.782024 0.331718 0.163338
0.192579 0.222687 0.249431
0.192877 0.223027 0.249681
0.193174 0.223367 0.249931
0.193471 0.223707 0.250181
0.193769 0.224047 0.250431
0.194066 0.224387 0.250681
0.194600 0.224877 0.251156
0.195181 0.225397 0.251676
0.195761 0.225917 0.252196
0.196342 0.226437 0.252716
0.196923 0.226957 0.253236
0.199672 0.228186 0.253745
0.203505 0.229770 0.254250
0.207338 0.231354 0.254755
0.211171 0.232938 0.255259
0.215004 0.234522 0.255764
0.236470 0.243626 0.258004
0.275568 0.260250 0.261979
0.314667 0.276873 0.265953
0.353765 0.293496 0.269928
0.392864 0.310120 0.273903
0.432694 0.323783 0.274058
0.473988 0.331525 0.266573
0.515282 0.339267 0.259089
0.556576 0.347010 0.251604
0.597870 0.354752 0.244120
0.636937 0.361259 0.236277
0.664867 0.361590 0.226642
0.692797 0.361921 0.217008
0.720728 0.362251 0.207374
0.748658 0.362582 0.197739
0.776588 0.362913 0.188105
0.213896 0.245988 0.273607
0.214175 0.246315 0.273838
0.214454 0.246641 0.274070
0.214733 0.246967 0.274302
0.215012 0.247294 0.274534
0.215291 0.247620 0.274765
0.215787 0.248085 0.275214
0.216327 0.248577 0.275707
0.216867 0.249070 0.276199
0.217406 0.249562 0.276692
0.217946 0.250054 0.277184
0.218495 0.250528 0.277566
0.219048 0.250991 0.277892
0.219602 0.251455 0.278219
0.220155 0.251918 0.278545
0.220709 0.252382 0.278871
0.238474 0.260653 0.281278
0.273451 0.276732 0.285765
0.308429 0.292811 0.290252
0.343406 0.308890 0.294739
0.378383 0.324969 0.299226
0.415603 0.338930 0.300169
0.457309 0.348652 0.294025
0.499015 0.358375 0.287881
0.540720 0.368098 0.281736
0.582426 0.377821 0.275592
0.622076 0.386173 0.268812
0.651447 0.387670 0.258858
0.680818 0.389167 0.248903
0.710189 0.390664 0.238949
0.739560 0.392161 0.228994
0.768931 0.393659 0.219040
0.238757 0.272031 0.299697
0.239027 0.272348 0.299919
0.239297 0.272665 0.300142
0.239567 0.272983 0.300365
0.239836 0.273300 0.300587
0.240106 0.273617 0.300810
0.240555 0.274034 0.301211
0.241040 0.274472 0.301649
0.241525 0.274910 0.302087
0.242010 0.275347 0.302524
0.242495 0.275785 0.302962
0.243007 0.276227 0.303319
0.243533 0.276673 0.303636
0.244059 0.277118 0.303953
0.244585 0.277563 0.304270
0.245111 0.278008 0.304588
0.259130 0.284578 0.306514
0.286643 0.297272 0.310050
0.314155 0.309967 0.313585
0.341668 0.322661 0.317121
0.369180 0.335355 0.320657
0.401247 0.347901 0.321911
0.442422 0.360148 0.318603
0.483597 0.372396 0.315294
0.524772 0.384644 0.311986
0.565947 0.396891 0.308677
0.605382 0.407641 0.304314
0.636116 0.410904 0.294680
0.666851 0.414167 0.285045
0.697585 0.417430 0.275411
0.728319 0.420692 0.265777
0.759053 0.423955 0.256142
0.263618 0.298074 0.325787
0.263879 0.298382 0.326000
0.264140 0.298690 0.326214
0.264400 0.298998 0.326427
0.264661 0.299306 0.326641
0.264922 0.299614 0.326854
0.265323 0.299984 0.327209
0.265753 0.300367 0.327591
0.266183 0.300749 0.327974
0.266613 0.301132 0.328357
0.267043 0.301515 0.328739
0.267519 0.301927 0.329072
0.268018 0.302354 0.329380
0.268516 0.302781 0.329688
0.269015 0.303208 0.329996
0.269513 0.303635 0.330304
0.279786 0.308503 0.331750
0.299834 0.317813 0.334335
0.319882 0.327122 0.336919
0.339930 0.336432 0.339503
0.359978 0.345741 0.342087
0.386891 0.356872 0.343653
0.427535 0.371644 0.343180
0.468180 0.386417 0.342707
0.508824 0.401189 0.342235
0.549469 0.415962 0.341762
0.588689 0.429110 0.339816
0.620786 0.434138 0.330502
0.652883 0.439167 0.321188
0.684980 0.444195 0.311873
0.717078 0.449224 0.302559
0.749175 0.454252 0.293245
0.288479 0.324117 0.351877
0.288731 0.324416 0.352081
0.288982 0.324714 0.352285
0.289234 0.325013 0.352490
0.289486 0.325312 0.352694
0.289737 0.325611 0.352898
0.290092 0.325934 0.353206
0.290467 0.326262 0.353533
0.290842 0.326589 0.353861
0.291217 0.326917 0.354189
0.291592 0.327245 0.354517
0.292031 0.327627 0.354825
0.292502 0.328035 0.355124
0.292973 0.328444 0.355423
0.293444 0.328853 0.355722
0.293915 0.329261 0.356021
0.300443 0.332428 0.356986
0.313026 0.338353 0.358619
0.325609 0.344278 0.360252
0.338192 0.350202 0.361885
0.350775 0.356127 0.363518
0.372535 0.365843 0.365394
0.412649 0.383140 0.367758
0.452762 0.400438 0.370121
0.492876 0.417735 0.372484
0.532990 0.435032 0.374847
0.571995 0.450579 0.375318
0.605455 0.457373 0.366324
0.638916 0.464167 0.357330
0.672376 0.470961 0.348336
0.705836 0.477755 0.339342
0.739297 0.484548 0.330348
0.313340 0.350160 0.377967
0.313583 0.350449 0.378162
0.313825 0.350739 0.378357
0.314068 0.351029 0.378552
0.314310 0.351318 0.378747
0.314553 0.351608 0.378943
0.314860 0.351884 0.379203
0.315180 0.352157 0.379475
0.315500 0.352429 0.379748
0.315820 0.352702 0.380021
0.316140 0.352975 0.380294
0.316543 0.353326 0.380578
0.316987 0.353717 0.380868
0.317430 0.354107 0.381158
0.317874 0.354497 0.381447
0.318318 0.354888 0.381737
0.321099 0.356353 0.382223
0.326217 0.358893 0.382904
0.331335 0.361433 0.383586
0.336454 0.363973 0.384267
0.341572 0.366513 0.384949
0.358178 0.374814 0.387136
0.397762 0.394636 0.392335
0.437345 0.414458 0.397534
0.476928 0.434281 0.402733
0.516512 0.454103 0.407933
0.555302 0.472048 0.410820
0.590125 0.480607 0.402146
0.624948 0.489167 0.393472
0.659772 0.497726 0.384798
0.694595 0.506286 0.376124
0.729418 0.514845 0.367450
0.340013 0.377022 0.404088
0.340253 0.377314 0.404290
0.340492 0.377607 0.404491
0.340732 0.377900 0.404692
0.340971 0.378192 0.404893
0.341210 0.378485 0.405095
0.341474 0.378718 0.405307
0.341742 0.378939 0.405522
0.342010 0.379160 0.405737
0.342279 0.379381 0.405952
0.342547 0.379603 0.406167
0.342908 0.379914 0.406416
0.343315 0.380271 0.406681
0.343722 0.380628 0.406946
0.344129 0.380984 0.407212
0.344536 0.381341 0.407477
0.344811 0.381658 0.407633
0.344953 0.381936 0.407680
0.345094 0.382213 0.407728
0.345236 0.382491 0.407775
0.345378 0.382768 0.407822
0.357703 0.389664 0.410064
0.394396 0.409797 0.416693
0.431088 0.429931 0.423322
0.467781 0.450064 0.429951
0.504473 0.470197 0.436580
0.540996 0.488727 0.440869
0.576670 0.499238 0.433455
0.612344 0.509749 0.426040
0.648019 0.520260 0.418626
0.683693 0.530771 0.411211
0.719367 0.541282 0.403797
0.370310 0.405522 0.430273
0.370558 0.405842 0.430511
0.370807 0.406162 0.430749
0.371056 0.406483 0.430986
0.371304 0.406803 0.431224
0.371553 0.407123 0.431462
0.371779 0.407322 0.431628
0.372002 0.407498 0.431779
0.372225 0.407673 0.431929
0.372447 0.407848 0.432080
0.372670 0.408024 0.432231
0.372979 0.408277 0.432422
0.373331 0.408570 0.432632
0.373683 0.408863 0.432843
0.374035 0.409156 0.433053
0.374388 0.409448 0.433264
0.374635 0.409724 0.433392
0.374776 0.409983 0.433440
0.374918 0.410243 0.433487
0.375060 0.410502 0.433534
0.375202 0.410761 0.433581
0.384990 0.416273 0.435362
0.414072 0.432289 0.440610
0.443153 0.448306 0.445858
0.472234 0.464322 0.451106
0.501316 0.480339 0.456354
0.531467 0.495825 0.460014
0.566967 0.508660 0.455738
0.602468 0.521495 0.451461
0.637968 0.534329 0.447184
0.673468 0.547164 0.442908
0.708968 0.559998 0.438631
0.400607 0.434023 0.456458
0.400864 0.434370 0.456732
0.401122 0.434718 0.457006
0.401380 0.435065 0.457281
0.401637 0.435413 0.457555
0.401895 0.435761 0.457830
0.402085 0.435927 0.457948
0.402262 0.436056 0.458035
0.402439 0.436186 0.458122
0.402616 0.436315 0.458209
0.402793 0.436445 0.458296
0.403050 0.436641 0.458428
0.403347 0.436869 0.458584
0.403644 0.437098 0.458739
0.403942 0.437327 0.458895
0.404239 0.437556 0.459050
0.404459 0.437790 0.459152
0.404600 0.438031 0.459199
0.404742 0.438272 0.459246
0.404884 0.438513 0.459293
0.405026 0.438754 0.459341
0.412277 0.442881 0.460661
0.433747 0.454781 0.464528
0.455218 0.466681 0.468394
0.476688 0.478581 0.472261
0.498158 0.490481 0.476127
0.521938 0.502924 0.479160
0.557264 0.518082 0.478021
0.592591 0.533241 0.476882
0.627917 0.548399 0.475743
0.663244 0.563557 0.474604
0.698570 0.578715 0.473465
0.430903 0.462523 0.482642
0.431170 0.462898 0.482953
0.431437 0.463273 0.483264
0.431704 0.463648 0.483575
0.431970 0.464023 0.483886
0.432237 0.464398 0.484197
0.432391 0.464531 0.484268
0.432522 0.464615 0.484291
0.432653 0.464699 0.484314
0.432784 0.464782 0.484337
0.432915 0.464866 0.484360
0.433121 0.465004 0.484434
0.433363 0.465169 0.484535
0.433606 0.465333 0.484636
0.433848 0.465498 0.484736
0.434090 0.465663 0.484837
0.434283 0.465856 0.484911
0.434424 0.466079 0.484958
0.434566 0.466302 0.485005
0.434708 0.466524 0.485053
0.434850 0.466747 0.485100
0.439564 0.469490 0.485960
0.453423 0.477273 0.488445
0.467282 0.485056 0.490930
0.481142 0.492840 0.493415
0.495001 0.500623 0.495901
0.512409 0.510023 0.498305
0.547561 0.527505 0.500304
0.582714 0.544987 0.502302
0.617867 0.562468 0.504301
0.653019 0.579950 0.506300
0.688172 0.597432 0.508299
0.461200 0.491024 0.508827
0.461476 0.491426 0.509174
0.461752 0.491829 0.509522
0.462028 0.492231 0.509870
0.462304 0.492634 0.510217
0.462580 0.493036 0.510565
0.462697 0.493135 0.510588
0.462782 0.493173 0.510547
0.462867 0.493211 0.510506
0.462953 0.493249 0.510465
0.463038 0.493288 0.510424
0.463192 0.493367 0.510441
0.463379 0.493468 0.510486
0.463567 0.493569 0.510532
0.463754 0.493669 0.510578
0.463942 0.493770 0.510623
0.464107 0.493922 0.510670
0.464248 0.494127 0.510717
0.464390 0.494331 0.510765
0.464532 0.494535 0.510812
0.464674 0.494740 0.510859
0.466851 0.496098 0.511258
0.473099 0.499765 0.512362
0.479347 0.503432 0.513466
0.485595 0.507098 0.514570
0.491843 0.510765 0.515674
0.502880 0.517122 0.517450
0.537859 0.536927 0.522586
0.572837 0.556733 0.527723
0.607816 0.576538 0.532860
0.642795 0.596343 0.537996
0.677774 0.616149 0.543133
0.491441 0.519107 0.534342
0.491738 0.519547 0.534729
0.492036 0.519988 0.535116
0.492333 0.520429 0.535503
0.492630 0.520869 0.535891
0.492928 0.521310 0.536278
0.493014 0.521383 0.536256
0.493058 0.521383 0.536152
0.493103 0.521383 0.536049
0.493147 0.521383 0.535945
0.493191 0.521383 0.535841
0.493294 0.521408 0.535800
0.493427 0.521444 0.535789
0.493559 0.521481 0.535778
0.493692 0.521517 0.535768
0.493825 0.521554 0.535757
0.493960 0.521663 0.535774
0.494097 0.521844 0.535818
0.494234 0.522026 0.535862
0.494371 0.522207 0.535906
0.494509 0.522389 0.535951
0.494571 0.522590 0.535966
0.494482 0.522831 0.535923
0.494394 0.523072 0.535881
0.494305 0.523313 0.535838
0.494217 0.523554 0.535795
0.499762 0.527264 0.537010
0.533477 0.548323 0.544511
0.567192 0.569381 0.552012
0.600907 0.590440 0.559514
0.634622 0.611499 0.567015
0.668337 0.632557 0.574517
0.521407 0.545102 0.556509
0.521787 0.545634 0.556951
0.522166 0.546166 0.557393
0.522546 0.546699 0.557835
0.522925 0.547231 0.558277
0.523305 0.547763 0.558719
0.523390 0.547851 0.558661
0.523416 0.547851 0.558502
0.523442 0.547851 0.558344
0.523468 0.547851 0.558185
0.523494 0.547851 0.558027
0.523554 0.547833 0.557924
0.523632 0.547806 0.557849
0.523710 0.547778 0.557775
0.523787 0.547751 0.557700
0.523865 0.547723 0.557625
0.523959 0.547777 0.557601
0.524069 0.547913 0.557627
0.524178 0.548049 0.557653
0.524288 0.548185 0.557679
0.524398 0.548320 0.557705
0.524454 0.548500 0.557717
