Assets/1__3DArt/KimSe/artstation_asset/LUTs_subway_asset/CUBE/Underground 03_S.cube
# LUT by SparkleStock. Enhanced with VOXCOLOR algorithms.
LUT_3D_SIZE 32
0.050794 0.023443 0.035165
0.066438 0.023680 0.036157
0.082083 0.023916 0.037150
0.097727 0.024152 0.038143
0.113372 0.024389 0.039135
0.129017 0.024625 0.040128
0.152420 0.026082 0.039978
0.177376 0.027784 0.039600
0.202332 0.029485 0.039222
0.227287 0.031187 0.038844
0.252243 0.032888 0.038465
0.281201 0.035031 0.038056
0.312159 0.037394 0.037630
0.343117 0.039757 0.037205
0.374075 0.042121 0.036780
0.405034 0.044484 0.036354
0.435732 0.046847 0.036260
0.466170 0.049210 0.036496
0.496609 0.051574 0.036732
0.527047 0.053937 0.036969
0.557486 0.056300 0.037205
0.585860 0.058521 0.037693
0.610107 0.060459 0.038686
0.634353 0.062397 0.039679
0.658600 0.064335 0.040671
0.682847 0.066273 0.041664
0.705723 0.068092 0.042759
0.721746 0.069321 0.044366
0.737768 0.070550 0.045973
0.753791 0.071779 0.047580
0.769814 0.073008 0.049187
0.785836 0.074237 0.050794
0.058781 0.032329 0.045279
0.072047 0.033196 0.045732
0.085314 0.034064 0.046185
0.098580 0.034932 0.046638
0.111846 0.035799 0.047091
0.125112 0.036667 0.047544
0.148317 0.038740 0.046930
0.173511 0.041054 0.046104
0.198705 0.043369 0.045278
0.223898 0.045683 0.044451
0.249092 0.047998 0.043625
0.278409 0.050351 0.042682
0.309788 0.052723 0.041680
0.341167 0.055095 0.040678
0.372546 0.057468 0.039677
0.403925 0.059840 0.038675
0.435008 0.062002 0.038054
0.465794 0.063954 0.037815
0.496580 0.065905 0.037576
0.527366 0.067857 0.037336
0.558152 0.069808 0.037097
0.586792 0.071539 0.037158
0.611139 0.072827 0.037822
0.635486 0.074116 0.038485
0.659834 0.075404 0.039148
0.684181 0.076692 0.039811
0.707098 0.077844 0.040592
0.722865 0.078314 0.041961
0.738631 0.078783 0.043330
0.754398 0.079253 0.044700
0.770164 0.079723 0.046069
0.785931 0.080192 0.047438
0.066769 0.041215 0.055394
0.077657 0.042713 0.055307
0.088544 0.044212 0.055220
0.099432 0.045711 0.055133
0.110320 0.047210 0.055046
0.121207 0.048708 0.054960
0.144215 0.051398 0.053883
0.169646 0.054325 0.052608
0.195077 0.057252 0.051334
0.220509 0.060180 0.050059
0.245940 0.063107 0.048784
0.275617 0.065671 0.047308
0.307417 0.068052 0.045729
0.339217 0.070434 0.044151
0.371017 0.072815 0.042573
0.402817 0.075197 0.040995
0.434284 0.077157 0.039849
0.465417 0.078697 0.039134
0.496551 0.080237 0.038419
0.527684 0.081777 0.037704
0.558818 0.083317 0.036989
0.587723 0.084557 0.036623
0.612171 0.085195 0.036957
0.636619 0.085834 0.037291
0.661067 0.086473 0.037625
0.685515 0.087112 0.037959
0.708473 0.087596 0.038426
0.723984 0.087306 0.039557
0.739494 0.087017 0.040688
0.755005 0.086727 0.041819
0.770515 0.086437 0.042951
0.786025 0.086148 0.044082
0.074757 0.050100 0.065509
0.083266 0.052230 0.064882
0.091775 0.054360 0.064255
0.100284 0.056490 0.063629
0.108793 0.058620 0.063002
0.117303 0.060750 0.062376
0.140112 0.064055 0.060835
0.165781 0.067596 0.059112
0.191450 0.071136 0.057390
0.217119 0.074676 0.055667
0.242789 0.078216 0.053944
0.272826 0.080990 0.051933
0.305046 0.083381 0.049779
0.337267 0.085772 0.047625
0.369488 0.088162 0.045470
0.401708 0.090553 0.043316
0.433559 0.092313 0.041643
0.465041 0.093441 0.040453
0.496522 0.094569 0.039262
0.528003 0.095697 0.038071
0.559484 0.096826 0.036880
0.588655 0.097574 0.036088
0.613203 0.097563 0.036093
0.637752 0.097553 0.036097
0.662301 0.097542 0.036102
0.686849 0.097531 0.036106
0.709849 0.097348 0.036259
0.725103 0.096299 0.037152
0.740357 0.095250 0.038046
0.755611 0.094201 0.038939
0.770866 0.093152 0.039833
0.786120 0.092103 0.040726
0.082744 0.058986 0.075623
0.088875 0.061747 0.074457
0.095006 0.064509 0.073291
0.101137 0.067270 0.072124
0.107267 0.070031 0.070958
0.113398 0.072792 0.069791
0.136009 0.076713 0.067788
0.161916 0.080866 0.065617
0.187823 0.085020 0.063446
0.213730 0.089173 0.061274
0.239637 0.093326 0.059103
0.270034 0.096310 0.056559
0.302675 0.098710 0.053828
0.335317 0.101110 0.051098
0.367958 0.103510 0.048367
0.400600 0.105909 0.045636
0.432835 0.107468 0.043438
0.464664 0.108184 0.041771
0.496493 0.108901 0.040105
0.528322 0.109617 0.038439
0.560151 0.110334 0.036772
0.589586 0.110592 0.035553
0.614236 0.109932 0.035228
0.638885 0.109271 0.034903
0.663534 0.108611 0.034579
0.688183 0.107951 0.034254
0.711224 0.107099 0.034092
0.726222 0.105291 0.034748
0.741220 0.103483 0.035404
0.756218 0.101675 0.036059
0.771216 0.099866 0.036715
0.786215 0.098058 0.037371
0.090732 0.067872 0.085738
0.094484 0.071264 0.084032
0.098237 0.074657 0.082326
0.101989 0.078049 0.080620
0.105741 0.081441 0.078914
0.109493 0.084834 0.077207
0.131906 0.089371 0.074740
0.158051 0.094137 0.072121
0.184196 0.098903 0.069502
0.210341 0.103669 0.066882
0.236486 0.108435 0.064263
0.267242 0.111630 0.061185
0.300305 0.114039 0.057878
0.333367 0.116448 0.054571
0.366429 0.118857 0.051264
0.399492 0.121266 0.047957
0.432111 0.122623 0.045232
0.464287 0.122928 0.043090
0.496464 0.123233 0.040948
0.528640 0.123538 0.038806
0.560817 0.123843 0.036664
0.590518 0.123609 0.035018
0.615268 0.122300 0.034364
0.640018 0.120990 0.033710
0.664767 0.119680 0.033055
0.689517 0.118371 0.032401
0.712599 0.116851 0.031926
0.727341 0.114284 0.032344
0.742083 0.111716 0.032761
0.756825 0.109149 0.033179
0.771567 0.106581 0.033597
0.786309 0.104014 0.034015
0.101595 0.080618 0.099319
0.104768 0.084001 0.097576
0.107941 0.087384 0.095833
0.111114 0.090767 0.094091
0.114286 0.094151 0.092348
0.117459 0.097534 0.090605
0.137166 0.102313 0.087892
0.160179 0.107372 0.084984
0.183192 0.112431 0.082077
0.206206 0.117490 0.079169
0.229219 0.122549 0.076262
0.258912 0.126579 0.073258
0.291946 0.130095 0.070205
0.324979 0.133611 0.067153
0.358012 0.137126 0.064100
0.391046 0.140642 0.061048
0.423965 0.142774 0.058316
0.456772 0.143521 0.055904
0.489578 0.144268 0.053492
0.522384 0.145015 0.051080
0.555190 0.145762 0.048668
0.585568 0.145775 0.046689
0.611089 0.144319 0.045576
0.636611 0.142863 0.044463
0.662132 0.141407 0.043350
0.687653 0.139951 0.042237
0.711463 0.138212 0.041295
0.726711 0.135061 0.041208
0.741959 0.131909 0.041121
0.757207 0.128758 0.041034
0.772455 0.125606 0.040947
0.787703 0.122455 0.040860
0.113033 0.094135 0.113593
0.115986 0.097381 0.111914
0.118940 0.100627 0.110235
0.121893 0.103873 0.108557
0.124846 0.107119 0.106878
0.127800 0.110365 0.105199
0.144298 0.115313 0.102283
0.163506 0.120600 0.099119
0.182714 0.125888 0.095956
0.201921 0.131175 0.092792
0.221129 0.136463 0.089628
0.249475 0.141453 0.086819
0.282389 0.146296 0.084188
0.315303 0.151138 0.081556
0.348218 0.155980 0.078925
0.381132 0.160823 0.076293
0.414336 0.163924 0.073657
0.447828 0.165284 0.071016
0.481320 0.166644 0.068376
0.514812 0.168004 0.065735
0.548305 0.169364 0.063094
0.579442 0.169770 0.060801
0.605869 0.168268 0.059203
0.632296 0.166766 0.057605
0.658723 0.165265 0.056007
0.685150 0.163763 0.054410
0.709824 0.161895 0.052971
0.725730 0.158194 0.052326
0.741637 0.154494 0.051681
0.757544 0.150794 0.051036
0.773451 0.147093 0.050391
0.789358 0.143393 0.049746
0.124471 0.107653 0.127866
0.127205 0.110762 0.126252
0.129939 0.113870 0.124637
0.132672 0.116979 0.123023
0.135406 0.120088 0.121408
0.138140 0.123197 0.119793
0.151431 0.128312 0.116674
0.166833 0.133828 0.113255
0.182235 0.139344 0.109835
0.197637 0.144861 0.106415
0.213039 0.150377 0.102995
0.240037 0.156328 0.100381
0.272832 0.162497 0.098171
0.305628 0.168666 0.095960
0.338423 0.174834 0.093749
0.371219 0.181003 0.091538
0.404706 0.185074 0.088998
0.438884 0.187047 0.086129
0.473063 0.189020 0.083259
0.507241 0.190993 0.080390
0.541419 0.192966 0.077520
0.573316 0.193765 0.074913
0.600648 0.192218 0.072831
0.627981 0.190670 0.070748
0.655314 0.189123 0.068665
0.682646 0.187575 0.066583
0.708185 0.185577 0.064646
0.724750 0.181328 0.063444
0.741315 0.177079 0.062241
0.757881 0.172829 0.061038
0.774446 0.168580 0.059835
0.791012 0.164331 0.058632
0.135909 0.121171 0.142140
0.138423 0.124142 0.140590
0.140938 0.127114 0.139039
0.143452 0.130085 0.137489
0.145966 0.133057 0.135938
0.148480 0.136028 0.134387
0.158563 0.141311 0.131066
0.170160 0.147056 0.127390
0.181756 0.152801 0.123714
0.193353 0.158546 0.120038
0.204949 0.164291 0.116362
0.230599 0.171203 0.113943
0.263276 0.178698 0.112153
0.295952 0.186193 0.110363
0.328629 0.193688 0.108573
0.361306 0.201184 0.106783
0.395076 0.206224 0.104339
0.429941 0.208810 0.101241
0.464805 0.211396 0.098143
0.499670 0.213982 0.095045
0.534534 0.216568 0.091947
0.567190 0.217760 0.089026
0.595428 0.216167 0.086458
0.623666 0.214574 0.083891
0.651905 0.212980 0.081323
0.680143 0.211387 0.078755
0.706546 0.209260 0.076322
0.723770 0.204462 0.074561
0.740994 0.199664 0.072800
0.758218 0.194865 0.071039
0.775442 0.190067 0.069278
0.792666 0.185269 0.067517
0.147347 0.134688 0.156414
0.149642 0.137523 0.154928
0.151937 0.140357 0.153441
0.154231 0.143191 0.151955
0.156526 0.146026 0.150468
0.158820 0.148860 0.148981
0.165695 0.154310 0.145457
0.173486 0.160284 0.141525
0.181277 0.166258 0.137593
0.189068 0.172231 0.133661
0.196859 0.178205 0.129729
0.221162 0.186077 0.127505
0.253719 0.194899 0.126136
0.286277 0.203721 0.124767
0.318835 0.212542 0.123398
0.351392 0.221364 0.122028
0.385446 0.227374 0.119680
0.420997 0.230573 0.116354
0.456547 0.233772 0.113027
0.492098 0.236971 0.109700
0.527649 0.240169 0.106373
0.561064 0.241755 0.103138
0.590208 0.240116 0.100086
0.619352 0.238477 0.097033
0.648495 0.236838 0.093981
0.677639 0.235199 0.090928
0.704906 0.232942 0.087998
0.722789 0.227595 0.085679
0.740672 0.222248 0.083360
0.758555 0.216901 0.081041
0.776438 0.211554 0.078722
0.794320 0.206207 0.076403
0.162598 0.152554 0.173650
0.164691 0.155190 0.172270
0.166785 0.157827 0.170890
0.168878 0.160463 0.169511
0.170971 0.163099 0.168131
0.173065 0.165735 0.166751
0.178519 0.170977 0.163315
0.184645 0.176740 0.159469
0.190771 0.182503 0.155622
0.196897 0.188267 0.151775
0.203023 0.194030 0.147928
0.224455 0.201749 0.145632
0.253539 0.210445 0.144110
0.282624 0.219142 0.142589
0.311708 0.227839 0.141067
0.340793 0.236536 0.139545
0.373133 0.243217 0.137528
0.408729 0.247882 0.135016
0.444326 0.252548 0.132503
0.479922 0.257213 0.129990
0.515518 0.261878 0.127478
0.549278 0.264724 0.124778
0.579364 0.263930 0.121704
0.609450 0.263135 0.118630
0.639537 0.262341 0.115557
0.669623 0.261547 0.112483
0.697859 0.260023 0.109457
0.716846 0.254853 0.106672
0.735832 0.249683 0.103886
0.754819 0.244513 0.101101
0.773806 0.239342 0.098315
0.792792 0.234172 0.095530
0.179755 0.172594 0.192367
0.181656 0.175002 0.191115
0.183558 0.177409 0.189863
0.185459 0.179817 0.188612
0.187360 0.182224 0.187360
0.189261 0.184632 0.186108
0.194188 0.189477 0.182907
0.199719 0.194811 0.179317
0.205251 0.200144 0.175726
0.210782 0.205477 0.172136
0.216314 0.210810 0.168545
0.234114 0.217819 0.166041
0.258048 0.225665 0.164080
0.281982 0.233511 0.162119
0.305916 0.241356 0.160159
0.329850 0.249202 0.158198
0.359478 0.256405 0.156629
0.394800 0.262964 0.155452
0.430122 0.269523 0.154275
0.465444 0.276082 0.153098
0.500766 0.282641 0.151921
0.534663 0.287179 0.150182
0.565709 0.287675 0.147319
0.596756 0.288170 0.144455
0.627803 0.288666 0.141592
0.658849 0.289161 0.138729
0.688107 0.288802 0.135808
0.708420 0.284172 0.132602
0.728733 0.279542 0.129395
0.749047 0.274911 0.126189
0.769360 0.270281 0.122983
0.789673 0.265650 0.119776
0.196912 0.192635 0.211084
0.198621 0.194813 0.209960
0.200330 0.196992 0.208836
0.202039 0.199171 0.207713
0.203749 0.201350 0.206589
0.205458 0.203528 0.205465
0.209857 0.207978 0.202499
0.214794 0.212881 0.199165
0.219730 0.217784 0.195830
0.224667 0.222687 0.192496
0.229604 0.227591 0.189161
0.243772 0.233889 0.186450
0.262556 0.240884 0.184050
0.281340 0.247879 0.181650
0.300124 0.254874 0.179251
0.318908 0.261869 0.176851
0.345823 0.269593 0.175730
0.380871 0.278046 0.175889
0.415918 0.286499 0.176047
0.450966 0.294951 0.176206
0.486013 0.303404 0.176364
0.520047 0.309634 0.175586
0.552054 0.311420 0.172933
0.584062 0.313205 0.170280
0.616069 0.314991 0.167627
0.648076 0.316776 0.164974
0.678355 0.317582 0.162159
0.699995 0.313491 0.158532
0.721635 0.309401 0.154905
0.743274 0.305310 0.151277
0.764914 0.301219 0.147650
0.786553 0.297129 0.144023
0.214069 0.212675 0.229800
0.215586 0.214625 0.228805
0.217103 0.216575 0.227809
0.218620 0.218525 0.226813
0.220137 0.220475 0.225818
0.221654 0.222425 0.224822
0.225526 0.226478 0.222091
0.229868 0.230951 0.219013
0.234210 0.235425 0.215935
0.238552 0.239898 0.212856
0.242895 0.244371 0.209778
0.253431 0.249959 0.206859
0.267065 0.256103 0.204020
0.280698 0.262247 0.201181
0.294332 0.268392 0.198342
0.307965 0.274536 0.195504
0.332168 0.282782 0.194831
0.366941 0.293128 0.196325
0.401714 0.303474 0.197819
0.436487 0.313821 0.199314
0.471260 0.324167 0.200808
0.505432 0.332090 0.200990
0.538400 0.335165 0.198547
0.571367 0.338240 0.196105
0.604335 0.341315 0.193662
0.637303 0.344391 0.191220
0.668604 0.346362 0.188510
0.691570 0.342811 0.184462
0.714536 0.339260 0.180414
0.737502 0.335709 0.176366
0.760468 0.332158 0.172318
0.783434 0.328607 0.168270
0.231226 0.232715 0.248517
0.232551 0.234436 0.247650
0.233876 0.236158 0.246782
0.235201 0.237879 0.245914
0.236526 0.239600 0.245047
0.237851 0.241322 0.244179
0.241195 0.244978 0.241683
0.244942 0.249021 0.238861
0.248690 0.253065 0.236039
0.252437 0.257108 0.233217
0.256185 0.261152 0.230394
0.263090 0.266029 0.227268
0.271573 0.271322 0.223990
0.280056 0.276616 0.220712
0.288539 0.281909 0.217434
0.297023 0.287203 0.214156
0.318514 0.295970 0.213932
0.353012 0.308210 0.216762
0.387511 0.320450 0.219592
0.422009 0.332690 0.222421
0.456508 0.344930 0.225251
0.490816 0.354545 0.226394
0.524745 0.358910 0.224162
0.558673 0.363275 0.221929
0.592601 0.367640 0.219697
0.626530 0.372005 0.217465
0.658852 0.375141 0.214860
0.683144 0.372130 0.210392
0.707437 0.369119 0.205923
0.731729 0.366107 0.201454
0.756022 0.363096 0.196985
0.780314 0.360085 0.192516
0.251195 0.255473 0.268841
0.252383 0.256988 0.268088
0.253571 0.258504 0.267334
0.254759 0.260019 0.266581
0.255946 0.261535 0.265828
0.257134 0.263050 0.265075
0.260043 0.266314 0.262822
0.263297 0.269928 0.260270
0.266551 0.273541 0.257718
0.269804 0.277155 0.255166
0.273058 0.280768 0.252613
0.277855 0.285053 0.249547
0.283425 0.289675 0.246223
0.288995 0.294296 0.242899
0.294564 0.298917 0.239575
0.300134 0.303538 0.236252
0.318601 0.311916 0.236082
0.349967 0.324051 0.239068
0.381332 0.336186 0.242053
0.412697 0.348321 0.245038
0.444063 0.360456 0.248024
0.476403 0.370589 0.249649
0.510693 0.376720 0.248556
0.544982 0.382850 0.247463
0.579272 0.388981 0.246370
0.613562 0.395112 0.245277
0.646393 0.399915 0.243631
0.671934 0.398079 0.239221
0.697476 0.396243 0.234812
0.723017 0.394408 0.230403
0.748558 0.392572 0.225993
0.774099 0.390736 0.221584
0.273977 0.280948 0.290772
0.275082 0.282281 0.290119
0.276188 0.283614 0.289466
0.277293 0.284946 0.288814
0.278398 0.286279 0.288161
0.279504 0.287611 0.287509
0.282072 0.290486 0.285509
0.284932 0.293670 0.283241
0.287792 0.296853 0.280972
0.290652 0.300037 0.278703
0.293513 0.303220 0.276435
0.297728 0.307033 0.273694
0.302621 0.311160 0.270718
0.307513 0.315287 0.267742
0.312406 0.319415 0.264766
0.317298 0.323542 0.261790
0.332431 0.330621 0.261282
0.357805 0.340652 0.263243
0.383178 0.350682 0.265203
0.408552 0.360713 0.267164
0.433925 0.370744 0.269125
0.462192 0.380222 0.270757
0.496243 0.388594 0.271731
0.530295 0.396966 0.272705
0.564347 0.405338 0.273680
0.598399 0.413710 0.274654
0.631227 0.420682 0.274821
0.657939 0.420658 0.270951
0.684652 0.420633 0.267082
0.711364 0.420609 0.263212
0.738076 0.420584 0.259342
0.764788 0.420560 0.255473
0.296758 0.306424 0.312702
0.297781 0.307574 0.312150
0.298805 0.308723 0.311598
0.299828 0.309873 0.311047
0.300851 0.311022 0.310495
0.301874 0.312172 0.309943
0.304100 0.314658 0.308196
0.306567 0.317412 0.306211
0.309034 0.320165 0.304226
0.311501 0.322919 0.302241
0.313968 0.325672 0.300256
0.317600 0.329012 0.297842
0.321816 0.332646 0.295213
0.326032 0.336279 0.292585
0.330247 0.339912 0.289956
0.334463 0.343546 0.287328
0.346262 0.349326 0.286482
0.365643 0.357252 0.287418
0.385025 0.365179 0.288354
0.404406 0.373106 0.289290
0.423788 0.381032 0.290226
0.447980 0.389855 0.291864
0.481794 0.400468 0.294906
0.515608 0.411081 0.297948
0.549422 0.421694 0.300989
0.583236 0.432307 0.304031
0.616062 0.441449 0.306011
0.643945 0.443236 0.302681
0.671828 0.445023 0.299351
0.699711 0.446810 0.296021
0.727594 0.448597 0.292691
0.755477 0.450384 0.289362
0.319540 0.331900 0.334633
0.320481 0.332866 0.334182
0.321421 0.333833 0.333731
0.322362 0.334800 0.333279
0.323303 0.335766 0.332828
0.324244 0.336733 0.332377
0.326128 0.338830 0.330883
0.328202 0.341154 0.329182
0.330275 0.343477 0.327480
0.332349 0.345801 0.325779
0.334422 0.348125 0.324077
0.337473 0.350992 0.321990
0.341012 0.354131 0.319709
0.344550 0.357271 0.317428
0.348089 0.360410 0.315147
0.351628 0.363549 0.312866
0.360092 0.368030 0.311681
0.373482 0.373853 0.311593
0.386871 0.379675 0.311504
0.400261 0.385498 0.311416
0.413650 0.391321 0.311328
0.433769 0.399487 0.312972
0.467345 0.412342 0.318081
0.500921 0.425196 0.323190
0.534497 0.438051 0.328299
0.568073 0.450905 0.333408
0.600896 0.462217 0.337201
0.629950 0.465815 0.334411
0.659004 0.469413 0.331621
0.688058 0.473012 0.328830
0.717112 0.476610 0.326040
0.746166 0.480208 0.323250
0.342321 0.357375 0.356564
0.343180 0.358159 0.356213
0.344038 0.358943 0.355863
0.344897 0.359726 0.355512
0.345755 0.360510 0.355161
0.346613 0.361294 0.354811
0.348157 0.363002 0.353570
0.349837 0.364896 0.352153
0.351517 0.366790 0.350735
0.353197 0.368683 0.349317
0.354877 0.370577 0.347899
0.357345 0.372972 0.346137
0.360207 0.375617 0.344204
0.363069 0.378262 0.342271
0.365931 0.380907 0.340337
0.368792 0.383553 0.338404
0.373922 0.386735 0.336881
0.381320 0.390453 0.335768
0.388717 0.394172 0.334655
0.396115 0.397891 0.333542
0.403513 0.401609 0.332429
0.419557 0.409120 0.334079
0.452896 0.424216 0.341256
0.486234 0.439312 0.348432
0.519572 0.454407 0.355609
0.552911 0.469503 0.362786
0.585730 0.482984 0.368391
0.615955 0.488394 0.366141
0.646180 0.493803 0.363890
0.676405 0.499213 0.361640
0.706630 0.504622 0.359389
0.736855 0.510032 0.357139
0.366426 0.383450 0.378888
0.367218 0.384078 0.378623
0.368009 0.384706 0.378358
0.368800 0.385334 0.378093
0.369592 0.385962 0.377827
0.370383 0.386590 0.377562
0.371640 0.387966 0.376547
0.372991 0.389490 0.375382
0.374342 0.391015 0.374217
0.375693 0.392540 0.373053
0.377044 0.394064 0.371888
0.379024 0.396035 0.370420
0.381319 0.398229 0.368801
0.383613 0.400423 0.367182
0.385908 0.402617 0.365562
0.388202 0.404811 0.363943
0.390970 0.407010 0.362281
0.394212 0.409213 0.360577
0.397453 0.411416 0.358872
0.400695 0.413619 0.357168
0.403936 0.415822 0.355463
0.416465 0.422474 0.356988
0.447568 0.438024 0.364973
0.478671 0.453574 0.372958
0.509774 0.469124 0.380942
0.540877 0.484674 0.388927
0.571959 0.498859 0.395398
0.602931 0.506214 0.394300
0.633903 0.513569 0.393202
0.664875 0.520924 0.392105
0.695847 0.528279 0.391007
0.726819 0.535634 0.389909
0.393178 0.410721 0.402001
0.393933 0.411249 0.401790
0.394688 0.411776 0.401580
0.395442 0.412304 0.401370
0.396197 0.412831 0.401159
0.396952 0.413359 0.400949
0.398035 0.414511 0.400103
0.399185 0.415789 0.399130
0.400335 0.417067 0.398158
0.401484 0.418344 0.397185
0.402634 0.419622 0.396212
0.404315 0.421267 0.394973
0.406262 0.423095 0.393601
0.408209 0.424923 0.392229
0.410156 0.426751 0.390857
0.412103 0.428579 0.389484
0.414455 0.430425 0.388083
0.417211 0.432290 0.386653
0.419968 0.434155 0.385223
0.422725 0.436019 0.383793
0.425481 0.437884 0.382363
0.435610 0.443271 0.383501
0.460483 0.455701 0.389775
0.485357 0.468132 0.396049
0.510230 0.480562 0.402323
0.535103 0.492993 0.408597
0.560976 0.504947 0.414038
0.591848 0.514515 0.415319
0.622719 0.524084 0.416600
0.653591 0.533653 0.417880
0.684462 0.543222 0.419161
0.715333 0.552791 0.420442
0.419930 0.437993 0.425113
0.420648 0.438420 0.424958
0.421366 0.438847 0.424802
0.422084 0.439274 0.424647
0.422802 0.439700 0.424491
0.423520 0.440127 0.424336
0.424430 0.441057 0.423659
0.425379 0.442088 0.422879
0.426327 0.443119 0.422098
0.427275 0.444149 0.421317
0.428224 0.445180 0.420537
0.429606 0.446498 0.419526
0.431206 0.447961 0.418401
0.432805 0.449423 0.417276
0.434404 0.450885 0.416151
0.436004 0.452347 0.415026
0.437939 0.453841 0.413885
0.440211 0.455367 0.412729
0.442483 0.456894 0.411574
0.444754 0.458420 0.410418
0.447026 0.459946 0.409262
0.454755 0.464067 0.410013
0.473399 0.473378 0.414576
0.492042 0.482689 0.419140
0.510686 0.492000 0.423703
0.529330 0.501312 0.428266
0.549994 0.511035 0.432679
0.580765 0.522817 0.436338
0.611536 0.534600 0.439997
0.642307 0.546382 0.443656
0.673077 0.558165 0.447316
0.703848 0.569948 0.450975
0.446682 0.465264 0.448226
0.447363 0.465591 0.448125
0.448045 0.465917 0.448024
0.448726 0.466243 0.447924
0.449408 0.466570 0.447823
0.450089 0.466896 0.447722
0.450825 0.467603 0.447215
0.451572 0.468387 0.446627
0.452320 0.469171 0.446038
0.453067 0.469954 0.445450
0.453814 0.470738 0.444861
0.454897 0.471730 0.444080
0.456149 0.472826 0.443201
0.457401 0.473923 0.442323
0.458653 0.475019 0.441445
0.459904 0.476115 0.440567
0.461424 0.477257 0.439687
0.463211 0.478445 0.438806
0.464997 0.479632 0.437924
0.466784 0.480820 0.437043
0.468571 0.482008 0.436162
0.473900 0.484864 0.436525
0.486314 0.491055 0.439378
0.498728 0.497247 0.442231
0.511142 0.503438 0.445083
0.523556 0.509630 0.447936
0.539012 0.517123 0.451319
0.569682 0.531119 0.457357
0.600352 0.545115 0.463395
0.631023 0.559112 0.469432
0.661693 0.573108 0.475470
0.692363 0.587105 0.481508
0.473433 0.492536 0.471338
0.474078 0.492762 0.471292
0.474723 0.492987 0.471247
0.475368 0.493213 0.471201
0.476013 0.493439 0.471155
0.476658 0.493664 0.471109
0.477220 0.494149 0.470771
0.477766 0.494686 0.470375
0.478312 0.495223 0.469978
0.478858 0.495759 0.469582
0.479404 0.496296 0.469186
0.480188 0.496962 0.468633
0.481093 0.497692 0.468002
0.481997 0.498422 0.467370
0.482901 0.499153 0.466739
0.483805 0.499883 0.466108
0.484908 0.500673 0.465489
0.486210 0.501522 0.464882
0.487512 0.502371 0.464275
0.488814 0.503220 0.463668
0.490116 0.504070 0.463062
0.493046 0.505660 0.463038
0.499230 0.508732 0.464180
0.505414 0.511804 0.465322
0.511598 0.514877 0.466464
0.517782 0.517949 0.467606
0.528030 0.523211 0.469960
0.558600 0.539421 0.478376
0.589169 0.555631 0.486792
0.619739 0.571841 0.495208
0.650308 0.588051 0.503625
0.680878 0.604262 0.512041
0.500295 0.519075 0.494324
0.500908 0.519212 0.494324
0.501521 0.519350 0.494324
0.502134 0.519487 0.494324
0.502747 0.519624 0.494324
0.503360 0.519761 0.494324
0.503762 0.520051 0.494134
0.504122 0.520371 0.493905
0.504482 0.520691 0.493676
0.504841 0.521012 0.493448
0.505201 0.521332 0.493219
0.505712 0.521713 0.492868
0.506297 0.522125 0.492457
0.506882 0.522536 0.492045
0.507468 0.522948 0.491633
0.508053 0.523359 0.491222
0.508780 0.523840 0.490833
0.509647 0.524389 0.490467
0.510515 0.524938 0.490101
0.511383 0.525486 0.489735
0.512250 0.526035 0.489369
0.513149 0.526554 0.489034
0.514111 0.527011 0.488759
0.515073 0.527468 0.488485
0.516035 0.527926 0.488210
0.516997 0.528383 0.487936
0.522716 0.531677 0.489384
0.552215 0.549149 0.499447
0.581714 0.566622 0.509510
0.611213 0.584094 0.519573
0.640712 0.601567 0.529636
0.670212 0.619040 0.539698
0.527709 0.541951 0.516680
0.528313 0.542061 0.516680
0.528916 0.542171 0.516680
0.529520 0.542281 0.516680
0.530124 0.542390 0.516680
0.530728 0.542500 0.516680
0.531037 0.542732 0.516528
0.531287 0.542988 0.516345
0.531537 0.543244 0.516162
0.531787 0.543500 0.515979
0.532037 0.543756 0.515796
0.532395 0.544061 0.515516
0.532806 0.544391 0.515186
0.533218 0.544720 0.514857
0.533630 0.545049 0.514528
0.534041 0.545379 0.514198
0.534589 0.545763 0.513887
0.535274 0.546202 0.513595
0.535959 0.546641 0.513302
0.536643 0.547080 0.513009
0.537328 0.547519 0.512716
0.538044 0.547934 0.512448
