Assets/1__3DArt/KimSe/artstation_asset/LUTs_subway_asset/CUBE/Underground 02_S.cube
# LUT by SparkleStock. Enhanced with VOXCOLOR algorithms.
LUT_3D_SIZE 5
DOMAIN_MIN 0.000000 0.000000 0.000000
DOMAIN_MAX 0.903226 0.903226 0.903226
0.031258 0.042979 0.050794
0.160818 0.046177 0.070448
0.350758 0.053834 0.093623
0.573051 0.063752 0.116105
0.767254 0.074032 0.140470
0.089574 0.120501 0.139391
0.144416 0.145914 0.121980
0.330715 0.173991 0.107537
0.565067 0.179906 0.100111
0.761944 0.165257 0.101329
0.170696 0.222325 0.248163
0.189658 0.241443 0.235480
0.259157 0.277019 0.212760
0.461039 0.325196 0.217342
0.687528 0.332588 0.205974
0.287928 0.352546 0.373374
0.295646 0.359345 0.369456
0.311612 0.373412 0.358521
0.345720 0.392184 0.349333
0.555671 0.464058 0.383694
0.452038 0.489566 0.499366
0.455839 0.491855 0.498608
0.458240 0.493498 0.496810
0.462536 0.496232 0.495030
0.505308 0.516705 0.505651
0.038954 0.057426 0.131624
0.119482 0.102639 0.156447
0.298644 0.112699 0.209317
0.540668 0.111134 0.259763
0.755444 0.114971 0.301067
0.067509 0.167573 0.200929
0.211555 0.223935 0.248116
0.405764 0.239906 0.257013
0.641149 0.238332 0.268368
0.841318 0.231561 0.287804
0.157033 0.248445 0.273070
0.291527 0.348912 0.341983
0.396518 0.388890 0.324983
0.609046 0.409063 0.311081
0.823472 0.397079 0.298434
0.284812 0.359392 0.380777
0.427790 0.469864 0.463700
0.471890 0.508131 0.455542
0.525833 0.533578 0.423821
0.739771 0.570658 0.419344
0.453361 0.492368 0.501493
0.594293 0.593408 0.583340
0.619511 0.617339 0.592807
0.628980 0.627054 0.577555
0.682373 0.648816 0.566117
0.047588 0.076852 0.231730
0.124767 0.130417 0.257423
0.214710 0.202645 0.277743
0.419936 0.236555 0.356268
0.673372 0.236228 0.424887
0.064715 0.210809 0.319442
0.210049 0.256131 0.371922
0.368904 0.314079 0.392766
0.590086 0.329177 0.431858
0.810149 0.324128 0.475180
0.105704 0.338442 0.375598
0.274346 0.407021 0.437083
0.451877 0.461072 0.467558
0.667458 0.468296 0.474789
0.872361 0.461906 0.488649
0.247617 0.402099 0.419068
0.430331 0.506778 0.507162
0.567692 0.594850 0.565706
0.639036 0.628623 0.539320
0.844238 0.639145 0.524471
0.436002 0.506543 0.513209
0.609419 0.616736 0.606843
0.716210 0.705912 0.684405
0.739727 0.732444 0.677208
0.797988 0.753472 0.650315
0.058584 0.099657 0.346977
0.148170 0.143960 0.381164
0.250476 0.252917 0.394689
0.311755 0.344803 0.390648
0.538922 0.397720 0.489034
0.080393 0.233227 0.432432
0.222606 0.273499 0.498890
0.382339 0.354826 0.518168
0.494343 0.452471 0.515278
0.710545 0.479081 0.584284
0.107685 0.412749 0.538806
0.262911 0.448010 0.582863
0.465716 0.490565 0.610084
0.623877 0.563666 0.614881
0.827441 0.563515 0.657202
0.142247 0.532081 0.551149
0.333636 0.593433 0.606372
0.533780 0.649443 0.654189
0.708840 0.691697 0.690545
0.887474 0.689742 0.698002
0.362228 0.566190 0.567055
0.558291 0.650410 0.641620
0.711128 0.733757 0.720053
0.816110 0.811007 0.791882
0.868618 0.825556 0.769209
0.076033 0.127331 0.470314
0.170807 0.159089 0.506752
0.307494 0.257777 0.532113
0.421213 0.399938 0.522578
0.494846 0.491250 0.523323
0.102413 0.252846 0.539110
0.242761 0.289639 0.617158
0.410566 0.360704 0.641070
0.563241 0.494368 0.632803
0.656920 0.596297 0.628248
0.136478 0.431723 0.647042
0.280520 0.458617 0.694286
0.484143 0.502348 0.727236
0.658207 0.590782 0.733482
0.769880 0.686414 0.730498
0.159802 0.609997 0.727879
0.314429 0.641328 0.764397
0.516709 0.671875 0.788115
0.721329 0.710416 0.811990
0.849651 0.777412 0.817235
0.224705 0.690673 0.711229
0.420406 0.742407 0.759875
0.614529 0.792773 0.806617
0.779980 0.840794 0.851945
0.900312 0.878710 0.883279
