Assets/1__3DArt/KimSe/artstation_asset/LUTs_subway_asset/CUBE/Underground 01.cube
# LUT by SparkleStock. Enhanced with VOXCOLOR algorithms.
LUT_3D_SIZE 32
0.046886 0.058608 0.042979
0.065414 0.059837 0.047469
0.083942 0.061066 0.051960
0.102470 0.062295 0.056450
0.120997 0.063524 0.060940
0.139525 0.064752 0.065430
0.162543 0.066572 0.069250
0.186459 0.068510 0.072937
0.210375 0.070448 0.076624
0.234290 0.072386 0.080310
0.258206 0.074324 0.083997
0.285053 0.076703 0.087369
0.313364 0.079302 0.090583
0.341676 0.081902 0.093797
0.369987 0.084501 0.097011
0.398298 0.087101 0.100225
0.427272 0.089960 0.103273
0.456907 0.093080 0.106156
0.486541 0.096199 0.109039
0.516176 0.099319 0.111922
0.545811 0.102438 0.114806
0.574800 0.105731 0.117657
0.602497 0.109370 0.120446
0.630194 0.113010 0.123234
0.657891 0.116649 0.126023
0.685588 0.120288 0.128812
0.712671 0.124006 0.131695
0.736681 0.128118 0.135051
0.760692 0.132230 0.138406
0.784702 0.136343 0.141762
0.808712 0.140455 0.145118
0.832723 0.144567 0.148474
0.056859 0.069857 0.055410
0.071920 0.070921 0.059104
0.086981 0.071985 0.062798
0.102041 0.073050 0.066493
0.117102 0.074114 0.070187
0.132162 0.075178 0.073881
0.154755 0.077420 0.077157
0.178854 0.079898 0.080350
0.202953 0.082375 0.083543
0.227051 0.084853 0.086735
0.251150 0.087330 0.089928
0.278436 0.089902 0.092580
0.307314 0.092519 0.094961
0.336193 0.095137 0.097343
0.365071 0.097755 0.099724
0.393950 0.100373 0.102106
0.423477 0.103109 0.104317
0.453651 0.105963 0.106359
0.483826 0.108817 0.108401
0.514001 0.111671 0.110442
0.544175 0.114526 0.112484
0.573628 0.117507 0.114548
0.601636 0.120744 0.116660
0.629644 0.123981 0.118772
0.657652 0.127218 0.120883
0.685660 0.130455 0.122995
0.713005 0.133764 0.125227
0.737033 0.137437 0.128062
0.761062 0.141110 0.130896
0.785091 0.144783 0.133730
0.809120 0.148456 0.136565
0.833148 0.152129 0.139399
0.066832 0.081106 0.067840
0.078426 0.082006 0.070739
0.090019 0.082905 0.073637
0.101613 0.083805 0.076536
0.113206 0.084704 0.079434
0.124800 0.085604 0.082332
0.146967 0.088268 0.085064
0.171249 0.091285 0.087763
0.195530 0.094303 0.090462
0.219812 0.097320 0.093160
0.244094 0.100337 0.095859
0.271819 0.103101 0.097791
0.301264 0.105737 0.099340
0.330710 0.108373 0.100889
0.360156 0.111009 0.102438
0.389602 0.113645 0.103987
0.419682 0.116258 0.105362
0.450396 0.118846 0.106562
0.481111 0.121435 0.107762
0.511825 0.124024 0.108962
0.542539 0.126613 0.110161
0.572455 0.129284 0.111440
0.600774 0.132118 0.112874
0.629093 0.134953 0.114309
0.657412 0.137787 0.115744
0.685732 0.140621 0.117179
0.713339 0.143522 0.118760
0.737386 0.146756 0.121072
0.761433 0.149990 0.123385
0.785480 0.153224 0.125698
0.809527 0.156457 0.128011
0.833574 0.159691 0.130324
0.076805 0.092355 0.080271
0.084931 0.093090 0.082373
0.093058 0.093825 0.084476
0.101184 0.094560 0.086579
0.109311 0.095295 0.088681
0.117437 0.096029 0.090784
0.139179 0.099116 0.092971
0.163644 0.102673 0.095176
0.188108 0.106230 0.097381
0.212573 0.109787 0.099585
0.237038 0.113344 0.101790
0.265201 0.116300 0.103002
0.295214 0.118954 0.103719
0.325227 0.121608 0.104436
0.355240 0.124263 0.105152
0.385253 0.126917 0.105869
0.415887 0.129406 0.106406
0.447141 0.131730 0.106765
0.478395 0.134053 0.107123
0.509649 0.136377 0.107481
0.540903 0.138701 0.107839
0.571283 0.141060 0.108331
0.599913 0.143492 0.109089
0.628543 0.145924 0.109846
0.657173 0.148356 0.110604
0.685803 0.150788 0.111362
0.713673 0.153280 0.112292
0.737738 0.156075 0.114083
0.761803 0.158869 0.115875
0.785868 0.161664 0.117666
0.809934 0.164459 0.119458
0.833999 0.167254 0.121249
0.086778 0.103604 0.092702
0.091437 0.104174 0.094008
0.096096 0.104744 0.095315
0.100756 0.105315 0.096621
0.105415 0.105885 0.097928
0.110075 0.106455 0.099235
0.131391 0.109964 0.100878
0.156039 0.114061 0.102589
0.180686 0.118158 0.104299
0.205334 0.122254 0.106010
0.229982 0.126351 0.107721
0.258584 0.129499 0.108214
0.289165 0.132171 0.108098
0.319745 0.134844 0.107982
0.350325 0.137517 0.107866
0.380905 0.140189 0.107750
0.412092 0.142555 0.107451
0.443886 0.144613 0.106967
0.475680 0.146672 0.106484
0.507474 0.148730 0.106001
0.539267 0.150788 0.105517
0.570110 0.152837 0.105222
0.599051 0.154866 0.105303
0.627993 0.156895 0.105384
0.656934 0.158925 0.105465
0.685875 0.160954 0.105545
0.714006 0.163038 0.105824
0.738090 0.165393 0.107094
0.762174 0.167749 0.108364
0.786257 0.170105 0.109634
0.810341 0.172460 0.110905
0.834424 0.174816 0.112175
0.096751 0.114853 0.105132
0.097943 0.115258 0.105643
0.099135 0.115664 0.106154
0.100327 0.116070 0.106664
0.101520 0.116475 0.107175
0.102712 0.116881 0.107686
0.123603 0.120812 0.108785
0.148434 0.125449 0.110002
0.173264 0.130085 0.111218
0.198095 0.134722 0.112435
0.222926 0.139358 0.113652
0.251967 0.142698 0.113425
0.283115 0.145389 0.112477
0.314262 0.148080 0.111528
0.345409 0.150771 0.110580
0.376557 0.153462 0.109632
0.408297 0.155704 0.108495
0.440631 0.157497 0.107170
0.472964 0.159290 0.105845
0.505298 0.161083 0.104520
0.537631 0.162876 0.103195
0.568938 0.164613 0.102113
0.598190 0.166240 0.101517
0.627442 0.167867 0.100921
0.656694 0.169494 0.100325
0.685947 0.171121 0.099729
0.714340 0.172796 0.099357
0.738442 0.174712 0.100105
0.762544 0.176629 0.100854
0.786646 0.178545 0.101603
0.810748 0.180462 0.102351
0.834850 0.182378 0.103100
0.108141 0.127047 0.118350
0.108741 0.127433 0.118744
0.109340 0.127819 0.119137
0.109939 0.128204 0.119531
0.110538 0.128590 0.119924
0.111137 0.128976 0.120317
0.128721 0.132458 0.121290
0.149702 0.136559 0.122379
0.170683 0.140661 0.123467
0.191664 0.144762 0.124556
0.212645 0.148863 0.125644
0.240202 0.152723 0.125613
0.271048 0.156461 0.125021
0.301893 0.160200 0.124430
0.332738 0.163938 0.123838
0.363584 0.167677 0.123247
0.395466 0.170725 0.122085
0.428385 0.173084 0.120353
0.461304 0.175443 0.118621
0.494223 0.177801 0.116889
0.527142 0.180160 0.115157
0.559103 0.182328 0.113570
0.589146 0.184117 0.112274
0.619190 0.185905 0.110978
0.649233 0.187694 0.109682
0.679277 0.189482 0.108386
0.708419 0.191258 0.107309
0.733058 0.192972 0.107322
0.757696 0.194686 0.107336
0.782335 0.196399 0.107350
0.806974 0.198113 0.107363
0.831612 0.199827 0.107377
0.119816 0.139430 0.131726
0.120397 0.139825 0.132138
0.120977 0.140220 0.132550
0.121558 0.140615 0.132961
0.122139 0.141010 0.133373
0.122720 0.141405 0.133785
0.136421 0.144263 0.134715
0.152745 0.147615 0.135748
0.169070 0.150966 0.136782
0.185394 0.154317 0.137816
0.201719 0.157668 0.138850
0.227407 0.162113 0.139196
0.257777 0.167105 0.139199
0.288147 0.172097 0.139202
0.318516 0.177088 0.139205
0.348886 0.182080 0.139208
0.380828 0.186121 0.138184
0.414341 0.189212 0.136132
0.447855 0.192302 0.134079
0.481369 0.195393 0.132027
0.514882 0.198483 0.129975
0.547535 0.201231 0.127940
0.578466 0.203294 0.125940
0.609397 0.205357 0.123939
0.640328 0.207420 0.121939
0.671258 0.209483 0.119939
0.701247 0.211461 0.118144
0.726526 0.213020 0.117381
0.751805 0.214578 0.116617
0.777084 0.216136 0.115853
0.802363 0.217694 0.115089
0.827642 0.219252 0.114325
0.131490 0.151814 0.145102
0.132053 0.152218 0.145532
0.132615 0.152622 0.145962
0.133178 0.153026 0.146392
0.133740 0.153430 0.146822
0.134303 0.153834 0.147252
0.144120 0.156069 0.148139
0.155789 0.158670 0.149118
0.167457 0.161271 0.150097
0.179125 0.163872 0.151076
0.190793 0.166473 0.152055
0.214612 0.171504 0.152779
0.244506 0.177749 0.153377
0.274400 0.183994 0.153975
0.304294 0.190239 0.154572
0.334188 0.196484 0.155170
0.366190 0.201517 0.154283
0.400298 0.205340 0.151910
0.434406 0.209162 0.149538
0.468514 0.212984 0.147166
0.502623 0.216807 0.144793
0.535967 0.220134 0.142310
0.567786 0.222471 0.139605
0.599604 0.224809 0.136901
0.631422 0.227146 0.134196
0.663240 0.229483 0.131491
0.694075 0.231665 0.128980
0.719995 0.233067 0.127439
0.745914 0.234470 0.125897
0.771833 0.235873 0.124356
0.797752 0.237275 0.122814
0.823672 0.238678 0.121273
0.143164 0.164197 0.158478
0.143709 0.164610 0.158926
0.144253 0.165023 0.159375
0.144797 0.165437 0.159823
0.145342 0.165850 0.160271
0.145886 0.166263 0.160719
0.151820 0.167874 0.161564
0.158832 0.169725 0.162488
0.165844 0.171576 0.163412
0.172856 0.173427 0.164336
0.179868 0.175278 0.165260
0.201817 0.180894 0.166363
0.231236 0.188392 0.167555
0.260654 0.195891 0.168747
0.290072 0.203389 0.169939
0.319491 0.210887 0.171132
0.351551 0.216913 0.170382
0.386254 0.221468 0.167689
0.420957 0.226022 0.164997
0.455660 0.230576 0.162304
0.490363 0.235130 0.159611
0.524400 0.239037 0.156680
0.557105 0.241648 0.153271
0.589811 0.244260 0.149862
0.622516 0.246872 0.146453
0.655222 0.249484 0.143043
0.686903 0.251868 0.139816
0.713463 0.253115 0.137497
0.740023 0.254362 0.135178
0.766582 0.255610 0.132859
0.793142 0.256857 0.130540
0.819701 0.258104 0.128221
0.154839 0.176580 0.171854
0.155365 0.177003 0.172320
0.155891 0.177425 0.172787
0.156417 0.177847 0.173254
0.156943 0.178270 0.173720
0.157469 0.178692 0.174187
0.159519 0.179680 0.174989
0.161875 0.180781 0.175858
0.164231 0.181881 0.176727
0.166586 0.182982 0.177596
0.168942 0.184083 0.178465
0.189022 0.190284 0.179946
0.217965 0.199036 0.181733
0.246908 0.207787 0.183520
0.275850 0.216539 0.185307
0.304793 0.225291 0.187093
0.336913 0.232309 0.186481
0.372210 0.237595 0.183468
0.407508 0.242881 0.180455
0.442805 0.248167 0.177442
0.478103 0.253453 0.174430
0.512832 0.257939 0.171050
0.546425 0.260826 0.166936
0.580018 0.263712 0.162823
0.613611 0.266598 0.158709
0.647204 0.269484 0.154596
0.679731 0.272071 0.150652
0.706931 0.273163 0.147555
0.734131 0.274255 0.144459
0.761331 0.275346 0.141362
0.788531 0.276438 0.138265
0.815731 0.277530 0.135169
0.168435 0.190539 0.186679
0.168931 0.190946 0.187140
0.169426 0.191353 0.187600
0.169922 0.191760 0.188061
0.170417 0.192168 0.188521
0.170913 0.192575 0.188982
0.171634 0.193321 0.189737
0.172401 0.194135 0.190551
0.173168 0.194949 0.191365
0.173935 0.195763 0.192179
0.174702 0.196578 0.192993
0.191732 0.202242 0.194482
0.216894 0.210332 0.196309
0.242055 0.218422 0.198136
0.267217 0.226512 0.199962
0.292378 0.234602 0.201789
0.322353 0.241918 0.201645
0.357141 0.248460 0.199532
0.391929 0.255002 0.197419
0.426718 0.261545 0.195306
0.461506 0.268087 0.193193
0.496098 0.273706 0.190393
0.530298 0.277476 0.186222
0.564497 0.281247 0.182050
0.598697 0.285017 0.177879
0.632897 0.288787 0.173707
0.666064 0.292182 0.169634
0.694069 0.293698 0.166053
0.722074 0.295213 0.162471
0.750079 0.296729 0.158890
0.778084 0.298244 0.155309
0.806089 0.299760 0.151727
0.182993 0.205286 0.202229
0.183452 0.205665 0.202671
0.183910 0.206045 0.203114
0.184369 0.206425 0.203556
0.184828 0.206804 0.203998
0.185287 0.207184 0.204440
0.185957 0.207880 0.205147
0.186669 0.208639 0.205906
0.187381 0.209399 0.206665
0.188093 0.210158 0.207424
0.188805 0.210917 0.208184
0.202194 0.215484 0.209496
0.221922 0.221955 0.211085
0.241649 0.228425 0.212673
0.261377 0.234896 0.214262
0.281105 0.241367 0.215851
0.307832 0.248632 0.216343
0.341559 0.256693 0.215739
0.375286 0.264754 0.215136
0.409013 0.272815 0.214532
0.442740 0.280876 0.213928
0.476781 0.287903 0.212223
0.511447 0.292863 0.208317
0.546113 0.297823 0.204411
0.580779 0.302782 0.200505
0.615446 0.307742 0.196599
0.649150 0.312247 0.192690
0.678042 0.314476 0.188770
0.706934 0.316705 0.184850
0.735827 0.318934 0.180931
0.764719 0.321163 0.177011
0.793611 0.323392 0.173091
0.197550 0.220032 0.217779
0.197972 0.220384 0.218203
0.198395 0.220737 0.218627
0.198817 0.221089 0.219051
0.199239 0.221441 0.219475
0.199662 0.221793 0.219899
0.200280 0.222439 0.220556
0.200937 0.223143 0.221261
0.201594 0.223848 0.221965
0.202251 0.224552 0.222669
0.202908 0.225257 0.223374
0.212656 0.228726 0.224509
0.226950 0.233577 0.225860
0.241244 0.238429 0.227211
0.255538 0.243280 0.228562
0.269831 0.248132 0.229913
0.293311 0.255347 0.231041
0.325977 0.264927 0.231947
0.358643 0.274506 0.232852
0.391309 0.284085 0.233758
0.423975 0.293665 0.234663
0.457463 0.302101 0.234054
0.492596 0.308250 0.230413
0.527729 0.314399 0.226772
0.562861 0.320548 0.223131
0.597994 0.326697 0.219490
0.632235 0.332311 0.215746
0.662015 0.335254 0.211488
0.691794 0.338197 0.207229
0.721574 0.341139 0.202971
0.751354 0.344082 0.198713
0.781134 0.347024 0.194454
0.212108 0.234779 0.233329
0.212493 0.235104 0.233735
0.212879 0.235428 0.234141
0.213265 0.235753 0.234546
0.213651 0.236078 0.234952
0.214036 0.236403 0.235357
0.214602 0.236998 0.235966
0.215205 0.237647 0.236616
0.215807 0.238297 0.237265
0.216409 0.238947 0.237915
0.217011 0.239596 0.238564
0.223119 0.241967 0.239523
0.231979 0.245200 0.240636
0.240838 0.248432 0.241749
0.249698 0.251664 0.242862
0.258558 0.254897 0.243975
0.278790 0.262062 0.245739
0.310395 0.273160 0.248154
0.342000 0.284258 0.250569
0.373605 0.295356 0.252984
0.405209 0.306454 0.255399
0.438146 0.316299 0.255884
0.473745 0.323637 0.252508
0.509344 0.330975 0.249133
0.544944 0.338313 0.245757
0.580543 0.345651 0.242381
0.615320 0.352376 0.238802
0.645987 0.356032 0.234205
0.676654 0.359688 0.229608
0.707322 0.363344 0.225012
0.737989 0.367000 0.220415
0.768656 0.370657 0.215818
0.226665 0.249525 0.248879
0.227014 0.249823 0.249267
0.227363 0.250120 0.249654
0.227713 0.250417 0.250041
0.228062 0.250715 0.250428
0.228411 0.251012 0.250816
0.228925 0.251557 0.251376
0.229473 0.252152 0.251970
0.230020 0.252746 0.252565
0.230567 0.253341 0.253160
0.231115 0.253935 0.253754
0.233581 0.255209 0.254536
0.237007 0.256822 0.255411
0.240433 0.258435 0.256286
0.243859 0.260048 0.257161
0.247285 0.261661 0.258037
0.264269 0.268776 0.260436
0.294813 0.281393 0.264361
0.325357 0.294009 0.268285
0.355900 0.306626 0.272210
0.386444 0.319243 0.276134
0.418828 0.330496 0.277714
0.454894 0.339024 0.274604
0.490960 0.347551 0.271493
0.527026 0.356079 0.268383
0.563092 0.364606 0.265273
0.598406 0.372440 0.261858
0.629960 0.376810 0.256923
0.661515 0.381180 0.251987
0.693069 0.385549 0.247052
0.724623 0.389919 0.242117
0.756178 0.394289 0.237181
0.242759 0.265524 0.265540
0.243071 0.265794 0.265900
0.243384 0.266064 0.266260
0.243696 0.266334 0.266620
0.244009 0.266604 0.266979
0.244321 0.266874 0.267339
0.244784 0.267361 0.267849
0.245276 0.267891 0.268389
0.245769 0.268422 0.268929
0.246261 0.268953 0.269468
0.246754 0.269483 0.270008
0.247363 0.270171 0.270665
0.248031 0.270938 0.271380
0.248699 0.271705 0.272095
0.249367 0.272472 0.272810
0.250034 0.273239 0.273525
0.263945 0.279688 0.276018
0.291100 0.291820 0.280291
0.318254 0.303952 0.284563
0.345408 0.316084 0.288835
0.372562 0.328215 0.293107
0.402538 0.339583 0.295308
0.438155 0.349423 0.293369
0.473773 0.359264 0.291430
0.509391 0.369104 0.289490
0.545008 0.378944 0.287551
0.580046 0.388049 0.285147
0.612181 0.393480 0.280422
0.644316 0.398911 0.275698
0.676452 0.404342 0.270973
0.708587 0.409773 0.266248
0.740722 0.415203 0.261523
0.260388 0.282776 0.283312
0.260664 0.283018 0.283635
0.260940 0.283261 0.283958
0.261216 0.283503 0.284281
0.261492 0.283746 0.284605
0.261768 0.283988 0.284928
0.262179 0.284410 0.285386
0.262616 0.284867 0.285871
0.263054 0.285324 0.286355
0.263492 0.285782 0.286840
0.263929 0.286239 0.287325
0.264465 0.286854 0.287909
0.265051 0.287548 0.288541
0.265636 0.288242 0.289174
0.266222 0.288935 0.289807
0.266807 0.289629 0.290439
0.277818 0.294798 0.292485
0.299255 0.304441 0.295943
0.320692 0.314085 0.299401
0.342129 0.323728 0.302859
0.363565 0.333372 0.306317
0.389275 0.343560 0.308668
0.423529 0.354836 0.308805
0.457784 0.366112 0.308942
0.492039 0.377389 0.309079
0.526293 0.388665 0.309216
0.560240 0.399202 0.308670
0.592650 0.406042 0.304704
0.625060 0.412881 0.300739
0.657470 0.419721 0.296773
0.689879 0.426561 0.292807
0.722289 0.433400 0.288842
0.278018 0.300028 0.301083
0.278257 0.300243 0.301370
0.278497 0.300458 0.301656
0.278736 0.300673 0.301943
0.278976 0.300887 0.302230
0.279215 0.301102 0.302516
0.279574 0.301458 0.302922
0.279956 0.301843 0.303352
0.280339 0.302227 0.303782
0.280722 0.302611 0.304212
0.281104 0.302995 0.304642
0.281567 0.303537 0.305152
0.282071 0.304158 0.305703
0.282574 0.304778 0.306253
0.283077 0.305399 0.306804
0.283580 0.306019 0.307354
0.291691 0.309907 0.308951
0.307410 0.317062 0.311595
0.323130 0.324218 0.314239
0.338849 0.331373 0.316882
0.354568 0.338528 0.319526
0.376012 0.347536 0.322027
0.408903 0.360248 0.324240
0.441795 0.372961 0.326454
0.474686 0.385674 0.328668
0.507578 0.398386 0.330882
0.540435 0.410355 0.332192
0.573119 0.418603 0.328986
0.605803 0.426852 0.325780
0.638488 0.435100 0.322573
0.671172 0.443349 0.319367
0.703856 0.451597 0.316161
0.295648 0.317279 0.318855
0.295851 0.317467 0.319105
0.296053 0.317654 0.319355
0.296256 0.317842 0.319605
0.296459 0.318029 0.319855
0.296662 0.318217 0.320105
0.296969 0.318507 0.320459
0.297296 0.318818 0.320834
0.297624 0.319129 0.321209
0.297952 0.319440 0.321584
0.298280 0.319751 0.321959
0.298670 0.320220 0.322396
0.299090 0.320767 0.322864
0.299511 0.321315 0.323333
0.299932 0.321862 0.323801
0.300353 0.322409 0.324269
0.305564 0.325017 0.325418
0.315566 0.329684 0.327247
0.325568 0.334351 0.329077
0.335570 0.339018 0.330906
0.345571 0.343685 0.332736
0.362749 0.351512 0.335386
0.394277 0.365661 0.339676
0.425806 0.379810 0.343967
0.457334 0.393959 0.348257
0.488863 0.408108 0.352547
0.520630 0.421508 0.355715
0.553588 0.431165 0.353268
0.586547 0.440822 0.350821
0.619506 0.450480 0.348374
0.652464 0.460137 0.345927
0.685423 0.469794 0.343479
0.313277 0.334531 0.336626
0.313444 0.334691 0.336840
0.313610 0.334851 0.337053
0.313776 0.335011 0.337266
0.313942 0.335171 0.337480
0.314108 0.335331 0.337693
0.314363 0.335556 0.337996
0.314636 0.335794 0.338316
0.314909 0.336032 0.338636
0.315182 0.336270 0.338956
0.315455 0.336507 0.339276
0.315772 0.336903 0.339640
0.316110 0.337377 0.340026
0.316449 0.337851 0.340412
0.316787 0.338325 0.340798
0.317126 0.338800 0.341183
0.319437 0.340126 0.341884
0.323721 0.342305 0.342899
0.328006 0.344483 0.343915
0.332290 0.346662 0.344930
0.336574 0.348841 0.345946
0.349486 0.355488 0.348745
0.379651 0.371074 0.355112
0.409817 0.386659 0.361479
0.439982 0.402244 0.367846
0.470147 0.417829 0.374213
0.500824 0.432661 0.379237
0.534057 0.443727 0.377550
0.567290 0.454793 0.375862
0.600523 0.465859 0.374174
0.633757 0.476925 0.372486
0.666990 0.487991 0.370798
0.331695 0.352381 0.354854
0.331831 0.352520 0.355031
0.331966 0.352658 0.355208
0.332102 0.352797 0.355385
0.332238 0.352936 0.355562
0.332373 0.353075 0.355739
0.332580 0.353245 0.355994
0.332801 0.353422 0.356266
0.333022 0.353599 0.356537
0.333243 0.353776 0.356809
0.333464 0.353953 0.357080
0.333717 0.354279 0.357381
0.333985 0.354680 0.357696
0.334254 0.355081 0.358012
0.334522 0.355482 0.358328
0.334790 0.355883 0.358643
0.335149 0.356331 0.359025
0.335597 0.356827 0.359473
0.336045 0.357322 0.359922
0.336493 0.357818 0.360370
0.336942 0.358313 0.360818
0.346369 0.363808 0.363537
0.373753 0.379302 0.370798
0.401138 0.394795 0.378058
0.428522 0.410289 0.385319
0.455907 0.425783 0.392579
0.484222 0.440759 0.398556
0.517189 0.453148 0.398115
0.550157 0.465538 0.397675
0.583125 0.477927 0.397234
0.616093 0.490316 0.396793
0.649061 0.502706 0.396353
0.351688 0.371429 0.373997
0.351805 0.371558 0.374137
0.351923 0.371688 0.374277
0.352040 0.371817 0.374417
0.352157 0.371947 0.374558
0.352275 0.372077 0.374698
0.352440 0.372215 0.374917
0.352616 0.372355 0.375152
0.352791 0.372496 0.375387
0.352966 0.372636 0.375621
0.353142 0.372776 0.375856
0.353349 0.373041 0.376114
0.353571 0.373369 0.376384
0.353794 0.373697 0.376654
0.354016 0.374025 0.376924
0.354239 0.374353 0.377194
0.354538 0.374728 0.377516
0.354913 0.375150 0.377891
0.355288 0.375572 0.378266
0.355663 0.375995 0.378641
0.356038 0.376417 0.379017
0.363544 0.380814 0.381196
0.385312 0.393161 0.386983
0.407079 0.405508 0.392771
0.428847 0.417854 0.398559
0.450615 0.430201 0.404346
0.474025 0.442747 0.409466
0.505648 0.456289 0.411249
0.537271 0.469831 0.413031
0.568894 0.483373 0.414813
0.600517 0.496915 0.416596
0.632140 0.510457 0.418378
0.371681 0.390476 0.393139
0.371780 0.390597 0.393242
0.371879 0.390717 0.393346
0.371978 0.390838 0.393450
0.372077 0.390958 0.393553
0.372176 0.391078 0.393657
0.372301 0.391185 0.393840
0.372430 0.391289 0.394038
0.372560 0.391392 0.394236
0.372689 0.391496 0.394434
0.372819 0.391600 0.394632
0.372980 0.391804 0.394848
0.373157 0.392059 0.395072
0.373334 0.392313 0.395296
0.373511 0.392568 0.395520
0.373688 0.392822 0.395744
0.373927 0.393124 0.396007
0.374229 0.393473 0.396309
0.374531 0.393823 0.396611
0.374833 0.394172 0.396913
0.375135 0.394521 0.397215
0.380719 0.397820 0.398854
0.396870 0.407020 0.403169
0.413021 0.416220 0.407484
0.429172 0.425420 0.411799
0.445322 0.434620 0.416114
0.463828 0.444735 0.420377
0.494106 0.459430 0.424382
0.524384 0.474125 0.428387
0.554663 0.488819 0.432393
0.584941 0.503514 0.436398
0.615219 0.518209 0.440403
0.391674 0.409524 0.412281
0.391754 0.409635 0.412348
0.391835 0.409746 0.412415
0.391916 0.409858 0.412482
0.391997 0.409969 0.412549
0.392078 0.410080 0.412616
0.392161 0.410155 0.412762
0.392245 0.410222 0.412924
0.392329 0.410289 0.413085
0.392413 0.410356 0.413247
0.392496 0.410423 0.413409
0.392612 0.410566 0.413581
0.392743 0.410748 0.413760
0.392874 0.410929 0.413938
0.393005 0.411111 0.414117
0.393136 0.411292 0.414295
0.393316 0.411521 0.414499
0.393545 0.411797 0.414727
0.393774 0.412073 0.414956
0.394002 0.412349 0.415185
0.394231 0.412625 0.415413
0.397895 0.414826 0.416513
0.408429 0.420879 0.419355
0.418962 0.426932 0.422197
0.429496 0.432985 0.425039
0.440030 0.439038 0.427881
0.453631 0.446723 0.431287
0.482564 0.462571 0.437516
0.511498 0.478418 0.443744
0.540431 0.494265 0.449972
0.569365 0.510113 0.456200
0.598298 0.525960 0.462429
0.411666 0.428571 0.431423
0.411729 0.428674 0.431454
0.411791 0.428776 0.431484
0.411854 0.428878 0.431515
0.411917 0.428980 0.431545
0.411979 0.429082 0.431576
0.412021 0.429125 0.431685
0.412059 0.429155 0.431810
0.412097 0.429186 0.431935
0.412136 0.429216 0.432060
0.412174 0.429247 0.432185
0.412243 0.429329 0.432315
0.412329 0.429437 0.432448
0.412414 0.429545 0.432580
0.412499 0.429654 0.432713
0.412585 0.429762 0.432846
0.412705 0.429917 0.432990
0.412861 0.430120 0.433145
0.413016 0.430323 0.433301
0.413172 0.430526 0.433456
0.413327 0.430729 0.433612
0.415070 0.431832 0.434172
0.419987 0.434738 0.435541
0.424904 0.437644 0.436910
0.429821 0.440550 0.438279
0.434738 0.443456 0.439648
0.443434 0.448711 0.442198
0.471023 0.465711 0.450649
0.498611 0.482711 0.459100
0.526200 0.499711 0.467551
0.553789 0.516711 0.476003
0.581378 0.533711 0.484454
0.431667 0.447643 0.450479
0.431719 0.447734 0.450479
0.431771 0.447826 0.450479
0.431823 0.447917 0.450479
0.431875 0.448009 0.450479
0.431926 0.448100 0.450479
0.431933 0.448115 0.450555
0.431929 0.448115 0.450646
0.431926 0.448115 0.450738
0.431923 0.448115 0.450829
0.431920 0.448115 0.450921
0.431948 0.448146 0.451012
0.431990 0.448192 0.451104
0.432033 0.448237 0.451195
0.432076 0.448283 0.451287
0.432119 0.448329 0.451378
0.432186 0.448420 0.451470
0.432277 0.448557 0.451561
0.432369 0.448695 0.451653
0.432460 0.448832 0.451744
0.432552 0.448969 0.451836
0.432689 0.449152 0.451942
0.432917 0.449427 0.452079
0.433146 0.449701 0.452217
0.433375 0.449975 0.452354
0.433604 0.450250 0.452491
0.438063 0.453375 0.454267
0.463678 0.470757 0.464239
0.489292 0.488138 0.474210
0.514906 0.505519 0.484181
0.540521 0.522900 0.494153
0.566135 0.540281 0.504124
0.451707 0.466832 0.469101
0.451787 0.466905 0.469101
0.451866 0.466978 0.469101
0.451945 0.467052 0.469101
0.452025 0.467125 0.469101
0.452104 0.467198 0.469101
0.452099 0.467210 0.469162
0.452078 0.467210 0.469235
0.452057 0.467210 0.469308
0.452035 0.467210 0.469381
0.452014 0.467210 0.469455
0.452017 0.467235 0.469528
0.452032 0.467271 0.469601
0.452047 0.467308 0.469674
0.452063 0.467344 0.469747
0.452078 0.467381 0.469820
0.452122 0.467454 0.469894
0.452195 0.467564 0.469967
0.452269 0.467674 0.470040
0.452342 0.467783 0.470113
0.452415 0.467893 0.470186
0.452525 0.468040 0.470272
