Assets/1__3DArt/KimSe/artstation_asset/LUTs_subway_asset/CUBE/Underground 04_S.cube
# LUT by SparkleStock. Enhanced with VOXCOLOR algorithms.
LUT_3D_SIZE 32
0.011722 0.003907 0.003907
0.027555 0.005183 0.006176
0.043389 0.006459 0.008445
0.059222 0.007736 0.010713
0.075056 0.009012 0.012982
0.090890 0.010288 0.015251
0.116334 0.012431 0.017598
0.143700 0.014747 0.019961
0.171066 0.017063 0.022325
0.198432 0.019378 0.024688
0.225799 0.021694 0.027051
0.258049 0.024609 0.029194
0.292741 0.027823 0.031226
0.327433 0.031037 0.033258
0.362125 0.034251 0.035291
0.396818 0.037465 0.037323
0.430966 0.040679 0.039237
0.464571 0.043893 0.041034
0.498176 0.047107 0.042830
0.531781 0.050321 0.044626
0.565387 0.053535 0.046422
0.596282 0.056513 0.048233
0.621757 0.059018 0.050077
0.647233 0.061523 0.051920
0.672709 0.064028 0.053763
0.698184 0.066533 0.055607
0.722061 0.068927 0.057442
0.737942 0.070771 0.059238
0.753823 0.072614 0.061034
0.769703 0.074457 0.062830
0.785584 0.076301 0.064626
0.801465 0.078144 0.066422
0.019284 0.013455 0.015062
0.032776 0.015088 0.016516
0.046267 0.016720 0.017971
0.059759 0.018353 0.019425
0.073251 0.019986 0.020880
0.086743 0.021619 0.022334
0.111865 0.024431 0.024043
0.139314 0.027479 0.025802
0.166762 0.030527 0.027562
0.194211 0.033575 0.029321
0.221659 0.036622 0.031081
0.254168 0.039812 0.032577
0.289208 0.043071 0.033942
0.324248 0.046331 0.035306
0.359288 0.049591 0.036671
0.394328 0.052850 0.038035
0.428842 0.055895 0.039341
0.462832 0.058725 0.040588
0.496821 0.061555 0.041835
0.530810 0.064384 0.043083
0.564800 0.067214 0.044330
0.596042 0.069725 0.045632
0.621793 0.071599 0.047046
0.647543 0.073473 0.048459
0.673293 0.075347 0.049873
0.699043 0.077221 0.051286
0.723142 0.078967 0.052716
0.738986 0.080079 0.054228
0.754830 0.081190 0.055741
0.770675 0.082302 0.057253
0.786519 0.083413 0.058766
0.802363 0.084525 0.060278
0.026846 0.023002 0.026216
0.037996 0.024992 0.026856
0.049146 0.026981 0.027497
0.060296 0.028971 0.028137
0.071446 0.030961 0.028778
0.082596 0.032951 0.029418
0.107396 0.036432 0.030488
0.134927 0.040211 0.031643
0.162458 0.043991 0.032799
0.189989 0.047771 0.033955
0.217520 0.051550 0.035110
0.250288 0.055014 0.035960
0.285676 0.058319 0.036657
0.321063 0.061625 0.037354
0.356451 0.064930 0.038051
0.391838 0.068236 0.038747
0.426718 0.071111 0.039445
0.461092 0.073557 0.040143
0.495466 0.076002 0.040841
0.529839 0.078448 0.041540
0.564213 0.080894 0.042238
0.595803 0.082938 0.043031
0.621828 0.084181 0.044015
0.647852 0.085423 0.044998
0.673877 0.086666 0.045982
0.699901 0.087909 0.046965
0.724223 0.089007 0.047989
0.740030 0.089387 0.049218
0.755838 0.089767 0.050447
0.771646 0.090146 0.051676
0.787454 0.090526 0.052905
0.803261 0.090906 0.054134
0.034409 0.032550 0.037371
0.043217 0.034896 0.037197
0.052025 0.037242 0.037023
0.060833 0.039589 0.036849
0.069641 0.041935 0.036675
0.078449 0.044282 0.036501
0.102927 0.048432 0.036932
0.130541 0.052944 0.037484
0.158154 0.057455 0.038036
0.185767 0.061967 0.038588
0.213380 0.066478 0.039140
0.246408 0.070216 0.039343
0.282143 0.073568 0.039372
0.317878 0.076919 0.039401
0.353613 0.080270 0.039430
0.389348 0.083621 0.039459
0.424595 0.086327 0.039548
0.459352 0.088389 0.039698
0.494110 0.090450 0.039847
0.528868 0.092511 0.039997
0.563626 0.094573 0.040146
0.595564 0.096151 0.040430
0.621863 0.096762 0.040984
0.648162 0.097374 0.041537
0.674460 0.097985 0.042091
0.700759 0.098596 0.042644
0.725304 0.099047 0.043263
0.741075 0.098695 0.044208
0.756846 0.098343 0.045153
0.772617 0.097991 0.046099
0.788388 0.097638 0.047044
0.804159 0.097286 0.047989
0.041971 0.042097 0.048525
0.048437 0.044800 0.047537
0.054903 0.047503 0.046549
0.061369 0.050207 0.045561
0.067835 0.052910 0.044573
0.074301 0.055613 0.043585
0.098459 0.060433 0.043377
0.126154 0.065676 0.043325
0.153850 0.070920 0.043274
0.181545 0.076163 0.043222
0.209241 0.081406 0.043170
0.242528 0.085419 0.042727
0.278610 0.088816 0.042088
0.314693 0.092213 0.041449
0.350776 0.095610 0.040810
0.386858 0.099007 0.040171
0.422471 0.101544 0.039652
0.457613 0.103221 0.039253
0.492755 0.104898 0.038853
0.527897 0.106575 0.038454
0.563039 0.108252 0.038054
0.595324 0.109364 0.037829
0.621898 0.109344 0.037953
0.648471 0.109324 0.038076
0.675044 0.109304 0.038200
0.701618 0.109284 0.038323
0.726385 0.109087 0.038536
0.742119 0.108003 0.039198
0.757854 0.106919 0.039860
0.773588 0.105835 0.040521
0.789323 0.104751 0.041183
0.805057 0.103667 0.041845
0.049533 0.051644 0.059679
0.053657 0.054704 0.057877
0.057782 0.057764 0.056075
0.061906 0.060824 0.054273
0.066030 0.063884 0.052471
0.070154 0.066944 0.050669
0.093990 0.072434 0.049822
0.121768 0.078409 0.049166
0.149546 0.084384 0.048511
0.177323 0.090359 0.047855
0.205101 0.096334 0.047200
0.238647 0.100621 0.046110
0.275078 0.104064 0.044803
0.311508 0.107507 0.043497
0.347938 0.110949 0.042190
0.384369 0.114392 0.040883
0.420347 0.116760 0.039756
0.455873 0.118053 0.038808
0.491399 0.119346 0.037859
0.526925 0.120638 0.036911
0.562452 0.121931 0.035962
0.595085 0.122576 0.035228
0.621933 0.121925 0.034922
0.648781 0.121274 0.034615
0.675628 0.120623 0.034309
0.702476 0.119972 0.034002
0.727466 0.119127 0.033810
0.743164 0.117311 0.034188
0.758862 0.115495 0.034566
0.774559 0.113679 0.034944
0.790257 0.111864 0.035322
0.805955 0.110048 0.035701
0.060247 0.065170 0.075009
0.063767 0.068213 0.073132
0.067287 0.071256 0.071255
0.070808 0.074300 0.069378
0.074328 0.077343 0.067501
0.077849 0.080386 0.065625
0.098844 0.085936 0.064256
0.123335 0.091988 0.062989
0.147826 0.098039 0.061722
0.172316 0.104090 0.060455
0.196807 0.110142 0.059188
0.229098 0.115196 0.058054
0.265289 0.119752 0.056987
0.301480 0.124307 0.055920
0.337671 0.128863 0.054852
0.373862 0.133419 0.053785
0.410031 0.136555 0.052606
0.446177 0.138272 0.051314
0.482324 0.139988 0.050023
0.518471 0.141705 0.048732
0.554617 0.143422 0.047440
0.587944 0.144314 0.046285
0.615630 0.143558 0.045404
0.643317 0.142802 0.044523
0.671003 0.142046 0.043642
0.698689 0.141290 0.042760
0.724471 0.140268 0.041982
0.740727 0.137918 0.041718
0.756983 0.135569 0.041455
0.773239 0.133219 0.041191
0.789495 0.130870 0.040927
0.805751 0.128520 0.040663
0.071590 0.079491 0.091173
0.074854 0.082443 0.089370
0.078119 0.085395 0.087566
0.081383 0.088346 0.085762
0.084647 0.091298 0.083959
0.087912 0.094250 0.082155
0.105564 0.099739 0.080288
0.126093 0.105735 0.078408
0.146623 0.111732 0.076528
0.167152 0.117728 0.074648
0.187682 0.123725 0.072768
0.218415 0.129645 0.071711
0.254249 0.135527 0.071064
0.290083 0.141409 0.070418
0.325917 0.147292 0.069771
0.361751 0.153174 0.069125
0.398076 0.157266 0.068005
0.434890 0.159568 0.066412
0.471705 0.161870 0.064818
0.508519 0.164173 0.063225
0.545334 0.166475 0.061632
0.579423 0.167758 0.060075
0.608060 0.167001 0.058590
0.636698 0.166245 0.057104
0.665336 0.165489 0.055619
0.693974 0.164733 0.054134
0.720661 0.163629 0.052734
0.737593 0.160785 0.051757
0.754526 0.157942 0.050779
0.771459 0.155098 0.049802
0.788392 0.152255 0.048825
0.805325 0.149411 0.047847
0.082934 0.093812 0.107338
0.085942 0.096673 0.105607
0.088950 0.099533 0.103877
0.091958 0.102393 0.102146
0.094966 0.105253 0.100416
0.097974 0.108114 0.098685
0.112283 0.113542 0.096320
0.128851 0.119483 0.093827
0.145420 0.125425 0.091334
0.161988 0.131367 0.088841
0.178557 0.137308 0.086348
0.207731 0.144094 0.085367
0.243209 0.151303 0.085141
0.278686 0.158512 0.084916
0.314163 0.165720 0.084690
0.349641 0.172929 0.084464
0.386121 0.177977 0.083404
0.423603 0.180865 0.081509
0.461085 0.183752 0.079614
0.498568 0.186640 0.077718
0.536050 0.189528 0.075823
0.570901 0.191201 0.073864
0.600490 0.190445 0.071775
0.630080 0.189688 0.069686
0.659669 0.188932 0.067597
0.689258 0.188176 0.065508
0.716850 0.186990 0.063486
0.734460 0.183652 0.061795
0.752070 0.180315 0.060104
0.769680 0.176977 0.058413
0.787290 0.173640 0.056723
0.804900 0.170302 0.055032
0.094277 0.108133 0.123502
0.097029 0.110902 0.121845
0.099781 0.113671 0.120188
0.102533 0.116440 0.118530
0.105285 0.119209 0.116873
0.108037 0.121977 0.115216
0.119002 0.127344 0.112351
0.131609 0.133231 0.109246
0.144217 0.139118 0.106140
0.156824 0.145005 0.103034
0.169432 0.150891 0.099928
0.197048 0.158544 0.099023
0.232169 0.167079 0.099218
0.267289 0.175614 0.099414
0.302410 0.184149 0.099609
0.337530 0.192684 0.099804
0.374166 0.198688 0.098803
0.412316 0.202161 0.096606
0.450466 0.205634 0.094409
0.488616 0.209108 0.092212
0.526766 0.212581 0.090015
0.562380 0.214644 0.087653
0.592920 0.213888 0.084960
0.623461 0.213132 0.082268
0.654002 0.212375 0.079575
0.684542 0.211619 0.076882
0.713040 0.210350 0.074238
0.731327 0.206519 0.071833
0.749614 0.202687 0.069429
0.767901 0.198856 0.067025
0.786188 0.195025 0.064620
0.804474 0.191193 0.062216
0.105621 0.122455 0.139667
0.108116 0.125132 0.138083
0.110612 0.127809 0.136499
0.113108 0.130487 0.134914
0.115604 0.133164 0.133330
0.118100 0.135841 0.131746
0.125721 0.141147 0.128383
0.134368 0.146979 0.124665
0.143014 0.152811 0.120946
0.151660 0.158643 0.117227
0.160307 0.164475 0.113509
0.186365 0.172993 0.112680
0.221129 0.182854 0.113296
0.255892 0.192716 0.113912
0.290656 0.202577 0.114528
0.325420 0.212439 0.115144
0.362211 0.219399 0.114202
0.401029 0.223458 0.111703
0.439847 0.227516 0.109204
0.478665 0.231575 0.106705
0.517483 0.235634 0.104206
0.553859 0.238087 0.101442
0.585351 0.237331 0.098145
0.616842 0.236575 0.094849
0.648334 0.235819 0.091553
0.679826 0.235062 0.088256
0.709230 0.233711 0.084990
0.728194 0.229386 0.081872
0.747158 0.225060 0.078754
0.766121 0.220735 0.075636
0.785085 0.216409 0.072518
0.804049 0.212084 0.069400
0.121029 0.141030 0.159707
0.123299 0.143536 0.158227
0.125569 0.146043 0.156746
0.127839 0.148549 0.155266
0.130110 0.151056 0.153785
0.132380 0.153562 0.152305
0.138508 0.158611 0.148931
0.145407 0.164169 0.145179
0.152306 0.169726 0.141427
0.159205 0.175283 0.137675
0.166104 0.180841 0.133922
0.189081 0.189079 0.132814
0.220097 0.198657 0.133027
0.251114 0.208234 0.133241
0.282130 0.217812 0.133454
0.313146 0.227390 0.133668
0.348034 0.234937 0.132956
0.386794 0.240454 0.131321
0.425554 0.245970 0.129685
0.464314 0.251486 0.128049
0.503074 0.257002 0.126413
0.539743 0.260704 0.124181
0.572229 0.260777 0.120756
0.604715 0.260851 0.117332
0.637201 0.260924 0.113907
0.669687 0.260997 0.110483
0.700100 0.260372 0.107001
0.720149 0.256253 0.103230
0.740199 0.252135 0.099460
0.760248 0.248017 0.095689
0.780297 0.243899 0.091919
0.800347 0.239781 0.088148
0.138469 0.161731 0.181685
0.140529 0.164028 0.180323
0.142589 0.166324 0.178962
0.144649 0.168620 0.177600
0.146709 0.170916 0.176239
0.148769 0.173212 0.174877
0.154327 0.177906 0.171737
0.160586 0.183079 0.168241
0.166845 0.188252 0.164745
0.173104 0.193425 0.161249
0.179362 0.198599 0.157753
0.198497 0.205983 0.156187
0.224071 0.214472 0.155586
0.249644 0.222961 0.154986
0.275217 0.231451 0.154385
0.300790 0.239940 0.153784
0.332746 0.247889 0.153389
0.371086 0.255299 0.153198
0.409425 0.262709 0.153007
0.447764 0.270119 0.152817
0.486103 0.277529 0.152626
0.522830 0.282908 0.151394
0.556331 0.284225 0.148080
0.589833 0.285543 0.144765
0.623334 0.286860 0.141450
0.656835 0.288177 0.138136
0.688310 0.288682 0.134641
0.709649 0.285121 0.130249
0.730988 0.281561 0.125856
0.752327 0.278001 0.121464
0.773667 0.274441 0.117071
0.795006 0.270881 0.112679
0.155910 0.182433 0.203663
0.157759 0.184519 0.202420
0.159609 0.186605 0.201178
0.161458 0.188691 0.199935
0.163308 0.190776 0.198693
0.165157 0.192862 0.197450
0.170147 0.197200 0.194543
0.175766 0.201989 0.191303
0.181384 0.206778 0.188063
0.187002 0.211567 0.184823
0.192621 0.216356 0.181583
0.207914 0.222886 0.179560
0.228044 0.230287 0.178145
0.248174 0.237688 0.176730
0.268304 0.245089 0.175315
0.288434 0.252489 0.173901
0.317459 0.260841 0.173821
0.355377 0.270145 0.175075
0.393295 0.279448 0.176330
0.431214 0.288752 0.177585
0.469132 0.298055 0.178840
0.505917 0.305112 0.178608
0.540433 0.307673 0.175403
0.574950 0.310234 0.172198
0.609467 0.312796 0.168993
0.643984 0.315357 0.165789
0.676520 0.316991 0.162282
0.699149 0.313989 0.157267
0.721778 0.310987 0.152253
0.744407 0.307985 0.147238
0.767036 0.304983 0.142224
0.789665 0.301981 0.137209
0.173351 0.203135 0.225641
0.174990 0.205011 0.224517
0.176629 0.206886 0.223394
0.178268 0.208761 0.222270
0.179907 0.210637 0.221146
0.181546 0.212512 0.220023
0.185967 0.216495 0.217349
0.190945 0.220900 0.214365
0.195923 0.225305 0.211381
0.200901 0.229709 0.208398
0.205879 0.234114 0.205414
0.217330 0.239790 0.202933
0.232017 0.246103 0.200704
0.246704 0.252415 0.198475
0.261391 0.258727 0.196246
0.276078 0.265039 0.194017
0.302171 0.273793 0.194253
0.339668 0.284991 0.196953
0.377166 0.296188 0.199653
0.414663 0.307385 0.202353
0.452161 0.318582 0.205053
0.489003 0.327315 0.205822
0.524536 0.331121 0.202727
0.560068 0.334926 0.199632
0.595600 0.338732 0.196536
0.631133 0.342537 0.193441
0.664729 0.345301 0.189923
0.688648 0.342857 0.184286
0.712567 0.340413 0.178649
0.736486 0.337969 0.173013
0.760405 0.335525 0.167376
0.784324 0.333081 0.161739
0.190791 0.223837 0.247619
0.192220 0.225502 0.246614
0.193649 0.227167 0.245610
0.195077 0.228832 0.244605
0.196506 0.230497 0.243600
0.197934 0.232162 0.242595
0.201787 0.235790 0.240155
0.206125 0.239810 0.237427
0.210462 0.243831 0.234700
0.214800 0.247851 0.231972
0.219138 0.251872 0.229244
0.226746 0.256694 0.226306
0.235990 0.261918 0.223263
0.245234 0.267141 0.220220
0.254479 0.272365 0.217177
0.263723 0.277588 0.214133
0.286883 0.286745 0.214685
0.323960 0.299836 0.218830
0.361036 0.312927 0.222976
0.398113 0.326018 0.227121
0.435190 0.339109 0.231267
0.472090 0.349519 0.233035
0.508638 0.354569 0.230050
0.545186 0.359618 0.227065
0.581734 0.364668 0.224080
0.618281 0.369718 0.221094
0.652939 0.373611 0.217563
0.678148 0.371725 0.211305
0.703357 0.369839 0.205046
0.728565 0.367953 0.198787
0.753774 0.366067 0.192528
0.778983 0.364181 0.186270
0.211753 0.247328 0.271393
0.213022 0.248805 0.270516
0.214290 0.250282 0.269640
0.215559 0.251760 0.268763
0.216827 0.253237 0.267886
0.218096 0.254715 0.267010
0.221472 0.257972 0.264808
0.225270 0.261585 0.262341
0.229068 0.265199 0.259874
0.232866 0.268812 0.257407
0.236664 0.272426 0.254940
0.242043 0.276597 0.251931
0.248214 0.281048 0.248649
0.254384 0.285498 0.245368
0.260554 0.289949 0.242087
0.266725 0.294399 0.238806
0.286633 0.303067 0.239275
0.320279 0.315952 0.243494
0.353925 0.328837 0.247713
0.387572 0.341722 0.251931
0.421218 0.354607 0.256150
0.455964 0.365471 0.258362
0.492910 0.372296 0.256562
0.529855 0.379120 0.254761
0.566801 0.385945 0.252960
0.603747 0.392769 0.251160
0.638947 0.398338 0.248599
0.665418 0.397627 0.242240
0.691889 0.396917 0.235881
0.718360 0.396206 0.229521
0.744831 0.395496 0.223162
0.771303 0.394785 0.216803
0.236236 0.273607 0.296963
0.237395 0.274919 0.296224
0.238554 0.276232 0.295484
0.239712 0.277545 0.294745
0.240871 0.278858 0.294005
0.242030 0.280170 0.293266
0.245022 0.283042 0.291308
0.248381 0.286226 0.289106
0.251740 0.289409 0.286905
0.255099 0.292593 0.284703
0.258457 0.295776 0.282502
0.263221 0.299499 0.279806
0.268687 0.303492 0.276863
0.274153 0.307485 0.273921
0.279619 0.311479 0.270978
0.285085 0.315472 0.268036
0.301421 0.322758 0.268024
0.328627 0.333338 0.270944
0.355833 0.343917 0.273864
0.383039 0.354497 0.276783
0.410245 0.365077 0.279703
0.440624 0.375173 0.281803
0.477350 0.384303 0.282261
0.514077 0.393432 0.282720
0.550803 0.402562 0.283179
0.587529 0.411692 0.283638
0.622752 0.419480 0.283031
0.650458 0.420563 0.277092
0.678164 0.421645 0.271154
0.705870 0.422728 0.265215
0.733576 0.423810 0.259277
0.761282 0.424893 0.253338
0.260719 0.299886 0.322533
0.261768 0.301034 0.321931
0.262817 0.302182 0.321329
0.263866 0.303330 0.320727
0.264915 0.304478 0.320124
0.265964 0.305626 0.319522
0.268572 0.308112 0.317808
0.271492 0.310866 0.315872
0.274411 0.313619 0.313936
0.277331 0.316373 0.311999
0.280251 0.319126 0.310063
0.284399 0.322401 0.307681
0.289160 0.325937 0.305077
0.293922 0.329473 0.302473
0.298683 0.333008 0.299869
0.303445 0.336544 0.297265
0.316208 0.342449 0.296773
0.336974 0.350723 0.298394
0.357740 0.358998 0.300015
0.378506 0.367272 0.301635
0.399272 0.375546 0.303256
0.425285 0.384874 0.305243
0.461791 0.396309 0.307961
0.498298 0.407744 0.310680
0.534804 0.419179 0.313398
0.571311 0.430614 0.316117
0.606557 0.440623 0.317462
0.635498 0.443498 0.311945
0.664439 0.446374 0.306427
0.693380 0.449249 0.300909
0.722321 0.452125 0.295391
0.751262 0.455000 0.289874
0.285202 0.326165 0.348104
0.286141 0.327148 0.347638
0.287081 0.328132 0.347173
0.288020 0.329115 0.346708
0.288959 0.330099 0.346243
0.289898 0.331082 0.345778
0.292122 0.333182 0.344308
0.294603 0.335506 0.342637
0.297083 0.337829 0.340966
0.299564 0.340153 0.339295
0.302044 0.342476 0.337624
0.305576 0.345303 0.335557
0.309633 0.348382 0.333291
0.313690 0.351460 0.331026
0.317747 0.354538 0.328760
0.321805 0.357616 0.326494
0.330996 0.362140 0.325522
0.345322 0.368109 0.325844
0.359647 0.374078 0.326166
0.373973 0.380047 0.326487
0.388299 0.386016 0.326809
0.409945 0.394576 0.328683
0.446232 0.408316 0.333661
0.482519 0.422056 0.338639
0.518806 0.435797 0.343617
0.555093 0.449537 0.348595
0.590362 0.461765 0.351894
0.620538 0.466434 0.346797
0.650714 0.471102 0.341700
0.680890 0.475771 0.336603
0.711066 0.480439 0.331506
0.741242 0.485108 0.326409
0.309685 0.352444 0.373674
0.310515 0.353263 0.373346
0.311344 0.354081 0.373018
0.312174 0.354900 0.372690
0.313003 0.355719 0.372362
0.313832 0.356538 0.372035
0.315672 0.358252 0.370809
0.317713 0.360146 0.369403
0.319755 0.362039 0.367997
0.321796 0.363933 0.366591
0.323838 0.365827 0.365186
0.326754 0.368205 0.363432
0.330106 0.370826 0.361505
0.333459 0.373447 0.359578
0.336812 0.376068 0.357651
0.340165 0.378689 0.355724
0.345784 0.381831 0.354271
0.353669 0.385495 0.353294
0.361555 0.389159 0.352317
0.369440 0.392822 0.351339
0.377326 0.396486 0.350362
0.394605 0.404277 0.352123
0.430673 0.420323 0.359361
0.466740 0.436368 0.366598
0.502808 0.452414 0.373836
0.538875 0.468459 0.381073
0.574167 0.482908 0.386325
0.605578 0.489369 0.381649
0.636989 0.495831 0.376973
0.668400 0.502292 0.372297
0.699811 0.508754 0.367621
0.731222 0.515215 0.362945
0.336012 0.379495 0.399370
0.336759 0.380189 0.399170
0.337506 0.380883 0.398970
0.338253 0.381576 0.398771
0.339000 0.382270 0.398571
0.339747 0.382964 0.398371
0.341265 0.384347 0.397357
0.342938 0.385869 0.396180
0.344611 0.387391 0.395003
0.346283 0.388912 0.393826
0.347956 0.390434 0.392649
0.350348 0.392404 0.391175
0.353100 0.394598 0.389553
0.355852 0.396792 0.387931
0.358604 0.398986 0.386308
0.361356 0.401180 0.384686
0.364446 0.403290 0.382997
0.367873 0.405316 0.381243
0.371300 0.407342 0.379488
0.374728 0.409369 0.377733
0.378155 0.411395 0.375978
0.391660 0.418233 0.377522
0.425318 0.434697 0.385666
0.458977 0.451160 0.393809
0.492635 0.467623 0.401952
0.526294 0.484087 0.410095
0.559718 0.499212 0.416294
0.591974 0.507646 0.412771
0.624230 0.516081 0.409247
0.656486 0.524515 0.405724
0.688742 0.532950 0.402200
0.720997 0.541384 0.398677
0.366025 0.408090 0.425318
0.366744 0.408738 0.425228
0.367464 0.409386 0.425138
0.368184 0.410034 0.425048
0.368903 0.410682 0.424958
0.369623 0.411330 0.424868
0.370946 0.412493 0.424002
0.372390 0.413758 0.422980
0.373834 0.415024 0.421959
0.375278 0.416289 0.420937
0.376721 0.417554 0.419916
0.378775 0.419195 0.418652
0.381134 0.421023 0.417268
0.383492 0.422851 0.415884
0.385851 0.424679 0.414499
0.388210 0.426507 0.413115
0.390856 0.428284 0.411678
0.393789 0.430008 0.410188
0.396723 0.431732 0.408699
0.399656 0.433457 0.407209
0.402590 0.435181 0.405720
0.413502 0.440699 0.406840
0.440373 0.453805 0.413181
0.467243 0.466911 0.419522
0.494114 0.480017 0.425863
0.520985 0.493123 0.432204
0.548764 0.505840 0.437337
0.581084 0.516607 0.436430
0.613403 0.527374 0.435523
0.645723 0.538141 0.434616
0.678043 0.548908 0.433709
0.710363 0.559675 0.432802
0.396038 0.436685 0.451266
0.396730 0.437287 0.451286
0.397422 0.437890 0.451306
0.398114 0.438492 0.451326
0.398806 0.439094 0.451346
0.399499 0.439696 0.451365
0.400627 0.440638 0.450647
0.401842 0.441647 0.449781
0.403057 0.442657 0.448915
0.404272 0.443666 0.448049
0.405487 0.444675 0.447183
0.407203 0.445986 0.446130
0.409168 0.447449 0.444983
0.411133 0.448911 0.443837
0.413098 0.450373 0.442690
0.415064 0.451835 0.441544
0.417266 0.453277 0.440358
0.419706 0.454700 0.439134
0.422145 0.456122 0.437910
0.424584 0.457545 0.436685
0.427024 0.458967 0.435461
0.435344 0.463165 0.436158
0.455427 0.472914 0.440697
0.475510 0.482663 0.445236
0.495593 0.492411 0.449775
0.515676 0.502160 0.454314
0.537809 0.512467 0.458381
0.570193 0.525567 0.460090
0.602577 0.538667 0.461799
0.634961 0.551767 0.463508
0.667344 0.564867 0.465217
0.699728 0.577967 0.466927
0.426051 0.465280 0.477215
0.426715 0.465837 0.477344
0.427380 0.466393 0.477474
0.428045 0.466950 0.477603
0.428710 0.467506 0.477733
0.429374 0.468063 0.477863
0.430307 0.468783 0.477292
0.431294 0.469536 0.476582
0.432280 0.470290 0.475871
0.433267 0.471043 0.475161
0.434253 0.471796 0.474450
0.435630 0.472778 0.473607
0.437202 0.473874 0.472699
0.438774 0.474970 0.471790
0.440346 0.476066 0.470881
0.441918 0.477163 0.469973
0.443676 0.478271 0.469039
0.445622 0.479392 0.468080
0.447567 0.480512 0.467121
0.449513 0.481633 0.466162
0.451458 0.482754 0.465203
0.457187 0.485631 0.465476
0.470482 0.492023 0.468212
0.483777 0.498414 0.470949
0.497072 0.504805 0.473686
0.510367 0.511197 0.476423
0.526854 0.519095 0.479424
0.559302 0.534528 0.483750
0.591750 0.549960 0.488075
0.624198 0.565393 0.492401
0.656646 0.580826 0.496726
0.689094 0.596258 0.501052
0.456064 0.493875 0.503163
0.456701 0.494386 0.503402
0.457338 0.494897 0.503642
0.457976 0.495408 0.503881
0.458613 0.495918 0.504120
0.459250 0.496429 0.504360
0.459988 0.496928 0.503937
0.460746 0.497425 0.503382
0.461503 0.497923 0.502827
0.462261 0.498420 0.502272
0.463019 0.498917 0.501717
0.464057 0.499569 0.501085
0.465236 0.500299 0.500414
0.466414 0.501030 0.499743
0.467593 0.501760 0.499072
0.468771 0.502490 0.498402
0.470086 0.503265 0.497719
0.471538 0.504084 0.497026
0.472989 0.504902 0.496332
0.474441 0.505721 0.495638
0.475892 0.506540 0.494944
0.479029 0.508097 0.494793
0.485536 0.511131 0.495728
0.492044 0.514165 0.496663
0.498551 0.517199 0.497597
0.505058 0.520233 0.498532
0.515900 0.525723 0.500468
0.548411 0.543488 0.507409
0.580923 0.561253 0.514351
0.613435 0.579019 0.521293
0.645947 0.596784 0.528235
0.678459 0.614550 0.535177
0.486242 0.521943 0.528670
0.486860 0.522429 0.529011
0.487477 0.522915 0.529353
0.488095 0.523402 0.529694
0.488712 0.523888 0.530036
0.489330 0.524374 0.530378
0.489889 0.524684 0.530081
0.490436 0.524959 0.529657
0.490983 0.525233 0.529234
0.491531 0.525507 0.528810
0.492078 0.525782 0.528386
0.492806 0.526142 0.527932
0.493625 0.526544 0.527464
0.494444 0.526947 0.526996
0.495262 0.527349 0.526528
0.496081 0.527752 0.526060
0.496993 0.528226 0.525596
0.497998 0.528772 0.525135
0.499002 0.529318 0.524675
0.500007 0.529863 0.524215
0.501012 0.530409 0.523754
0.501955 0.530849 0.523263
0.502776 0.531078 0.522709
0.503596 0.531307 0.522156
0.504416 0.531536 0.521602
0.505236 0.531764 0.521049
0.511170 0.535131 0.522056
0.542673 0.554188 0.530869
0.574176 0.573244 0.539682
0.605678 0.592301 0.548494
0.637181 0.611358 0.557307
0.668683 0.630415 0.566119
0.517248 0.547371 0.551971
0.517883 0.547940 0.552377
0.518519 0.548508 0.552782
0.519155 0.549077 0.553188
0.519791 0.549646 0.553594
0.520427 0.550214 0.553999
0.520890 0.550492 0.553721
0.521318 0.550712 0.553306
0.521746 0.550931 0.552892
0.522175 0.551151 0.552477
0.522603 0.551370 0.552062
0.523164 0.551620 0.551630
0.523790 0.551886 0.551190
0.524417 0.552151 0.550749
0.525044 0.552416 0.550308
0.525670 0.552682 0.549868
0.526381 0.553023 0.549454
0.527175 0.553441 0.549067
0.527970 0.553859 0.548679
0.528764 0.554276 0.548292
0.529558 0.554694 0.547905
0.530300 0.555034 0.547490
