Assets/1__3DArt/KimSe/artstation_asset/LUTs_subway_asset/CUBE/Underground 05_S.cube
# LUT by SparkleStock. Enhanced with VOXCOLOR algorithms.
LUT_3D_SIZE 8
DOMAIN_MIN 0.000000 0.000000 0.000000
DOMAIN_MAX 0.903226 0.903226 0.903226
0.019536 0.003907 0.011722
0.070393 0.008066 0.018339
0.161692 0.018118 0.021742
0.286817 0.033195 0.023585
0.435866 0.052030 0.025287
0.584088 0.071692 0.028311
0.698751 0.087888 0.033385
0.778747 0.099397 0.040506
0.043925 0.031699 0.044618
0.066679 0.044640 0.041867
0.150403 0.064200 0.038806
0.277261 0.085363 0.034587
0.429292 0.104308 0.029208
0.580880 0.118701 0.025793
0.698788 0.126578 0.025523
0.780893 0.129000 0.027839
0.081705 0.072748 0.088093
0.093878 0.086592 0.083129
0.144221 0.109469 0.075763
0.244411 0.138827 0.069517
0.393787 0.170362 0.065649
0.552992 0.190060 0.057764
0.681679 0.197516 0.051012
0.773523 0.195797 0.046029
0.137130 0.130757 0.145220
0.145876 0.141650 0.141171
0.166838 0.162223 0.132732
0.226396 0.192009 0.125541
0.339829 0.229136 0.122843
0.501450 0.266423 0.121666
0.643620 0.285043 0.113247
0.751044 0.288910 0.102458
0.213297 0.208413 0.217937
0.218768 0.215573 0.215058
0.231219 0.229562 0.208892
0.251226 0.248123 0.200600
0.292180 0.273684 0.194309
0.433894 0.331024 0.209599
0.584838 0.372517 0.209519
0.710486 0.394816 0.199429
0.315767 0.310883 0.308685
0.319627 0.314822 0.306977
0.326321 0.322378 0.303537
0.336607 0.332754 0.298734
0.352788 0.345581 0.293541
0.386483 0.362524 0.291998
0.517106 0.427167 0.318509
0.653055 0.482472 0.329977
0.435882 0.427689 0.411722
0.438986 0.429751 0.410941
0.442505 0.432991 0.409465
0.447125 0.437419 0.407377
0.453292 0.442803 0.404867
0.461177 0.448011 0.402593
0.508948 0.473396 0.413247
0.604218 0.527066 0.437309
0.558194 0.542550 0.521312
0.560872 0.543318 0.521093
0.562452 0.544165 0.520718
0.563697 0.545271 0.520187
0.565171 0.546699 0.519529
0.567098 0.548126 0.518870
0.569167 0.549095 0.518577
0.610672 0.577980 0.535423
0.021048 0.007310 0.062956
0.054195 0.026106 0.054498
0.140225 0.038664 0.066048
0.267643 0.050278 0.081699
0.422418 0.064447 0.091122
0.576495 0.080596 0.097513
0.695672 0.095597 0.105343
0.778881 0.107484 0.116288
0.031971 0.058960 0.089120
0.093673 0.088918 0.102682
0.191785 0.106540 0.110823
0.318650 0.119396 0.114821
0.464537 0.132429 0.115988
0.608722 0.143649 0.116052
0.723457 0.151237 0.116764
0.806439 0.155303 0.118970
0.070904 0.096496 0.117050
0.142965 0.147074 0.151760
0.213351 0.175905 0.156879
0.313866 0.196064 0.151053
0.457880 0.215354 0.146535
0.604370 0.225798 0.139032
0.724324 0.227316 0.131084
0.813193 0.222142 0.123567
0.132038 0.142833 0.159394
0.207754 0.212735 0.211630
0.248797 0.249325 0.216461
0.309395 0.273033 0.203752
0.422656 0.297342 0.194029
0.573016 0.317688 0.185793
0.703021 0.322236 0.172192
0.803003 0.314872 0.156284
0.211644 0.213646 0.224206
0.291507 0.294136 0.288435
0.324279 0.329584 0.296698
0.344937 0.347863 0.281056
0.389077 0.370202 0.266151
0.526273 0.407442 0.264849
0.664145 0.427927 0.253006
0.778381 0.431450 0.233501
0.316017 0.312602 0.312173
0.395743 0.393385 0.381652
0.422946 0.423985 0.394153
0.432363 0.435252 0.381744
0.450144 0.448638 0.367526
0.488839 0.463838 0.354831
0.610903 0.506850 0.360947
0.734841 0.537978 0.354379
0.437181 0.427726 0.414137
0.508747 0.500794 0.482012
0.531311 0.525404 0.497464
0.535179 0.530862 0.489892
0.541832 0.537507 0.480107
0.553471 0.544599 0.468909
0.601934 0.564081 0.465583
0.690333 0.600102 0.469716
0.560610 0.542221 0.522520
0.617476 0.602608 0.582377
0.635038 0.621291 0.598434
0.636435 0.623127 0.595349
0.638104 0.625516 0.590471
0.641490 0.628586 0.583887
0.647320 0.631706 0.576614
0.687545 0.653268 0.580398
0.025373 0.015668 0.138028
0.059989 0.038733 0.127246
0.117924 0.061202 0.119232
0.219953 0.082259 0.128119
0.372096 0.101198 0.157600
0.537004 0.116737 0.176793
0.669817 0.129644 0.194049
0.765070 0.139352 0.213531
0.031435 0.084126 0.179542
0.104390 0.111823 0.193916
0.190737 0.138228 0.191123
0.304470 0.158412 0.192573
0.449300 0.170191 0.208809
0.597479 0.178894 0.217694
0.717963 0.184653 0.224439
0.806953 0.187831 0.231908
0.055818 0.146496 0.203288
0.145888 0.191975 0.236932
0.234419 0.224371 0.243444
0.343984 0.244514 0.242090
0.483990 0.254355 0.244811
0.624725 0.259354 0.243656
0.741815 0.259385 0.241196
0.831401 0.255778 0.238993
0.109217 0.197947 0.224446
0.208198 0.266719 0.277357
0.287739 0.310033 0.297151
0.372663 0.334574 0.296202
0.480834 0.347017 0.285644
0.620558 0.355998 0.277480
0.741640 0.354946 0.266638
0.837827 0.346639 0.254821
0.196008 0.243230 0.257730
0.303388 0.333238 0.331749
0.373751 0.391399 0.367073
0.418437 0.424617 0.368738
0.461100 0.441620 0.346976
0.591864 0.461035 0.334938
0.719424 0.466428 0.318082
0.826405 0.459190 0.297214
0.306119 0.327787 0.329541
0.413070 0.423688 0.413854
0.476572 0.484200 0.457936
0.508469 0.515896 0.464927
0.524651 0.527730 0.443080
0.565229 0.540090 0.420513
0.680359 0.564819 0.411420
0.796318 0.577550 0.394339
0.431823 0.434748 0.422932
0.526796 0.524403 0.507551
0.581573 0.579360 0.554290
0.605591 0.605797 0.566051
0.610871 0.612467 0.550108
0.624217 0.620252 0.530170
0.673290 0.634321 0.514668
0.757845 0.656070 0.504076
0.558778 0.544794 0.526086
0.633476 0.620641 0.602158
0.676980 0.666229 0.645930
0.695143 0.686730 0.660412
0.696244 0.689747 0.651916
0.700350 0.694136 0.639276
0.709453 0.699133 0.624508
0.750095 0.714924 0.616910
0.032037 0.030320 0.234101
0.074313 0.052166 0.227344
0.116805 0.084819 0.200469
0.187277 0.119304 0.187494
0.304164 0.149542 0.208503
0.472621 0.175729 0.249992
0.621679 0.191712 0.283964
0.734851 0.200840 0.317130
0.036965 0.107682 0.289142
0.109053 0.129296 0.303150
0.186012 0.163698 0.289438
0.281670 0.197565 0.278145
0.404853 0.221838 0.288475
0.557110 0.235807 0.314605
0.687836 0.242525 0.333990
0.787502 0.244729 0.352050
0.049932 0.200478 0.324885
0.137130 0.228703 0.346823
0.236832 0.258923 0.348939
0.349247 0.285305 0.344039
0.474319 0.303292 0.342692
0.613848 0.308174 0.354974
0.733819 0.308430 0.363086
0.828305 0.306026 0.370389
0.087961 0.275370 0.340569
0.186363 0.319302 0.372961
0.294268 0.355716 0.394187
0.401907 0.381640 0.398672
0.507524 0.395427 0.387587
0.639947 0.396736 0.386507
0.756638 0.393097 0.383636
0.852418 0.386369 0.380593
0.162630 0.317707 0.343596
0.273841 0.384746 0.396823
0.376014 0.443850 0.439513
0.455290 0.482619 0.455121
0.516292 0.496116 0.439077
0.637313 0.499975 0.424368
0.755214 0.496326 0.410124
0.856855 0.486256 0.395617
0.280609 0.369905 0.376730
0.394808 0.450335 0.446916
0.488877 0.521969 0.506156
0.551708 0.570135 0.534753
0.583383 0.588954 0.524154
0.621848 0.596856 0.495298
0.729684 0.606537 0.477466
0.839298 0.606531 0.457208
0.414413 0.457181 0.447848
0.516213 0.537194 0.523505
0.597181 0.607266 0.587810
0.647593 0.653857 0.622686
0.666299 0.671727 0.619607
0.678473 0.678563 0.593431
0.726632 0.687321 0.569235
0.808294 0.697839 0.549525
0.548823 0.555020 0.537197
0.628519 0.625764 0.608634
0.692172 0.686757 0.669204
0.731324 0.726838 0.704792
0.744064 0.741815 0.708688
0.747323 0.746653 0.691719
0.758226 0.752725 0.670810
0.799487 0.763792 0.654630
0.040403 0.052346 0.346520
0.087656 0.071154 0.345032
0.145207 0.109129 0.317530
0.197131 0.154771 0.277638
0.248905 0.200437 0.247887
0.396321 0.248488 0.305550
0.555549 0.277827 0.360956
0.688244 0.292733 0.413010
0.044526 0.130951 0.398651
0.114777 0.152772 0.419487
0.200163 0.187502 0.408231
0.282365 0.233561 0.379092
0.360310 0.285079 0.352984
0.500705 0.315897 0.393857
0.639625 0.331122 0.431238
0.752697 0.335822 0.465084
0.059539 0.243226 0.458908
0.139080 0.262651 0.478566
0.240873 0.284988 0.475883
0.344827 0.319955 0.456451
0.443896 0.366345 0.433194
0.577391 0.380675 0.457133
0.702795 0.383706 0.478742
0.805495 0.380597 0.497830
0.082378 0.354847 0.494785
0.171743 0.377285 0.510967
0.282019 0.394966 0.515785
0.396182 0.418804 0.508415
0.505957 0.449830 0.493589
0.631311 0.451640 0.500132
0.747353 0.446781 0.507879
0.845468 0.439575 0.515369
0.121059 0.436367 0.489508
0.228148 0.473319 0.514481
0.341094 0.503676 0.531451
0.451820 0.526311 0.541055
0.556520 0.539510 0.543065
0.664411 0.535721 0.531793
0.772823 0.528844 0.526876
0.870060 0.521373 0.524585
0.237885 0.449448 0.467864
0.357439 0.506604 0.515179
0.463900 0.558212 0.556398
0.554378 0.603053 0.590072
0.625300 0.637197 0.609862
0.663128 0.640367 0.581796
0.762732 0.638147 0.562980
0.865638 0.630524 0.546564
0.380660 0.503798 0.499405
0.491377 0.567858 0.558896
0.582601 0.625449 0.611919
0.655122 0.676414 0.657048
0.707146 0.716916 0.687067
0.720317 0.723013 0.662572
0.765709 0.726592 0.635248
0.843519 0.728572 0.612423
0.526730 0.578283 0.561899
0.614761 0.639698 0.623809
0.685305 0.693947 0.678407
0.740921 0.742010 0.725495
0.780695 0.780952 0.759404
0.785310 0.787747 0.745172
0.796394 0.794105 0.721701
0.837044 0.801015 0.700727
0.049100 0.084296 0.463736
0.099280 0.099299 0.465468
0.169296 0.135750 0.446266
0.242493 0.189710 0.409022
0.306141 0.253782 0.361889
0.351832 0.303590 0.337879
0.489958 0.363958 0.403213
0.631472 0.403143 0.479156
0.052930 0.159535 0.504890
0.121576 0.185256 0.531892
0.211282 0.217579 0.527227
0.307769 0.266215 0.500980
0.397644 0.332314 0.464687
0.459771 0.387438 0.441791
0.584520 0.430464 0.490290
0.705065 0.452592 0.545749
0.070139 0.274250 0.564537
0.144184 0.294364 0.587769
0.245183 0.315457 0.589432
0.357470 0.351200 0.573493
0.465597 0.406661 0.546082
0.542755 0.460544 0.523836
0.658860 0.485389 0.556562
0.766867 0.492055 0.593970
0.099613 0.403752 0.620479
0.178062 0.417804 0.633899
0.282385 0.429896 0.636894
0.399470 0.449900 0.628349
0.515723 0.483811 0.609243
0.605476 0.529621 0.587240
0.715715 0.537804 0.605094
0.816857 0.532501 0.626685
0.139574 0.522614 0.652762
0.229855 0.540543 0.665682
0.332650 0.552717 0.669290
0.443669 0.560844 0.665738
0.556544 0.569758 0.655999
0.652334 0.600591 0.635543
0.757207 0.595786 0.639463
0.854606 0.583570 0.647143
0.186729 0.581362 0.630387
0.297860 0.611336 0.650011
0.409379 0.636681 0.665039
0.515853 0.657318 0.675443
0.611906 0.672940 0.680241
0.686019 0.680930 0.672567
0.780893 0.670622 0.664589
0.874821 0.659080 0.659603
0.323748 0.596851 0.605210
0.438676 0.638224 0.640541
0.540771 0.675667 0.672779
0.628600 0.709127 0.701191
0.700612 0.737778 0.724034
0.749917 0.755909 0.732887
0.794206 0.756222 0.714533
0.864319 0.752336 0.696676
0.482154 0.629524 0.617312
0.580946 0.675339 0.662795
0.662488 0.717105 0.704549
0.728591 0.755370 0.742398
0.780443 0.789918 0.775177
0.814218 0.816430 0.795700
0.826610 0.824291 0.779383
0.862896 0.827045 0.759468
0.056536 0.125227 0.567403
0.108302 0.136425 0.569672
0.187282 0.168672 0.558851
0.278224 0.222291 0.532741
0.365684 0.294020 0.492454
0.421377 0.368027 0.449953
0.487397 0.427895 0.454838
0.589854 0.484117 0.510301
0.060561 0.195514 0.598311
0.129093 0.226079 0.627568
0.220579 0.254929 0.628014
0.326045 0.299489 0.609165
0.433131 0.368288 0.579205
0.507186 0.445893 0.544296
0.576392 0.502548 0.545559
0.666518 0.545867 0.586640
0.080194 0.305035 0.649613
0.151730 0.329734 0.675294
0.251195 0.351806 0.681327
0.366666 0.385439 0.671466
0.484372 0.439498 0.649708
0.573592 0.512658 0.621136
0.646940 0.562697 0.618628
0.730700 0.592824 0.646845
0.115409 0.435433 0.706114
0.187345 0.448891 0.720242
0.287177 0.462409 0.725671
0.403657 0.482189 0.720997
0.524411 0.514616 0.706030
0.624505 0.574433 0.682900
0.702172 0.614900 0.676606
0.783830 0.632687 0.693337
0.163833 0.567075 0.752693
0.241637 0.577443 0.762459
0.335239 0.583574 0.763168
0.442922 0.588872 0.758182
0.559465 0.599316 0.749210
0.663811 0.636856 0.731623
0.744874 0.665337 0.721748
0.826915 0.672679 0.728295
0.214988 0.661122 0.761176
0.306919 0.676320 0.771735
0.404461 0.687018 0.776683
0.504606 0.694544 0.777105
0.604013 0.700447 0.773808
0.695407 0.707911 0.766188
0.775512 0.722759 0.753689
0.857630 0.723385 0.751803
0.291951 0.697416 0.736081
0.397796 0.720324 0.753020
0.498372 0.740078 0.767489
0.591695 0.757111 0.779475
0.675950 0.771661 0.788837
0.746556 0.782773 0.794207
0.801500 0.790555 0.785414
0.870534 0.787881 0.778088
0.420661 0.715303 0.715694
0.523260 0.743822 0.741635
0.613031 0.770083 0.765865
0.690517 0.794398 0.788413
0.756161 0.816914 0.809128
0.807532 0.836781 0.826587
0.841507 0.847087 0.827617
0.883072 0.849070 0.820980
0.062594 0.172665 0.653102
0.115360 0.180215 0.654657
0.199816 0.207378 0.650117
0.303364 0.256816 0.635662
0.412019 0.328591 0.609395
0.497205 0.417570 0.573010
0.541093 0.488035 0.544940
0.601094 0.550961 0.561124
0.067150 0.236970 0.676130
0.137574 0.272788 0.705840
0.229351 0.298014 0.709501
0.339278 0.335509 0.697739
0.459236 0.399500 0.678112
0.557704 0.485996 0.649461
0.611462 0.558298 0.625194
0.669570 0.615741 0.635955
0.089266 0.337988 0.718019
0.161449 0.369115 0.745466
0.259842 0.392757 0.754709
0.375360 0.422528 0.750117
0.497642 0.469458 0.735532
0.605217 0.546236 0.713130
0.667674 0.616081 0.691878
0.726359 0.666565 0.697514
0.129468 0.461553 0.768528
0.198801 0.478203 0.784496
0.296320 0.495605 0.792981
0.410880 0.515912 0.792587
0.531701 0.544258 0.782995
0.643077 0.603436 0.765845
0.712679 0.665985 0.747148
0.773757 0.708194 0.748094
0.186154 0.592588 0.817426
0.256146 0.601106 0.827168
0.343697 0.606938 0.828560
0.448215 0.614108 0.825924
0.565226 0.627693 0.821352
0.674282 0.662245 0.809016
0.749029 0.712365 0.792726
0.813520 0.745115 0.789575
0.251843 0.703133 0.846675
0.328057 0.710805 0.854533
0.412564 0.714799 0.856051
0.504438 0.717191 0.853285
0.602049 0.720280 0.847962
0.701095 0.729094 0.841150
0.777479 0.760925 0.827583
0.844729 0.782892 0.821405
0.306015 0.766270 0.840262
0.395527 0.777166 0.848188
0.484950 0.785365 0.853021
0.573051 0.791720 0.855491
0.658595 0.797046 0.856244
0.738841 0.802370 0.855676
0.805065 0.815416 0.851418
0.868192 0.825964 0.846302
0.393413 0.792781 0.815608
0.489507 0.808116 0.828306
0.577279 0.821882 0.839639
0.656930 0.834404 0.849929
0.728550 0.845925 0.859365
0.789959 0.856300 0.867523
0.841782 0.865547 0.874144
0.888366 0.872813 0.873631
