Assets/1__3DArt/KimSe/artstation_asset/LUTs_subway_asset/CUBE/Underground 03.cube
# LUT by SparkleStock. Enhanced with VOXCOLOR algorithms.
LUT_3D_SIZE 32
0.050794 0.023443 0.035165
0.066391 0.023727 0.036157
0.081988 0.024010 0.037150
0.097586 0.024294 0.038143
0.113183 0.024578 0.039135
0.128780 0.024861 0.040128
0.152097 0.026366 0.039978
0.176959 0.028115 0.039600
0.201820 0.029863 0.039222
0.226681 0.031612 0.038844
0.251542 0.033361 0.038465
0.280468 0.035551 0.038056
0.311426 0.037961 0.037630
0.342384 0.040372 0.037205
0.373343 0.042782 0.036780
0.404301 0.045193 0.036354
0.435047 0.047580 0.036260
0.465580 0.049943 0.036496
0.496112 0.052306 0.036732
0.526645 0.054669 0.036969
0.557178 0.057033 0.037205
0.585632 0.059222 0.037693
0.609926 0.061066 0.038686
0.634220 0.062909 0.039679
0.658514 0.064752 0.040671
0.682808 0.066596 0.041664
0.705723 0.068329 0.042759
0.721746 0.069510 0.044366
0.737768 0.070692 0.045973
0.753791 0.071874 0.047580
0.769814 0.073055 0.049187
0.785836 0.074237 0.050794
0.058781 0.032329 0.045279
0.071488 0.032667 0.046226
0.084194 0.033006 0.047173
0.096901 0.033344 0.048120
0.109608 0.033683 0.049067
0.122314 0.034021 0.050014
0.145111 0.035962 0.049658
0.169927 0.038223 0.049042
0.194742 0.040484 0.048426
0.219558 0.042745 0.047810
0.244373 0.045006 0.047194
0.273637 0.047343 0.046236
0.305126 0.049716 0.045106
0.336615 0.052090 0.043976
0.368104 0.054464 0.042846
0.399593 0.056838 0.041717
0.430878 0.059051 0.040908
0.461960 0.061103 0.040422
0.493042 0.063156 0.039936
0.524124 0.065208 0.039449
0.555205 0.067260 0.038963
0.584128 0.069105 0.038790
0.608733 0.070537 0.039243
0.633338 0.071969 0.039695
0.657943 0.073400 0.040148
0.682548 0.074832 0.040601
0.705721 0.076153 0.041187
0.721735 0.076923 0.042437
0.737749 0.077693 0.043687
0.753762 0.078463 0.044937
0.769776 0.079233 0.046188
0.785789 0.080003 0.047438
0.066769 0.041215 0.055394
0.076585 0.041608 0.056295
0.086401 0.042001 0.057196
0.096216 0.042395 0.058097
0.106032 0.042788 0.058998
0.115848 0.043182 0.059899
0.138125 0.045558 0.059338
0.162895 0.048332 0.058484
0.187665 0.051105 0.057630
0.212434 0.053878 0.056777
0.237204 0.056652 0.055923
0.266807 0.059134 0.054415
0.298826 0.061472 0.052581
0.330846 0.063809 0.050747
0.362865 0.066146 0.048913
0.394885 0.068484 0.047079
0.426710 0.070523 0.045557
0.458340 0.072264 0.044348
0.489971 0.074005 0.043139
0.521602 0.075746 0.041930
0.553232 0.077487 0.040721
0.582625 0.078988 0.039886
0.607541 0.080008 0.039799
0.632457 0.081028 0.039712
0.657373 0.082048 0.039625
0.682289 0.083068 0.039538
0.705720 0.083978 0.039615
0.721724 0.084336 0.040508
0.737729 0.084695 0.041402
0.753733 0.085053 0.042295
0.769737 0.085411 0.043189
0.785742 0.085769 0.044082
0.074757 0.050100 0.065509
0.081682 0.050549 0.066364
0.088607 0.050997 0.067219
0.095532 0.051445 0.068075
0.102457 0.051893 0.068930
0.109382 0.052342 0.069785
0.131139 0.055154 0.069018
0.155863 0.058440 0.067927
0.180587 0.061726 0.066835
0.205311 0.065011 0.065743
0.230035 0.068297 0.064652
0.259976 0.070926 0.062595
0.292526 0.073227 0.060057
0.325077 0.075528 0.057518
0.357627 0.077828 0.054980
0.390177 0.080129 0.052441
0.422541 0.081994 0.050206
0.454721 0.083424 0.048274
0.486900 0.084855 0.046342
0.519080 0.086285 0.044411
0.551260 0.087715 0.042479
0.581122 0.088871 0.040982
0.606349 0.089479 0.040356
0.631576 0.090088 0.039729
0.656803 0.090696 0.039102
0.682030 0.091304 0.038476
0.705718 0.091803 0.038043
0.721714 0.091749 0.038580
0.737709 0.091696 0.039116
0.753704 0.091642 0.039653
0.769699 0.091589 0.040190
0.785695 0.091536 0.040726
0.082744 0.058986 0.075623
0.086779 0.059489 0.076433
0.090813 0.059992 0.077242
0.094847 0.060496 0.078052
0.098882 0.060999 0.078862
0.102916 0.061502 0.079671
0.124153 0.064751 0.078698
0.148832 0.068549 0.077369
0.173510 0.072347 0.076039
0.198188 0.076144 0.074710
0.222866 0.079942 0.073380
0.253146 0.082718 0.070775
0.286227 0.084982 0.067532
0.319307 0.087246 0.064289
0.352388 0.089510 0.061046
0.385468 0.091774 0.057803
0.418373 0.093466 0.054855
0.451101 0.094585 0.052200
0.483830 0.095704 0.049546
0.516558 0.096823 0.046891
0.549287 0.097942 0.044237
0.579618 0.098754 0.042078
0.605156 0.098951 0.040912
0.630695 0.099147 0.039746
0.656233 0.099344 0.038579
0.681771 0.099541 0.037413
0.705717 0.099627 0.036471
0.721703 0.099162 0.036651
0.737689 0.098697 0.036831
0.753675 0.098232 0.037011
0.769661 0.097767 0.037191
0.785647 0.097302 0.037371
0.090732 0.067872 0.085738
0.091876 0.068430 0.086502
0.093019 0.068988 0.087266
0.094163 0.069546 0.088029
0.095306 0.070104 0.088793
0.096450 0.070662 0.089557
0.117167 0.074347 0.088378
0.141800 0.078657 0.086811
0.166432 0.082967 0.085244
0.191065 0.087278 0.083676
0.215697 0.091588 0.082109
0.246315 0.094510 0.078955
0.279927 0.096737 0.075008
0.313538 0.098965 0.071060
0.347149 0.101192 0.067113
0.380760 0.103420 0.063166
0.414205 0.104937 0.059503
0.447482 0.105746 0.056126
0.480759 0.106554 0.052749
0.514036 0.107362 0.049372
0.547314 0.108170 0.045995
0.578115 0.108637 0.043175
0.603964 0.108422 0.041469
0.629813 0.108207 0.039762
0.655662 0.107992 0.038056
0.681512 0.107777 0.036350
0.705715 0.107452 0.034899
0.721692 0.106575 0.034722
0.737669 0.105698 0.034545
0.753646 0.104822 0.034368
0.769623 0.103945 0.034192
0.785600 0.103068 0.034015
0.101674 0.080539 0.099397
0.102328 0.081098 0.100138
0.102982 0.081658 0.100879
0.103636 0.082217 0.101620
0.104290 0.082777 0.102361
0.104944 0.083337 0.103102
0.122379 0.086616 0.102217
0.143169 0.090440 0.101006
0.163959 0.094264 0.099796
0.184750 0.098088 0.098585
0.205540 0.101912 0.097375
0.234713 0.105562 0.094688
0.268077 0.109125 0.091264
0.301441 0.112688 0.087839
0.334805 0.116251 0.084415
0.368170 0.119814 0.080991
0.401944 0.122306 0.077320
0.436128 0.123725 0.073403
0.470313 0.125145 0.069486
0.504497 0.126564 0.065569
0.538682 0.127984 0.061653
0.570448 0.128868 0.058186
0.597378 0.128684 0.055620
0.624308 0.128499 0.053054
0.651239 0.128315 0.050488
0.678169 0.128130 0.047922
0.703389 0.127762 0.045627
0.720058 0.126474 0.044690
0.736727 0.125185 0.043752
0.753396 0.123897 0.042814
0.770065 0.122609 0.041877
0.786734 0.121320 0.040939
0.113207 0.093962 0.113766
0.113851 0.094512 0.114488
0.114496 0.095063 0.115211
0.115141 0.095613 0.115934
0.115786 0.096164 0.116657
0.116431 0.096714 0.117379
0.130029 0.099421 0.116887
0.146218 0.102558 0.116152
0.162407 0.105696 0.115418
0.178596 0.108834 0.114683
0.194785 0.111972 0.113948
0.222156 0.116466 0.111932
0.255117 0.121639 0.109276
0.288079 0.126813 0.106620
0.321041 0.131986 0.103964
0.354002 0.137159 0.101308
0.388065 0.140853 0.097770
0.423228 0.143069 0.093350
0.458392 0.145284 0.088930
0.493555 0.147499 0.084510
0.528718 0.149715 0.080090
0.561549 0.151170 0.075980
0.589714 0.151104 0.072490
0.617879 0.151038 0.069000
0.646044 0.150973 0.065510
0.674209 0.150907 0.062021
0.700597 0.150569 0.058816
0.718099 0.148869 0.057036
0.735600 0.147169 0.055257
0.753102 0.145469 0.053478
0.770603 0.143769 0.051699
0.788105 0.142069 0.049919
0.124739 0.107385 0.128134
0.125375 0.107926 0.128839
0.126011 0.108468 0.129543
0.126646 0.109009 0.130247
0.127282 0.109550 0.130952
0.127918 0.110091 0.131656
0.137680 0.112225 0.131558
0.149268 0.114676 0.131298
0.160855 0.117128 0.131039
0.172442 0.119580 0.130780
0.184030 0.122031 0.130521
0.209599 0.127371 0.129176
0.242158 0.134154 0.127289
0.274717 0.140937 0.125401
0.307276 0.147720 0.123513
0.339835 0.154504 0.121626
0.374186 0.159401 0.118221
0.410328 0.162412 0.113297
0.446470 0.165423 0.108374
0.482612 0.168434 0.103451
0.518755 0.171446 0.098528
0.552649 0.173471 0.093775
0.582049 0.173524 0.089361
0.611449 0.173578 0.084947
0.640850 0.173631 0.080533
0.670250 0.173684 0.076119
0.697805 0.173377 0.072004
0.716139 0.171265 0.069383
0.734474 0.169154 0.066762
0.752808 0.167042 0.064141
0.771142 0.164930 0.061520
0.789476 0.162819 0.058900
0.136272 0.120808 0.142503
0.136898 0.121340 0.143189
0.137525 0.121872 0.143875
0.138152 0.122405 0.144561
0.138778 0.122937 0.145247
0.139405 0.123469 0.145933
0.145331 0.125029 0.146228
0.152317 0.126794 0.146444
0.159303 0.128560 0.146661
0.166289 0.130325 0.146877
0.173275 0.132091 0.147094
0.197041 0.138275 0.146420
0.229198 0.146668 0.145301
0.261355 0.155062 0.144182
0.293511 0.163455 0.143063
0.325668 0.171848 0.141944
0.360307 0.177948 0.138671
0.397428 0.181755 0.133245
0.434549 0.185562 0.127818
0.471670 0.189370 0.122392
0.508791 0.193177 0.116966
0.543750 0.195772 0.111569
0.574385 0.195944 0.106231
0.605020 0.196117 0.100893
0.635655 0.196289 0.095555
0.666290 0.196461 0.090218
0.695014 0.196184 0.085192
0.714180 0.193661 0.081730
0.733347 0.191138 0.078267
0.752513 0.188614 0.074805
0.771680 0.186091 0.071342
0.790846 0.183568 0.067880
0.147804 0.134231 0.156871
0.148422 0.134754 0.157539
0.149039 0.135277 0.158207
0.149657 0.135800 0.158874
0.150274 0.136323 0.159542
0.150892 0.136846 0.160210
0.152982 0.137833 0.160898
0.155366 0.138912 0.161590
0.157751 0.139992 0.162283
0.160135 0.141071 0.162975
0.162520 0.142151 0.163667
0.184484 0.149179 0.163664
0.216238 0.159183 0.163313
0.247993 0.169186 0.162963
0.279747 0.179189 0.162612
0.311501 0.189193 0.162261
0.346428 0.196496 0.159121
0.384528 0.201099 0.153192
0.422628 0.205702 0.147262
0.460727 0.210305 0.141333
0.498827 0.214908 0.135404
0.534850 0.218073 0.129363
0.566720 0.218365 0.123102
0.598590 0.218656 0.116840
0.630460 0.218947 0.110578
0.662331 0.219238 0.104316
0.692222 0.218992 0.098381
0.712221 0.216057 0.094077
0.732220 0.213122 0.089772
0.752219 0.210187 0.085468
0.772218 0.207252 0.081164
0.792217 0.204317 0.076860
0.163307 0.151940 0.174359
0.163885 0.152441 0.174984
0.164463 0.152943 0.175609
0.165040 0.153445 0.176234
0.165618 0.153946 0.176859
0.166196 0.154448 0.177485
0.166966 0.155210 0.178267
0.167774 0.156024 0.179081
0.168582 0.156838 0.179896
0.169390 0.157652 0.180710
0.170198 0.158467 0.181524
0.188884 0.164915 0.181793
0.216510 0.174180 0.181790
0.244135 0.183446 0.181787
0.271761 0.192711 0.181784
0.299386 0.201976 0.181781
0.332210 0.209800 0.179329
0.370234 0.216180 0.174427
0.408258 0.222561 0.169525
0.446281 0.228942 0.164623
0.484305 0.235322 0.159721
0.520687 0.240006 0.154256
0.553786 0.241294 0.147661
0.586885 0.242582 0.141067
0.619984 0.243871 0.134473
0.653082 0.245159 0.127879
0.684209 0.245781 0.121538
0.705473 0.243068 0.116466
0.726738 0.240356 0.111393
0.748002 0.237643 0.106321
0.769267 0.234931 0.101248
0.790531 0.232219 0.096176
0.180795 0.171791 0.193407
0.181318 0.172265 0.193977
0.181841 0.172739 0.194547
0.182364 0.173213 0.195117
0.182887 0.173688 0.195687
0.183410 0.174162 0.196258
0.184117 0.174874 0.196985
0.184861 0.175633 0.197745
0.185605 0.176392 0.198504
0.186349 0.177151 0.199263
0.187093 0.177911 0.200023
0.201763 0.183066 0.200365
0.223397 0.190420 0.200499
0.245030 0.197773 0.200633
0.266664 0.205126 0.200768
0.288297 0.212480 0.200902
0.317824 0.220481 0.199415
0.355244 0.229131 0.196306
0.392663 0.237780 0.193197
0.430083 0.246430 0.190088
0.467503 0.255079 0.186979
0.503891 0.261753 0.182697
0.538216 0.264478 0.176066
0.572541 0.267203 0.169435
0.606865 0.269927 0.162804
0.641190 0.272652 0.156174
0.673585 0.274560 0.149681
0.696332 0.272387 0.143876
0.719078 0.270215 0.138072
0.741824 0.268042 0.132267
0.764571 0.265870 0.126463
0.787317 0.263697 0.120659
0.198283 0.191642 0.212454
0.198751 0.192089 0.212970
0.199219 0.192536 0.213485
0.199687 0.192982 0.214000
0.200155 0.193429 0.214516
0.200623 0.193876 0.215031
0.201268 0.194537 0.215704
0.201948 0.195242 0.216408
0.202628 0.195946 0.217113
0.203308 0.196650 0.217817
0.203988 0.197355 0.218521
0.214642 0.201217 0.218937
0.230284 0.206659 0.219208
0.245925 0.212100 0.219480
0.261567 0.217542 0.219751
0.277208 0.222983 0.220023
0.303437 0.231163 0.219500
0.340253 0.242081 0.218185
0.377069 0.252999 0.216869
0.413885 0.263917 0.215553
0.450701 0.274836 0.214237
0.487095 0.283501 0.211138
0.522646 0.287662 0.204470
0.558197 0.291823 0.197803
0.593747 0.295984 0.191136
0.629298 0.300144 0.184468
0.662961 0.303340 0.177823
0.687190 0.301707 0.171287
0.711418 0.300074 0.164750
0.735647 0.298441 0.158214
0.759875 0.296808 0.151678
0.784103 0.295175 0.145142
0.215771 0.211493 0.231502
0.216184 0.211912 0.231962
0.216597 0.212332 0.232423
0.217010 0.212751 0.232883
0.217423 0.213170 0.233344
0.217837 0.213590 0.233804
0.218419 0.214201 0.234422
0.219035 0.214850 0.235072
0.219651 0.215500 0.235721
0.220267 0.216149 0.236371
0.220883 0.216799 0.237020
0.227521 0.219368 0.237509
0.237171 0.222898 0.237918
0.246820 0.226427 0.238326
0.256470 0.229957 0.238735
0.266119 0.233487 0.239143
0.289050 0.241845 0.239586
0.325263 0.255032 0.240064
0.361475 0.268219 0.240541
0.397687 0.281405 0.241018
0.433899 0.294592 0.241495
0.470300 0.305249 0.239579
0.507076 0.310846 0.232875
0.543852 0.316443 0.226171
0.580629 0.322040 0.219467
0.617405 0.327637 0.212763
0.652337 0.332119 0.205965
0.678048 0.331026 0.198697
0.703758 0.329933 0.191429
0.729469 0.328840 0.184161
0.755179 0.327746 0.176893
0.780889 0.326653 0.169625
0.233258 0.231344 0.250549
0.233617 0.231736 0.250955
0.233975 0.232128 0.251361
0.234333 0.232520 0.251766
0.234692 0.232912 0.252172
0.235050 0.233303 0.252577
0.235570 0.233864 0.253140
0.236122 0.234459 0.253735
0.236673 0.235054 0.254330
0.237225 0.235648 0.254924
0.237777 0.236243 0.255519
0.240400 0.237519 0.256081
0.244057 0.239137 0.256627
0.247715 0.240755 0.257173
0.251373 0.242372 0.257718
0.255030 0.243990 0.258264
0.274664 0.252527 0.259672
0.310272 0.267982 0.261942
0.345881 0.283438 0.264213
0.381489 0.298893 0.266483
0.417098 0.314349 0.268753
0.453504 0.326997 0.268020
0.491506 0.334030 0.261279
0.529508 0.341063 0.254539
0.567511 0.348097 0.247798
0.605513 0.355130 0.241058
0.641714 0.360899 0.234107
0.668906 0.360345 0.226107
0.696098 0.359792 0.218107
0.723291 0.359238 0.210108
0.750483 0.358685 0.202108
0.777675 0.358131 0.194108
0.253653 0.253889 0.271251
0.253970 0.254254 0.271611
0.254287 0.254618 0.271971
0.254605 0.254983 0.272331
0.254922 0.255347 0.272691
0.255239 0.255711 0.273050
0.255698 0.256218 0.273556
0.256186 0.256753 0.274092
0.256674 0.257288 0.274627
0.257162 0.257824 0.275162
0.257650 0.258359 0.275697
0.258229 0.258957 0.276267
0.258854 0.259587 0.276854
0.259479 0.260216 0.277441
0.260105 0.260846 0.278028
0.260730 0.261476 0.278615
0.277001 0.269299 0.280352
0.308918 0.284315 0.283240
0.340835 0.299332 0.286127
0.372753 0.314348 0.289015
0.404670 0.329364 0.291903
0.438721 0.342366 0.292002
0.477039 0.351339 0.286524
0.515357 0.360311 0.281046
0.553674 0.369284 0.275568
0.591992 0.378257 0.270090
0.628679 0.385830 0.264168
0.657212 0.386406 0.256031
0.685744 0.386983 0.247894
0.714277 0.387559 0.239757
0.742809 0.388135 0.231620
0.771342 0.388712 0.223483
0.276955 0.279129 0.293607
0.277244 0.279466 0.293931
0.277534 0.279803 0.294254
0.277824 0.280140 0.294577
0.278113 0.280477 0.294900
0.278403 0.280814 0.295224
0.278805 0.281262 0.295670
0.279228 0.281733 0.296141
0.279652 0.282205 0.296612
0.280076 0.282676 0.297083
0.280500 0.283147 0.297555
0.281009 0.283681 0.298066
0.281561 0.284247 0.298598
0.282113 0.284812 0.299131
0.282665 0.285378 0.299663
0.283217 0.285943 0.300195
0.296062 0.292161 0.301626
0.321201 0.304031 0.303955
0.346339 0.315900 0.306285
0.371478 0.327770 0.308615
0.396617 0.339639 0.310944
0.425950 0.351357 0.311525
0.463673 0.362772 0.308609
0.501397 0.374187 0.305692
0.539120 0.385603 0.302775
0.576843 0.397018 0.299859
0.613234 0.406913 0.296148
0.642965 0.409209 0.288468
0.672696 0.411505 0.280789
0.702427 0.413802 0.273109
0.732158 0.416098 0.265429
0.761889 0.418394 0.257749
0.300256 0.304368 0.315964
0.300518 0.304678 0.316250
0.300781 0.304987 0.316537
0.301043 0.305297 0.316824
0.301305 0.305606 0.317110
0.301567 0.305916 0.317397
0.301911 0.306306 0.317784
0.302271 0.306713 0.318191
0.302630 0.307121 0.318598
0.302990 0.307528 0.319005
0.303350 0.307935 0.319412
0.303789 0.308405 0.319866
0.304268 0.308906 0.320343
0.304747 0.309408 0.320820
0.305225 0.309910 0.321298
0.305704 0.310411 0.321775
0.315124 0.315023 0.322899
0.333484 0.323746 0.324671
0.351844 0.332469 0.326443
0.370204 0.341191 0.328214
0.388564 0.349914 0.329986
0.413180 0.360348 0.331049
0.450308 0.374206 0.330693
0.487437 0.388063 0.330338
0.524566 0.401921 0.329983
0.561694 0.415779 0.329628
0.597789 0.427996 0.328128
0.628719 0.432012 0.320906
0.659648 0.436028 0.313683
0.690577 0.440044 0.306461
0.721507 0.444060 0.299239
0.752436 0.448076 0.292016
0.323557 0.329607 0.338320
0.323792 0.329889 0.338570
0.324027 0.330171 0.338820
0.324262 0.330453 0.339070
0.324497 0.330736 0.339320
0.324731 0.331018 0.339570
0.325017 0.331351 0.339898
0.325313 0.331694 0.340241
0.325609 0.332037 0.340584
0.325904 0.332380 0.340927
0.326200 0.332723 0.341270
0.326569 0.333129 0.341666
0.326975 0.333566 0.342088
0.327380 0.334004 0.342510
0.327786 0.334442 0.342933
0.328191 0.334879 0.343355
0.334185 0.337886 0.344173
0.345766 0.343461 0.345387
0.357348 0.349037 0.346600
0.368929 0.354613 0.347814
0.380510 0.360188 0.349027
0.400409 0.369339 0.350572
0.436943 0.385639 0.352778
0.473477 0.401939 0.354984
0.510011 0.418240 0.357191
0.546545 0.434540 0.359397
0.582345 0.449079 0.360108
0.614472 0.454815 0.353343
0.646600 0.460551 0.346578
0.678728 0.466287 0.339813
0.710855 0.472022 0.333048
0.742983 0.477758 0.326283
0.346859 0.354847 0.360676
0.347066 0.355101 0.360889
0.347274 0.355356 0.361103
0.347481 0.355610 0.361316
0.347688 0.355865 0.361530
0.347896 0.356120 0.361743
0.348123 0.356395 0.362011
0.348355 0.356674 0.362290
0.348587 0.356953 0.362569
0.348819 0.357232 0.362848
0.349050 0.357511 0.363127
0.349349 0.357853 0.363465
0.349682 0.358226 0.363833
0.350014 0.358600 0.364200
0.350346 0.358973 0.364568
0.350679 0.359347 0.364935
0.353246 0.360748 0.365447
0.358049 0.363177 0.366102
0.362852 0.365606 0.366758
0.367654 0.368034 0.367413
0.372457 0.370463 0.368069
0.387639 0.378330 0.370095
0.423578 0.397073 0.374863
0.459517 0.415815 0.379630
0.495457 0.434558 0.384398
0.531396 0.453301 0.389166
0.566900 0.470162 0.392088
0.600226 0.477618 0.385780
0.633552 0.485073 0.379472
0.666878 0.492529 0.373165
0.700204 0.499985 0.366857
0.733530 0.507440 0.360550
0.371373 0.380748 0.383379
0.371566 0.380972 0.383555
0.371758 0.381196 0.383732
0.371950 0.381420 0.383909
0.372142 0.381644 0.384086
0.372334 0.381868 0.384263
0.372511 0.382092 0.384479
0.372685 0.382316 0.384703
0.372858 0.382541 0.384927
0.373032 0.382765 0.385152
0.373206 0.382989 0.385376
0.373439 0.383274 0.385661
0.373701 0.383590 0.385976
0.373963 0.383905 0.386292
0.374226 0.384221 0.386608
0.374488 0.384536 0.386923
0.374756 0.384852 0.387217
0.375031 0.385168 0.387488
0.375305 0.385483 0.387759
0.375579 0.385799 0.388031
0.375854 0.386114 0.388302
0.387128 0.392678 0.390504
0.420403 0.411738 0.396568
0.453677 0.430798 0.402632
0.486951 0.449858 0.408695
0.520225 0.468917 0.414759
0.553615 0.486352 0.418969
0.587581 0.495658 0.413912
0.621548 0.504965 0.408854
0.655514 0.514271 0.403797
0.689481 0.523578 0.398740
0.723447 0.532884 0.393682
0.398314 0.407972 0.406775
0.398515 0.408159 0.406915
0.398717 0.408347 0.407055
0.398918 0.408535 0.407195
0.399119 0.408722 0.407336
0.399321 0.408910 0.407476
0.399461 0.409097 0.407656
0.399589 0.409285 0.407843
0.399717 0.409472 0.408031
0.399845 0.409660 0.408218
0.399973 0.409847 0.408406
0.400148 0.410090 0.408648
0.400346 0.410360 0.408918
0.400544 0.410629 0.409188
0.400743 0.410899 0.409458
0.400941 0.411169 0.409728
0.401163 0.411439 0.409980
0.401410 0.411709 0.410215
0.401657 0.411979 0.410450
0.401904 0.412249 0.410684
0.402151 0.412519 0.410919
0.411139 0.417740 0.412685
0.437607 0.432867 0.417514
0.464075 0.447993 0.422342
0.490543 0.463119 0.427171
0.517011 0.478245 0.432000
0.544650 0.492754 0.435653
0.578141 0.504173 0.433432
0.611631 0.515593 0.431210
0.645122 0.527013 0.428989
0.678613 0.538433 0.426767
0.712104 0.549852 0.424546
0.425255 0.435196 0.430171
0.425465 0.435347 0.430274
0.425676 0.435498 0.430378
0.425886 0.435649 0.430482
0.426097 0.435800 0.430585
0.426307 0.435951 0.430689
0.426411 0.436102 0.430832
0.426493 0.436253 0.430983
0.426575 0.436404 0.431134
0.426658 0.436555 0.431285
0.426740 0.436706 0.431436
0.426857 0.436905 0.431635
0.426991 0.437130 0.431860
0.427125 0.437354 0.432084
0.427259 0.437578 0.432308
0.427394 0.437802 0.432532
0.427570 0.438026 0.432743
0.427790 0.438250 0.432941
0.428010 0.438474 0.433140
0.428229 0.438698 0.433338
0.428449 0.438923 0.433536
0.435149 0.442803 0.434866
0.454811 0.453995 0.438460
0.474473 0.465188 0.442053
0.494135 0.476381 0.445647
0.513797 0.487573 0.449241
0.535685 0.499156 0.452338
0.568700 0.512689 0.452952
0.601715 0.526222 0.453567
0.634730 0.539754 0.454181
0.667745 0.553287 0.454795
0.700760 0.566820 0.455410
0.452196 0.462421 0.453567
0.452415 0.462535 0.453634
0.452635 0.462649 0.453701
0.452854 0.462764 0.453768
0.453074 0.462878 0.453835
0.453294 0.462992 0.453902
0.453361 0.463107 0.454008
0.453397 0.463221 0.454123
0.453434 0.463336 0.454237
0.453470 0.463450 0.454351
0.453507 0.463564 0.454466
0.453566 0.463721 0.454623
0.453636 0.463900 0.454801
0.453706 0.464078 0.454980
0.453776 0.464256 0.455158
0.453847 0.464435 0.455336
0.453978 0.464613 0.455506
0.454170 0.464792 0.455668
0.454362 0.464970 0.455830
0.454554 0.465148 0.455991
0.454746 0.465327 0.456153
0.459159 0.467865 0.457047
0.472015 0.475124 0.459405
0.484871 0.482383 0.461764
0.497727 0.489642 0.464123
0.510583 0.496901 0.466481
0.526720 0.505558 0.469022
0.559259 0.521204 0.472472
0.591799 0.536850 0.475923
0.624338 0.552496 0.479373
0.656877 0.568142 0.482823
0.689417 0.583788 0.486274
0.479137 0.489645 0.476962
0.479365 0.489723 0.476993
0.479594 0.489801 0.477023
0.479823 0.489878 0.477054
0.480051 0.489956 0.477084
0.480280 0.490034 0.477115
0.480311 0.490112 0.477185
0.480301 0.490189 0.477263
0.480292 0.490267 0.477340
0.480283 0.490345 0.477418
0.480274 0.490423 0.477496
0.480275 0.490537 0.477610
0.480281 0.490670 0.477743
0.480287 0.490802 0.477875
0.480293 0.490935 0.478008
0.480299 0.491068 0.478141
0.480385 0.491200 0.478270
0.480549 0.491333 0.478395
0.480714 0.491466 0.478520
0.480879 0.491598 0.478645
0.481043 0.491731 0.478770
0.483170 0.492928 0.479228
0.489220 0.496253 0.480351
0.495270 0.499578 0.481475
0.501319 0.502904 0.482599
0.507369 0.506229 0.483722
0.517755 0.511960 0.485706
0.549819 0.529719 0.491993
0.581882 0.547478 0.498279
0.613946 0.565238 0.504565
0.646010 0.582997 0.510851
0.678073 0.600756 0.517137
0.505967 0.516239 0.499996
0.506214 0.516285 0.499996
0.506461 0.516331 0.499996
0.506708 0.516377 0.499996
0.506955 0.516422 0.499996
0.507202 0.516468 0.499996
0.507200 0.516514 0.500034
0.507148 0.516559 0.500080
0.507096 0.516605 0.500126
0.507045 0.516651 0.500171
0.506993 0.516697 0.500217
0.506939 0.516773 0.500293
0.506884 0.516864 0.500385
0.506829 0.516956 0.500476
0.506774 0.517047 0.500568
0.506719 0.517139 0.500659
0.506760 0.517230 0.500751
0.506898 0.517322 0.500842
0.507035 0.517413 0.500934
0.507172 0.517505 0.501025
0.507309 0.517596 0.501117
0.507527 0.517672 0.501208
0.507905 0.517718 0.501300
0.508283 0.517764 0.501391
0.508661 0.517810 0.501483
0.509039 0.517855 0.501574
0.514468 0.521042 0.503045
0.545147 0.539933 0.511416
0.575826 0.558823 0.519786
0.606505 0.577714 0.528157
0.637185 0.596604 0.536527
0.667864 0.615495 0.544897
0.532246 0.539683 0.521218
0.532557 0.539719 0.521218
0.532868 0.539756 0.521218
0.533179 0.539792 0.521218
0.533490 0.539829 0.521218
0.533801 0.539865 0.521218
0.533787 0.539902 0.521248
0.533708 0.539939 0.521285
0.533629 0.539975 0.521322
0.533549 0.540012 0.521358
0.533470 0.540048 0.521395
0.533377 0.540109 0.521456
0.533276 0.540183 0.521529
0.533175 0.540256 0.521602
0.533075 0.540329 0.521675
0.532974 0.540402 0.521748
0.532979 0.540475 0.521822
0.533088 0.540549 0.521895
0.533198 0.540622 0.521968
0.533308 0.540695 0.522041
0.533418 0.540768 0.522114
0.533617 0.540829 0.522188
