Assets/1__3DArt/KimSe/artstation_asset/LUTs_subway_asset/CUBE/Underground 02_S.cube
# LUT by SparkleStock. Enhanced with VOXCOLOR algorithms.
LUT_3D_SIZE 32
0.031258 0.042979 0.050794
0.047847 0.043263 0.053440
0.064437 0.043546 0.056087
0.081027 0.043830 0.058734
0.097617 0.044114 0.061381
0.114207 0.044397 0.064028
0.136902 0.045232 0.067187
0.160818 0.046177 0.070448
0.184734 0.047123 0.073709
0.208649 0.048068 0.076970
0.232565 0.049013 0.080232
0.260577 0.050148 0.083556
0.290638 0.051377 0.086912
0.320698 0.052605 0.090267
0.350758 0.053834 0.093623
0.380818 0.055063 0.096979
0.412037 0.056410 0.100240
0.444413 0.057875 0.103407
0.476789 0.059341 0.106574
0.509165 0.060806 0.109740
0.541542 0.062271 0.112907
0.573051 0.063752 0.116105
0.602828 0.065264 0.119367
0.632605 0.066777 0.122628
0.662381 0.068289 0.125889
0.692158 0.069802 0.129150
0.720840 0.071291 0.132530
0.744047 0.072661 0.136500
0.767254 0.074032 0.140470
0.790460 0.075403 0.144441
0.813667 0.076773 0.148411
0.836874 0.078144 0.152381
0.039056 0.053472 0.062893
0.053185 0.054368 0.064525
0.067314 0.055265 0.066156
0.081443 0.056161 0.067788
0.095573 0.057058 0.069419
0.109702 0.057954 0.071050
0.132520 0.059380 0.073201
0.157076 0.060910 0.075456
0.181632 0.062441 0.077711
0.206189 0.063972 0.079966
0.230745 0.065503 0.082221
0.259306 0.066838 0.084582
0.289869 0.068076 0.086996
0.320433 0.069314 0.089409
0.350996 0.070552 0.091823
0.381559 0.071790 0.094236
0.413116 0.072927 0.096669
0.445666 0.073962 0.099123
0.478216 0.074997 0.101576
0.510766 0.076033 0.104029
0.543316 0.077068 0.106482
0.574908 0.078046 0.109046
0.604584 0.078909 0.111832
0.634260 0.079772 0.114617
0.663937 0.080635 0.117403
0.693613 0.081498 0.120188
0.722177 0.082331 0.123112
0.745183 0.083015 0.126725
0.768188 0.083700 0.130339
0.791194 0.084385 0.133952
0.814199 0.085069 0.137566
0.837205 0.085754 0.141179
0.046855 0.063965 0.074993
0.058523 0.065474 0.075609
0.070191 0.066984 0.076225
0.081860 0.068493 0.076841
0.093528 0.070002 0.077457
0.105196 0.071512 0.078073
0.128138 0.073527 0.079216
0.153335 0.075643 0.080465
0.178531 0.077759 0.081714
0.203728 0.079876 0.082962
0.228924 0.081992 0.084211
0.258034 0.083529 0.085608
0.289101 0.084776 0.087079
0.320167 0.086023 0.088551
0.351234 0.087270 0.090022
0.382300 0.088517 0.091493
0.414196 0.089444 0.093099
0.446919 0.090049 0.094838
0.479643 0.090654 0.096578
0.512367 0.091259 0.098318
0.545091 0.091865 0.100057
0.576765 0.092339 0.101987
0.606341 0.092553 0.104297
0.635916 0.092766 0.106607
0.665492 0.092980 0.108917
0.695067 0.093193 0.111226
0.723514 0.093371 0.113694
0.746318 0.093369 0.116951
0.769123 0.093368 0.120208
0.791927 0.093366 0.123464
0.814732 0.093365 0.126721
0.837536 0.093363 0.129978
0.054654 0.074457 0.087093
0.063861 0.076580 0.086693
0.073068 0.078702 0.086294
0.082276 0.080824 0.085894
0.091483 0.082947 0.085495
0.100691 0.085069 0.085096
0.123756 0.087674 0.085231
0.149593 0.090376 0.085473
0.175430 0.093078 0.085716
0.201267 0.095779 0.085958
0.227104 0.098481 0.086201
0.256763 0.100219 0.086634
0.288332 0.101475 0.087163
0.319902 0.102732 0.087692
0.351472 0.103988 0.088221
0.383041 0.105244 0.088750
0.415275 0.105960 0.089528
0.448173 0.106136 0.090554
0.481070 0.106311 0.091580
0.513968 0.106486 0.092606
0.546866 0.106662 0.093632
0.578622 0.106633 0.094928
0.608097 0.106197 0.096762
0.637572 0.105761 0.098596
0.667047 0.105325 0.100430
0.696522 0.104889 0.102265
0.724851 0.104411 0.104276
0.747454 0.103723 0.107176
0.770057 0.103036 0.110076
0.792661 0.102348 0.112976
0.815264 0.101660 0.115876
0.837867 0.100973 0.118776
0.062452 0.084950 0.099193
0.069199 0.087685 0.097778
0.075946 0.090421 0.096363
0.082692 0.093156 0.094948
0.089439 0.095891 0.093533
0.096185 0.098626 0.092118
0.119374 0.101822 0.091246
0.145852 0.105109 0.090482
0.172329 0.108396 0.089718
0.198806 0.111683 0.088954
0.225283 0.114970 0.088190
0.255491 0.116910 0.087660
0.287564 0.118175 0.087247
0.319637 0.119441 0.086834
0.351710 0.120706 0.086421
0.383782 0.121972 0.086008
0.416355 0.122477 0.085957
0.449426 0.122222 0.086270
0.482498 0.121968 0.086582
0.515569 0.121713 0.086895
0.548640 0.121458 0.087207
0.580479 0.120927 0.087869
0.609854 0.119841 0.089227
0.639228 0.118756 0.090586
0.668602 0.117670 0.091944
0.697976 0.116585 0.093303
0.726188 0.115451 0.094858
0.748590 0.114077 0.097402
0.770992 0.112704 0.099945
0.793394 0.111330 0.102488
0.815796 0.109956 0.105031
0.838198 0.108582 0.107574
0.070251 0.095443 0.111292
0.074537 0.098791 0.108862
0.078823 0.102139 0.106432
0.083108 0.105487 0.104001
0.087394 0.108836 0.101571
0.091680 0.112184 0.099141
0.114992 0.115969 0.097261
0.142110 0.119842 0.095490
0.169228 0.123714 0.093720
0.196345 0.127587 0.091950
0.223463 0.131460 0.090180
0.254220 0.133600 0.088686
0.286796 0.134875 0.087331
0.319371 0.136149 0.085976
0.351947 0.137424 0.084620
0.384523 0.138699 0.083265
0.417434 0.138994 0.082386
0.450679 0.138309 0.081985
0.483925 0.137624 0.081584
0.517170 0.136940 0.081183
0.550415 0.136255 0.080783
0.582337 0.135221 0.080809
0.611610 0.133486 0.081692
0.640884 0.131750 0.082575
0.670157 0.130015 0.083458
0.699431 0.128280 0.084341
0.727525 0.126491 0.085441
0.749726 0.124431 0.087627
0.771927 0.122372 0.089813
0.794127 0.120312 0.092000
0.816328 0.118252 0.094186
0.838528 0.116192 0.096372
0.079743 0.107787 0.125164
0.083405 0.111153 0.122687
0.087068 0.114520 0.120209
0.090730 0.117886 0.117732
0.094392 0.121253 0.115254
0.098054 0.124619 0.112777
0.118734 0.128749 0.110374
0.142818 0.133032 0.107986
0.166902 0.137315 0.105599
0.190985 0.141598 0.103211
0.215069 0.145880 0.100823
0.244773 0.148809 0.099090
0.277288 0.151061 0.097685
0.309803 0.153313 0.096279
0.342318 0.155565 0.094873
0.374833 0.157817 0.093467
0.407895 0.158797 0.092383
0.441505 0.158506 0.091619
0.475115 0.158215 0.090855
0.508725 0.157924 0.090091
0.542334 0.157632 0.089327
0.574656 0.156831 0.088941
0.604400 0.155011 0.089310
0.634145 0.153191 0.089679
0.663889 0.151370 0.090048
0.693634 0.149550 0.090417
0.722195 0.147626 0.090986
0.744834 0.145185 0.092556
0.767474 0.142744 0.094127
0.790114 0.140303 0.095697
0.812754 0.137862 0.097268
0.835393 0.135421 0.098838
0.089574 0.120501 0.139391
0.092980 0.123767 0.137060
0.096386 0.127033 0.134729
0.099793 0.130298 0.132397
0.103199 0.133564 0.130066
0.106605 0.136830 0.127735
0.124101 0.141256 0.124907
0.144416 0.145914 0.121980
0.164730 0.150572 0.119052
0.185045 0.155230 0.116125
0.205360 0.159887 0.113198
0.233692 0.163722 0.111370
0.266033 0.167145 0.110092
0.298374 0.170568 0.108815
0.330715 0.173991 0.107537
0.363057 0.177413 0.106259
0.396233 0.179258 0.105092
0.430246 0.179525 0.104036
0.464258 0.179792 0.102979
0.498270 0.180059 0.101922
0.532282 0.180325 0.100866
0.565067 0.179906 0.100111
0.595397 0.178113 0.099958
0.625727 0.176320 0.099806
0.656057 0.174527 0.099653
0.686387 0.172734 0.099501
0.715530 0.170779 0.099524
0.738737 0.168018 0.100427
0.761944 0.165257 0.101329
0.785151 0.162496 0.102232
0.808358 0.159735 0.103135
0.831565 0.156973 0.104037
0.099405 0.133215 0.153618
0.102555 0.136380 0.151433
0.105705 0.139546 0.149248
0.108855 0.142711 0.147063
0.112005 0.145876 0.144878
0.115155 0.149041 0.142693
0.129468 0.153763 0.139440
0.146014 0.158796 0.135973
0.162559 0.163829 0.132506
0.179105 0.168862 0.129039
0.195651 0.173894 0.125572
0.222611 0.178635 0.123650
0.254778 0.183228 0.122500
0.286945 0.187822 0.121350
0.319113 0.192416 0.120201
0.351280 0.197010 0.119051
0.384571 0.199719 0.117802
0.418986 0.200544 0.116453
0.453401 0.201369 0.115103
0.487815 0.202194 0.113754
0.522230 0.203019 0.112405
0.555478 0.202980 0.111280
0.586394 0.201214 0.110606
0.617310 0.199449 0.109933
0.648225 0.197683 0.109259
0.679141 0.195918 0.108585
0.708866 0.193933 0.108062
0.732640 0.190852 0.108297
0.756414 0.187770 0.108532
0.780188 0.184689 0.108767
0.803962 0.181607 0.109001
0.827736 0.178526 0.109236
0.109236 0.145929 0.167844
0.112130 0.148994 0.165806
0.115024 0.152058 0.163767
0.117918 0.155123 0.161729
0.120812 0.158188 0.159690
0.123705 0.161252 0.157652
0.134835 0.166270 0.153973
0.147612 0.171678 0.149966
0.160388 0.177086 0.145960
0.173165 0.182494 0.141953
0.185942 0.187902 0.137946
0.211530 0.193547 0.135929
0.243523 0.199312 0.134908
0.275517 0.205077 0.133886
0.307510 0.210842 0.132865
0.339504 0.216606 0.131843
0.372909 0.220180 0.130511
0.407726 0.221563 0.128869
0.442543 0.222946 0.127227
0.477361 0.224329 0.125585
0.512178 0.225712 0.123943
0.545890 0.226054 0.122450
0.577391 0.224316 0.121255
0.608892 0.222578 0.120059
0.640393 0.220840 0.118864
0.671894 0.219102 0.117669
0.702202 0.217086 0.116600
0.726543 0.213685 0.116167
0.750884 0.210283 0.115734
0.775225 0.206882 0.115301
0.799567 0.203480 0.114868
0.823908 0.200079 0.114435
0.119067 0.158644 0.182071
0.121705 0.161607 0.180179
0.124343 0.164571 0.178287
0.126980 0.167535 0.176395
0.129618 0.170499 0.174503
0.132256 0.173463 0.172610
0.140202 0.178776 0.168506
0.149209 0.184559 0.163960
0.158217 0.190343 0.159413
0.167225 0.196126 0.154867
0.176233 0.201909 0.150320
0.200448 0.208460 0.148209
0.232268 0.215396 0.147316
0.264088 0.222331 0.146422
0.295907 0.229267 0.145529
0.327727 0.236203 0.144635
0.361247 0.240641 0.143221
0.396467 0.242582 0.141286
0.431686 0.244523 0.139351
0.466906 0.246464 0.137417
0.502126 0.248405 0.135482
0.536301 0.249128 0.133620
0.568388 0.247418 0.131903
0.600474 0.245707 0.130186
0.632561 0.243996 0.128469
0.664647 0.242286 0.126753
0.695537 0.240240 0.125139
0.720446 0.236518 0.124038
0.745354 0.232797 0.122937
0.770263 0.229075 0.121836
0.795171 0.225353 0.120735
0.820080 0.221631 0.119634
0.131136 0.173689 0.197968
0.133560 0.176467 0.196240
0.135984 0.179245 0.194513
0.138408 0.182023 0.192785
0.140832 0.184801 0.191058
0.143257 0.187579 0.189330
0.149724 0.192757 0.185287
0.156999 0.198415 0.180780
0.164275 0.204073 0.176273
0.171551 0.209731 0.171766
0.178826 0.215389 0.167259
0.200308 0.221948 0.164929
0.228892 0.228957 0.163688
0.257477 0.235966 0.162447
0.286061 0.242974 0.161206
0.314646 0.249983 0.159965
0.346377 0.255045 0.158679
0.381255 0.258160 0.157348
0.416133 0.261275 0.156017
0.451011 0.264390 0.154686
0.485890 0.267505 0.153355
0.520002 0.269252 0.151888
0.552582 0.268264 0.150150
0.585163 0.267276 0.148412
0.617744 0.266288 0.146674
0.650324 0.265300 0.144936
0.681771 0.263908 0.143219
0.707552 0.260494 0.141609
0.733332 0.257080 0.139999
0.759113 0.253667 0.138389
0.784893 0.250253 0.136779
0.810674 0.246839 0.135169
0.144322 0.189901 0.214699
0.146554 0.192450 0.213146
0.148787 0.195000 0.211592
0.151019 0.197549 0.210038
0.153251 0.200098 0.208485
0.155483 0.202647 0.206931
0.161323 0.207475 0.203191
0.167886 0.212758 0.199013
0.174448 0.218041 0.194836
0.181010 0.223324 0.190658
0.187572 0.228606 0.186481
0.205638 0.234723 0.183870
0.229456 0.241256 0.182044
0.253275 0.247789 0.180217
0.277093 0.254322 0.178391
0.300911 0.260856 0.176564
0.329903 0.266421 0.175511
0.364067 0.271018 0.175232
0.398232 0.275614 0.174953
0.432397 0.280211 0.174674
0.466561 0.284808 0.174395
0.500347 0.287900 0.173706
0.533376 0.287982 0.172197
0.566405 0.288065 0.170687
0.599434 0.288147 0.169178
0.632463 0.288229 0.167668
0.664454 0.287833 0.166071
0.691259 0.285041 0.164031
0.718064 0.282249 0.161991
0.744869 0.279458 0.159951
0.771675 0.276666 0.157911
0.798480 0.273875 0.155871
0.157509 0.206113 0.231431
0.159549 0.208433 0.230051
0.161589 0.210754 0.228671
0.163629 0.213074 0.227291
0.165669 0.215395 0.225912
0.167709 0.217716 0.224532
0.172923 0.222192 0.221095
0.178772 0.227100 0.217247
0.184620 0.232008 0.213398
0.190469 0.236916 0.209550
0.196317 0.241824 0.205702
0.210968 0.247498 0.202811
0.230021 0.253556 0.200399
0.249073 0.259613 0.197987
0.268125 0.265671 0.195575
0.287177 0.271728 0.193163
0.313429 0.277796 0.192344
0.346880 0.283875 0.193117
0.380331 0.289954 0.193890
0.413782 0.296033 0.194663
0.447233 0.302112 0.195436
0.480693 0.306548 0.195524
0.514170 0.307701 0.194243
0.547647 0.308854 0.192963
0.581124 0.310006 0.191682
0.614601 0.311159 0.190401
0.647137 0.311758 0.188922
0.674967 0.309588 0.186452
0.702796 0.307419 0.183982
0.730626 0.305249 0.181512
0.758456 0.303079 0.179042
0.786285 0.300910 0.176573
0.170696 0.222325 0.248163
0.172544 0.224416 0.246957
0.174392 0.226508 0.245751
0.176240 0.228600 0.244545
0.178088 0.230692 0.243339
0.179935 0.232784 0.242133
0.184523 0.236910 0.238999
0.189658 0.241443 0.235480
0.194793 0.245975 0.231961
0.199928 0.250508 0.228442
0.205063 0.255041 0.224923
0.216299 0.260273 0.221752
0.230585 0.265855 0.218755
0.244871 0.271437 0.215757
0.259157 0.277019 0.212760
0.273443 0.282600 0.209762
0.296955 0.289172 0.209176
0.329692 0.296733 0.211001
0.362430 0.304293 0.212826
0.395168 0.311854 0.214651
0.427905 0.319415 0.216476
0.461039 0.325196 0.217342
0.494964 0.327419 0.216290
0.528889 0.329642 0.215238
0.562814 0.331865 0.214186
0.596740 0.334088 0.213134
0.629820 0.335683 0.211774
0.658674 0.334135 0.208874
0.687528 0.332588 0.205974
0.716383 0.331040 0.203074
0.745237 0.329493 0.200174
0.774091 0.327945 0.197274
0.183883 0.238536 0.264894
0.185539 0.240400 0.263862
0.187194 0.242263 0.262830
0.188850 0.244126 0.261798
0.190506 0.245989 0.260765
0.192162 0.247852 0.259733
0.196122 0.251627 0.256903
0.200544 0.255785 0.253714
0.204965 0.259943 0.250524
0.209387 0.264101 0.247334
0.213808 0.268258 0.244145
0.221629 0.273048 0.240693
0.231149 0.278154 0.237110
0.240669 0.283261 0.233527
0.250189 0.288367 0.229944
0.259709 0.293473 0.226361
0.280481 0.300547 0.226008
0.312505 0.309590 0.228885
0.344529 0.318633 0.231762
0.376553 0.327676 0.234639
0.408577 0.336718 0.237516
0.441384 0.343845 0.239160
0.475758 0.347138 0.238337
0.510131 0.350431 0.237513
0.544505 0.353724 0.236690
0.578878 0.357018 0.235867
0.612503 0.359608 0.234626
0.642382 0.358682 0.231296
0.672260 0.357757 0.227966
0.702139 0.356831 0.224636
0.732018 0.355906 0.221306
0.761897 0.354981 0.217976
0.199197 0.256237 0.282359
0.200692 0.257890 0.281473
0.202188 0.259542 0.280587
0.203684 0.261195 0.279701
0.205179 0.262848 0.278815
0.206675 0.264501 0.277929
0.210129 0.267905 0.275398
0.213974 0.271661 0.272538
0.217819 0.275416 0.269678
0.221664 0.279171 0.266817
0.225509 0.282926 0.263957
0.231278 0.287268 0.260545
0.238008 0.291903 0.256857
0.244737 0.296538 0.253169
0.251467 0.301173 0.249480
0.258197 0.305808 0.245792
0.276065 0.312656 0.245398
0.305070 0.321717 0.248298
0.334075 0.330778 0.251198
0.363080 0.339839 0.254098
0.392085 0.348900 0.256998
0.422813 0.356490 0.258968
0.456985 0.361137 0.259077
0.491158 0.365785 0.259187
0.525330 0.370432 0.259297
0.559502 0.375079 0.259407
0.593101 0.378971 0.258950
0.623830 0.379088 0.255661
0.654560 0.379206 0.252373
0.685289 0.379323 0.249084
0.716019 0.379441 0.245795
0.746749 0.379558 0.242507
0.216637 0.275426 0.300555
0.218005 0.276887 0.299788
0.219372 0.278348 0.299022
0.220740 0.279808 0.298255
0.222108 0.281269 0.297488
0.223475 0.282730 0.296721
0.226542 0.285744 0.294484
0.229948 0.289069 0.291953
0.233354 0.292395 0.289422
0.236760 0.295720 0.286891
0.240166 0.299045 0.284360
0.245245 0.302933 0.281308
0.251161 0.307101 0.277995
0.257077 0.311269 0.274682
0.262992 0.315438 0.271368
0.268908 0.319606 0.268055
0.283706 0.325498 0.267346
0.307387 0.333114 0.269239
0.331068 0.340730 0.271133
0.354750 0.348345 0.273027
0.378431 0.355961 0.274920
0.405325 0.363133 0.276765
0.438647 0.369418 0.278512
0.471968 0.375702 0.280260
0.505290 0.381987 0.282007
0.538611 0.388272 0.283754
0.571614 0.393773 0.284747
0.603020 0.395354 0.281971
0.634427 0.396935 0.279195
0.665833 0.398516 0.276418
0.697240 0.400097 0.273642
0.728646 0.401678 0.270865
0.234078 0.294616 0.318752
0.235317 0.295884 0.318104
0.236557 0.297153 0.317456
0.237796 0.298421 0.316808
0.239036 0.299690 0.316160
0.240276 0.300958 0.315512
0.242955 0.303583 0.313570
0.245922 0.306478 0.311368
0.248889 0.309373 0.309166
0.251856 0.312269 0.306965
0.254823 0.315164 0.304763
0.259213 0.318597 0.302071
0.264314 0.322299 0.299133
0.269416 0.326001 0.296195
0.274517 0.329703 0.293257
0.279619 0.333404 0.290319
0.291348 0.338341 0.289293
0.309705 0.344511 0.290181
0.328062 0.350681 0.291068
0.346419 0.356852 0.291955
0.364776 0.363022 0.292843
0.387837 0.369776 0.294562
0.420308 0.377698 0.297947
0.452779 0.385620 0.301332
0.485250 0.393543 0.304717
0.517720 0.401465 0.308101
0.550126 0.408574 0.310545
0.582210 0.411619 0.308281
0.614293 0.414663 0.306016
0.646377 0.417708 0.303752
0.678460 0.420753 0.301488
0.710544 0.423798 0.299224
0.251518 0.313805 0.336949
0.252630 0.314882 0.336420
0.253741 0.315958 0.335891
0.254853 0.317034 0.335362
0.255964 0.318111 0.334833
0.257076 0.319187 0.334304
0.259368 0.321421 0.332655
0.261895 0.323887 0.330783
0.264423 0.326352 0.328911
0.266951 0.328817 0.327039
0.269479 0.331283 0.325166
0.273180 0.334261 0.322833
0.277467 0.337497 0.320271
0.281755 0.340732 0.317708
0.286042 0.343967 0.315145
0.290329 0.347203 0.312582
0.298990 0.351183 0.311241
0.312022 0.355908 0.311122
0.325055 0.360633 0.311003
0.338088 0.365358 0.310884
0.351121 0.370083 0.310765
0.370349 0.376419 0.312360
0.401969 0.385979 0.317382
0.433589 0.395538 0.322404
0.465209 0.405098 0.327427
0.496829 0.414658 0.332449
0.528639 0.423375 0.336342
0.561400 0.427884 0.334590
0.594160 0.432392 0.332838
0.626921 0.436901 0.331086
0.659681 0.441409 0.329335
0.692442 0.445918 0.327583
0.268959 0.332995 0.355146
0.269942 0.333879 0.354736
0.270926 0.334763 0.354326
0.271909 0.335648 0.353916
0.272893 0.336532 0.353505
0.273876 0.337416 0.353095
0.275781 0.339260 0.351741
0.277869 0.341295 0.350198
0.279958 0.343331 0.348655
0.282047 0.345366 0.347112
0.284136 0.347401 0.345569
0.287147 0.349926 0.343596
0.290621 0.352695 0.341408
0.294094 0.355463 0.339221
0.297567 0.358232 0.337033
0.301040 0.361001 0.334845
0.306631 0.364025 0.333188
0.314340 0.367305 0.332063
0.322049 0.370584 0.330938
0.329757 0.373864 0.329813
0.337466 0.377143 0.328687
0.352861 0.383062 0.330157
0.383631 0.394259 0.336817
0.414400 0.405456 0.343477
0.445169 0.416653 0.350136
0.475938 0.427851 0.356796
0.507152 0.438177 0.362139
0.540590 0.444149 0.360900
0.574027 0.450121 0.359660
0.607464 0.456093 0.358421
0.640902 0.462065 0.357181
0.674339 0.468037 0.355942
0.287928 0.352546 0.373374
0.288814 0.353275 0.373062
0.289700 0.354004 0.372749
0.290585 0.354733 0.372437
0.291471 0.355462 0.372124
0.292357 0.356190 0.371812
0.293933 0.357690 0.370712
0.295646 0.359345 0.369456
0.297360 0.360999 0.368200
0.299074 0.362653 0.366944
0.300788 0.364307 0.365687
0.303223 0.366414 0.364042
0.306019 0.368747 0.362201
0.308815 0.371079 0.360361
0.311612 0.373412 0.358521
0.314408 0.375745 0.356681
0.317787 0.378017 0.354905
0.321748 0.380230 0.353194
0.325709 0.382442 0.351484
0.329670 0.384654 0.349773
0.333631 0.386867 0.348062
0.345720 0.392184 0.349333
0.374065 0.403710 0.356566
0.402410 0.415236 0.363799
0.430755 0.426763 0.371032
0.459100 0.438289 0.378265
0.488332 0.449138 0.384246
0.522002 0.456598 0.383970
0.555671 0.464058 0.383694
0.589340 0.471519 0.383419
0.623009 0.478979 0.383143
0.656678 0.486439 0.382867
0.309953 0.372823 0.391666
0.310802 0.373469 0.391408
0.311652 0.374116 0.391150
0.312501 0.374762 0.390893
0.313350 0.375409 0.390635
0.314199 0.376055 0.390377
0.315563 0.377305 0.389455
0.317030 0.378676 0.388400
0.318497 0.380046 0.387345
0.319963 0.381417 0.386290
0.321430 0.382788 0.385235
0.323515 0.384550 0.383852
0.325908 0.386507 0.382304
0.328302 0.388465 0.380756
0.330696 0.390423 0.379209
0.333090 0.392380 0.377661
0.335970 0.394310 0.376160
0.339336 0.396211 0.374706
0.342703 0.398112 0.373251
0.346069 0.400014 0.371797
0.349436 0.401915 0.370342
0.359271 0.406262 0.371265
0.382045 0.415502 0.376943
0.404819 0.424741 0.382621
0.427593 0.433981 0.388299
0.450367 0.443220 0.393977
0.474847 0.452419 0.398973
0.507857 0.461416 0.400563
0.540868 0.470413 0.402154
0.573878 0.479410 0.403744
0.606889 0.488407 0.405334
0.639899 0.497404 0.406924
0.331978 0.393099 0.409957
0.332791 0.393663 0.409754
0.333604 0.394228 0.409552
0.334416 0.394792 0.409349
0.335229 0.395356 0.409146
0.336042 0.395920 0.408943
0.337194 0.396920 0.408198
0.338413 0.398007 0.407344
0.339633 0.399094 0.406490
0.340853 0.400181 0.405636
0.342072 0.401268 0.404783
0.343806 0.402686 0.403661
0.345798 0.404268 0.402407
0.347789 0.405851 0.401152
0.349780 0.407433 0.399897
0.351771 0.409016 0.398642
0.354153 0.410603 0.397416
0.356925 0.412193 0.396217
0.359697 0.413783 0.395019
0.362468 0.415373 0.393821
0.365240 0.416963 0.392622
0.372822 0.420341 0.393197
0.390025 0.427294 0.397320
0.407228 0.434246 0.401443
0.424431 0.441198 0.405566
0.441633 0.448151 0.409688
0.461361 0.455700 0.413700
0.493713 0.466234 0.417156
0.526065 0.476768 0.420613
0.558417 0.487302 0.424069
0.590768 0.497836 0.427526
0.623120 0.508370 0.430982
0.354004 0.413376 0.428248
0.354780 0.413858 0.428101
0.355556 0.414339 0.427953
0.356332 0.414821 0.427805
0.357108 0.415303 0.427657
0.357884 0.415785 0.427509
0.358824 0.416535 0.426941
0.359797 0.417338 0.426288
0.360769 0.418142 0.425635
0.361742 0.418945 0.424983
0.362715 0.419749 0.424330
0.364098 0.420822 0.423471
0.365687 0.422029 0.422509
0.367276 0.423237 0.421547
0.368864 0.424444 0.420585
0.370453 0.425652 0.419623
0.372336 0.426895 0.418671
0.374513 0.428174 0.417729
0.376690 0.429453 0.416787
0.378868 0.430733 0.415844
0.381045 0.432012 0.414902
0.386374 0.434420 0.415130
0.398005 0.439085 0.417697
0.409637 0.443751 0.420265
0.421269 0.448416 0.422832
0.432900 0.453082 0.425400
0.447875 0.458981 0.428427
0.479569 0.471052 0.433749
0.511262 0.483123 0.439072
0.542955 0.495194 0.444394
0.574648 0.507264 0.449717
0.606341 0.519335 0.455040
0.376029 0.433652 0.446540
0.376768 0.434052 0.446447
0.377508 0.434451 0.446354
0.378247 0.434851 0.446261
0.378987 0.435250 0.446168
0.379726 0.435650 0.446075
0.380454 0.436150 0.445683
0.381180 0.436669 0.445232
0.381906 0.437189 0.444781
0.382632 0.437709 0.444329
0.383357 0.438229 0.443878
0.384390 0.438957 0.443281
0.385576 0.439790 0.442612
0.386762 0.440622 0.441943
0.387949 0.441455 0.441273
0.389135 0.442287 0.440604
0.390519 0.443188 0.439926
0.392102 0.444156 0.439240
0.393684 0.445124 0.438554
0.395267 0.446092 0.437868
0.396850 0.447060 0.437182
0.399925 0.448499 0.437062
0.405985 0.450877 0.438074
0.412046 0.453255 0.439087
0.418106 0.455634 0.440099
0.424167 0.458012 0.441112
0.434390 0.462262 0.443153
0.465424 0.475870 0.450342
0.496459 0.489478 0.457531
0.527493 0.503085 0.464720
0.558528 0.516693 0.471908
0.589562 0.530301 0.479097
0.398818 0.453551 0.464674
0.399523 0.453885 0.464625
0.400227 0.454219 0.464576
0.400932 0.454552 0.464527
0.401636 0.454886 0.464479
0.402340 0.455220 0.464430
0.402873 0.455507 0.464189
0.403372 0.455785 0.463910
0.403870 0.456062 0.463631
0.404369 0.456340 0.463352
0.404867 0.456617 0.463073
0.405580 0.457043 0.462704
0.406398 0.457543 0.462289
0.407217 0.458043 0.461874
0.408036 0.458543 0.461459
0.408854 0.459043 0.461045
0.409791 0.459637 0.460609
0.410844 0.460325 0.460154
0.411898 0.461012 0.459698
0.412951 0.461700 0.459242
0.414005 0.462388 0.458786
0.415165 0.463000 0.458392
0.416539 0.463462 0.458122
0.417913 0.463924 0.457852
0.419286 0.464386 0.457582
0.420660 0.464848 0.457313
0.426724 0.467635 0.458499
0.456238 0.482048 0.466965
0.485753 0.496460 0.475432
0.515267 0.510873 0.483898
0.544782 0.525286 0.492365
0.574296 0.539698 0.500831
0.425428 0.471559 0.482020
0.426105 0.471911 0.481962
0.426782 0.472263 0.481904
0.427459 0.472615 0.481846
0.428136 0.472967 0.481788
0.428813 0.473320 0.481730
0.429235 0.473579 0.481511
0.429605 0.473820 0.481259
0.429976 0.474061 0.481008
0.430346 0.474302 0.480756
0.430717 0.474543 0.480505
0.431258 0.474877 0.480187
0.431885 0.475258 0.479836
0.432511 0.475639 0.479486
0.433138 0.476020 0.479135
0.433764 0.476402 0.478784
0.434504 0.476872 0.478431
0.435356 0.477432 0.478076
0.436208 0.477991 0.477721
0.437061 0.478551 0.477365
0.437913 0.479110 0.477010
0.438851 0.479616 0.476711
