Assets/1__3DArt/KimSe/artstation_asset/LUTs_subway_asset/CUBE/Underground 01_S.cube
# LUT by SparkleStock. Enhanced with VOXCOLOR algorithms.
LUT_3D_SIZE 5
DOMAIN_MIN 0.000000 0.000000 0.000000
DOMAIN_MAX 0.903226 0.903226 0.903226
0.046886 0.058608 0.042979
0.187380 0.067675 0.072102
0.372390 0.082343 0.094679
0.577392 0.103368 0.115066
0.761401 0.131522 0.137697
0.119556 0.139517 0.131553
0.171306 0.162542 0.116106
0.351485 0.193603 0.106214
0.572677 0.211156 0.103130
0.760277 0.218205 0.109191
0.210682 0.235890 0.232148
0.227060 0.252734 0.220351
0.291452 0.286713 0.200478
0.481952 0.338903 0.210964
0.691505 0.366534 0.214448
0.328213 0.355619 0.351373
0.334284 0.361360 0.348018
0.348496 0.374329 0.338515
0.379616 0.393528 0.331555
0.565894 0.474258 0.381175
0.469195 0.488432 0.485171
0.471312 0.489301 0.484828
0.473458 0.490756 0.483657
0.477374 0.493097 0.482166
0.511861 0.515053 0.496395
0.051030 0.068549 0.148214
0.149014 0.120062 0.154515
0.330824 0.132442 0.202159
0.555134 0.138040 0.246863
0.751774 0.159640 0.283684
0.084818 0.183791 0.197767
0.232660 0.235122 0.242504
0.421177 0.253492 0.252365
0.644125 0.260248 0.263320
0.837213 0.275086 0.279893
0.190746 0.260301 0.258878
0.313519 0.355448 0.331655
0.410619 0.394962 0.318904
0.612995 0.419898 0.309901
0.820256 0.426077 0.302928
0.322818 0.361065 0.359837
0.440944 0.471499 0.455058
0.479459 0.509285 0.450423
0.532113 0.535088 0.420235
0.733426 0.581009 0.427462
0.467541 0.489286 0.487644
0.580034 0.593186 0.588813
0.603368 0.617561 0.600152
0.613500 0.627246 0.584885
0.663975 0.650326 0.576065
0.056355 0.080507 0.268187
0.152229 0.137504 0.270670
0.251675 0.213003 0.266206
0.447435 0.248324 0.339144
0.674205 0.261246 0.406959
0.071072 0.218366 0.338952
0.215794 0.255924 0.379761
0.382494 0.318866 0.388248
0.593992 0.338827 0.425004
0.802043 0.348118 0.462447
0.120462 0.348188 0.375678
0.279732 0.408675 0.434548
0.455139 0.464256 0.466711
0.664291 0.474493 0.473262
0.865907 0.478471 0.482626
0.276966 0.403802 0.405367
0.436671 0.507065 0.502667
0.561796 0.595894 0.568892
0.633286 0.630110 0.543494
0.836960 0.646468 0.530205
0.448144 0.503329 0.502411
0.592896 0.616713 0.614457
0.694089 0.707274 0.697443
0.719783 0.733881 0.689837
0.780266 0.755737 0.662780
0.063201 0.094285 0.405806
0.163782 0.137334 0.417598
0.282255 0.249639 0.396675
0.349067 0.345915 0.370722
0.547951 0.404909 0.475759
0.076161 0.227693 0.475333
0.203412 0.256708 0.529158
0.376923 0.345211 0.528725
0.499923 0.453249 0.510958
0.697158 0.486710 0.581954
0.103198 0.409561 0.568564
0.241884 0.434186 0.603776
0.442861 0.479766 0.621664
0.615129 0.564196 0.619751
0.814494 0.568657 0.655765
0.155170 0.535729 0.562754
0.324767 0.590462 0.613792
0.519915 0.647911 0.662766
0.698028 0.693423 0.699285
0.879235 0.692328 0.697599
0.369164 0.563526 0.567753
0.542224 0.649883 0.652473
0.689928 0.735638 0.734523
0.801075 0.813390 0.804382
0.857776 0.828033 0.779382
0.073181 0.110268 0.553878
0.166751 0.137164 0.567823
0.311020 0.238800 0.565125
0.433263 0.390427 0.524908
0.502659 0.490175 0.515816
0.083713 0.232094 0.602922
0.196253 0.257218 0.676715
0.369557 0.334292 0.680824
0.539146 0.484007 0.652068
0.634880 0.596781 0.639425
0.110797 0.414703 0.702897
0.232231 0.431133 0.743776
0.425420 0.476152 0.762934
0.621290 0.579882 0.756713
0.746572 0.687209 0.744647
0.149232 0.608341 0.776403
0.290443 0.631023 0.805389
0.477346 0.658756 0.818484
0.685533 0.703511 0.832438
0.834614 0.778469 0.828650
0.239723 0.695084 0.742982
0.415213 0.744641 0.787906
0.598988 0.795652 0.830208
0.764482 0.843725 0.869696
0.892460 0.881482 0.893184
