Assets/1__3DArt/KimSe/artstation_asset/LUTs_subway_asset/CUBE/Underground 04.cube
# LUT by SparkleStock. Enhanced with VOXCOLOR algorithms.
LUT_3D_SIZE 8
DOMAIN_MIN 0.000000 0.000000 0.000000
DOMAIN_MAX 0.903226 0.903226 0.903226
0.011722 0.003907 0.003907
0.074489 0.009012 0.013171
0.170200 0.017464 0.022837
0.291764 0.028792 0.032037
0.430013 0.042144 0.040191
0.564622 0.055000 0.047186
0.672449 0.065020 0.054023
0.753823 0.073040 0.061034
0.041971 0.042097 0.048525
0.057462 0.043835 0.051495
0.137102 0.058563 0.054763
0.260813 0.076111 0.054901
0.408924 0.089409 0.050357
0.554804 0.097727 0.044911
0.670119 0.101502 0.041747
0.755530 0.102856 0.041147
0.083067 0.093544 0.107606
0.084769 0.094819 0.108947
0.119993 0.103377 0.110630
0.208415 0.123716 0.112108
0.354179 0.154286 0.111027
0.515268 0.170404 0.095421
0.647888 0.175347 0.078401
0.746922 0.173374 0.064211
0.139265 0.161007 0.182646
0.140784 0.162586 0.183976
0.143106 0.164520 0.185836
0.183700 0.179488 0.189629
0.286413 0.213241 0.194069
0.452138 0.252181 0.186256
0.603867 0.270116 0.161561
0.722771 0.273441 0.134063
0.213896 0.245988 0.273607
0.215012 0.247294 0.274534
0.216867 0.249070 0.276199
0.219048 0.250991 0.277892
0.238474 0.260653 0.281278
0.378383 0.324969 0.299226
0.540720 0.368098 0.281736
0.680818 0.389167 0.248903
0.313340 0.350160 0.377967
0.314310 0.351318 0.378747
0.315500 0.352429 0.379748
0.316987 0.353717 0.380868
0.321099 0.356353 0.382223
0.341572 0.366513 0.384949
0.476928 0.434281 0.402733
0.624948 0.489167 0.393472
0.430903 0.462523 0.482642
0.431970 0.464023 0.483886
0.432653 0.464699 0.484314
0.433363 0.465169 0.484535
0.434283 0.465856 0.484911
0.434850 0.466747 0.485100
0.481142 0.492840 0.493415
0.582714 0.544987 0.502302
0.551373 0.571098 0.578676
0.553221 0.573592 0.580664
0.553781 0.574320 0.580639
0.553837 0.574167 0.579910
0.553958 0.573892 0.579428
0.554288 0.574252 0.579458
0.554292 0.575298 0.579504
0.598216 0.603708 0.589278
0.011154 0.008823 0.064028
0.049478 0.036322 0.054264
0.136297 0.051720 0.073205
0.260313 0.061133 0.099800
0.408113 0.068960 0.119626
0.553553 0.075522 0.132915
0.669283 0.080590 0.143728
0.755439 0.085194 0.154728
0.025450 0.076286 0.098839
0.089700 0.104045 0.118476
0.193438 0.116904 0.129873
0.324370 0.122943 0.135478
0.469226 0.127797 0.137507
0.604406 0.131068 0.138015
0.709495 0.132460 0.139809
0.787699 0.133354 0.143646
0.068839 0.122483 0.139404
0.144343 0.168494 0.185402
0.207029 0.184642 0.200063
0.302236 0.193228 0.197355
0.449900 0.206828 0.187334
0.594333 0.209113 0.169877
0.707812 0.204475 0.154076
0.791859 0.197025 0.142510
0.132465 0.174930 0.197405
0.213423 0.240746 0.261691
0.238711 0.261422 0.281680
0.282616 0.269666 0.278981
0.391251 0.286437 0.268317
0.545918 0.302591 0.245510
0.676292 0.301293 0.214357
0.775337 0.290801 0.185010
0.210938 0.251861 0.279217
0.296947 0.327800 0.350835
0.323148 0.350939 0.372424
0.324500 0.352266 0.373447
0.342907 0.358457 0.373322
0.482864 0.399407 0.364801
0.626263 0.417209 0.331045
0.743975 0.416752 0.289226
0.312432 0.353105 0.380065
0.398295 0.428784 0.449157
0.423830 0.451306 0.469627
0.424488 0.451923 0.469992
0.427482 0.453185 0.470045
0.447209 0.459129 0.468739
0.570012 0.505045 0.465026
0.698001 0.535491 0.437978
0.431312 0.464493 0.484033
0.509623 0.532846 0.545165
0.532622 0.553110 0.563180
0.532746 0.553385 0.563191
0.532697 0.553378 0.562847
0.532386 0.553244 0.562460
0.574270 0.571049 0.562601
0.661123 0.605770 0.557562
0.553111 0.573513 0.581030
0.618237 0.630243 0.631617
0.637411 0.647536 0.646790
0.637435 0.648045 0.646839
0.637146 0.647771 0.646152
0.636904 0.647352 0.645635
0.636447 0.647190 0.645294
0.673244 0.667230 0.648599
0.012730 0.016818 0.147316
0.053463 0.050227 0.136149
0.109479 0.082598 0.131246
0.205751 0.108663 0.149211
0.351645 0.124883 0.193449
0.512064 0.129817 0.222777
0.645029 0.129587 0.243685
0.745322 0.128080 0.261593
0.021231 0.102773 0.194092
0.101214 0.131478 0.215995
0.187685 0.164545 0.212845
0.301661 0.187221 0.215425
0.449837 0.191771 0.238875
0.594037 0.188881 0.251149
0.707514 0.183102 0.259283
0.792113 0.177580 0.267015
0.048140 0.176558 0.227927
0.145477 0.219942 0.272154
0.233502 0.251821 0.285346
0.345277 0.268532 0.286143
0.494116 0.269569 0.286451
0.632051 0.263123 0.279598
0.737593 0.253520 0.273041
0.815554 0.243957 0.269299
0.104187 0.234294 0.262607
0.210730 0.300254 0.325477
0.291238 0.337889 0.358440
0.374453 0.353659 0.366822
0.481296 0.355104 0.356477
0.621948 0.356238 0.335269
0.732944 0.346569 0.311274
0.815808 0.332591 0.290608
0.193176 0.282025 0.310998
0.308788 0.368234 0.391341
0.385506 0.420738 0.438762
0.420898 0.443272 0.458555
0.437667 0.445439 0.455591
0.572136 0.462730 0.431227
0.696649 0.460169 0.392027
0.794840 0.444928 0.350961
0.301488 0.367900 0.394855
0.416713 0.458873 0.477195
0.487977 0.514408 0.527162
0.518720 0.537990 0.548212
0.520420 0.537555 0.547004
0.538521 0.539152 0.542739
0.648392 0.564059 0.523147
0.758338 0.573180 0.485498
0.425158 0.471400 0.490425
0.529358 0.556061 0.565761
0.591463 0.607510 0.612060
0.617234 0.629234 0.631700
0.616345 0.628441 0.630720
0.615052 0.627312 0.629507
0.652191 0.636952 0.622982
0.726190 0.656001 0.607556
0.550546 0.576576 0.583371
0.636259 0.648259 0.647440
0.686691 0.692019 0.687459
0.707372 0.710745 0.704806
0.706709 0.710426 0.704203
0.705836 0.709462 0.703078
0.704793 0.708435 0.702190
0.735504 0.721163 0.700052
0.016369 0.029627 0.249281
0.068616 0.060937 0.244396
0.109986 0.108093 0.219545
0.173383 0.154714 0.213214
0.282023 0.189176 0.247286
0.447602 0.207697 0.302095
0.599417 0.209478 0.340025
0.719483 0.204554 0.369228
0.023871 0.124144 0.306499
0.105122 0.146927 0.328848
0.178473 0.196579 0.314802
0.268462 0.244117 0.304668
0.390935 0.269914 0.323256
0.545848 0.272661 0.357715
0.676126 0.263680 0.378546
0.775849 0.251513 0.393783
0.037718 0.230139 0.349392
0.132466 0.256646 0.379654
0.237264 0.295858 0.386821
0.353550 0.330718 0.384137
0.481943 0.348685 0.383215
0.623059 0.342312 0.398000
0.734038 0.329475 0.405438
0.817163 0.315903 0.411088
0.076870 0.312486 0.375637
0.181859 0.354032 0.414139
0.303276 0.393158 0.445168
0.420129 0.421248 0.457616
0.525244 0.432545 0.448751
0.659205 0.424667 0.442640
0.761736 0.410251 0.433193
0.837888 0.394626 0.425306
0.153807 0.356231 0.391094
0.272066 0.420227 0.448299
0.389011 0.479817 0.499549
0.473419 0.517074 0.530110
0.523567 0.524145 0.531525
0.647454 0.521002 0.507627
0.753580 0.507058 0.477603
0.835058 0.487459 0.449449
0.272853 0.407832 0.436371
0.394917 0.484675 0.504355
0.502909 0.554912 0.566397
0.574731 0.600143 0.606061
0.602324 0.612110 0.615696
0.617983 0.609627 0.610463
0.714696 0.616056 0.583218
0.808370 0.608937 0.544080
0.405712 0.491746 0.510539
0.516969 0.568164 0.577751
0.610000 0.636462 0.638970
0.669090 0.680652 0.678906
0.688125 0.693606 0.690532
0.685864 0.691391 0.688362
0.718074 0.693402 0.677581
0.780861 0.699094 0.656191
0.539021 0.585425 0.591147
0.630269 0.653389 0.651910
0.704724 0.713079 0.706904
0.751085 0.751888 0.743279
0.765511 0.764251 0.755005
0.763950 0.762752 0.753385
0.762265 0.761029 0.751848
0.787877 0.767368 0.745487
0.022017 0.048533 0.364252
0.082479 0.075946 0.365826
0.143870 0.128005 0.346137
0.190664 0.189052 0.313347
0.231069 0.247008 0.288401
0.373558 0.294675 0.360938
0.536132 0.311955 0.420211
0.676619 0.312132 0.465949
0.029427 0.143160 0.416255
0.110607 0.165275 0.444581
0.199455 0.213287 0.437855
0.274689 0.278513 0.409935
0.338040 0.347023 0.384032
0.482583 0.374326 0.438500
0.626565 0.374367 0.479022
0.744624 0.361764 0.508258
0.045814 0.266500 0.480112
0.134000 0.284623 0.506830
0.244162 0.315501 0.510845
0.346418 0.368238 0.493433
0.432753 0.435877 0.467646
0.573801 0.445067 0.501640
0.699389 0.433170 0.524877
0.797803 0.413734 0.540592
0.067183 0.385747 0.522443
0.163494 0.407176 0.543448
0.286121 0.428863 0.556600
0.407894 0.465707 0.554982
0.516618 0.515904 0.540804
0.648539 0.512060 0.551764
0.756106 0.495281 0.559132
0.837689 0.475728 0.564282
0.102569 0.471949 0.526006
0.216022 0.507063 0.553608
0.341045 0.539467 0.576437
0.468867 0.568940 0.594912
0.591906 0.591335 0.606869
0.700735 0.581978 0.596611
0.792119 0.567741 0.589011
0.862175 0.553069 0.583935
0.223481 0.482823 0.516980
0.350881 0.538022 0.563124
0.469759 0.589847 0.606183
0.577169 0.637702 0.645770
0.664003 0.676050 0.677291
0.684804 0.673119 0.673912
0.769975 0.665661 0.649646
0.849321 0.649043 0.619797
0.367385 0.534121 0.553739
0.488312 0.596240 0.606920
0.591353 0.653600 0.657069
0.677633 0.705789 0.703492
0.742114 0.747468 0.741003
0.746095 0.747052 0.740400
0.774464 0.743051 0.729252
0.827458 0.738499 0.707443
0.513614 0.605567 0.610376
0.614413 0.665555 0.663730
0.696213 0.719897 0.713495
0.762148 0.768622 0.759207
0.810316 0.807373 0.796199
0.812913 0.808572 0.797390
0.811376 0.806739 0.795694
0.832775 0.807559 0.786600
0.030147 0.075379 0.480712
0.094854 0.098255 0.485798
0.172205 0.147953 0.475221
0.244722 0.217173 0.449335
0.300203 0.295053 0.413685
0.334819 0.350477 0.396499
0.473315 0.404667 0.464115
0.621310 0.432281 0.531864
0.037850 0.164737 0.520713
0.118062 0.189114 0.553458
0.215169 0.232494 0.554262
0.311603 0.298140 0.533756
0.392835 0.381291 0.503395
0.442423 0.445474 0.484004
0.571091 0.481895 0.536459
0.699311 0.490517 0.587610
0.056706 0.288614 0.581692
0.140156 0.306326 0.609962
0.251184 0.334362 0.617291
0.367282 0.385016 0.605902
0.469215 0.460277 0.580862
0.533605 0.527763 0.559189
0.652133 0.547691 0.596661
0.762415 0.541584 0.632756
0.084795 0.423352 0.640513
0.171215 0.436758 0.657283
0.287566 0.452875 0.666273
0.414091 0.484063 0.663329
0.532012 0.536443 0.647122
0.610759 0.600405 0.623643
0.718902 0.606247 0.646228
0.812968 0.590487 0.668565
0.120255 0.544645 0.676734
0.217796 0.562813 0.691702
0.332319 0.578747 0.699852
0.458257 0.594414 0.703116
0.585123 0.615325 0.700752
0.675156 0.666550 0.679370
0.772597 0.661654 0.687354
0.852346 0.641956 0.696634
0.161836 0.604698 0.660536
0.280690 0.635020 0.680787
0.404058 0.662923 0.698639
0.525637 0.688492 0.714130
0.637984 0.711589 0.726385
0.721463 0.730486 0.729446
0.807103 0.719867 0.724636
0.876391 0.703675 0.719237
0.300690 0.618941 0.644261
0.426858 0.660999 0.676516
0.541421 0.700203 0.707816
0.642664 0.736491 0.737554
0.728305 0.768934 0.764502
0.788430 0.791536 0.783371
0.821009 0.788050 0.781574
0.865580 0.779475 0.769086
0.461483 0.650673 0.656451
0.575167 0.697350 0.696509
0.669501 0.740637 0.735266
0.746537 0.780661 0.772206
0.807638 0.816817 0.806184
0.848626 0.844197 0.831974
0.852806 0.846079 0.833902
0.870714 0.842700 0.824689
0.039537 0.108370 0.583150
0.106049 0.126586 0.588578
0.194156 0.171038 0.584977
0.287376 0.239475 0.569116
0.369917 0.325783 0.540601
0.414730 0.407993 0.507242
0.475033 0.466382 0.516176
0.579576 0.514782 0.562792
0.047532 0.191360 0.612735
0.127264 0.217972 0.646539
0.227746 0.255868 0.651746
0.337086 0.315929 0.638721
0.441076 0.401045 0.615664
0.504525 0.489879 0.585670
0.569225 0.546874 0.590287
0.662390 0.583355 0.626322
0.068599 0.308629 0.663953
0.149392 0.328672 0.693372
0.259124 0.355828 0.703655
0.381135 0.402128 0.698091
0.498311 0.473494 0.680139
0.578112 0.561411 0.653556
0.646644 0.614751 0.653608
0.730261 0.640634 0.679835
0.102332 0.442970 0.721224
0.182527 0.454772 0.737602
0.293674 0.471334 0.747003
0.420032 0.500318 0.746575
0.545264 0.548210 0.734837
0.638433 0.625949 0.712063
0.710218 0.673181 0.707522
0.785950 0.689991 0.724551
0.146327 0.576058 0.769154
0.231989 0.586897 0.780076
0.336899 0.597030 0.783718
0.457695 0.609341 0.783166
0.585933 0.630206 0.779082
0.688233 0.686744 0.761972
0.762499 0.725147 0.753226
0.831790 0.734660 0.761562
0.190786 0.671386 0.779692
0.291529 0.688240 0.790855
0.400857 0.702746 0.797938
0.514367 0.716008 0.801877
0.627203 0.729587 0.803254
0.728974 0.748092 0.801050
0.803727 0.773543 0.790117
0.867741 0.778587 0.790443
0.263584 0.707954 0.758320
0.380643 0.733711 0.774996
0.494148 0.757033 0.790383
0.600863 0.778323 0.804407
0.697971 0.797838 0.816957
0.780020 0.815022 0.827350
0.833538 0.827713 0.826660
0.885145 0.827111 0.823904
0.391640 0.727166 0.740069
0.509738 0.759157 0.764458
0.613770 0.788767 0.788449
0.703560 0.816223 0.811745
0.779157 0.841609 0.833958
0.838206 0.864020 0.853787
0.872900 0.874500 0.862908
0.902888 0.874766 0.862830
0.050100 0.145866 0.668447
0.116899 0.159320 0.672868
0.211051 0.197306 0.673588
0.318718 0.260679 0.666280
0.425254 0.347279 0.648410
0.501817 0.446681 0.620325
0.536847 0.519589 0.596749
0.593577 0.578534 0.607482
0.057834 0.222191 0.690628
0.138178 0.250522 0.724106
0.239107 0.282955 0.731644
0.354989 0.335064 0.724280
0.475910 0.415054 0.709644
0.568625 0.513922 0.685493
0.614673 0.591176 0.663366
0.670437 0.647194 0.670629
0.080505 0.330163 0.731609
0.160857 0.353496 0.762164
0.268741 0.380316 0.774678
0.391899 0.421287 0.773456
0.517553 0.484073 0.762143
0.622089 0.574946 0.741995
0.677926 0.652398 0.721276
0.733554 0.704185 0.725145
0.118681 0.457171 0.781434
0.195674 0.470406 0.799236
0.303272 0.489459 0.810506
0.427334 0.517383 0.813216
0.554470 0.559019 0.806415
0.665275 0.633167 0.790575
0.729399 0.705933 0.771442
0.785577 0.752082 0.772050
0.171090 0.589724 0.830045
0.248813 0.598062 0.840468
0.346913 0.607547 0.843899
0.462899 0.621010 0.844129
0.589899 0.643167 0.842575
0.700947 0.691822 0.831671
0.771600 0.754318 0.814635
0.828790 0.793216 0.812232
0.231460 0.702244 0.859355
0.316908 0.711862 0.867295
0.412713 0.720051 0.870218
0.516413 0.728364 0.869799
0.624855 0.738666 0.867336
0.730913 0.755904 0.863071
0.805537 0.800172 0.849757
0.863615 0.829065 0.845111
0.280533 0.767688 0.852831
0.381299 0.782327 0.861348
0.483403 0.794924 0.867659
0.584003 0.806215 0.872207
0.680515 0.816872 0.875380
0.768527 0.827674 0.877293
0.837194 0.847890 0.874865
0.892037 0.862858 0.872027
0.364791 0.796674 0.828549
0.475841 0.817004 0.842174
0.578121 0.835232 0.855009
0.670398 0.851753 0.867069
0.751737 0.866841 0.878264
0.819131 0.880162 0.887823
0.874362 0.892031 0.895876
0.915869 0.900162 0.897909
