Assets/1__3DArt/KimSe/artstation_asset/LUTs_subway_asset/CUBE/Underground 04_S.cube
# LUT by SparkleStock. Enhanced with VOXCOLOR algorithms.
LUT_3D_SIZE 8
DOMAIN_MIN 0.000000 0.000000 0.000000
DOMAIN_MAX 0.903226 0.903226 0.903226
0.011722 0.003907 0.003907
0.075056 0.009012 0.012982
0.171066 0.017063 0.022325
0.292741 0.027823 0.031226
0.430966 0.040679 0.039237
0.565387 0.053535 0.046422
0.672709 0.064028 0.053763
0.753823 0.072614 0.061034
0.041971 0.042097 0.048525
0.067835 0.052910 0.044573
0.153850 0.070920 0.043274
0.278610 0.088816 0.042088
0.422471 0.101544 0.039652
0.563039 0.108252 0.038054
0.675044 0.109304 0.038200
0.757854 0.106919 0.039860
0.082934 0.093812 0.107338
0.094966 0.105253 0.100416
0.145420 0.125425 0.091334
0.243209 0.151303 0.085141
0.386121 0.177977 0.083404
0.536050 0.189528 0.075823
0.659669 0.188932 0.067597
0.752070 0.180315 0.060104
0.138469 0.161731 0.181685
0.146709 0.170916 0.176239
0.166845 0.188252 0.164745
0.224071 0.214472 0.155586
0.332746 0.247889 0.153389
0.486103 0.277529 0.152626
0.623334 0.286860 0.141450
0.730988 0.281561 0.125856
0.211753 0.247328 0.271393
0.216827 0.253237 0.267886
0.229068 0.265199 0.259874
0.248214 0.281048 0.248649
0.286633 0.303067 0.239275
0.421218 0.354607 0.256150
0.566801 0.385945 0.252960
0.691889 0.396917 0.235881
0.309685 0.352444 0.373674
0.313003 0.355719 0.372362
0.319755 0.362039 0.367997
0.330106 0.370826 0.361505
0.345784 0.381831 0.354271
0.377326 0.396486 0.350362
0.502808 0.452414 0.373836
0.636989 0.495831 0.376973
0.426051 0.465280 0.477215
0.428710 0.467506 0.477733
0.432280 0.470290 0.475871
0.437202 0.473874 0.472699
0.443676 0.478271 0.469039
0.451458 0.482754 0.465203
0.497072 0.504805 0.473686
0.591750 0.549960 0.488075
0.548253 0.572799 0.575273
0.550870 0.575403 0.577151
0.552510 0.576629 0.576550
0.553956 0.577227 0.574915
0.555769 0.577820 0.573312
0.558105 0.578979 0.572055
0.560008 0.579629 0.570550
0.601467 0.604204 0.580884
0.011154 0.008823 0.064028
0.053119 0.034272 0.056856
0.143415 0.046702 0.076389
0.268749 0.053742 0.102343
0.414823 0.060835 0.121020
0.557733 0.068568 0.133620
0.671471 0.075890 0.143938
0.756207 0.083122 0.154728
0.025450 0.076286 0.098839
0.091475 0.101552 0.110482
0.191408 0.114998 0.120233
0.316352 0.122752 0.127364
0.456291 0.129065 0.131657
0.592883 0.133370 0.134115
0.704600 0.134821 0.136443
0.789776 0.134760 0.139715
0.068705 0.122647 0.139344
0.141415 0.167049 0.172073
0.211579 0.189644 0.173312
0.309883 0.203708 0.164889
0.449242 0.217005 0.160605
0.589955 0.220524 0.152911
0.707718 0.215682 0.144804
0.798628 0.205488 0.137225
0.131852 0.175466 0.197005
0.206425 0.240596 0.247197
0.246323 0.270771 0.245329
0.304907 0.288116 0.226526
0.414696 0.306870 0.214398
0.559875 0.320168 0.204891
0.687685 0.317352 0.189319
0.789179 0.303277 0.171093
0.209362 0.252993 0.278041
0.288687 0.328432 0.338147
0.320772 0.358770 0.340170
0.340475 0.371811 0.317658
0.382919 0.388663 0.296873
0.515261 0.419726 0.294253
0.650724 0.431995 0.279186
0.765861 0.426950 0.254987
0.309344 0.355036 0.377540
0.390765 0.430220 0.439389
0.418083 0.456975 0.446452
0.427009 0.464880 0.429409
0.444218 0.474614 0.410524
0.481336 0.486469 0.393918
0.601023 0.522025 0.396166
0.725074 0.543650 0.383288
0.426904 0.466872 0.480496
0.503399 0.534605 0.538055
0.526960 0.556852 0.548833
0.530416 0.560859 0.538711
0.536932 0.565625 0.526110
0.548288 0.570915 0.512222
0.595674 0.587046 0.506277
0.684670 0.616175 0.503075
0.550211 0.574995 0.578725
0.615000 0.631325 0.628182
0.634329 0.649252 0.640665
0.635248 0.651166 0.636463
0.636873 0.652866 0.630018
0.640413 0.655011 0.622180
0.646074 0.657368 0.613687
0.686742 0.675710 0.612820
0.012730 0.016818 0.147316
0.056652 0.048202 0.138826
0.118589 0.076670 0.137141
0.219399 0.098367 0.156179
0.365598 0.111360 0.198172
0.521248 0.118014 0.225208
0.649800 0.121887 0.244584
0.746937 0.124828 0.261748
0.021231 0.102669 0.193885
0.100740 0.126210 0.208121
0.188902 0.151468 0.206762
0.300938 0.169089 0.211334
0.441682 0.174481 0.231964
0.584329 0.176012 0.243966
0.703312 0.174975 0.252165
0.795205 0.172836 0.259736
0.048079 0.176558 0.227806
0.141566 0.214373 0.259990
0.231038 0.239964 0.262321
0.339145 0.253617 0.257633
0.475721 0.256910 0.259794
0.612736 0.255345 0.258207
0.729450 0.249585 0.255729
0.822074 0.241327 0.253900
0.103718 0.234684 0.262457
0.203774 0.296419 0.312707
0.283837 0.330742 0.324535
0.367760 0.346720 0.315590
0.473064 0.352348 0.300368
0.609543 0.354706 0.289722
0.730356 0.347756 0.277133
0.829213 0.334409 0.264381
0.191753 0.283109 0.310430
0.299624 0.367132 0.379753
0.370226 0.418072 0.406361
0.414334 0.443811 0.398082
0.455204 0.453744 0.367727
0.582685 0.466499 0.352364
0.709610 0.465167 0.332196
0.818652 0.451511 0.308193
0.298449 0.369844 0.393464
0.408256 0.459444 0.468490
0.473530 0.514187 0.503501
0.505786 0.540509 0.502324
0.520906 0.547288 0.473617
0.559938 0.555143 0.445369
0.674100 0.573226 0.431816
0.791208 0.578405 0.409975
0.420834 0.473803 0.488196
0.522582 0.557414 0.559770
0.581277 0.608414 0.597776
0.606571 0.631945 0.603747
0.611067 0.635953 0.583657
0.623566 0.640889 0.559619
0.671784 0.651385 0.540569
0.757353 0.667365 0.524269
0.547710 0.578072 0.581852
0.632824 0.649206 0.644675
0.682094 0.692830 0.681618
0.702173 0.712582 0.692877
0.702527 0.714863 0.682457
0.706221 0.717775 0.667569
0.714799 0.721496 0.650836
0.755886 0.734509 0.639539
0.016369 0.029627 0.249281
0.070208 0.059791 0.246110
0.117351 0.103601 0.225491
0.187202 0.145397 0.222170
0.299685 0.174933 0.255615
0.461043 0.193455 0.306471
0.606605 0.200018 0.341812
0.721884 0.200589 0.369649
0.023871 0.123894 0.306182
0.104891 0.142740 0.322298
0.184992 0.180313 0.311250
0.279447 0.216416 0.303889
0.398703 0.237645 0.319380
0.547191 0.244745 0.349094
0.677408 0.244089 0.368926
0.780539 0.239445 0.384637
0.037631 0.229863 0.349077
0.131196 0.251134 0.370688
0.234249 0.276815 0.370470
0.346229 0.299157 0.363786
0.467532 0.312222 0.362468
0.604921 0.310857 0.373988
0.725767 0.305353 0.381286
0.824060 0.297686 0.387665
0.076446 0.312539 0.375424
0.178896 0.349338 0.405395
0.290214 0.377132 0.420328
0.398461 0.394909 0.418139
0.501271 0.402116 0.402264
0.631895 0.397151 0.397687
0.749649 0.388392 0.392551
0.848968 0.377211 0.388468
0.152602 0.357027 0.390873
0.266284 0.418288 0.440267
0.371047 0.469715 0.474979
0.451637 0.500264 0.480671
0.511897 0.506008 0.455054
0.630731 0.503032 0.435404
0.749096 0.493767 0.417409
0.853664 0.478906 0.400483
0.269885 0.409695 0.435704
0.387987 0.485012 0.498234
0.486045 0.550649 0.547843
0.551265 0.592654 0.566731
0.582783 0.605642 0.547619
0.619326 0.608040 0.511430
0.726820 0.611482 0.488628
0.838206 0.605424 0.464521
0.401455 0.494203 0.509220
0.510692 0.569541 0.573533
0.598292 0.635490 0.627717
0.652627 0.678481 0.654579
0.671658 0.693100 0.645784
0.682237 0.696196 0.614266
0.729298 0.700976 0.585508
0.811914 0.706441 0.561071
0.536231 0.586985 0.590196
0.626895 0.654400 0.649967
0.699514 0.713293 0.702382
0.743752 0.752089 0.732948
0.757057 0.766082 0.734139
0.759142 0.769029 0.714145
0.768936 0.773228 0.690274
0.810219 0.781535 0.670773
0.022017 0.048533 0.364252
0.082992 0.075586 0.366698
0.147029 0.125929 0.349142
0.198958 0.183952 0.320032
0.245836 0.237867 0.299016
0.388368 0.281728 0.367181
0.544698 0.302532 0.422971
0.679596 0.307988 0.466672
0.029409 0.142800 0.416085
0.110455 0.162488 0.440353
0.201804 0.203070 0.434584
0.283842 0.256542 0.411359
0.356258 0.311850 0.390389
0.494148 0.338001 0.435060
0.633482 0.346394 0.471513
0.750827 0.343519 0.500087
0.045535 0.265889 0.479624
0.133378 0.280586 0.500535
0.241679 0.302650 0.499002
0.346514 0.338659 0.481243
0.440200 0.384692 0.460039
0.572352 0.393962 0.483161
0.699568 0.391359 0.502594
0.806843 0.382081 0.518219
0.066679 0.385213 0.521932
0.162355 0.402951 0.537102
0.279366 0.416115 0.539813
0.396332 0.435773 0.530150
0.503375 0.462759 0.513164
0.627482 0.458924 0.515914
0.745441 0.449140 0.520252
0.847675 0.437081 0.525092
0.101815 0.471992 0.525899
0.213919 0.503761 0.548311
0.332883 0.528214 0.561301
0.448594 0.544416 0.564949
0.555645 0.550904 0.559324
0.661650 0.540744 0.542316
0.771302 0.529068 0.532793
0.872063 0.517874 0.527850
0.220983 0.484152 0.516775
0.345948 0.537740 0.559094
0.458533 0.585239 0.594053
0.554310 0.625237 0.620046
0.628229 0.653782 0.631003
0.663911 0.651092 0.594877
0.763566 0.642888 0.570581
0.868764 0.630338 0.550463
0.363448 0.536356 0.553061
0.482738 0.597408 0.604147
0.581994 0.652607 0.649468
0.661026 0.700971 0.687221
0.716932 0.738114 0.710093
0.728303 0.740072 0.679709
0.772296 0.739241 0.647041
0.850799 0.736628 0.619870
0.510961 0.607086 0.609836
0.611123 0.666535 0.662453
0.691538 0.720121 0.710368
0.754607 0.767658 0.752520
0.798903 0.805399 0.782536
0.802090 0.810185 0.765105
0.811455 0.814058 0.737855
0.851432 0.818038 0.713614
0.030147 0.075379 0.480712
0.094927 0.098042 0.486085
0.173345 0.147103 0.476433
0.247973 0.215067 0.452154
0.306506 0.290992 0.418605
0.344531 0.343928 0.402901
0.480272 0.398567 0.467399
0.624288 0.429015 0.532696
0.037685 0.164523 0.520689
0.118003 0.187639 0.551511
0.215749 0.227214 0.552456
0.314480 0.286613 0.533815
0.400138 0.361608 0.506389
0.454938 0.417911 0.488834
0.580180 0.456287 0.535244
0.705797 0.471530 0.582948
0.056342 0.288088 0.581392
0.139728 0.303998 0.606784
0.249404 0.327293 0.610989
0.365603 0.368641 0.598847
0.470754 0.429840 0.576470
0.540752 0.482874 0.557165
0.658620 0.503618 0.586823
0.772273 0.504651 0.618442
0.084170 0.422512 0.639886
0.170337 0.433985 0.653606
0.283771 0.445375 0.657015
0.406911 0.466720 0.649384
0.523165 0.502987 0.631752
0.606138 0.545806 0.610686
0.718347 0.550037 0.624614
0.824524 0.540048 0.641566
0.119270 0.543706 0.675962
0.216425 0.560116 0.688129
0.327949 0.571474 0.690863
0.447095 0.579113 0.685911
0.564742 0.587039 0.674236
0.655166 0.613037 0.652747
0.761627 0.604125 0.651870
0.862933 0.588001 0.655342
0.160277 0.604753 0.660399
0.278339 0.633689 0.678420
0.398513 0.657838 0.691480
0.513505 0.676687 0.699308
0.616037 0.689629 0.700744
0.690643 0.693861 0.688693
0.786560 0.678922 0.674874
0.883199 0.663624 0.665368
0.297521 0.620340 0.643895
0.422864 0.661425 0.674857
0.535200 0.698733 0.703189
0.631970 0.731561 0.727816
0.710556 0.758655 0.746715
0.761909 0.774277 0.751209
0.805141 0.770525 0.727261
0.875891 0.762676 0.704675
0.459159 0.651862 0.656131
0.572376 0.698086 0.695707
0.665736 0.740822 0.733290
0.740805 0.779842 0.768015
0.798639 0.814381 0.798141
0.834938 0.839895 0.816028
0.845639 0.845105 0.795832
0.880853 0.844988 0.772398
0.039537 0.108370 0.583150
0.106049 0.126519 0.588645
0.194527 0.170722 0.585388
0.288440 0.238696 0.570045
0.372014 0.324297 0.542229
0.418601 0.405458 0.510229
0.478702 0.463683 0.518262
0.581547 0.513217 0.563643
0.047465 0.191171 0.612857
0.127249 0.217215 0.645916
0.227732 0.253500 0.651090
0.337617 0.310840 0.638654
0.443174 0.392137 0.616757
0.509823 0.476117 0.588686
0.574547 0.531947 0.591554
0.666957 0.570671 0.625573
0.068292 0.308117 0.664102
0.149145 0.327373 0.692362
0.258085 0.352450 0.701352
0.379593 0.394504 0.695348
0.497563 0.458951 0.678408
0.580943 0.537268 0.654125
0.650837 0.586598 0.652011
0.737498 0.613248 0.675222
0.101585 0.442080 0.721157
0.181835 0.453095 0.736252
0.291735 0.467568 0.743421
0.416206 0.491947 0.741010
0.539972 0.531601 0.728574
0.635652 0.595038 0.707859
0.710519 0.634412 0.700990
0.794786 0.649190 0.714001
0.144973 0.574909 0.768668
0.230689 0.585073 0.778372
0.334564 0.593229 0.779814
0.452316 0.601733 0.775870
0.575905 0.615552 0.767893
0.677640 0.655071 0.751146
0.756326 0.681773 0.739886
0.840151 0.686209 0.743371
0.188932 0.670817 0.779353
0.289719 0.686858 0.789453
0.397840 0.699525 0.794493
0.508409 0.709374 0.795155
0.616215 0.717296 0.791873
0.710273 0.725738 0.783469
0.788867 0.738030 0.768905
0.871934 0.735770 0.763862
0.260985 0.708233 0.758096
0.377808 0.733442 0.774152
0.490327 0.755615 0.788104
0.594836 0.774762 0.799643
0.688004 0.790749 0.808337
0.762919 0.801995 0.812266
0.817340 0.807350 0.801113
0.887022 0.802022 0.790219
0.389920 0.727569 0.739968
0.507792 0.759333 0.764131
0.611331 0.788488 0.787474
0.700057 0.815097 0.809562
0.773701 0.839074 0.829805
0.829094 0.859064 0.846117
0.863396 0.867984 0.845173
0.904934 0.868173 0.835685
0.050100 0.145866 0.668447
0.116899 0.159320 0.672868
0.211129 0.197228 0.673666
0.318905 0.260491 0.666422
0.425579 0.346968 0.648606
0.502471 0.446150 0.620961
0.538014 0.518931 0.597549
0.594400 0.578122 0.607976
0.057834 0.222081 0.691055
0.137994 0.250120 0.724301
0.238853 0.282001 0.731746
0.354778 0.333241 0.724457
0.475896 0.412014 0.710081
0.569257 0.509327 0.686393
0.616417 0.585289 0.664719
0.672494 0.641572 0.671382
0.080068 0.329641 0.732462
0.160504 0.352596 0.762615
0.268076 0.378745 0.774804
0.390839 0.418347 0.773468
0.516339 0.478786 0.762344
0.621613 0.566155 0.742770
0.679161 0.640103 0.722767
0.736957 0.690747 0.725522
0.117603 0.456179 0.782366
0.194969 0.469122 0.799706
0.302234 0.487552 0.810491
0.425497 0.513993 0.812775
0.551764 0.552775 0.805755
0.662917 0.621585 0.790457
0.729087 0.687954 0.772273
0.789909 0.730682 0.771213
0.169359 0.588438 0.830577
0.247512 0.596645 0.840591
0.345578 0.605582 0.843519
0.460661 0.617828 0.843005
0.585950 0.637537 0.840562
0.696251 0.680010 0.829744
0.768766 0.733127 0.813723
0.833136 0.766114 0.809182
0.229241 0.701257 0.859539
0.315142 0.710573 0.867070
0.410886 0.718269 0.869535
0.513875 0.725557 0.868372
0.620786 0.733947 0.864732
0.723872 0.747505 0.858853
0.799140 0.781194 0.845705
0.866115 0.802987 0.838499
0.278207 0.767289 0.852876
0.379167 0.781689 0.861177
0.481143 0.793828 0.867056
0.581134 0.804264 0.870860
0.676341 0.813457 0.872855
0.761589 0.821512 0.872749
0.828024 0.835235 0.868125
0.891164 0.845434 0.861688
0.363432 0.796614 0.828549
0.474511 0.816834 0.842110
0.576696 0.834805 0.854701
0.668642 0.850874 0.866328
0.749281 0.865231 0.876855
0.815209 0.877168 0.885202
0.868244 0.886643 0.891156
0.914888 0.893486 0.889355
