Assets/1__3DArt/KimSe/artstation_asset/LUTs_subway_asset/CUBE/Underground 05.cube
# LUT by SparkleStock. Enhanced with VOXCOLOR algorithms.
LUT_3D_SIZE 8
DOMAIN_MIN 0.000000 0.000000 0.000000
DOMAIN_MAX 0.903226 0.903226 0.903226
0.019536 0.003907 0.011722
0.070393 0.008256 0.018339
0.161156 0.018630 0.021742
0.285840 0.034164 0.023585
0.434936 0.053543 0.025287
0.583536 0.073583 0.028311
0.698421 0.089369 0.033385
0.778605 0.100106 0.040506
0.043925 0.031699 0.044807
0.055847 0.033412 0.047618
0.132663 0.047995 0.047734
0.258567 0.068360 0.044186
0.415878 0.089000 0.037161
0.573845 0.106845 0.030818
0.695292 0.118850 0.027987
0.779337 0.125330 0.028607
0.081973 0.072480 0.088605
0.083058 0.073633 0.090099
0.117109 0.081792 0.090959
0.207617 0.103436 0.090400
0.360883 0.138752 0.086726
0.533194 0.165910 0.072571
0.671622 0.182013 0.058899
0.769407 0.188526 0.048901
0.137855 0.130033 0.146189
0.139367 0.131295 0.147269
0.141420 0.133050 0.149199
0.183473 0.148214 0.152006
0.291039 0.183748 0.154232
0.467363 0.232458 0.147237
0.625458 0.263812 0.128172
0.743879 0.279222 0.108473
0.214731 0.207027 0.219591
0.216225 0.208179 0.220103
0.217935 0.209669 0.221272
0.219948 0.211376 0.223146
0.240576 0.221642 0.227238
0.389419 0.291044 0.242601
0.559309 0.348062 0.231134
0.700442 0.384103 0.209136
0.318902 0.308173 0.311852
0.320250 0.309472 0.311925
0.321399 0.310589 0.312551
0.322497 0.311711 0.313534
0.326274 0.314109 0.315010
0.348510 0.324672 0.318663
0.490833 0.402742 0.340495
0.641492 0.472009 0.342403
0.440246 0.424601 0.416243
0.441813 0.425681 0.416243
0.442594 0.426406 0.416520
0.442950 0.426962 0.416938
0.443187 0.427470 0.417429
0.443590 0.427860 0.418155
0.492360 0.456828 0.428196
0.595019 0.517859 0.447500
0.561030 0.540707 0.524290
0.563049 0.541255 0.524290
0.563659 0.541571 0.524368
0.563532 0.541745 0.524478
0.563208 0.541855 0.524587
0.563050 0.541964 0.524697
0.562668 0.541983 0.524990
0.606167 0.573022 0.540482
0.021048 0.007310 0.062956
0.050389 0.027320 0.050985
0.132700 0.042781 0.059749
0.258823 0.057278 0.073643
0.415823 0.073034 0.082608
0.573351 0.088683 0.090463
0.694481 0.101298 0.100854
0.778629 0.110059 0.114421
0.031971 0.058960 0.089162
0.091275 0.086533 0.103981
0.193458 0.101471 0.108428
0.327147 0.112753 0.107507
0.479019 0.126117 0.105379
0.622458 0.138891 0.105566
0.730281 0.148273 0.109753
0.805585 0.154122 0.117231
0.071068 0.096332 0.117165
0.145087 0.143175 0.157489
0.207490 0.160627 0.168794
0.305541 0.172983 0.163612
0.459830 0.194057 0.151715
0.611574 0.207517 0.137281
0.727106 0.213130 0.126895
0.808109 0.213198 0.121088
0.132513 0.142236 0.159734
0.213909 0.208594 0.219909
0.239230 0.229550 0.239112
0.285083 0.239560 0.236169
0.398924 0.261252 0.224703
0.561197 0.288758 0.205276
0.694349 0.300202 0.181727
0.791028 0.300592 0.160773
0.212682 0.212314 0.225031
0.298946 0.290362 0.296664
0.325080 0.314062 0.318463
0.326650 0.315566 0.320005
0.346664 0.323250 0.320726
0.493864 0.372398 0.313118
0.641399 0.404092 0.287467
0.758137 0.417553 0.256438
0.318609 0.310387 0.313925
0.402574 0.390167 0.388518
0.427600 0.413877 0.410686
0.428226 0.414541 0.411318
0.431304 0.416100 0.411874
0.452803 0.423519 0.411367
0.579722 0.480156 0.413462
0.708130 0.524529 0.397080
0.441100 0.425205 0.416902
0.514444 0.497854 0.487550
0.536287 0.519276 0.508426
0.536560 0.519482 0.508656
0.536320 0.519511 0.508670
0.536043 0.519515 0.508654
0.579521 0.540902 0.510750
0.665937 0.584335 0.514325
0.563226 0.540707 0.524400
0.620453 0.600959 0.585242
0.637825 0.618628 0.603429
0.638221 0.618595 0.603784
0.637787 0.618327 0.603721
0.637081 0.618059 0.603368
0.636466 0.617771 0.602832
0.672271 0.640955 0.610161
0.025373 0.015668 0.138028
0.056525 0.039831 0.123849
0.108106 0.065761 0.110438
0.205369 0.091127 0.115043
0.357507 0.113628 0.143454
0.528526 0.128722 0.165055
0.666164 0.138028 0.186743
0.764165 0.143093 0.210576
0.031435 0.084229 0.179542
0.103896 0.112108 0.194815
0.188290 0.142958 0.183604
0.304421 0.167009 0.177394
0.457733 0.179170 0.192848
0.608463 0.186695 0.204067
0.723429 0.190439 0.216435
0.804551 0.191768 0.231126
0.055878 0.146496 0.203288
0.148866 0.191810 0.240740
0.235342 0.224545 0.248835
0.349023 0.244461 0.245188
0.502945 0.253100 0.241941
0.645680 0.257656 0.238118
0.751399 0.258098 0.238357
0.825557 0.256114 0.242511
0.109571 0.197478 0.224518
0.214417 0.265773 0.283062
0.293477 0.305715 0.314496
0.377540 0.324799 0.321991
0.488435 0.331766 0.310745
0.634081 0.343903 0.293522
0.745599 0.345552 0.277944
0.825193 0.340984 0.266393
0.197064 0.241901 0.257993
0.311826 0.330985 0.338426
0.387413 0.385731 0.387323
0.422349 0.409677 0.408612
0.440413 0.413533 0.406548
0.580677 0.440014 0.384284
0.707173 0.450225 0.353903
0.803370 0.447185 0.323331
0.308687 0.325599 0.330146
0.420843 0.421133 0.419348
0.489627 0.479458 0.474092
0.519110 0.504383 0.497637
0.521087 0.504458 0.496945
0.540649 0.507765 0.493288
0.653091 0.542971 0.480004
0.762557 0.564807 0.452209
0.435659 0.432258 0.424295
0.533082 0.521828 0.511834
0.590868 0.575721 0.564794
0.614740 0.598321 0.587102
0.613943 0.597646 0.586402
0.612869 0.596737 0.585505
0.651039 0.609995 0.580888
0.724089 0.637053 0.572506
0.561330 0.543299 0.527102
0.636687 0.619156 0.604321
0.681239 0.664368 0.650518
0.699680 0.683130 0.669925
0.699231 0.682493 0.669638
0.698124 0.681606 0.668849
0.696927 0.680683 0.667670
0.726608 0.696492 0.668345
0.032037 0.030320 0.234101
0.072533 0.052739 0.225435
0.108790 0.088078 0.192966
0.172268 0.126797 0.174240
0.285038 0.161684 0.192190
0.458984 0.188780 0.236149
0.615030 0.201072 0.275366
0.732930 0.205048 0.313682
0.036965 0.107871 0.289142
0.108164 0.129661 0.304773
0.177541 0.172366 0.282324
0.268500 0.215148 0.262086
0.395437 0.243670 0.270208
0.555336 0.256003 0.301519
0.686602 0.257740 0.327520
0.782613 0.254707 0.352699
0.050019 0.200718 0.325015
0.137427 0.229492 0.349394
0.237888 0.267602 0.350460
0.354370 0.302316 0.341068
0.487319 0.324213 0.333827
0.631192 0.327336 0.350057
0.741344 0.324607 0.364882
0.820314 0.319621 0.380518
0.088282 0.275263 0.340729
0.188733 0.319834 0.375888
0.305796 0.361710 0.404406
0.421365 0.392497 0.414122
0.529339 0.407355 0.402550
0.665829 0.408536 0.399422
0.767361 0.404060 0.398430
0.839800 0.397047 0.400461
0.163504 0.316746 0.343596
0.279090 0.383756 0.400566
0.392671 0.446547 0.453042
0.474360 0.486076 0.484860
0.523750 0.494902 0.486922
0.651475 0.499744 0.464993
0.757915 0.496363 0.443474
0.836828 0.486623 0.425296
0.283178 0.367877 0.376730
0.401097 0.448193 0.450117
0.504311 0.521700 0.517956
0.572524 0.569129 0.561715
0.598826 0.581984 0.572714
0.615415 0.580914 0.567976
0.713818 0.596434 0.546674
0.806820 0.600180 0.516349
0.418312 0.454665 0.448326
0.522046 0.534755 0.526149
0.607935 0.605707 0.595654
0.662201 0.651385 0.640520
0.679698 0.664751 0.653553
0.677718 0.662727 0.651638
0.710629 0.667959 0.642569
0.772622 0.680561 0.626873
0.551421 0.553460 0.537627
0.631705 0.624314 0.610020
0.697025 0.685598 0.672587
0.737844 0.724905 0.712816
0.750908 0.737018 0.725444
0.749426 0.735511 0.724134
0.747578 0.733827 0.722381
0.772449 0.742836 0.717992
0.040403 0.052346 0.346520
0.086973 0.071325 0.344331
0.141707 0.110598 0.314127
0.187961 0.158887 0.269249
0.232423 0.208340 0.233492
0.380389 0.259496 0.292325
0.546589 0.286333 0.352485
0.685239 0.296708 0.409548
0.044526 0.131122 0.398651
0.114066 0.153141 0.420986
0.196261 0.192804 0.405332
0.271008 0.248032 0.367082
0.339386 0.310603 0.331126
0.487243 0.343227 0.379378
0.631564 0.353216 0.424732
0.745552 0.350957 0.465659
0.059820 0.243727 0.459297
0.138818 0.263547 0.481105
0.241192 0.290774 0.478780
0.341681 0.338194 0.453200
0.433333 0.402566 0.418536
0.575931 0.417607 0.450797
0.699906 0.415332 0.481063
0.793686 0.405754 0.508170
0.082763 0.355381 0.495296
0.172294 0.378539 0.513527
0.286910 0.400401 0.523002
0.404666 0.436323 0.516293
0.515522 0.485861 0.496428
0.648507 0.487688 0.507753
0.753909 0.479593 0.522928
0.831287 0.468692 0.538599
0.121407 0.436324 0.489593
0.229939 0.474257 0.516366
0.348425 0.508927 0.537994
0.469736 0.540004 0.555519
0.588148 0.563868 0.567233
0.698751 0.559300 0.557723
0.788788 0.552491 0.557459
0.855685 0.545007 0.561578
0.240075 0.448119 0.467876
0.361832 0.505462 0.516844
0.473991 0.559121 0.563127
0.574799 0.608555 0.606050
0.656530 0.648219 0.640469
0.677244 0.646040 0.637427
0.763199 0.645610 0.618194
0.841750 0.637373 0.595933
0.384463 0.501578 0.499547
0.496507 0.565768 0.560301
0.591059 0.624331 0.616660
0.669888 0.677393 0.668177
0.728881 0.719898 0.709490
0.732524 0.719695 0.709076
0.761284 0.718204 0.699410
0.813908 0.719131 0.682154
0.529355 0.576778 0.562027
0.617836 0.638292 0.624553
0.689547 0.692881 0.680515
0.747615 0.741508 0.730361
0.790485 0.780404 0.769957
0.793005 0.781668 0.771271
0.791359 0.779814 0.769477
0.812444 0.782758 0.761803
0.049100 0.084296 0.463736
0.099182 0.099323 0.465206
0.168108 0.136304 0.444882
0.239049 0.191399 0.405615
0.299283 0.257227 0.355660
0.340839 0.309261 0.328576
0.482230 0.369299 0.396615
0.628247 0.406020 0.476353
0.052930 0.159560 0.504890
0.121223 0.185560 0.532696
0.209801 0.220427 0.526087
0.303381 0.273868 0.495629
0.388280 0.346666 0.453690
0.445252 0.408724 0.426224
0.573962 0.451008 0.482195
0.697417 0.468234 0.545080
0.070523 0.274666 0.564822
0.144078 0.295160 0.589260
0.245473 0.318976 0.591341
0.356765 0.361547 0.572651
0.461185 0.428414 0.538575
0.532837 0.494943 0.510131
0.649529 0.520364 0.552616
0.753951 0.522107 0.599504
0.100431 0.404591 0.621105
0.178522 0.419123 0.635790
0.284690 0.433569 0.641415
0.403946 0.460322 0.633589
0.520844 0.506850 0.611180
0.606293 0.570853 0.581961
0.711752 0.581510 0.609836
0.800195 0.572600 0.641581
0.140630 0.523553 0.653531
0.231064 0.542109 0.667664
0.336162 0.556566 0.674031
0.452399 0.569554 0.674886
0.572222 0.587665 0.669566
0.667145 0.639496 0.643691
0.762052 0.638554 0.656390
0.837456 0.624530 0.673446
0.187724 0.581307 0.630496
0.299995 0.611794 0.651188
0.414362 0.639366 0.668818
0.526394 0.664271 0.683882
0.630486 0.686553 0.695700
0.710309 0.704851 0.697597
0.794429 0.697502 0.696484
0.861676 0.685984 0.697126
0.326404 0.595588 0.605231
0.442390 0.637153 0.641239
0.546383 0.675732 0.675260
0.637926 0.711408 0.707220
0.715771 0.743327 0.736099
0.771347 0.765358 0.755601
0.803167 0.763032 0.755172
0.847212 0.757868 0.746306
0.484231 0.628458 0.617330
0.583557 0.674287 0.663089
0.665870 0.716368 0.705626
0.733531 0.755258 0.745199
0.788059 0.790620 0.781181
0.825570 0.817455 0.808081
0.829370 0.819490 0.810064
0.847277 0.817789 0.802017
0.056536 0.125227 0.567403
0.108302 0.136425 0.569605
0.186997 0.168815 0.558393
0.277188 0.222798 0.531619
0.363301 0.295167 0.490366
0.416884 0.370156 0.446157
0.483274 0.430279 0.451413
0.587691 0.485530 0.508522
0.060683 0.195514 0.598189
0.129017 0.226372 0.627785
0.220196 0.256306 0.627493
0.324747 0.302938 0.607011
0.429938 0.374891 0.574672
0.500769 0.456731 0.536596
0.570049 0.514703 0.539542
0.661068 0.556457 0.584404
0.080667 0.305436 0.649551
0.151843 0.330446 0.675726
0.251572 0.353754 0.681924
0.366951 0.390521 0.670992
0.483367 0.450212 0.646412
0.568903 0.531598 0.613539
0.640834 0.585522 0.613047
0.721320 0.615532 0.646354
0.116401 0.436273 0.706236
0.187856 0.450047 0.720928
0.288392 0.464657 0.727418
0.406027 0.487614 0.723078
0.527377 0.526488 0.706673
0.624498 0.598373 0.678850
0.698764 0.645991 0.674205
0.771276 0.666071 0.696661
0.165367 0.568112 0.753037
0.242697 0.578901 0.763430
0.336966 0.586046 0.765342
0.446915 0.593615 0.762191
0.566766 0.609043 0.754883
0.670607 0.660637 0.733867
0.746549 0.699279 0.724964
0.813250 0.711333 0.737289
0.216511 0.661946 0.761495
0.308614 0.677376 0.772536
0.407121 0.689143 0.778636
0.509531 0.698804 0.781014
0.612798 0.708402 0.780509
0.709661 0.723405 0.776367
0.784779 0.748802 0.764930
0.847279 0.755473 0.768022
0.293680 0.697304 0.736193
0.400234 0.720362 0.753460
0.501786 0.740812 0.768795
0.596946 0.759225 0.782448
0.684373 0.776046 0.794538
0.760105 0.791155 0.804391
0.812064 0.803366 0.802916
0.862527 0.803713 0.802051
0.421731 0.714951 0.715694
0.524880 0.743541 0.741783
0.615204 0.770083 0.766428
0.693642 0.794954 0.789858
0.760937 0.818361 0.812118
0.814970 0.839629 0.832269
0.847734 0.849556 0.841079
0.876907 0.850273 0.841887
0.062594 0.172665 0.653102
0.115360 0.180215 0.654657
0.199816 0.207378 0.650039
0.303227 0.256861 0.635474
0.411552 0.328760 0.609070
0.496409 0.417959 0.572356
0.539785 0.488643 0.543865
0.600188 0.551373 0.560383
0.067339 0.236970 0.675703
0.137678 0.273203 0.705621
0.229474 0.298748 0.709145
0.339274 0.336821 0.696971
0.458809 0.401858 0.676728
0.556631 0.489740 0.647323
0.609258 0.563234 0.622210
0.667134 0.620559 0.634018
0.089834 0.338390 0.717299
0.161717 0.369950 0.744971
0.260280 0.394034 0.754260
0.375976 0.424815 0.749387
0.498074 0.473686 0.734101
0.604748 0.553405 0.710537
0.665505 0.626319 0.687917
0.721997 0.677947 0.695118
0.130618 0.462397 0.767749
0.199423 0.479405 0.783915
0.297088 0.497217 0.792639
0.412137 0.518582 0.792301
0.533362 0.549172 0.782347
0.643914 0.612750 0.763836
0.711423 0.680846 0.743249
0.767620 0.726132 0.746063
0.187990 0.593681 0.816879
0.257336 0.602541 0.826822
0.344742 0.608655 0.828508
0.449860 0.616498 0.826263
0.568038 0.631814 0.821974
0.676949 0.671429 0.808592
0.749525 0.729627 0.790070
0.806328 0.767460 0.788871
0.253867 0.704335 0.846664
0.329692 0.712057 0.854577
0.414128 0.716291 0.856364
0.506459 0.719285 0.854012
0.605174 0.723578 0.849233
0.705945 0.735024 0.843307
0.780772 0.775611 0.827991
0.838422 0.803382 0.823662
0.307639 0.766835 0.840290
0.397331 0.777853 0.848298
0.486950 0.786322 0.853396
0.575576 0.793195 0.856323
0.662176 0.799437 0.857782
0.744034 0.806593 0.858513
0.811104 0.824393 0.854961
0.865319 0.838409 0.852363
0.394218 0.792900 0.815608
0.490584 0.808345 0.828370
0.578551 0.822278 0.839857
0.658556 0.835078 0.850425
0.730818 0.847061 0.860315
0.793028 0.858328 0.869301
0.846191 0.868937 0.877176
0.887113 0.876667 0.879507
