Assets/1__3DArt/KimSe/artstation_asset/LUTs_subway_asset/CUBE/Underground 02_S.cube
# LUT by SparkleStock. Enhanced with VOXCOLOR algorithms.
LUT_3D_SIZE 8
DOMAIN_MIN 0.000000 0.000000 0.000000
DOMAIN_MAX 0.903226 0.903226 0.903226
0.031258 0.042979 0.050794
0.097617 0.044114 0.061381
0.184734 0.047123 0.073709
0.290638 0.051377 0.086912
0.412037 0.056410 0.100240
0.541542 0.062271 0.112907
0.662381 0.068289 0.125889
0.767254 0.074032 0.140470
0.062452 0.084950 0.099193
0.089439 0.095891 0.093533
0.172329 0.108396 0.089718
0.287564 0.118175 0.087247
0.416355 0.122477 0.085957
0.548640 0.121458 0.087207
0.668602 0.117670 0.091944
0.770992 0.112704 0.099945
0.099405 0.133215 0.153618
0.112005 0.145876 0.144878
0.162559 0.163829 0.132506
0.254778 0.183228 0.122500
0.384571 0.199719 0.117802
0.522230 0.203019 0.112405
0.648225 0.197683 0.109259
0.756414 0.187770 0.108532
0.144322 0.189901 0.214699
0.153251 0.200098 0.208485
0.174448 0.218041 0.194836
0.229456 0.241256 0.182044
0.329903 0.266421 0.175511
0.466561 0.284808 0.174395
0.599434 0.288147 0.169178
0.718064 0.282249 0.161991
0.199197 0.256237 0.282359
0.205179 0.262848 0.278815
0.217819 0.275416 0.269678
0.238008 0.291903 0.256857
0.276065 0.312656 0.245398
0.392085 0.348900 0.256998
0.525330 0.370432 0.259297
0.654560 0.379206 0.252373
0.268959 0.332995 0.355146
0.272893 0.336532 0.353505
0.279958 0.343331 0.348655
0.290621 0.352695 0.341408
0.306631 0.364025 0.333188
0.337466 0.377143 0.328687
0.445169 0.416653 0.350136
0.574027 0.450121 0.359660
0.354004 0.413376 0.428248
0.357108 0.415303 0.427657
0.360769 0.418142 0.425635
0.365687 0.422029 0.422509
0.372336 0.426895 0.418671
0.381045 0.432012 0.414902
0.421269 0.448416 0.422832
0.511262 0.483123 0.439072
0.452038 0.489566 0.499366
0.454636 0.491048 0.499098
0.456081 0.492059 0.498384
0.457371 0.492973 0.497384
0.459217 0.494107 0.496253
0.461821 0.495833 0.495235
0.465066 0.497233 0.494714
0.505308 0.516705 0.505651
0.035606 0.050542 0.094655
0.075619 0.075680 0.104071
0.156814 0.081647 0.127359
0.267341 0.079827 0.154442
0.396314 0.078457 0.178218
0.533138 0.079195 0.197617
0.659344 0.082652 0.215747
0.767687 0.088089 0.235396
0.049822 0.111248 0.133833
0.109840 0.138261 0.152272
0.204850 0.147557 0.163817
0.322753 0.149033 0.172261
0.452985 0.149680 0.180441
0.586356 0.149657 0.189331
0.708474 0.149427 0.200593
0.813508 0.149415 0.215258
0.088043 0.154920 0.175097
0.151796 0.196028 0.205051
0.221387 0.217579 0.206312
0.318413 0.229244 0.199166
0.451009 0.237211 0.196840
0.587294 0.237272 0.194851
0.712060 0.231526 0.195476
0.819800 0.222534 0.199294
0.139730 0.200641 0.225055
0.203447 0.255725 0.264899
0.244942 0.286422 0.261948
0.306583 0.305514 0.245182
0.413625 0.321370 0.234478
0.551355 0.329909 0.228915
0.681597 0.326015 0.222012
0.796649 0.314255 0.215359
0.198227 0.261012 0.287225
0.266251 0.321959 0.332701
0.299086 0.351782 0.333339
0.324713 0.369779 0.314595
0.371495 0.389805 0.296938
0.495018 0.414344 0.295903
0.627660 0.424415 0.289699
0.752096 0.422501 0.278476
0.269307 0.335135 0.358110
0.343327 0.395614 0.405375
0.371490 0.420911 0.410588
0.384842 0.433031 0.397164
0.406490 0.447033 0.382193
0.446301 0.461365 0.369363
0.559313 0.490623 0.375755
0.686738 0.511717 0.373912
0.355181 0.414468 0.430163
0.432923 0.472166 0.476664
0.458501 0.492772 0.485636
0.464525 0.499081 0.477997
0.473948 0.506855 0.468579
0.488290 0.515338 0.458049
0.534918 0.530899 0.455559
0.626884 0.558679 0.459104
0.454106 0.490798 0.500244
0.530837 0.545511 0.544486
0.554208 0.562900 0.555698
0.556083 0.565333 0.552514
0.558912 0.568479 0.548041
0.563764 0.572589 0.542325
0.571294 0.577024 0.536335
0.614304 0.594850 0.538597
0.040088 0.059979 0.144811
0.076979 0.089941 0.156477
0.133028 0.113247 0.172995
0.221974 0.126079 0.200697
0.348439 0.127637 0.239974
0.492477 0.126051 0.270254
0.629390 0.125685 0.295949
0.748697 0.127397 0.321785
0.048626 0.129674 0.188971
0.118988 0.156709 0.214944
0.200438 0.179058 0.230685
0.304765 0.190744 0.246522
0.435827 0.190012 0.267871
0.574596 0.187926 0.285577
0.703339 0.186540 0.303417
0.814760 0.186310 0.324095
0.072612 0.189339 0.224889
0.154168 0.228406 0.261362
0.237939 0.256584 0.276479
0.342626 0.271026 0.282702
0.475777 0.272070 0.288703
0.612136 0.269979 0.294130
0.737493 0.266139 0.302198
0.846492 0.261624 0.314290
0.118092 0.237944 0.260958
0.203053 0.293883 0.307203
0.278993 0.332352 0.325554
0.364296 0.354199 0.325580
0.471946 0.362161 0.316821
0.607842 0.365322 0.313592
0.734779 0.361552 0.311847
0.847045 0.353399 0.312927
0.185965 0.280078 0.304641
0.276505 0.349591 0.360882
0.344463 0.399305 0.387413
0.394718 0.431232 0.385729
0.444187 0.449120 0.363685
0.570491 0.463155 0.355724
0.700608 0.465491 0.346903
0.820539 0.458407 0.337337
0.262302 0.344827 0.366884
0.360061 0.417764 0.426487
0.425328 0.469058 0.458600
0.463759 0.499986 0.462201
0.486561 0.514860 0.441849
0.531829 0.529599 0.422306
0.646957 0.549789 0.418244
0.771647 0.560900 0.410528
0.351476 0.419136 0.434692
0.453162 0.490943 0.493805
0.516333 0.539859 0.529498
0.547378 0.566707 0.539032
0.556830 0.576099 0.525038
0.574557 0.587210 0.508211
0.625812 0.601862 0.496880
0.718219 0.623046 0.491392
0.452627 0.493028 0.502034
0.552421 0.562310 0.558732
0.611241 0.608148 0.596357
0.636592 0.631056 0.610865
0.639207 0.635651 0.603549
0.645343 0.642149 0.593038
0.656756 0.649584 0.581165
0.702162 0.665820 0.575886
0.044941 0.070897 0.201103
0.086869 0.097115 0.216307
0.127462 0.136358 0.225804
0.188529 0.170268 0.244359
0.285365 0.187613 0.280201
0.426574 0.193821 0.325264
0.572488 0.193962 0.361361
0.705872 0.192680 0.395019
0.053125 0.143068 0.251215
0.124029 0.165632 0.280565
0.193308 0.200347 0.297446
0.277439 0.229874 0.313275
0.387550 0.243398 0.335830
0.527408 0.244781 0.365459
0.663611 0.243212 0.391571
0.784780 0.241243 0.418911
0.065111 0.221979 0.293259
0.147577 0.249614 0.326112
0.239424 0.280634 0.349009
0.343119 0.304924 0.364126
0.460693 0.316063 0.374897
0.597164 0.314748 0.391298
0.725988 0.312437 0.408303
0.839884 0.310403 0.428933
0.095965 0.285991 0.324531
0.184065 0.325844 0.361605
0.285629 0.362627 0.392277
0.390191 0.389455 0.408108
0.495297 0.402227 0.407562
0.629165 0.401775 0.411979
0.754767 0.399056 0.418628
0.866789 0.395340 0.429471
0.154963 0.325928 0.348041
0.250439 0.381861 0.395871
0.347590 0.436000 0.437188
0.430260 0.475956 0.455333
0.499489 0.495036 0.445159
0.623317 0.499718 0.437555
0.748569 0.498250 0.432643
0.863757 0.492040 0.430586
0.241411 0.370539 0.390207
0.344267 0.434740 0.444563
0.439357 0.498059 0.493863
0.509930 0.545662 0.519690
0.551292 0.570181 0.513190
0.597116 0.583574 0.490029
0.710803 0.595621 0.480895
0.831446 0.599570 0.472681
0.337729 0.433147 0.447147
0.443688 0.499576 0.502925
0.535814 0.564550 0.556320
0.598080 0.612424 0.588552
0.625181 0.635594 0.589394
0.642954 0.647534 0.568278
0.695990 0.660492 0.550994
0.787098 0.675561 0.540368
0.444135 0.500012 0.507802
0.547325 0.566330 0.562638
0.632276 0.630014 0.618083
0.686082 0.675594 0.655330
0.704920 0.695602 0.663590
0.710600 0.703403 0.649721
0.724275 0.712948 0.633083
0.770905 0.727303 0.622151
0.050376 0.082973 0.263067
0.095213 0.104544 0.281454
0.144755 0.148483 0.293967
0.188509 0.199262 0.299618
0.231878 0.244047 0.305893
0.348259 0.270106 0.360068
0.493542 0.279913 0.407930
0.638795 0.280870 0.451256
0.059292 0.153919 0.311752
0.130089 0.175164 0.348251
0.203603 0.211363 0.368401
0.271131 0.257128 0.377016
0.337040 0.303417 0.383480
0.461249 0.319963 0.421936
0.600085 0.324788 0.457889
0.732137 0.323734 0.493436
0.071582 0.243461 0.369579
0.150673 0.264749 0.403705
0.244542 0.291921 0.426251
0.335925 0.328572 0.438560
0.421399 0.370218 0.445763
0.549513 0.377701 0.470839
0.682192 0.377506 0.496384
0.804378 0.374402 0.524139
0.085991 0.330886 0.411364
0.170809 0.357256 0.441216
0.276659 0.382956 0.466252
0.384529 0.413229 0.484145
0.486703 0.445868 0.495045
0.614073 0.447549 0.507566
0.740224 0.444708 0.523050
0.855246 0.441336 0.542483
0.110879 0.398061 0.425131
0.207798 0.436465 0.460479
0.315382 0.472629 0.491842
0.426920 0.504895 0.518113
0.538303 0.529689 0.536755
0.652891 0.531347 0.535812
0.771597 0.529909 0.540605
0.882518 0.528621 0.550447
0.201974 0.419291 0.436871
0.309474 0.470480 0.482073
0.414536 0.521457 0.524557
0.512539 0.570930 0.563158
0.596783 0.613977 0.591120
0.644047 0.625918 0.571702
0.753665 0.630822 0.564067
0.868935 0.630447 0.560553
0.308230 0.462785 0.473829
0.419839 0.520072 0.523321
0.520075 0.577202 0.572043
0.607057 0.633399 0.618912
0.675254 0.683179 0.655873
0.695953 0.696563 0.638545
0.748165 0.706999 0.620133
0.835928 0.716541 0.608544
0.424095 0.516147 0.521486
0.532789 0.576671 0.572437
0.623662 0.635805 0.624792
0.698372 0.693390 0.677350
0.754023 0.744002 0.721720
0.762750 0.755369 0.712461
0.777003 0.766071 0.694322
0.822930 0.777915 0.680307
0.056804 0.096207 0.329993
0.103398 0.113387 0.350284
0.160191 0.155112 0.366980
0.216569 0.213966 0.375619
0.264695 0.279370 0.375382
0.300280 0.321823 0.377449
0.415753 0.357903 0.428580
0.557170 0.376722 0.483000
0.067477 0.164518 0.373410
0.138103 0.185792 0.417364
0.213491 0.219621 0.440588
0.288874 0.270335 0.449850
0.358803 0.334935 0.451301
0.409810 0.381925 0.451248
0.527373 0.410644 0.491603
0.660385 0.423076 0.537191
0.081731 0.255573 0.433743
0.158403 0.275128 0.472931
0.252143 0.300929 0.498649
0.348298 0.340667 0.512465
0.435029 0.395375 0.516640
0.500985 0.443501 0.515601
0.619361 0.462573 0.547083
0.744867 0.467434 0.584547
0.097091 0.355610 0.492945
0.175742 0.375044 0.521768
0.280048 0.396470 0.546301
0.391466 0.425397 0.563544
0.494698 0.464491 0.571760
0.574452 0.509290 0.570914
0.692305 0.518707 0.594216
0.811327 0.517122 0.623168
0.113306 0.449351 0.534047
0.200022 0.474926 0.561977
0.305035 0.498526 0.584080
0.421773 0.520995 0.602178
0.540358 0.544831 0.616235
0.630801 0.581362 0.617746
0.746396 0.583289 0.632628
0.859885 0.578309 0.651788
0.139122 0.502781 0.527784
0.243784 0.539216 0.561262
0.355807 0.574498 0.592026
0.469389 0.607904 0.619904
0.578059 0.638378 0.643635
0.666788 0.662075 0.655681
0.775920 0.662525 0.661364
0.884155 0.659714 0.668433
0.247183 0.524686 0.532955
0.362280 0.569352 0.572650
0.472621 0.613926 0.611953
0.574527 0.657833 0.650373
0.664191 0.699703 0.686255
0.731623 0.733455 0.711459
0.785518 0.743045 0.703771
0.866475 0.747776 0.697051
0.377636 0.553788 0.555266
0.493237 0.604515 0.599163
0.594466 0.654925 0.644749
0.680788 0.704838 0.691345
0.751492 0.753241 0.737081
0.800951 0.794656 0.773720
0.818228 0.808449 0.764265
0.859963 0.816444 0.751259
0.064965 0.110859 0.399441
0.112339 0.124624 0.420414
0.174803 0.161310 0.440333
0.242738 0.219222 0.453140
0.306294 0.292942 0.455034
0.346466 0.361789 0.445977
0.398281 0.407005 0.457707
0.497130 0.442925 0.495731
0.077272 0.176901 0.437222
0.148075 0.197762 0.486657
0.224342 0.227455 0.512041
0.305655 0.276101 0.522640
0.387386 0.346601 0.524821
0.444621 0.419968 0.515911
0.504655 0.467105 0.523191
0.601573 0.499811 0.555429
0.093886 0.265601 0.494166
0.169275 0.284509 0.538494
0.262367 0.309420 0.567669
0.360802 0.348281 0.583499
0.453571 0.405315 0.587766
0.525766 0.477083 0.580738
0.593451 0.523135 0.585060
0.688542 0.550457 0.612476
0.111621 0.368269 0.557634
0.186160 0.384433 0.588323
0.288857 0.405345 0.615253
0.401042 0.433979 0.634372
0.507156 0.473911 0.643014
0.591419 0.536413 0.639673
0.666109 0.578656 0.642284
0.760058 0.599732 0.665056
0.127900 0.474259 0.614147
0.206101 0.492502 0.639562
0.307443 0.510465 0.658391
0.425360 0.530223 0.674578
0.548922 0.555529 0.689148
0.642969 0.600941 0.691734
0.723991 0.636995 0.693699
0.817671 0.652146 0.711382
0.140396 0.558060 0.635376
0.231066 0.583348 0.662222
0.337313 0.606971 0.684365
0.452961 0.629546 0.703076
0.571274 0.651859 0.719306
0.678980 0.675863 0.732823
0.765654 0.703627 0.735382
0.858905 0.714775 0.746988
0.187365 0.598628 0.626610
0.296119 0.631999 0.657853
0.409363 0.664485 0.687135
0.521964 0.696083 0.714723
0.629161 0.726649 0.740818
0.722934 0.755140 0.765135
0.792851 0.776855 0.772103
0.876488 0.785408 0.778739
0.293248 0.621348 0.622483
0.411255 0.661345 0.658082
0.522489 0.700992 0.694267
0.624137 0.740230 0.730972
0.713923 0.778856 0.767923
0.787278 0.815812 0.803866
0.837541 0.839160 0.820026
0.890960 0.849766 0.824331
0.076033 0.127331 0.470314
0.123200 0.138113 0.490775
0.189271 0.168815 0.512212
0.266508 0.221630 0.528207
0.346052 0.295556 0.533941
0.408599 0.380907 0.525129
0.440913 0.443194 0.512840
0.494846 0.491250 0.523323
0.089395 0.191415 0.502783
0.160080 0.210970 0.555001
0.236361 0.235879 0.581457
0.321813 0.279178 0.593370
0.414742 0.347739 0.597861
0.492720 0.434530 0.588949
0.536199 0.503203 0.575597
0.594247 0.553739 0.583160
0.107388 0.276158 0.553759
0.182264 0.294265 0.601982
0.274515 0.318052 0.633805
0.373733 0.353857 0.651455
0.471432 0.407173 0.656977
0.560349 0.488234 0.650317
0.613747 0.559241 0.637593
0.675292 0.609570 0.643322
0.126942 0.376539 0.614804
0.199378 0.390841 0.648372
0.300822 0.412352 0.678139
0.412435 0.440665 0.699649
0.519784 0.478474 0.709984
0.614677 0.545195 0.707661
0.676651 0.613729 0.697345
0.741668 0.661391 0.702133
0.145113 0.485870 0.676743
0.217770 0.499543 0.702168
0.316224 0.515383 0.720703
0.433832 0.535742 0.737923
0.559508 0.563594 0.755353
0.658061 0.608354 0.759341
0.727646 0.669043 0.753256
0.796449 0.711709 0.757807
0.156981 0.587943 0.720928
0.235473 0.605082 0.744011
0.335332 0.621638 0.761241
0.449962 0.638949 0.775122
0.572143 0.658424 0.787761
0.688637 0.683292 0.800913
0.767229 0.729307 0.801186
0.839740 0.763932 0.806089
0.167395 0.655381 0.724165
0.262198 0.678771 0.748719
0.370376 0.701237 0.769995
0.485779 0.723284 0.788972
0.602479 0.745316 0.806634
0.711419 0.767616 0.824398
0.796810 0.796155 0.836840
0.873916 0.820401 0.845127
0.224705 0.690673 0.711229
0.335480 0.720437 0.739351
0.449106 0.749655 0.766596
0.560825 0.778479 0.793341
0.666314 0.806904 0.819798
0.758381 0.834188 0.845593
0.836273 0.859322 0.870415
0.900312 0.878710 0.883279
