Assets/1__3DArt/KimSe/artstation_asset/LUTs_subway_asset/CUBE/Underground 01_S.cube
# LUT by SparkleStock. Enhanced with VOXCOLOR algorithms.
LUT_3D_SIZE 32
0.046886 0.058608 0.042979
0.065509 0.059742 0.047375
0.084131 0.060877 0.051770
0.102753 0.062011 0.056166
0.121375 0.063145 0.060562
0.139998 0.064280 0.064957
0.163228 0.065926 0.068605
0.187380 0.067675 0.072102
0.211533 0.069424 0.075600
0.235685 0.071173 0.079097
0.259837 0.072921 0.082595
0.286888 0.075111 0.085746
0.315389 0.077522 0.088723
0.343889 0.079932 0.091701
0.372390 0.082343 0.094679
0.400890 0.084753 0.097656
0.429958 0.087518 0.100587
0.459593 0.090638 0.103470
0.489228 0.093757 0.106353
0.518862 0.096877 0.109236
0.548497 0.099996 0.112119
0.577392 0.103368 0.115066
0.604805 0.107243 0.118138
0.632219 0.111119 0.121210
0.659632 0.114995 0.124282
0.687046 0.118870 0.127354
0.713852 0.122825 0.130513
0.737627 0.127173 0.134105
0.761401 0.131522 0.137697
0.785175 0.135870 0.141290
0.808949 0.140218 0.144882
0.832723 0.144567 0.148474
0.056859 0.069857 0.055410
0.072527 0.071330 0.058470
0.088194 0.072803 0.061530
0.103862 0.074275 0.064590
0.119529 0.075748 0.067650
0.135196 0.077221 0.070710
0.158400 0.079358 0.073425
0.183110 0.081629 0.076072
0.207820 0.083899 0.078719
0.232530 0.086169 0.081366
0.257240 0.088439 0.084013
0.284837 0.090785 0.086356
0.313878 0.093168 0.088547
0.342918 0.095551 0.090738
0.371958 0.097934 0.092928
0.400998 0.100317 0.095119
0.430491 0.102885 0.097368
0.460437 0.105639 0.099675
0.490383 0.108392 0.101982
0.520329 0.111146 0.104289
0.550275 0.113899 0.106596
0.579386 0.116844 0.109036
0.606827 0.120171 0.111742
0.634268 0.123498 0.114448
0.661709 0.126825 0.117154
0.689150 0.130151 0.119861
0.715931 0.133548 0.122670
0.739412 0.137292 0.125997
0.762893 0.141037 0.129324
0.786375 0.144782 0.132651
0.809856 0.148526 0.135978
0.833337 0.152271 0.139304
0.066832 0.081106 0.067840
0.079545 0.082917 0.069565
0.092257 0.084729 0.071289
0.104970 0.086540 0.073014
0.117683 0.088351 0.074738
0.130395 0.090162 0.076462
0.153571 0.092791 0.078246
0.178839 0.095582 0.080043
0.204107 0.098374 0.081839
0.229376 0.101166 0.083635
0.254644 0.103957 0.085431
0.282787 0.106458 0.086966
0.312367 0.108814 0.088370
0.341947 0.111170 0.089774
0.371527 0.113525 0.091178
0.401107 0.115881 0.092582
0.431025 0.118252 0.094150
0.461282 0.120640 0.095880
0.491539 0.123028 0.097611
0.521796 0.125415 0.099341
0.552053 0.127803 0.101072
0.581380 0.130321 0.103005
0.608849 0.133099 0.105346
0.636317 0.135876 0.107686
0.663785 0.138654 0.110027
0.691254 0.141432 0.112367
0.718009 0.144271 0.114827
0.741197 0.147412 0.117889
0.764386 0.150552 0.120951
0.787575 0.153693 0.124012
0.810763 0.156834 0.127074
0.833952 0.159975 0.130135
0.076805 0.092355 0.080271
0.086563 0.094505 0.080660
0.096321 0.096655 0.081049
0.106078 0.098804 0.081437
0.115836 0.100954 0.081826
0.125594 0.103104 0.082215
0.148742 0.106223 0.083067
0.174569 0.109536 0.084013
0.200395 0.112849 0.084958
0.226221 0.116162 0.085903
0.252047 0.119475 0.086849
0.280736 0.122132 0.087575
0.310856 0.124460 0.088193
0.340975 0.126788 0.088810
0.371095 0.129116 0.089428
0.401215 0.131445 0.090045
0.431559 0.133619 0.090931
0.462127 0.135641 0.092085
0.492695 0.137663 0.093240
0.523263 0.139685 0.094394
0.553831 0.141706 0.095548
0.583375 0.143797 0.096975
0.610870 0.146026 0.098950
0.638366 0.148255 0.100924
0.665862 0.150484 0.102899
0.693358 0.152713 0.104873
0.720087 0.154994 0.106985
0.742983 0.157531 0.109781
0.765879 0.160068 0.112577
0.788774 0.162605 0.115373
0.811670 0.165142 0.118170
0.834566 0.167679 0.120966
0.086778 0.103604 0.092702
0.093581 0.106092 0.091755
0.100384 0.108580 0.090808
0.107187 0.111069 0.089861
0.113990 0.113557 0.088914
0.120793 0.116045 0.087967
0.143914 0.119655 0.087888
0.170298 0.123490 0.087983
0.196682 0.127324 0.088078
0.223067 0.131159 0.088172
0.249451 0.134993 0.088267
0.278685 0.137805 0.088185
0.309345 0.140106 0.088016
0.340004 0.142407 0.087847
0.370664 0.144708 0.087678
0.401323 0.147008 0.087508
0.432092 0.148987 0.087713
0.462971 0.150642 0.088290
0.493850 0.152298 0.088868
0.524729 0.153954 0.089446
0.555608 0.155610 0.090024
0.585369 0.157274 0.090945
0.612892 0.158954 0.092554
0.640415 0.160634 0.094162
0.667938 0.162314 0.095771
0.695462 0.163994 0.097379
0.722165 0.165717 0.099142
0.744768 0.167650 0.101673
0.767371 0.169583 0.104204
0.789974 0.171516 0.106735
0.812577 0.173450 0.109266
0.835181 0.175383 0.111796
0.096751 0.114853 0.105132
0.100599 0.117680 0.102850
0.104447 0.120506 0.100567
0.108295 0.123333 0.098285
0.112144 0.126160 0.096002
0.115992 0.128987 0.093720
0.139085 0.133088 0.092709
0.166027 0.137444 0.091953
0.192970 0.141800 0.091197
0.219912 0.146155 0.090441
0.246854 0.150511 0.089685
0.276635 0.153479 0.088795
0.307834 0.155752 0.087839
0.339033 0.158026 0.086883
0.370232 0.160299 0.085927
0.401431 0.162572 0.084971
0.432626 0.164354 0.084494
0.463816 0.165643 0.084496
0.495006 0.166933 0.084497
0.526196 0.168223 0.084499
0.557386 0.169513 0.084500
0.587363 0.170750 0.084915
0.614914 0.171881 0.086158
0.642464 0.173013 0.087401
0.670015 0.174144 0.088643
0.697566 0.175275 0.089886
0.724243 0.176440 0.091299
0.746553 0.177769 0.093565
0.768864 0.179099 0.095830
0.791174 0.180428 0.098096
0.813485 0.181758 0.100361
0.835795 0.183087 0.102627
0.108023 0.127087 0.118272
0.111204 0.129909 0.115889
0.114384 0.132731 0.113506
0.117565 0.135553 0.111123
0.120745 0.138375 0.108739
0.123925 0.141197 0.106356
0.144266 0.145510 0.104747
0.168038 0.150120 0.103293
0.191811 0.154731 0.101838
0.215584 0.159342 0.100384
0.239356 0.163952 0.098929
0.268079 0.167555 0.097816
0.299276 0.170655 0.096874
0.330474 0.173755 0.095932
0.361672 0.176854 0.094989
0.392869 0.179954 0.094047
0.424249 0.182324 0.093456
0.455811 0.183965 0.093217
0.487373 0.185605 0.092978
0.518935 0.187246 0.092738
0.550497 0.188886 0.092499
0.580869 0.190342 0.092647
0.608859 0.191427 0.093569
0.636848 0.192513 0.094492
0.664838 0.193598 0.095414
0.692828 0.194684 0.096336
0.719918 0.195754 0.097416
0.742507 0.196747 0.099279
0.765096 0.197739 0.101142
0.787686 0.198732 0.103005
0.810275 0.199724 0.104868
0.832865 0.200717 0.106731
0.119556 0.139517 0.131553
0.122526 0.142266 0.129316
0.125496 0.145015 0.127080
0.128466 0.147764 0.124843
0.131436 0.150513 0.122606
0.134406 0.153262 0.120370
0.151449 0.157730 0.118228
0.171306 0.162542 0.116106
0.191163 0.167354 0.113984
0.211020 0.172165 0.111861
0.230877 0.176977 0.109739
0.258222 0.181312 0.108519
0.289310 0.185409 0.107751
0.320398 0.189506 0.106982
0.351485 0.193603 0.106214
0.382573 0.197700 0.105445
0.414090 0.200815 0.104855
0.446037 0.202950 0.104441
0.477983 0.205084 0.104028
0.509929 0.207219 0.103615
0.541876 0.209353 0.103202
0.572677 0.211156 0.103130
0.601188 0.212297 0.103742
0.629699 0.213437 0.104353
0.658210 0.214578 0.104964
0.686722 0.215718 0.105576
0.714311 0.216787 0.106324
0.737294 0.217496 0.107757
0.760277 0.218205 0.109191
0.783260 0.218914 0.110624
0.806242 0.219623 0.112057
0.829225 0.220332 0.113490
0.131088 0.151948 0.144834
0.133848 0.154623 0.142744
0.136608 0.157299 0.140654
0.139367 0.159975 0.138563
0.142127 0.162651 0.136473
0.144886 0.165327 0.134383
0.158631 0.169950 0.131709
0.174573 0.174963 0.128919
0.190515 0.179976 0.126129
0.206457 0.184989 0.123339
0.222399 0.190003 0.120549
0.248365 0.195069 0.119222
0.279343 0.200163 0.118628
0.310321 0.205257 0.118033
0.341299 0.210351 0.117438
0.372277 0.215445 0.116844
0.403932 0.219306 0.116253
0.436262 0.221935 0.115666
0.468593 0.224563 0.115079
0.500923 0.227192 0.114492
0.533254 0.229820 0.113905
0.564485 0.231971 0.113614
0.593517 0.233167 0.113914
0.622550 0.234362 0.114215
0.651583 0.235557 0.114515
0.680615 0.236753 0.114815
0.708705 0.237820 0.115233
0.732081 0.238245 0.116236
0.755457 0.238670 0.117239
0.778834 0.239096 0.118242
0.802210 0.239521 0.119246
0.825586 0.239946 0.120249
0.142621 0.164378 0.158116
0.145170 0.166981 0.156172
0.147719 0.169583 0.154228
0.150269 0.172186 0.152284
0.152818 0.174789 0.150340
0.155367 0.177391 0.148396
0.165814 0.182170 0.145190
0.177841 0.187385 0.141732
0.189867 0.192599 0.138275
0.201894 0.197813 0.134817
0.213920 0.203028 0.131359
0.238508 0.208827 0.129925
0.269376 0.214918 0.129505
0.300245 0.221009 0.129084
0.331113 0.227100 0.128663
0.361981 0.233191 0.128242
0.393773 0.237797 0.127651
0.426487 0.240920 0.126891
0.459202 0.244042 0.126130
0.491917 0.247165 0.125369
0.524632 0.250287 0.124608
0.556293 0.252786 0.124097
0.585847 0.254036 0.124087
0.615401 0.255286 0.124076
0.644955 0.256537 0.124065
0.674509 0.257787 0.124055
0.703099 0.258852 0.124141
0.726869 0.258994 0.124715
0.750638 0.259136 0.125288
0.774408 0.259278 0.125861
0.798177 0.259419 0.126434
0.821947 0.259561 0.127008
0.154153 0.176809 0.171397
0.156492 0.179338 0.169599
0.158831 0.181868 0.167802
0.161170 0.184397 0.166004
0.163509 0.186927 0.164207
0.165848 0.189456 0.162409
0.172997 0.194391 0.158671
0.181108 0.199806 0.154546
0.189219 0.205222 0.150420
0.197330 0.210637 0.146294
0.205442 0.216053 0.142169
0.228651 0.222584 0.140629
0.259410 0.229672 0.140382
0.290168 0.236760 0.140135
0.320927 0.243848 0.139888
0.351685 0.250936 0.139641
0.383614 0.256289 0.139050
0.416713 0.259905 0.138115
0.449812 0.263522 0.137181
0.482911 0.267138 0.136246
0.516010 0.270755 0.135311
0.548101 0.273601 0.134581
0.578176 0.274906 0.134259
0.608252 0.276211 0.133938
0.638327 0.277516 0.133616
0.668403 0.278821 0.133294
0.697493 0.279885 0.133050
0.721656 0.279743 0.133193
0.745819 0.279601 0.133337
0.769981 0.279460 0.133480
0.794144 0.279318 0.133623
0.818307 0.279176 0.133767
0.167577 0.190941 0.186065
0.169717 0.193312 0.184426
0.171858 0.195683 0.182787
0.173998 0.198054 0.181148
0.176139 0.200424 0.179509
0.178280 0.202795 0.177870
0.183963 0.207566 0.174146
0.190354 0.212817 0.170005
0.196745 0.218068 0.165864
0.203137 0.223319 0.161723
0.209528 0.228570 0.157582
0.230046 0.235027 0.155795
0.257627 0.242088 0.155185
0.285208 0.249149 0.154575
0.312790 0.256210 0.153965
0.340371 0.263270 0.153355
0.370567 0.269094 0.152890
0.403380 0.273680 0.152568
0.436192 0.278266 0.152246
0.469004 0.282852 0.151925
0.501817 0.287438 0.151603
0.533840 0.291150 0.151328
0.564284 0.293114 0.151146
0.594728 0.295078 0.150965
0.625173 0.297042 0.150784
0.655617 0.299006 0.150602
0.685114 0.300669 0.150438
0.709872 0.300829 0.150358
0.734629 0.300989 0.150279
0.759387 0.301149 0.150200
0.784144 0.301309 0.150121
0.808901 0.301469 0.150041
0.181945 0.205924 0.201426
0.183893 0.208093 0.199951
0.185842 0.210263 0.198477
0.187790 0.212433 0.197003
0.189739 0.214602 0.195528
0.191688 0.216772 0.194054
0.196820 0.221220 0.190617
0.202589 0.226123 0.186787
0.208359 0.231026 0.182957
0.214128 0.235929 0.179127
0.219897 0.240833 0.175297
0.237067 0.246815 0.173193
0.259937 0.253336 0.171952
0.282807 0.259857 0.170711
0.305677 0.266377 0.169470
0.328547 0.272898 0.168229
0.356077 0.279056 0.167950
0.388267 0.284850 0.168635
0.420457 0.290643 0.169319
0.452648 0.296437 0.170004
0.484838 0.302231 0.170689
0.516544 0.307068 0.171206
0.547281 0.309992 0.171391
0.578018 0.312917 0.171575
0.608755 0.315841 0.171760
0.639493 0.318765 0.171944
0.669349 0.321328 0.172065
0.694802 0.322083 0.171867
0.720255 0.322837 0.171669
0.745707 0.323592 0.171470
0.771160 0.324347 0.171272
0.796613 0.325101 0.171074
0.196313 0.220907 0.216787
0.198070 0.222875 0.215477
0.199826 0.224843 0.214167
0.201583 0.226812 0.212858
0.203339 0.228780 0.211548
0.205095 0.230748 0.210238
0.209678 0.234873 0.207088
0.214825 0.239429 0.203569
0.219972 0.243984 0.200050
0.225119 0.248540 0.196531
0.230267 0.253096 0.193012
0.244088 0.258602 0.190591
0.262247 0.264583 0.188719
0.280406 0.270564 0.186846
0.298564 0.276545 0.184974
0.316723 0.282527 0.183102
0.341587 0.289018 0.183011
0.373155 0.296019 0.184702
0.404723 0.303020 0.186393
0.436291 0.310022 0.188083
0.467859 0.317023 0.189774
0.499248 0.322985 0.191085
0.530278 0.326870 0.191635
0.561308 0.330755 0.192186
0.592338 0.334640 0.192736
0.623368 0.338525 0.193287
0.653584 0.341987 0.193692
0.679732 0.343336 0.193375
0.705880 0.344686 0.193058
0.732028 0.346035 0.192741
0.758176 0.347384 0.192424
0.784324 0.348734 0.192107
0.210682 0.235890 0.232148
0.212246 0.237657 0.231003
0.213810 0.239424 0.229858
0.215375 0.241191 0.228713
0.216939 0.242958 0.227568
0.218503 0.244725 0.226423
0.222535 0.248526 0.223559
0.227060 0.252734 0.220351
0.231585 0.256942 0.217143
0.236111 0.261150 0.213935
0.240636 0.265359 0.210727
0.251109 0.270389 0.207989
0.264557 0.275830 0.205485
0.278004 0.281272 0.202982
0.291452 0.286713 0.200478
0.304899 0.292155 0.197975
0.327096 0.298980 0.198072
0.358042 0.307189 0.200769
0.388988 0.315398 0.203466
0.419934 0.323606 0.206163
0.450881 0.331815 0.208860
0.481952 0.338903 0.210964
0.513275 0.343748 0.211880
0.544598 0.348594 0.212796
0.575920 0.353439 0.213713
0.607243 0.358284 0.214629
0.637819 0.362646 0.215320
0.664662 0.364590 0.214884
0.691505 0.366534 0.214448
0.718349 0.368478 0.214012
0.745192 0.370422 0.213576
0.772035 0.372366 0.213140
0.225050 0.250872 0.247509
0.226422 0.252438 0.246528
0.227795 0.254004 0.245548
0.229167 0.255570 0.244568
0.230539 0.257136 0.243587
0.231911 0.258702 0.242607
0.235393 0.262180 0.240030
0.239296 0.266040 0.237133
0.243199 0.269900 0.234236
0.247102 0.273761 0.231339
0.251005 0.277621 0.228442
0.258130 0.282176 0.225387
0.266867 0.287078 0.222252
0.275603 0.291980 0.219117
0.284339 0.296881 0.215983
0.293076 0.301783 0.212848
0.312606 0.308942 0.213132
0.342930 0.318359 0.216836
0.373254 0.327775 0.220539
0.403578 0.337191 0.224242
0.433902 0.346608 0.227946
0.464656 0.354820 0.230842
0.496272 0.360626 0.232124
0.527887 0.366432 0.233407
0.559503 0.372238 0.234689
0.591118 0.378044 0.235971
0.622054 0.383305 0.236947
0.649592 0.385844 0.236392
0.677131 0.388383 0.235837
0.704669 0.390921 0.235282
0.732208 0.393460 0.234727
0.759746 0.395998 0.234172
0.240884 0.267155 0.263886
0.242101 0.268538 0.263047
0.243317 0.269921 0.262209
0.244534 0.271304 0.261370
0.245751 0.272687 0.260532
0.246967 0.274069 0.259693
0.250000 0.277201 0.257398
0.253395 0.280681 0.254813
0.256790 0.284162 0.252227
0.260186 0.287643 0.249641
0.263581 0.291124 0.247055
0.268726 0.295223 0.244006
0.274745 0.299630 0.240725
0.280765 0.304038 0.237444
0.286784 0.308446 0.234163
0.292803 0.312854 0.230882
0.309553 0.319700 0.231068
0.337032 0.328983 0.234721
0.364511 0.338267 0.238374
0.391990 0.347551 0.242027
0.419469 0.356834 0.245680
0.448226 0.365334 0.248857
0.479539 0.372265 0.251081
0.510853 0.379196 0.253306
0.542166 0.386127 0.255530
0.573480 0.393058 0.257755
0.604248 0.399418 0.259563
0.632290 0.402922 0.259292
0.660331 0.406425 0.259020
0.688373 0.409929 0.258749
0.716415 0.413433 0.258478
0.744456 0.416936 0.258206
0.258183 0.284737 0.281279
0.259280 0.285956 0.280560
0.260378 0.287174 0.279840
0.261476 0.288392 0.279120
0.262574 0.289610 0.278401
0.263671 0.290829 0.277681
0.266356 0.293589 0.275665
0.269358 0.296658 0.273391
0.272360 0.299727 0.271116
0.275362 0.302797 0.268841
0.278364 0.305866 0.266566
0.282896 0.309529 0.263846
0.288193 0.313488 0.260904
0.293490 0.317448 0.257961
0.298786 0.321407 0.255018
0.304083 0.325367 0.252076
0.317937 0.331252 0.251878
0.340348 0.339063 0.254424
0.362759 0.346874 0.256970
0.385170 0.354684 0.259516
0.407581 0.362495 0.262062
0.432661 0.370443 0.265008
0.463078 0.378664 0.268751
0.493495 0.386885 0.272494
0.523912 0.395106 0.276237
0.554329 0.403327 0.279980
0.584402 0.410984 0.283168
0.612754 0.415823 0.283583
0.641107 0.420663 0.283998
0.669460 0.425502 0.284412
0.697812 0.430341 0.284827
0.726165 0.435181 0.285242
0.275482 0.302320 0.298673
0.276460 0.303373 0.298072
0.277439 0.304427 0.297471
0.278418 0.305481 0.296871
0.279397 0.306534 0.296270
0.280376 0.307588 0.295669
0.282713 0.309978 0.293932
0.285321 0.312635 0.291969
0.287930 0.315293 0.290005
0.290539 0.317950 0.288041
0.293148 0.320608 0.286077
0.297066 0.323834 0.283687
0.301640 0.327346 0.281083
0.306214 0.330857 0.278478
0.310788 0.334368 0.275874
0.315362 0.337880 0.273270
0.326321 0.342804 0.272688
0.343664 0.349142 0.274127
0.361007 0.355480 0.275566
0.378350 0.361818 0.277006
0.395693 0.368156 0.278445
0.417095 0.375552 0.281158
0.446616 0.385063 0.286420
0.476136 0.394574 0.291682
0.505657 0.404085 0.296943
0.535177 0.413595 0.302205
0.564555 0.422550 0.306773
0.593219 0.428725 0.307874
0.621882 0.434900 0.308975
0.650546 0.441075 0.310075
0.679210 0.447250 0.311176
0.707873 0.453425 0.312277
0.292780 0.319902 0.316066
0.293640 0.320791 0.315584
0.294500 0.321680 0.315102
0.295360 0.322569 0.314621
0.296220 0.323458 0.314139
0.297080 0.324347 0.313657
0.299069 0.326366 0.312199
0.301285 0.328612 0.310547
0.303500 0.330858 0.308894
0.305715 0.333104 0.307241
0.307931 0.335350 0.305589
0.311237 0.338140 0.303527
0.315088 0.341203 0.301262
0.318939 0.344266 0.298996
0.322791 0.347329 0.296730
0.326642 0.350393 0.294465
0.334705 0.354357 0.293498
0.346980 0.359222 0.293830
0.359255 0.364087 0.294163
0.371530 0.368952 0.294495
0.383805 0.373817 0.294827
0.401530 0.380661 0.297309
0.430154 0.391462 0.304089
0.458778 0.402263 0.310869
0.487402 0.413063 0.317650
0.516026 0.423864 0.324430
0.544709 0.434116 0.330378
0.573683 0.441627 0.332165
0.602658 0.449137 0.333952
0.631633 0.456648 0.335738
0.660607 0.464158 0.337525
0.689582 0.471669 0.339312
0.310079 0.337485 0.333459
0.310820 0.338209 0.333097
0.311561 0.338933 0.332734
0.312302 0.339657 0.332371
0.313043 0.340382 0.332008
0.313784 0.341106 0.331645
0.315426 0.342755 0.330466
0.317248 0.344589 0.329125
0.319070 0.346423 0.327783
0.320892 0.348258 0.326441
0.322714 0.350092 0.325100
0.325407 0.352446 0.323368
0.328535 0.355061 0.321440
0.331664 0.357676 0.319513
0.334793 0.360291 0.317586
0.337921 0.362905 0.315659
0.343089 0.365909 0.314308
0.350296 0.369301 0.313534
0.357503 0.372694 0.312759
0.364710 0.376086 0.311984
0.371917 0.379479 0.311210
0.385965 0.385770 0.313460
0.413692 0.397861 0.321759
0.441420 0.409951 0.330057
0.469147 0.422042 0.338356
0.496875 0.434133 0.346655
0.524862 0.445682 0.353983
0.554148 0.454529 0.356456
0.583434 0.463375 0.358929
0.612719 0.472221 0.361402
0.642005 0.481067 0.363875
0.671291 0.489913 0.366348
0.328213 0.355619 0.351373
0.328859 0.356206 0.351104
0.329506 0.356793 0.350836
0.330152 0.357380 0.350568
0.330799 0.357967 0.350299
0.331445 0.358554 0.350031
0.332794 0.359883 0.349092
0.334284 0.361360 0.348018
0.335774 0.362837 0.346945
0.337263 0.364315 0.345872
0.338753 0.365792 0.344798
0.340930 0.367747 0.343363
0.343452 0.369941 0.341747
0.345974 0.372135 0.340131
0.348496 0.374329 0.338515
0.351018 0.376523 0.336899
0.354103 0.378768 0.335371
0.357751 0.381062 0.333932
0.361400 0.383357 0.332492
0.365048 0.385651 0.331053
0.368697 0.387946 0.329614
0.379616 0.393528 0.331555
0.405074 0.405686 0.340256
0.430533 0.417844 0.348957
0.455992 0.430001 0.357658
0.481451 0.442159 0.366360
0.507530 0.453980 0.374193
0.536712 0.464119 0.377684
0.565894 0.474258 0.381175
0.595076 0.484397 0.384667
0.624258 0.494536 0.388158
0.653440 0.504675 0.391650
0.348017 0.374855 0.370326
0.348618 0.375360 0.370103
0.349218 0.375865 0.369881
0.349819 0.376369 0.369658
0.350420 0.376874 0.369435
0.351020 0.377379 0.369213
0.352187 0.378488 0.368434
0.353466 0.379718 0.367543
0.354745 0.380949 0.366653
0.356024 0.382179 0.365762
0.357303 0.383410 0.364872
0.359161 0.385038 0.363669
0.361308 0.386867 0.362309
0.363454 0.388695 0.360949
0.365601 0.390523 0.359589
0.367748 0.392351 0.358229
0.370376 0.394238 0.356939
0.373484 0.396185 0.355719
0.376593 0.398132 0.354499
0.379702 0.400079 0.353279
0.382811 0.402026 0.352060
0.391698 0.406584 0.353537
0.412144 0.416363 0.360409
0.432590 0.426142 0.367280
0.453036 0.435922 0.374152
0.473481 0.445701 0.381024
0.495228 0.455741 0.387613
0.523477 0.467088 0.392787
0.551726 0.478434 0.397962
0.579975 0.489781 0.403137
0.608224 0.501127 0.408311
0.636472 0.512474 0.413486
0.367821 0.394092 0.389279
0.368376 0.394514 0.389102
0.368931 0.394937 0.388925
0.369486 0.395359 0.388748
0.370041 0.395781 0.388571
0.370596 0.396204 0.388395
0.371579 0.397093 0.387776
0.372648 0.398077 0.387068
0.373716 0.399060 0.386361
0.374785 0.400044 0.385653
0.375854 0.401027 0.384946
0.377391 0.402330 0.383974
0.379163 0.403792 0.382870
0.380935 0.405254 0.381766
0.382706 0.406716 0.380662
0.384478 0.408178 0.379559
0.386648 0.409709 0.378507
0.389217 0.411308 0.377506
0.391786 0.412908 0.376506
0.394355 0.414507 0.375506
0.396924 0.416107 0.374506
0.403781 0.419640 0.375520
0.419214 0.427040 0.380562
0.434647 0.434441 0.385604
0.450079 0.441842 0.390646
0.465512 0.449243 0.395688
0.482925 0.457502 0.401033
0.510241 0.470056 0.407891
0.537557 0.482610 0.414749
0.564873 0.495164 0.421607
0.592189 0.507718 0.428464
0.619505 0.520273 0.435322
0.387625 0.413329 0.408232
0.388134 0.413669 0.408101
0.388643 0.414009 0.407970
0.389152 0.414349 0.407839
0.389662 0.414689 0.407707
0.390171 0.415029 0.407576
0.390971 0.415699 0.407117
0.391829 0.416435 0.406593
0.392688 0.417172 0.406068
0.393546 0.417908 0.405544
0.394404 0.418645 0.405019
0.395622 0.419621 0.404279
0.397018 0.420717 0.403432
0.398415 0.421813 0.402584
0.399811 0.422910 0.401736
0.401208 0.424006 0.400889
0.402921 0.425180 0.400074
0.404950 0.426432 0.399294
0.406980 0.427683 0.398513
0.409009 0.428935 0.397733
0.411038 0.430187 0.396952
0.415864 0.432695 0.397502
0.426284 0.437718 0.400715
0.436703 0.442740 0.403927
0.447123 0.447762 0.407140
0.457543 0.452784 0.410352
0.470623 0.459263 0.414453
0.497005 0.473025 0.422994
0.523388 0.486786 0.431535
0.549771 0.500548 0.440076
0.576154 0.514310 0.448617
0.602537 0.528071 0.457159
0.407428 0.432565 0.427185
0.407892 0.432823 0.427100
0.408355 0.433081 0.427014
0.408819 0.433338 0.426929
0.409282 0.433596 0.426843
0.409746 0.433854 0.426758
0.410363 0.434304 0.426459
0.411011 0.434794 0.426118
0.411659 0.435283 0.425776
0.412307 0.435773 0.425435
0.412955 0.436262 0.425093
0.413852 0.436912 0.424585
0.414874 0.437642 0.423993
0.415895 0.438373 0.423402
0.416917 0.439103 0.422810
0.417938 0.439833 0.422219
0.419194 0.440651 0.421642
0.420683 0.441555 0.421081
0.422173 0.442459 0.420520
0.423663 0.443363 0.419959
0.425152 0.444267 0.419398
0.427947 0.445751 0.419485
0.433354 0.448395 0.420868
0.438760 0.451039 0.422251
0.444167 0.453682 0.423634
0.449573 0.456326 0.425016
0.458320 0.461024 0.427873
0.483770 0.475993 0.438097
0.509220 0.490962 0.448322
0.534669 0.505932 0.458546
0.560119 0.520901 0.468770
0.585569 0.535870 0.478995
0.427413 0.451660 0.446225
0.427831 0.451843 0.446179
0.428249 0.452026 0.446133
0.428667 0.452209 0.446088
0.429084 0.452392 0.446042
0.429502 0.452575 0.445996
0.429950 0.452834 0.445836
0.430405 0.453109 0.445653
0.430859 0.453383 0.445470
0.431314 0.453657 0.445287
0.431768 0.453932 0.445104
0.432375 0.454298 0.444799
0.433058 0.454709 0.444433
0.433741 0.455121 0.444067
0.434424 0.455533 0.443701
0.435107 0.455944 0.443336
0.435952 0.456448 0.442970
0.436958 0.457042 0.442604
0.437964 0.457637 0.442238
0.438970 0.458231 0.441872
0.439977 0.458826 0.441506
0.441044 0.459436 0.441216
0.442233 0.460076 0.441079
0.443422 0.460717 0.440942
0.444612 0.461357 0.440805
0.445801 0.461997 0.440667
0.450771 0.465108 0.442428
0.474648 0.480568 0.453680
0.498524 0.496028 0.464932
0.522400 0.511488 0.476184
0.546276 0.526948 0.487436
0.570152 0.542408 0.498688
0.448304 0.470046 0.465698
0.448676 0.470192 0.465661
0.449048 0.470339 0.465625
0.449420 0.470485 0.465588
0.449792 0.470632 0.465551
0.450164 0.470778 0.465515
0.450514 0.470985 0.465387
0.450858 0.471205 0.465240
0.451203 0.471424 0.465094
0.451547 0.471644 0.464948
0.451892 0.471863 0.464801
0.452358 0.472156 0.464557
0.452886 0.472486 0.464265
0.453414 0.472815 0.463972
0.453941 0.473144 0.463679
0.454469 0.473474 0.463386
0.455135 0.473876 0.463094
0.455940 0.474352 0.462801
0.456745 0.474827 0.462508
0.457550 0.475303 0.462215
0.458355 0.475779 0.461923
0.459209 0.476267 0.461691
