Assets/1__3DArt/KimSe/artstation_asset/LUTs_subway_asset/CUBE/Underground 05.cube
# LUT by SparkleStock. Enhanced with VOXCOLOR algorithms.
LUT_3D_SIZE 32
0.019536 0.003907 0.011722
0.032250 0.004994 0.013376
0.044964 0.006081 0.015030
0.057679 0.007168 0.016684
0.070393 0.008256 0.018339
0.083107 0.009343 0.019993
0.107558 0.012202 0.020702
0.134357 0.015416 0.021222
0.161156 0.018630 0.021742
0.187955 0.021844 0.022262
0.214754 0.025058 0.022782
0.248549 0.029343 0.023207
0.285840 0.034164 0.023585
0.323132 0.038985 0.023963
0.360424 0.043806 0.024341
0.397716 0.048627 0.024719
0.434936 0.053543 0.025287
0.472086 0.058553 0.026043
0.509236 0.063563 0.026799
0.546386 0.068573 0.027555
0.583536 0.073583 0.028311
0.617315 0.078168 0.029273
0.644350 0.081902 0.030643
0.671385 0.085636 0.032014
0.698421 0.089369 0.033385
0.725456 0.093103 0.034755
0.750341 0.096514 0.036252
0.764473 0.098310 0.038379
0.778605 0.100106 0.040506
0.792737 0.101902 0.042633
0.806869 0.103698 0.044760
0.821001 0.105495 0.046886
0.025633 0.010855 0.019993
0.035914 0.011778 0.021409
0.046195 0.012700 0.022826
0.056476 0.013622 0.024242
0.066756 0.014545 0.025659
0.077037 0.015467 0.027075
0.100893 0.018665 0.027584
0.127463 0.022318 0.027912
0.154033 0.025971 0.028240
0.180603 0.029624 0.028568
0.207174 0.033278 0.028895
0.241227 0.037782 0.028897
0.279022 0.042713 0.028735
0.316817 0.047644 0.028574
0.354612 0.052575 0.028412
0.392407 0.057505 0.028250
0.430172 0.062407 0.028255
0.467907 0.067280 0.028426
0.505643 0.072153 0.028597
0.543378 0.077026 0.028767
0.581113 0.081899 0.028938
0.615407 0.086306 0.029350
0.642818 0.089784 0.030245
0.670228 0.093262 0.031140
0.697638 0.096740 0.032035
0.725049 0.100217 0.032930
0.750268 0.103369 0.033973
0.764528 0.104891 0.035752
0.778788 0.106412 0.037531
0.793048 0.107934 0.039310
0.807308 0.109456 0.041090
0.821568 0.110977 0.042869
0.031730 0.017803 0.028264
0.039578 0.018561 0.029443
0.047425 0.019319 0.030621
0.055273 0.020076 0.031800
0.063120 0.020834 0.032978
0.070967 0.021592 0.034157
0.094227 0.025128 0.034467
0.120568 0.029220 0.034602
0.146910 0.033313 0.034738
0.173252 0.037405 0.034874
0.199593 0.041497 0.035009
0.233906 0.046221 0.034587
0.272204 0.051262 0.033886
0.310502 0.056303 0.033184
0.348800 0.061343 0.032483
0.387098 0.066384 0.031782
0.425407 0.071272 0.031224
0.463728 0.076007 0.030809
0.502049 0.080743 0.030394
0.540370 0.085478 0.029979
0.578691 0.090214 0.029565
0.613500 0.094445 0.029428
0.641285 0.097667 0.029847
0.669071 0.100888 0.030267
0.696856 0.104110 0.030686
0.724642 0.107331 0.031105
0.750194 0.110224 0.031693
0.764583 0.111471 0.033125
0.778971 0.112718 0.034556
0.793359 0.113966 0.035988
0.807747 0.115213 0.037420
0.822136 0.116460 0.038851
0.037827 0.024751 0.036536
0.043241 0.025344 0.037476
0.048656 0.025937 0.038417
0.054070 0.026530 0.039358
0.059484 0.027123 0.040298
0.064898 0.027716 0.041239
0.087561 0.031591 0.041349
0.113674 0.036123 0.041292
0.139787 0.040654 0.041236
0.165900 0.045185 0.041180
0.192013 0.049716 0.041123
0.226584 0.054660 0.040277
0.265385 0.059811 0.039036
0.304187 0.064961 0.037795
0.342988 0.070111 0.036554
0.381789 0.075262 0.035313
0.420643 0.080136 0.034192
0.459549 0.084734 0.033192
0.498455 0.089333 0.032192
0.537362 0.093931 0.031192
0.576268 0.098530 0.030191
0.611593 0.102584 0.029506
0.639753 0.105549 0.029449
0.667914 0.108515 0.029393
0.696074 0.111480 0.029337
0.724235 0.114446 0.029280
0.750121 0.117079 0.029414
0.764637 0.118052 0.030498
0.779154 0.119024 0.031582
0.793670 0.119997 0.032666
0.808186 0.120970 0.033750
0.822703 0.121943 0.034834
0.043925 0.031699 0.044807
0.046905 0.032127 0.045510
0.049886 0.032556 0.046213
0.052867 0.032984 0.046915
0.055847 0.033412 0.047618
0.058828 0.033841 0.048321
0.080895 0.038054 0.048231
0.106779 0.043025 0.047983
0.132663 0.047995 0.047734
0.158548 0.052966 0.047486
0.184432 0.057936 0.047237
0.219263 0.063099 0.045967
0.258567 0.068360 0.044186
0.297871 0.073620 0.042405
0.337176 0.078880 0.040625
0.376480 0.084140 0.038844
0.415878 0.089000 0.037161
0.455370 0.093462 0.035575
0.494862 0.097923 0.033989
0.534354 0.102384 0.032404
0.573845 0.106845 0.030818
0.609685 0.110722 0.029584
0.638221 0.113432 0.029051
0.666756 0.116141 0.028519
0.695292 0.118850 0.027987
0.723828 0.121560 0.027455
0.750048 0.123934 0.027134
0.764692 0.124632 0.027871
0.779337 0.125330 0.028607
0.793981 0.126029 0.029344
0.808626 0.126727 0.030080
0.823270 0.127425 0.030816
0.050022 0.038647 0.053078
0.050569 0.038910 0.053543
0.051116 0.039174 0.054008
0.051664 0.039438 0.054473
0.052211 0.039702 0.054938
0.052758 0.039965 0.055403
0.074229 0.044517 0.055114
0.099885 0.049927 0.054673
0.125540 0.055336 0.054232
0.151196 0.060746 0.053792
0.176851 0.066155 0.053351
0.211941 0.071538 0.051657
0.251749 0.076908 0.049337
0.291556 0.082278 0.047016
0.331364 0.087648 0.044696
0.371171 0.093018 0.042375
0.411114 0.097865 0.040129
0.451191 0.102189 0.037958
0.491268 0.106513 0.035787
0.531345 0.110837 0.033616
0.571423 0.115161 0.031445
0.607778 0.118861 0.029661
0.636688 0.121314 0.028654
0.665599 0.123767 0.027646
0.694510 0.126221 0.026638
0.723420 0.128674 0.025630
0.749975 0.130789 0.024855
0.764747 0.131213 0.025244
0.779520 0.131636 0.025633
0.794292 0.132060 0.026021
0.809065 0.132484 0.026410
0.823837 0.132908 0.026799
0.060136 0.049415 0.064500
0.060316 0.049667 0.064911
0.060496 0.049918 0.065321
0.060676 0.050170 0.065731
0.060856 0.050421 0.066141
0.061036 0.050673 0.066551
0.079053 0.054617 0.066378
0.100638 0.059299 0.066088
0.122222 0.063981 0.065799
0.143807 0.068663 0.065509
0.165392 0.073346 0.065219
0.198739 0.079230 0.063882
0.237967 0.085716 0.062020
0.277195 0.092202 0.060158
0.316423 0.098688 0.058297
0.355651 0.105174 0.056435
0.395779 0.110933 0.054183
0.436808 0.115966 0.051541
0.477837 0.120999 0.048899
0.518865 0.126032 0.046257
0.559894 0.131065 0.043614
0.597290 0.135328 0.041264
0.627422 0.138051 0.039499
0.657554 0.140774 0.037733
0.687686 0.143497 0.035968
0.717818 0.146220 0.034202
0.745516 0.148537 0.032684
0.761041 0.148824 0.032405
0.776567 0.149111 0.032126
0.792093 0.149397 0.031847
0.807618 0.149684 0.031568
0.823144 0.149970 0.031289
0.071054 0.060948 0.076553
0.071280 0.061218 0.076945
0.071506 0.061487 0.077337
0.071731 0.061757 0.077728
0.071957 0.062027 0.078120
0.072183 0.062297 0.078512
0.086175 0.065443 0.078519
0.102920 0.069165 0.078449
0.119665 0.072887 0.078379
0.136411 0.076608 0.078308
0.153156 0.080330 0.078238
0.184359 0.086773 0.077413
0.222792 0.094576 0.076210
0.261224 0.102379 0.075007
0.299656 0.110183 0.073804
0.338088 0.117986 0.072601
0.378331 0.124843 0.070454
0.420384 0.130754 0.067364
0.462438 0.136665 0.064273
0.504491 0.142576 0.061183
0.546544 0.148487 0.058092
0.585087 0.153461 0.055172
0.616609 0.156559 0.052592
0.648132 0.159657 0.050013
0.679654 0.162755 0.047433
0.711177 0.165853 0.044853
0.740179 0.168465 0.042535
0.756583 0.168641 0.041524
0.772987 0.168818 0.040513
0.789391 0.168995 0.039503
0.805795 0.169172 0.038492
0.822199 0.169349 0.037481
0.081973 0.072480 0.088605
0.082244 0.072768 0.088979
0.082515 0.073057 0.089352
0.082787 0.073345 0.089726
0.083058 0.073633 0.090099
0.083329 0.073921 0.090473
0.093296 0.076270 0.090660
0.105203 0.079031 0.090809
0.117109 0.081792 0.090959
0.129015 0.084554 0.091108
0.140921 0.087315 0.091257
0.169980 0.094315 0.090944
0.207617 0.103436 0.090400
0.245253 0.112556 0.089856
0.282889 0.121677 0.089311
0.320526 0.130798 0.088767
0.360883 0.138752 0.086726
0.403961 0.145542 0.083187
0.447038 0.152331 0.079648
0.490116 0.159120 0.076109
0.533194 0.165910 0.072571
0.572884 0.171594 0.069080
0.605797 0.175067 0.065686
0.638709 0.178540 0.062292
0.671622 0.182013 0.058899
0.704535 0.185486 0.055505
0.734843 0.188392 0.052386
0.752125 0.188459 0.050643
0.769407 0.188526 0.048901
0.786689 0.188593 0.047158
0.803971 0.188660 0.045415
0.821253 0.188727 0.043672
0.092891 0.084013 0.100658
0.093208 0.084319 0.101013
0.093525 0.084626 0.101368
0.093842 0.084932 0.101724
0.094159 0.085239 0.102079
0.094476 0.085545 0.102434
0.100418 0.087097 0.102801
0.107485 0.088897 0.103170
0.114552 0.090698 0.103539
0.121619 0.092499 0.103908
0.128685 0.094299 0.104277
0.155601 0.101858 0.104476
0.192442 0.112296 0.104590
0.229282 0.122734 0.104704
0.266123 0.133171 0.104819
0.302963 0.143609 0.104933
0.343434 0.152662 0.102997
0.387537 0.160330 0.099010
0.431639 0.167997 0.095023
0.475742 0.175665 0.091036
0.519844 0.183332 0.087049
0.560680 0.189727 0.082988
0.594984 0.193575 0.078780
0.629287 0.197423 0.074572
0.663590 0.201271 0.070364
0.697894 0.205120 0.066156
0.729507 0.208319 0.062237
0.747667 0.208277 0.059762
0.765827 0.208234 0.057288
0.783987 0.208191 0.054813
0.802148 0.208149 0.052339
0.820308 0.208106 0.049864
0.103809 0.095545 0.112710
0.104172 0.095870 0.113047
0.104534 0.096195 0.113384
0.104897 0.096520 0.113721
0.105260 0.096844 0.114058
0.105623 0.097169 0.114395
0.107540 0.097923 0.114942
0.109767 0.098763 0.115530
0.111995 0.099603 0.116119
0.114222 0.100444 0.116707
0.116450 0.101284 0.117296
0.141222 0.109400 0.118007
0.177267 0.121156 0.118780
0.213311 0.132911 0.119553
0.249356 0.144666 0.120326
0.285400 0.156421 0.121099
0.325986 0.166572 0.119268
0.371113 0.175117 0.114833
0.416240 0.183663 0.110398
0.461367 0.192209 0.105962
0.506494 0.200754 0.101527
0.548477 0.207859 0.096896
0.584171 0.212083 0.091874
0.619865 0.216306 0.086852
0.655558 0.220529 0.081829
0.691252 0.224753 0.076807
0.724170 0.228247 0.072088
0.743209 0.228094 0.068881
0.762247 0.227942 0.065675
0.781286 0.227789 0.062469
0.800324 0.227637 0.059262
0.819363 0.227484 0.056056
0.119611 0.111647 0.128512
0.119989 0.111972 0.128819
0.120367 0.112296 0.129125
0.120745 0.112621 0.129432
0.121123 0.112946 0.129738
0.121501 0.113271 0.130045
0.122061 0.113748 0.130617
0.122657 0.114255 0.131242
0.123254 0.114763 0.131867
0.123850 0.115271 0.132492
0.124446 0.115779 0.133117
0.145472 0.123069 0.133959
0.176714 0.133751 0.134909
0.207956 0.144433 0.135858
0.239198 0.155114 0.136808
0.270440 0.165796 0.137758
0.308518 0.176224 0.136508
0.353431 0.186398 0.133058
0.398345 0.196572 0.129607
0.443258 0.206746 0.126157
0.488172 0.216920 0.122707
0.530494 0.225502 0.118632
0.567633 0.230900 0.113308
0.604772 0.236297 0.107984
0.641912 0.241694 0.102659
0.679051 0.247092 0.097335
0.713399 0.251651 0.092250
0.733791 0.252023 0.088361
0.754184 0.252395 0.084471
0.774576 0.252767 0.080582
0.794969 0.253139 0.076693
0.815361 0.253511 0.072803
0.137855 0.130033 0.146189
0.138233 0.130348 0.146459
0.138611 0.130664 0.146729
0.138989 0.130980 0.146999
0.139367 0.131295 0.147269
0.139746 0.131611 0.147539
0.140282 0.132071 0.148059
0.140851 0.132561 0.148629
0.141420 0.133050 0.149199
0.141989 0.133539 0.149769
0.142557 0.134029 0.150340
0.159037 0.139801 0.151120
0.183473 0.148214 0.152006
0.207909 0.156627 0.152892
0.232345 0.165040 0.153778
0.256780 0.173453 0.154664
0.291039 0.183748 0.154232
0.335120 0.195926 0.152483
0.379201 0.208103 0.150735
0.423282 0.220281 0.148986
0.467363 0.232458 0.147237
0.509621 0.242900 0.144281
0.548233 0.249871 0.138911
0.586845 0.256842 0.133541
0.625458 0.263812 0.128172
0.664070 0.270783 0.122802
0.699910 0.276794 0.117569
0.721895 0.278008 0.113021
0.743879 0.279222 0.108473
0.765863 0.280435 0.103925
0.787847 0.281649 0.099377
0.809831 0.282863 0.094828
0.156099 0.148419 0.163866
0.156477 0.148725 0.164100
0.156855 0.149032 0.164333
0.157233 0.149338 0.164566
0.157612 0.149644 0.164799
0.157990 0.149951 0.165033
0.158504 0.150395 0.165501
0.159045 0.150866 0.166016
0.159586 0.151337 0.166532
0.160128 0.151808 0.167047
0.160669 0.152279 0.167562
0.172602 0.156532 0.168282
0.190232 0.162677 0.169104
0.207862 0.168821 0.169926
0.225491 0.174966 0.170747
0.243121 0.181110 0.171569
0.273560 0.191273 0.171956
0.316809 0.205453 0.171909
0.360057 0.219634 0.171862
0.403306 0.233815 0.171815
0.446555 0.247996 0.171767
0.488749 0.260298 0.169931
0.528834 0.268842 0.164515
0.568918 0.277387 0.159099
0.609003 0.285931 0.153684
0.649088 0.294475 0.148268
0.686422 0.301938 0.142887
0.709998 0.303993 0.137681
0.733573 0.306048 0.132474
0.757149 0.308103 0.127267
0.780725 0.310159 0.122060
0.804301 0.312214 0.116854
0.174343 0.166805 0.181543
0.174721 0.167102 0.181740
0.175099 0.167399 0.181937
0.175478 0.167696 0.182133
0.175856 0.167994 0.182330
0.176234 0.168291 0.182527
0.176725 0.168718 0.182943
0.177239 0.169171 0.183404
0.177753 0.169624 0.183864
0.178266 0.170076 0.184324
0.178780 0.170529 0.184785
0.186167 0.173264 0.185444
0.196991 0.177140 0.186201
0.207814 0.181015 0.186959
0.218638 0.184891 0.187717
0.229462 0.188767 0.188475
0.256081 0.198797 0.189681
0.298498 0.214981 0.191335
0.340914 0.231165 0.192989
0.383330 0.247350 0.194643
0.425746 0.263534 0.196298
0.467876 0.277696 0.195580
0.509434 0.287814 0.190119
0.550991 0.297931 0.184657
0.592549 0.308049 0.179196
0.634107 0.318167 0.173735
0.672933 0.327081 0.168206
0.698101 0.329978 0.162341
0.723268 0.332875 0.156475
0.748436 0.335772 0.150610
0.773604 0.338668 0.144744
0.798771 0.341565 0.138879
0.192587 0.185190 0.199220
0.192965 0.185479 0.199380
0.193344 0.185767 0.199540
0.193722 0.186055 0.199700
0.194100 0.186343 0.199860
0.194478 0.186631 0.200021
0.194946 0.187041 0.200385
0.195433 0.187476 0.200791
0.195919 0.187910 0.201196
0.196405 0.188345 0.201602
0.196892 0.188779 0.202007
0.199732 0.189996 0.202605
0.203750 0.191603 0.203299
0.207767 0.193210 0.203993
0.211785 0.194817 0.204686
0.215802 0.196424 0.205380
0.238603 0.206321 0.207405
0.280186 0.224509 0.210761
0.321770 0.242696 0.214116
0.363354 0.260884 0.217472
0.404937 0.279072 0.220828
0.447003 0.295094 0.221229
0.490034 0.306785 0.215722
0.533064 0.318476 0.210215
0.576095 0.330167 0.204708
0.619126 0.341858 0.199201
0.659444 0.352224 0.193525
0.686204 0.355963 0.187000
0.712963 0.359701 0.180476
0.739722 0.363440 0.173952
0.766482 0.367178 0.167428
0.793241 0.370917 0.160904
0.214731 0.207027 0.219591
0.215104 0.207315 0.219719
0.215478 0.207603 0.219847
0.215851 0.207891 0.219975
0.216225 0.208179 0.220103
0.216599 0.208467 0.220232
0.217036 0.208855 0.220553
0.217485 0.209262 0.220913
0.217935 0.209669 0.221272
0.218385 0.210076 0.221632
0.218835 0.210483 0.221992
0.219370 0.210922 0.222526
0.219948 0.211376 0.223146
0.220526 0.211830 0.223767
0.221103 0.212285 0.224387
0.221681 0.212739 0.225008
0.240576 0.221642 0.227238
0.277787 0.238992 0.231079
0.314997 0.256343 0.234920
0.352208 0.273694 0.238760
0.389419 0.291044 0.242601
0.428735 0.307156 0.243759
0.472259 0.320791 0.239551
0.515784 0.334427 0.235342
0.559309 0.348062 0.231134
0.602833 0.361697 0.226926
0.643822 0.373909 0.222321
0.672132 0.379006 0.215728
0.700442 0.384103 0.209136
0.728752 0.389200 0.202543
0.757062 0.394296 0.195950
0.785372 0.399393 0.189358
0.240774 0.232313 0.242656
0.241138 0.232611 0.242757
0.241502 0.232908 0.242858
0.241867 0.233205 0.242958
0.242231 0.233502 0.243059
0.242596 0.233800 0.243159
0.242993 0.234158 0.243446
0.243397 0.234529 0.243769
0.243801 0.234899 0.244092
0.244205 0.235270 0.244415
0.244609 0.235640 0.244738
0.245080 0.236042 0.245205
0.245585 0.236460 0.245743
0.246090 0.236878 0.246281
0.246594 0.237295 0.246820
0.247099 0.237713 0.247358
0.262000 0.244759 0.249181
0.291298 0.258432 0.252290
0.320596 0.272105 0.255399
0.349894 0.285778 0.258508
0.379192 0.299451 0.261616
0.413070 0.313883 0.263168
0.456110 0.329833 0.261603
0.499150 0.345782 0.260039
0.542190 0.361732 0.258475
0.585229 0.377681 0.256910
0.626066 0.392135 0.254595
0.655885 0.399107 0.248524
0.685704 0.406079 0.242452
0.715524 0.413051 0.236381
0.745343 0.420024 0.230310
0.775162 0.426996 0.224239
0.266816 0.257600 0.265721
0.267172 0.257906 0.265795
0.267527 0.258213 0.265868
0.267882 0.258519 0.265941
0.268237 0.258826 0.266014
0.268593 0.259132 0.266087
0.268950 0.259461 0.266338
0.269309 0.259795 0.266625
0.269667 0.260129 0.266912
0.270025 0.260463 0.267198
0.270384 0.260797 0.267485
0.270791 0.261162 0.267884
0.271222 0.261544 0.268340
0.271654 0.261925 0.268796
0.272085 0.262306 0.269252
0.272517 0.262687 0.269708
0.283425 0.267875 0.271124
0.304810 0.277871 0.273501
0.326195 0.287867 0.275878
0.347580 0.297863 0.278255
0.368964 0.307858 0.280632
0.397406 0.320610 0.282577
0.439961 0.338874 0.283656
0.482516 0.357138 0.284735
0.525071 0.375402 0.285815
0.567626 0.393666 0.286894
0.608309 0.410360 0.286869
0.639638 0.419208 0.281319
0.670967 0.428056 0.275769
0.702296 0.436903 0.270220
0.733625 0.445751 0.264670
0.764953 0.454598 0.259120
0.292859 0.282886 0.288786
0.293205 0.283202 0.288832
0.293551 0.283517 0.288878
0.293897 0.283833 0.288924
0.294244 0.284149 0.288969
0.294590 0.284464 0.289015
0.294908 0.284765 0.289231
0.295220 0.285062 0.289481
0.295533 0.285359 0.289731
0.295845 0.285657 0.289981
0.296158 0.285954 0.290231
0.296501 0.286283 0.290564
0.296859 0.286627 0.290937
0.297218 0.286972 0.291311
0.297576 0.287316 0.291684
0.297934 0.287661 0.292058
0.304849 0.290992 0.293067
0.318321 0.297311 0.294712
0.331793 0.303629 0.296357
0.345265 0.309947 0.298003
0.358737 0.316265 0.299648
0.381742 0.327337 0.301985
0.423812 0.347915 0.305709
0.465882 0.368494 0.309432
0.507952 0.389072 0.313155
0.550022 0.409650 0.316878
0.590553 0.428586 0.319143
0.623391 0.439309 0.314115
0.656230 0.450032 0.309086
0.689068 0.460755 0.304058
0.721906 0.471478 0.299030
0.754744 0.482201 0.294001
0.318902 0.308173 0.311852
0.319239 0.308498 0.311870
0.319576 0.308822 0.311888
0.319913 0.309147 0.311906
0.320250 0.309472 0.311925
0.320587 0.309797 0.311943
0.320865 0.310068 0.312124
0.321132 0.310329 0.312337
0.321399 0.310589 0.312551
0.321666 0.310850 0.312764
0.321932 0.311111 0.312978
0.322211 0.311403 0.313243
0.322497 0.311711 0.313534
0.322782 0.312019 0.313826
0.323067 0.312327 0.314117
0.323352 0.312635 0.314408
0.326274 0.314109 0.315010
0.331833 0.316750 0.315923
0.337392 0.319391 0.316837
0.342951 0.322032 0.317750
0.348510 0.324672 0.318663
0.366077 0.334064 0.321394
0.407662 0.356956 0.327761
0.449248 0.379849 0.334128
0.490833 0.402742 0.340495
0.532418 0.425635 0.346862
0.572797 0.446812 0.351417
0.607145 0.459410 0.346910
0.641492 0.472009 0.342403
0.675840 0.484607 0.337896
0.710187 0.497205 0.333389
0.744535 0.509803 0.328883
0.346662 0.334988 0.336130
0.346999 0.335312 0.336130
0.347336 0.335637 0.336130
0.347673 0.335962 0.336130
0.348010 0.336287 0.336130
0.348347 0.336611 0.336130
0.348590 0.336855 0.336280
0.348814 0.337082 0.336460
0.349038 0.337309 0.336640
0.349262 0.337536 0.336819
0.349486 0.337763 0.336999
0.349706 0.338018 0.337209
0.349924 0.338286 0.337433
0.350142 0.338555 0.337657
0.350360 0.338823 0.337881
0.350578 0.339091 0.338105
0.350820 0.339316 0.338418
0.351085 0.339496 0.338819
0.351351 0.339675 0.339220
0.351616 0.339855 0.339621
0.351881 0.340035 0.340022
0.364924 0.347775 0.342827
0.403520 0.370634 0.350441
0.442117 0.393493 0.358055
0.480714 0.416353 0.365670
0.519311 0.439212 0.373284
0.557362 0.460686 0.379112
0.592682 0.475233 0.376007
0.628002 0.489780 0.372903
0.663323 0.504326 0.369799
0.698643 0.518873 0.366695
0.733964 0.533420 0.363591
0.377857 0.364859 0.362834
0.378212 0.365165 0.362834
0.378567 0.365472 0.362834
0.378922 0.365778 0.362834
0.379278 0.366085 0.362834
0.379633 0.366391 0.362834
0.379848 0.366609 0.362961
0.380036 0.366808 0.363114
0.380223 0.367008 0.363266
0.380411 0.367208 0.363419
0.380598 0.367408 0.363571
0.380770 0.367623 0.363747
0.380933 0.367845 0.363935
0.381096 0.368068 0.364122
0.381259 0.368290 0.364310
0.381422 0.368513 0.364497
0.381609 0.368700 0.364755
0.381819 0.368853 0.365083
0.382030 0.369005 0.365410
0.382240 0.369158 0.365738
0.382451 0.369310 0.366066
0.392791 0.375455 0.368307
0.423393 0.393585 0.374375
0.453994 0.411715 0.380444
0.484596 0.429845 0.386512
0.515197 0.447974 0.392580
0.546569 0.465856 0.397647
0.581788 0.482498 0.397708
0.617008 0.499139 0.397769
0.652228 0.515781 0.397830
0.687448 0.532423 0.397891
0.722667 0.549065 0.397952
0.409051 0.394730 0.389539
0.409425 0.395018 0.389539
0.409798 0.395306 0.389539
0.410172 0.395594 0.389539
0.410545 0.395883 0.389539
0.410919 0.396171 0.389539
0.411107 0.396362 0.389643
0.411258 0.396535 0.389768
0.411409 0.396707 0.389893
0.411560 0.396879 0.390018
0.411711 0.397052 0.390143
0.411833 0.397227 0.390285
0.411941 0.397404 0.390436
0.412050 0.397581 0.390587
0.412158 0.397757 0.390738
0.412266 0.397934 0.390889
0.412398 0.398085 0.391092
0.412554 0.398210 0.391347
0.412709 0.398335 0.391601
0.412865 0.398460 0.391856
0.413020 0.398585 0.392110
0.420659 0.403135 0.393788
0.443265 0.416536 0.398310
0.465872 0.429936 0.402832
0.488478 0.443336 0.407354
0.511084 0.456737 0.411876
0.535776 0.471026 0.416182
0.570895 0.489763 0.419408
0.606014 0.508499 0.422635
0.641133 0.527236 0.425861
0.676252 0.545973 0.429087
0.711371 0.564709 0.432313
0.440246 0.424601 0.416243
0.440638 0.424871 0.416243
0.441029 0.425141 0.416243
0.441421 0.425411 0.416243
0.441813 0.425681 0.416243
0.442205 0.425951 0.416243
0.442366 0.426116 0.416325
0.442480 0.426261 0.416422
0.442594 0.426406 0.416520
0.442709 0.426551 0.416617
0.442823 0.426696 0.416715
0.442897 0.426831 0.416824
0.442950 0.426962 0.416938
0.443003 0.427094 0.417052
0.443057 0.427225 0.417167
0.443110 0.427356 0.417281
0.443187 0.427470 0.417429
0.443288 0.427568 0.417610
0.443388 0.427665 0.417792
0.443489 0.427763 0.417973
0.443590 0.427860 0.418155
0.448527 0.430816 0.419268
0.463138 0.439486 0.422244
0.477749 0.448157 0.425220
0.492360 0.456828 0.428196
0.506970 0.465499 0.431172
0.524982 0.476196 0.434718
0.560001 0.497028 0.441109
0.595019 0.517859 0.447500
0.630038 0.538691 0.453892
0.665056 0.559522 0.460283
0.700075 0.580354 0.466675
0.471440 0.454472 0.442948
0.471851 0.454724 0.442948
0.472261 0.454976 0.442948
0.472671 0.455227 0.442948
0.473081 0.455479 0.442948
0.473491 0.455730 0.442948
0.473624 0.455870 0.443006
0.473702 0.455987 0.443076
0.473780 0.456105 0.443146
0.473857 0.456222 0.443217
0.473935 0.456340 0.443287
0.473960 0.456436 0.443362
0.473959 0.456521 0.443440
0.473957 0.456606 0.443517
0.473956 0.456692 0.443595
0.473954 0.456777 0.443673
0.473976 0.456855 0.443766
0.474022 0.456925 0.443874
0.474068 0.456995 0.443982
0.474113 0.457065 0.444091
0.474159 0.457135 0.444199
0.476395 0.458496 0.444748
0.483010 0.462437 0.446178
0.489626 0.466379 0.447608
0.496241 0.470320 0.449038
0.502857 0.474261 0.450468
0.514189 0.481366 0.453253
0.549107 0.504293 0.462810
0.584025 0.527219 0.472366
0.618943 0.550146 0.481923
0.653861 0.573072 0.491479
0.688779 0.595998 0.501036
0.502328 0.484084 0.469747
0.502759 0.484312 0.469747
0.503191 0.484541 0.469747
0.503622 0.484770 0.469747
0.504054 0.484998 0.469747
0.504485 0.485227 0.469747
0.504594 0.485342 0.469785
0.504638 0.485433 0.469831
0.504682 0.485524 0.469876
0.504727 0.485616 0.469922
0.504771 0.485707 0.469968
0.504752 0.485768 0.470014
0.504702 0.485814 0.470059
0.504651 0.485860 0.470105
0.504601 0.485906 0.470151
0.504551 0.485951 0.470197
0.504524 0.485997 0.470242
0.504521 0.486043 0.470288
0.504518 0.486089 0.470334
0.504515 0.486134 0.470379
0.504512 0.486180 0.470425
0.504493 0.486211 0.470501
0.504441 0.486211 0.470639
0.504389 0.486211 0.470776
0.504337 0.486211 0.470913
0.504285 0.486211 0.471050
0.509860 0.490190 0.473131
0.543565 0.514066 0.484932
0.577271 0.537942 0.496733
0.610977 0.561819 0.508534
0.644683 0.585695 0.520335
0.678388 0.609571 0.532136
0.531679 0.512395 0.497018
0.532147 0.512578 0.497018
0.532615 0.512761 0.497018
0.533083 0.512944 0.497018
0.533551 0.513127 0.497018
0.534019 0.513310 0.497018
0.534119 0.513401 0.497049
0.534145 0.513475 0.497085
0.534171 0.513548 0.497122
0.534197 0.513621 0.497159
0.534223 0.513694 0.497195
0.534186 0.513743 0.497232
0.534117 0.513780 0.497268
0.534048 0.513816 0.497305
0.533980 0.513853 0.497342
0.533911 0.513889 0.497378
0.533866 0.513926 0.497415
0.533845 0.513962 0.497451
0.533824 0.513999 0.497488
0.533802 0.514036 0.497525
0.533781 0.514072 0.497561
0.533740 0.514097 0.497622
