Assets/1__3DArt/KimSe/artstation_asset/LUTs_subway_asset/CUBE/Underground 03.cube
# LUT by SparkleStock. Enhanced with VOXCOLOR algorithms.
LUT_3D_SIZE 5
DOMAIN_MIN 0.000000 0.000000 0.000000
DOMAIN_MAX 0.903226 0.903226 0.903226
0.050794 0.023443 0.035165
0.176959 0.028115 0.039600
0.373343 0.042782 0.036780
0.585632 0.059222 0.037693
0.737768 0.070692 0.045973
0.113207 0.093962 0.113766
0.146218 0.102558 0.116152
0.321041 0.131986 0.103964
0.561549 0.151170 0.075980
0.735600 0.147169 0.055257
0.215771 0.211493 0.231502
0.219035 0.214850 0.235072
0.256470 0.229957 0.238735
0.470300 0.305249 0.239579
0.703758 0.329933 0.191429
0.371373 0.380748 0.383379
0.372685 0.382316 0.384703
0.374226 0.384221 0.386608
0.387128 0.392678 0.390504
0.621548 0.504965 0.408854
0.558525 0.563126 0.542440
0.560268 0.563318 0.542490
0.559375 0.563611 0.542783
0.559707 0.563986 0.543167
0.602319 0.588676 0.554314
0.054575 0.026791 0.157359
0.135382 0.080338 0.134753
0.317663 0.105266 0.158766
0.556924 0.106104 0.187235
0.734660 0.097880 0.211178
0.088843 0.156669 0.208300
0.241312 0.216794 0.250631
0.430143 0.230378 0.241926
0.651476 0.216124 0.228401
0.802773 0.193670 0.220001
0.200675 0.248762 0.268551
0.347852 0.359233 0.365751
0.416425 0.378301 0.376441
0.616300 0.394217 0.342046
0.797234 0.365569 0.284242
0.366722 0.389162 0.391261
0.508622 0.512049 0.503443
0.533316 0.532618 0.522446
0.542277 0.535048 0.520215
0.738783 0.578621 0.485864
0.559611 0.564126 0.543728
0.667672 0.659401 0.637721
0.685574 0.675694 0.653874
0.684416 0.674599 0.652721
0.714821 0.687273 0.652147
0.054984 0.042735 0.331025
0.148196 0.102027 0.304065
0.243614 0.200825 0.258318
0.460115 0.252487 0.329412
0.689891 0.233817 0.393530
0.075012 0.213731 0.406919
0.232623 0.258769 0.429991
0.397269 0.351931 0.395484
0.612822 0.362927 0.426036
0.792289 0.319705 0.450106
0.147117 0.384945 0.433239
0.333656 0.448205 0.486032
0.503142 0.502971 0.507130
0.698210 0.491965 0.498036
0.848183 0.451568 0.483613
0.330024 0.450806 0.450976
0.513884 0.559672 0.550436
0.639913 0.638650 0.623200
0.664916 0.647436 0.628556
0.825795 0.635104 0.574911
0.544344 0.581700 0.560232
0.681182 0.681191 0.659548
0.769088 0.753623 0.732494
0.780406 0.762720 0.742298
0.803118 0.764295 0.733180
0.051597 0.069755 0.513270
0.168715 0.114723 0.507578
0.309307 0.250488 0.449742
0.381474 0.380983 0.393804
0.608336 0.442335 0.513342
0.073035 0.238856 0.581570
0.226600 0.276626 0.618917
0.421313 0.383474 0.583896
0.540925 0.528329 0.529754
0.733122 0.532897 0.609137
0.135436 0.481533 0.663311
0.302523 0.501153 0.685802
0.508115 0.536384 0.680250
0.663586 0.643457 0.638078
0.824364 0.613396 0.676016
0.239391 0.629569 0.643926
0.436216 0.673525 0.680728
0.613988 0.711946 0.710102
0.761420 0.739365 0.727545
0.883955 0.712393 0.718954
0.487664 0.651792 0.632053
0.648341 0.719112 0.699812
0.769301 0.781739 0.763068
0.855072 0.836431 0.817844
0.875925 0.830602 0.807852
0.049801 0.104959 0.661483
0.170014 0.136550 0.668773
0.360785 0.257100 0.645340
0.514467 0.444272 0.585656
0.592317 0.566039 0.572701
0.073110 0.263282 0.708117
0.218992 0.307751 0.758788
0.430002 0.388384 0.746254
0.619297 0.550357 0.698387
0.710515 0.667288 0.677992
0.139762 0.499511 0.787120
0.291435 0.517710 0.812834
0.499241 0.550697 0.814568
0.694603 0.646833 0.786724
0.798855 0.747027 0.761888
0.246170 0.710958 0.837293
0.409722 0.725001 0.855519
0.582654 0.735292 0.856682
0.753448 0.753864 0.850684
0.866873 0.815406 0.828769
0.402299 0.784930 0.800337
0.572622 0.815567 0.829643
0.714083 0.843438 0.854479
0.829845 0.867637 0.873503
0.915292 0.885282 0.880843
