Assets/1__3DArt/KimSe/artstation_asset/LUTs_subway_asset/CUBE/Underground 05_S.cube
# LUT by SparkleStock. Enhanced with VOXCOLOR algorithms.
LUT_3D_SIZE 5
DOMAIN_MIN 0.000000 0.000000 0.000000
DOMAIN_MAX 0.903226 0.903226 0.903226
0.019536 0.003907 0.011722
0.134704 0.014999 0.021222
0.361401 0.042554 0.024341
0.617787 0.076261 0.029273
0.778747 0.099397 0.040506
0.070881 0.061121 0.076135
0.124929 0.091714 0.066244
0.329885 0.139580 0.055888
0.598556 0.172981 0.044674
0.776346 0.175269 0.038305
0.173335 0.167813 0.180291
0.191726 0.188903 0.171724
0.265366 0.232300 0.157989
0.504791 0.311836 0.166888
0.731970 0.343167 0.148545
0.343149 0.337934 0.332601
0.350624 0.345524 0.329179
0.365951 0.361035 0.321894
0.401007 0.383673 0.317687
0.639557 0.500080 0.360292
0.558194 0.542550 0.521312
0.562170 0.543945 0.520828
0.564401 0.545985 0.519858
0.567594 0.548437 0.518742
0.610672 0.577980 0.535423
0.024003 0.013069 0.116806
0.103151 0.050950 0.103932
0.311069 0.081217 0.129900
0.587260 0.108560 0.159610
0.769959 0.128937 0.187011
0.050229 0.119191 0.171139
0.205308 0.187049 0.211299
0.409785 0.216992 0.209972
0.654733 0.229914 0.209890
0.826181 0.227933 0.206024
0.157361 0.203983 0.222342
0.310964 0.329751 0.312246
0.409203 0.372934 0.298489
0.628719 0.404096 0.279257
0.825019 0.395560 0.248205
0.338301 0.346964 0.344985
0.486057 0.488947 0.464962
0.519741 0.526082 0.459566
0.564762 0.547365 0.424421
0.774012 0.594170 0.409678
0.559673 0.543852 0.524952
0.664562 0.652799 0.632452
0.682380 0.673658 0.641606
0.688668 0.680353 0.623469
0.735932 0.700913 0.608653
0.036197 0.040624 0.289968
0.118217 0.086271 0.267577
0.223021 0.155886 0.221720
0.472392 0.221293 0.292466
0.712273 0.245464 0.367194
0.050193 0.194132 0.381926
0.203212 0.237798 0.403397
0.382820 0.299773 0.375211
0.615459 0.328451 0.403902
0.807483 0.326665 0.431854
0.105669 0.350856 0.417065
0.289980 0.419629 0.463353
0.469303 0.464414 0.467426
0.677740 0.467400 0.458991
0.859913 0.454252 0.453055
0.292128 0.417047 0.422736
0.485630 0.538631 0.527965
0.605711 0.622540 0.586260
0.660781 0.643982 0.549214
0.849246 0.645200 0.514065
0.539382 0.564653 0.547355
0.674915 0.675578 0.659012
0.753164 0.750792 0.728765
0.768349 0.769382 0.713683
0.819102 0.783203 0.676775
0.051148 0.093182 0.491685
0.154247 0.131846 0.483111
0.289374 0.233087 0.415792
0.369603 0.332670 0.354297
0.618794 0.427802 0.492193
0.066850 0.249191 0.572125
0.211581 0.291557 0.604519
0.406467 0.367590 0.570266
0.543540 0.473422 0.523480
0.742832 0.510254 0.602596
0.124556 0.481170 0.671766
0.278568 0.501336 0.685357
0.479845 0.521769 0.669798
0.652468 0.586797 0.633735
0.830483 0.577518 0.662663
0.200462 0.620669 0.661566
0.396102 0.665366 0.688439
0.579287 0.696660 0.704055
0.722739 0.708364 0.705200
0.877581 0.688957 0.690767
0.469319 0.645788 0.635462
0.634843 0.716641 0.705391
0.751537 0.777897 0.765663
0.825347 0.827921 0.808832
0.868791 0.833152 0.774430
0.062594 0.172665 0.653102
0.175439 0.198568 0.651879
0.359368 0.291474 0.623251
0.514372 0.437963 0.564746
0.601094 0.550961 0.561124
0.081929 0.308954 0.705606
0.225506 0.363851 0.745208
0.428842 0.424006 0.730761
0.616575 0.551102 0.692765
0.713365 0.655296 0.683491
0.157168 0.528534 0.794381
0.293119 0.548907 0.811079
0.488875 0.573114 0.806928
0.682850 0.644983 0.784248
0.794249 0.726593 0.769524
0.267113 0.726028 0.850421
0.408373 0.737384 0.859993
0.566325 0.740771 0.855234
0.730802 0.749861 0.845396
0.851756 0.792865 0.828670
0.393413 0.792781 0.815608
0.556192 0.818602 0.836946
0.693469 0.840246 0.854738
0.804353 0.858781 0.869409
0.888366 0.872813 0.873631
