Assets/1__3DArt/KimSe/artstation_asset/LUTs_subway_asset/CUBE/Underground 01.cube
# LUT by SparkleStock. Enhanced with VOXCOLOR algorithms.
LUT_3D_SIZE 5
DOMAIN_MIN 0.000000 0.000000 0.000000
DOMAIN_MAX 0.903226 0.903226 0.903226
0.046886 0.058608 0.042979
0.186459 0.068510 0.072937
0.369987 0.084501 0.097011
0.574800 0.105731 0.117657
0.760692 0.132230 0.138406
0.119816 0.139430 0.131726
0.152745 0.147615 0.135748
0.318516 0.177088 0.139205
0.547535 0.201231 0.127940
0.751805 0.214578 0.116617
0.212108 0.234779 0.233329
0.215205 0.237647 0.236616
0.249698 0.251664 0.242862
0.438146 0.316299 0.255884
0.676654 0.359688 0.229608
0.331695 0.352381 0.354854
0.332801 0.353422 0.356266
0.334522 0.355482 0.358328
0.346369 0.363808 0.363537
0.550157 0.465538 0.397675
0.471748 0.486022 0.487723
0.472226 0.486305 0.487824
0.472049 0.486406 0.488208
0.472361 0.486927 0.488601
0.506322 0.510319 0.501962
0.051030 0.068549 0.148214
0.141544 0.126920 0.149659
0.315298 0.148677 0.198939
0.542669 0.152407 0.248173
0.748293 0.163788 0.284658
0.085041 0.183761 0.197767
0.229493 0.237436 0.248919
0.412306 0.262287 0.269575
0.638586 0.271588 0.283357
0.828317 0.282414 0.293299
0.191704 0.259409 0.258866
0.315439 0.347063 0.347434
0.381549 0.369326 0.366339
0.578186 0.404407 0.362595
0.790953 0.417793 0.335875
0.325567 0.358326 0.360829
0.446542 0.464329 0.466009
0.470751 0.484997 0.486769
0.480671 0.489259 0.488101
0.681565 0.557382 0.490635
0.469668 0.487251 0.488618
0.582458 0.590732 0.592314
0.603048 0.609946 0.611242
0.602076 0.609195 0.610506
0.633556 0.626267 0.616763
0.056355 0.080507 0.268187
0.148624 0.140871 0.266951
0.237658 0.226433 0.255746
0.430513 0.266022 0.333936
0.669609 0.266593 0.406580
0.071634 0.218341 0.338779
0.211963 0.261260 0.376196
0.364135 0.346415 0.376558
0.575799 0.372424 0.427881
0.787716 0.367981 0.471892
0.121038 0.347670 0.375404
0.282534 0.408760 0.437193
0.452164 0.471610 0.480157
0.657718 0.489878 0.499270
0.844383 0.493484 0.510562
0.279553 0.401377 0.404872
0.443079 0.503458 0.506830
0.572046 0.588400 0.590115
0.600651 0.601966 0.601488
0.788486 0.630546 0.587509
0.450270 0.501202 0.502333
0.595732 0.614805 0.616059
0.698557 0.703551 0.704796
0.713174 0.716319 0.717852
0.741064 0.725047 0.716788
0.063201 0.094285 0.405806
0.163229 0.137967 0.416958
0.279307 0.252815 0.393645
0.340495 0.353860 0.363213
0.544420 0.408564 0.474236
0.076579 0.227693 0.474965
0.202154 0.258236 0.526926
0.369797 0.356468 0.520036
0.478186 0.482147 0.493311
0.680365 0.508858 0.580809
0.104439 0.409388 0.568040
0.241759 0.434476 0.602919
0.442340 0.485677 0.619952
0.599308 0.596796 0.608390
0.789747 0.600606 0.663162
0.156080 0.534891 0.561976
0.326328 0.589878 0.613565
0.523968 0.649624 0.665597
0.705613 0.702890 0.710722
0.861490 0.705352 0.721174
0.370792 0.562021 0.567053
0.544138 0.648524 0.652460
0.693296 0.734297 0.736730
0.806612 0.811244 0.813135
0.836031 0.813320 0.810460
0.073181 0.110268 0.553878
0.166751 0.137164 0.567773
0.310819 0.239001 0.564782
0.432650 0.391031 0.524181
0.501918 0.490833 0.515240
0.084342 0.232094 0.601359
0.195837 0.257475 0.675435
0.368547 0.336308 0.678632
0.535991 0.489494 0.647966
0.629229 0.604548 0.635981
0.112141 0.414603 0.700783
0.232279 0.431067 0.742073
0.425050 0.477223 0.761028
0.618291 0.587105 0.751855
0.736018 0.702706 0.739700
0.150762 0.608030 0.774838
0.291145 0.630757 0.804183
0.477743 0.659118 0.817628
0.686392 0.705967 0.831732
0.825272 0.791683 0.827640
0.240290 0.694673 0.742296
0.415850 0.744340 0.787359
0.599692 0.795522 0.830081
0.765573 0.844253 0.870449
0.889614 0.882657 0.897179
