Assets/1__3DArt/KimSe/artstation_asset/LUTs_subway_asset/CUBE/Underground 03.cube
# LUT by SparkleStock. Enhanced with VOXCOLOR algorithms.
LUT_3D_SIZE 8
DOMAIN_MIN 0.000000 0.000000 0.000000
DOMAIN_MAX 0.903226 0.903226 0.903226
0.050794 0.023443 0.035165
0.113183 0.024578 0.039135
0.201820 0.029863 0.039222
0.311426 0.037961 0.037630
0.435047 0.047580 0.036260
0.557178 0.057033 0.037205
0.658514 0.064752 0.040671
0.737768 0.070692 0.045973
0.082744 0.058986 0.075623
0.098882 0.060999 0.078862
0.173510 0.072347 0.076039
0.286227 0.084982 0.067532
0.418373 0.093466 0.054855
0.549287 0.097942 0.044237
0.656233 0.099344 0.038579
0.737689 0.098697 0.036831
0.124739 0.107385 0.128134
0.127282 0.109550 0.130952
0.160855 0.117128 0.131039
0.242158 0.134154 0.127289
0.374186 0.159401 0.118221
0.518755 0.171446 0.098528
0.640850 0.173631 0.080533
0.734474 0.169154 0.066762
0.180795 0.171791 0.193407
0.182887 0.173688 0.195687
0.185605 0.176392 0.198504
0.223397 0.190420 0.200499
0.317824 0.220481 0.199415
0.467503 0.255079 0.186979
0.606865 0.269927 0.162804
0.719078 0.270215 0.138072
0.253653 0.253889 0.271251
0.254922 0.255347 0.272691
0.256674 0.257288 0.274627
0.258854 0.259587 0.276854
0.277001 0.269299 0.280352
0.404670 0.329364 0.291903
0.553674 0.369284 0.275568
0.685744 0.386983 0.247894
0.346859 0.354847 0.360676
0.347688 0.355865 0.361530
0.348587 0.356953 0.362569
0.349682 0.358226 0.363833
0.353246 0.360748 0.365447
0.372457 0.370463 0.368069
0.495457 0.434558 0.384398
0.633552 0.485073 0.379472
0.452196 0.462421 0.453567
0.453074 0.462878 0.453835
0.453434 0.463336 0.454237
0.453636 0.463900 0.454801
0.453978 0.464613 0.455506
0.454746 0.465327 0.456153
0.497727 0.489642 0.464123
0.591799 0.536850 0.475923
0.558525 0.563126 0.542440
0.560026 0.563236 0.542440
0.560161 0.563345 0.542517
0.559668 0.563501 0.542673
0.559197 0.563720 0.542892
0.559526 0.563940 0.543112
0.560841 0.564068 0.543332
0.602319 0.588676 0.554314
0.053251 0.023821 0.097365
0.090758 0.051741 0.082307
0.172241 0.063284 0.091566
0.285226 0.067357 0.106002
0.416879 0.070279 0.113341
0.547939 0.072267 0.118384
0.656251 0.073620 0.125339
0.739952 0.074601 0.134800
0.069541 0.091126 0.124211
0.130485 0.118337 0.138338
0.225751 0.126731 0.142818
0.344075 0.127097 0.140527
0.474012 0.126916 0.134490
0.597763 0.125627 0.129670
0.697767 0.123306 0.128634
0.775279 0.120043 0.130530
0.113188 0.135518 0.158134
0.183835 0.179917 0.196939
0.241786 0.193894 0.207877
0.328082 0.198882 0.201501
0.461225 0.207294 0.186230
0.593296 0.205000 0.165928
0.700670 0.196568 0.149260
0.783394 0.184946 0.137231
0.175770 0.185397 0.207464
0.250205 0.248376 0.263372
0.274164 0.268622 0.281556
0.314554 0.275776 0.278208
0.413086 0.289022 0.264895
0.553893 0.300772 0.240594
0.676125 0.295763 0.210881
0.772476 0.281362 0.183724
0.251738 0.259482 0.276673
0.329033 0.331257 0.340550
0.352950 0.353303 0.360282
0.354878 0.355019 0.361802
0.372485 0.361370 0.361857
0.499937 0.398743 0.352010
0.633879 0.413202 0.321489
0.747769 0.409155 0.284747
0.346261 0.356780 0.362585
0.422437 0.427436 0.426556
0.445221 0.448511 0.445590
0.445998 0.449220 0.446146
0.448952 0.450619 0.446484
0.467379 0.456339 0.445046
0.580888 0.499316 0.443185
0.703244 0.526307 0.421779
0.452550 0.462524 0.454036
0.522051 0.525519 0.513003
0.542522 0.544039 0.530311
0.542679 0.544191 0.530412
0.542658 0.544261 0.530403
0.542642 0.544285 0.530162
0.581562 0.560986 0.530732
0.663945 0.592509 0.529301
0.560392 0.562796 0.542440
0.618654 0.615155 0.593980
0.635813 0.630661 0.609117
0.635773 0.630830 0.609153
0.635366 0.630748 0.609007
0.635086 0.630505 0.608678
0.634990 0.630170 0.608138
0.670025 0.648180 0.612714
0.054906 0.028351 0.180188
0.094175 0.060973 0.163106
0.148810 0.092748 0.150879
0.238278 0.115570 0.158058
0.369383 0.124781 0.187985
0.512586 0.123037 0.206562
0.635322 0.117090 0.222379
0.731426 0.109955 0.238707
0.064139 0.111866 0.216542
0.139868 0.138420 0.230386
0.221766 0.171004 0.221146
0.326413 0.190752 0.216656
0.459137 0.188109 0.230939
0.590337 0.178848 0.236937
0.698030 0.167603 0.242084
0.782070 0.156459 0.248294
0.095278 0.184948 0.239427
0.187364 0.225579 0.275160
0.268210 0.256847 0.284396
0.368584 0.271164 0.281958
0.501868 0.266156 0.277672
0.628802 0.254224 0.267942
0.730639 0.239599 0.260308
0.809751 0.224482 0.255714
0.153292 0.242107 0.264366
0.252409 0.304481 0.318775
0.324399 0.340736 0.348855
0.397932 0.354869 0.356300
0.494032 0.352918 0.344680
0.623516 0.349761 0.323253
0.730569 0.335783 0.300505
0.814533 0.316759 0.280885
0.238423 0.288194 0.304398
0.342156 0.369252 0.376349
0.410493 0.418944 0.420195
0.442192 0.440614 0.439147
0.458266 0.442878 0.436556
0.581184 0.457353 0.413729
0.699873 0.451482 0.378382
0.797740 0.432285 0.341415
0.338410 0.370740 0.375600
0.440104 0.455216 0.452178
0.503435 0.507159 0.499548
0.531013 0.529440 0.519990
0.532815 0.529201 0.519077
0.549753 0.530720 0.514692
0.653580 0.553431 0.498704
0.761676 0.559702 0.466764
0.448329 0.468572 0.459685
0.540329 0.546378 0.532765
0.596087 0.594185 0.578064
0.619612 0.614501 0.597551
0.618879 0.613614 0.596841
0.617977 0.612675 0.595608
0.653035 0.621666 0.589952
0.725454 0.638722 0.578165
0.558888 0.564904 0.544431
0.635285 0.631063 0.609747
0.681529 0.672094 0.650360
0.701022 0.689765 0.667951
0.700416 0.689183 0.667495
0.699597 0.688340 0.666646
0.698533 0.687383 0.665400
0.728484 0.699129 0.664365
0.055363 0.036874 0.277805
0.105109 0.064190 0.266675
0.147888 0.112829 0.236002
0.210312 0.160373 0.221595
0.310884 0.191116 0.243973
0.457855 0.201020 0.285578
0.595603 0.194676 0.316811
0.708430 0.181624 0.344118
0.062303 0.125622 0.324283
0.139236 0.144633 0.338234
0.211616 0.196330 0.318568
0.297799 0.245115 0.302347
0.409776 0.267037 0.312644
0.548664 0.261369 0.339168
0.669935 0.244781 0.356646
0.767046 0.225328 0.371098
0.082371 0.230712 0.352453
0.173358 0.254022 0.375960
0.270288 0.293525 0.379350
0.376244 0.328488 0.373349
0.493068 0.343686 0.368118
0.621522 0.330376 0.379120
0.728016 0.310947 0.385414
0.812376 0.290557 0.390702
0.128327 0.314024 0.366150
0.228415 0.352383 0.399694
0.336708 0.389657 0.428261
0.439660 0.416644 0.439432
0.534451 0.426619 0.429602
0.657566 0.413959 0.423148
0.757889 0.394367 0.414578
0.837198 0.372694 0.407186
0.207396 0.358282 0.374387
0.315878 0.418015 0.426625
0.419444 0.474401 0.475158
0.492633 0.510048 0.504943
0.536130 0.516824 0.507181
0.649626 0.511265 0.485372
0.753014 0.493862 0.458439
0.837186 0.469701 0.432699
0.317543 0.408517 0.412364
0.424996 0.479439 0.476528
0.520065 0.545100 0.536379
0.583281 0.587769 0.575307
0.607637 0.599275 0.585256
0.622141 0.596719 0.579992
0.715743 0.601611 0.556654
0.810719 0.591955 0.522212
0.435081 0.487872 0.478125
0.532042 0.557614 0.543919
0.614788 0.621204 0.604495
0.668137 0.662829 0.644505
0.685724 0.675182 0.656678
0.683726 0.673040 0.654494
0.714831 0.674714 0.644725
0.778597 0.679149 0.626355
0.551357 0.573528 0.552508
0.631450 0.635613 0.614136
0.699351 0.691916 0.670244
0.742880 0.729204 0.707645
0.757081 0.741253 0.720067
0.755630 0.739642 0.718692
0.753832 0.737970 0.716819
0.779797 0.743840 0.711195
0.054417 0.049163 0.383985
0.110879 0.070020 0.379972
0.173383 0.121648 0.353617
0.224535 0.187530 0.315251
0.268246 0.252113 0.285568
0.395513 0.292096 0.344207
0.540526 0.299334 0.395248
0.669722 0.288695 0.438419
0.060937 0.136355 0.427371
0.137162 0.153610 0.448496
0.223963 0.201261 0.435462
0.300390 0.271108 0.402344
0.365333 0.346492 0.371639
0.494234 0.365762 0.416811
0.625288 0.356362 0.453174
0.737303 0.334291 0.481961
0.080325 0.257152 0.476437
0.165640 0.271881 0.498285
0.269269 0.301494 0.498398
0.366894 0.357094 0.477455
0.451538 0.430345 0.447924
0.578055 0.432536 0.476932
0.695401 0.412577 0.499123
0.792477 0.385097 0.515704
0.112313 0.377437 0.503032
0.207145 0.396284 0.522170
0.319024 0.416126 0.534342
0.428758 0.453673 0.531755
0.528490 0.506637 0.516099
0.648010 0.498014 0.525487
0.751553 0.475086 0.533619
0.835583 0.448826 0.539870
0.163801 0.466652 0.494654
0.273348 0.499007 0.521816
0.384709 0.529727 0.545731
0.493926 0.558114 0.565810
0.598401 0.579517 0.579088
0.698021 0.568289 0.569257
0.788436 0.550184 0.563074
0.863250 0.530172 0.558663
0.280243 0.479014 0.484621
0.393619 0.529826 0.530070
0.497027 0.578219 0.573459
0.589963 0.623493 0.613730
0.665783 0.660122 0.645777
0.684202 0.657039 0.642491
0.768138 0.648416 0.621168
0.851045 0.629224 0.594170
0.408449 0.528121 0.517895
0.512332 0.584546 0.571333
0.601992 0.637651 0.622023
0.678819 0.687075 0.669461
0.737912 0.727431 0.708326
0.741235 0.726987 0.707976
0.769113 0.722802 0.697717
0.825101 0.717288 0.677747
0.534596 0.593356 0.571665
0.620817 0.647835 0.626223
0.693525 0.698541 0.677120
0.754902 0.745682 0.724627
0.801876 0.784598 0.764085
0.804544 0.785645 0.765643
0.802899 0.783782 0.763811
0.825686 0.784285 0.754956
0.052149 0.065422 0.488345
0.111098 0.080717 0.490041
0.188014 0.127613 0.473852
0.264341 0.200507 0.441390
0.326128 0.288125 0.399412
0.364403 0.351527 0.378134
0.486779 0.398772 0.437200
0.619609 0.414571 0.501071
0.059400 0.148370 0.523388
0.133468 0.167542 0.552261
0.227305 0.208307 0.548142
0.324044 0.276499 0.521438
0.408749 0.367792 0.484019
0.460556 0.439150 0.459813
0.576149 0.468587 0.506997
0.694042 0.466673 0.556931
0.079624 0.270209 0.573132
0.159820 0.284703 0.599389
0.265194 0.310257 0.604176
0.377037 0.361747 0.588618
0.478233 0.442227 0.557593
0.543087 0.516105 0.531052
0.651800 0.529758 0.566070
0.756438 0.514628 0.602815
0.112917 0.406216 0.618632
0.198948 0.417576 0.635919
0.308427 0.431517 0.644946
0.426219 0.461922 0.640562
0.537258 0.516048 0.620992
0.614171 0.585297 0.593227
0.715657 0.586058 0.615496
0.808290 0.562932 0.639509
0.159812 0.530816 0.642674
0.257088 0.547085 0.660167
0.364095 0.561350 0.670208
0.477400 0.575290 0.674668
0.589977 0.594940 0.672447
0.674993 0.649672 0.648083
0.768443 0.641171 0.657035
0.850161 0.615874 0.668123
0.226196 0.593675 0.617420
0.339199 0.621488 0.641414
0.448786 0.647719 0.662836
0.552855 0.672058 0.681295
0.648025 0.694228 0.695476
0.721190 0.713365 0.698394
0.803949 0.700824 0.694623
0.876922 0.681143 0.689981
0.358136 0.609117 0.602538
0.468444 0.647057 0.637940
0.567042 0.683450 0.671902
0.654154 0.717877 0.704048
0.729111 0.749223 0.733200
0.784290 0.772019 0.753369
0.815752 0.767926 0.752015
0.864197 0.757990 0.739955
0.498693 0.637572 0.616789
0.593682 0.679751 0.659340
0.674703 0.720117 0.699939
0.743487 0.758628 0.738857
0.800885 0.794568 0.775443
0.842124 0.823364 0.804291
0.846329 0.825232 0.806622
0.866312 0.821482 0.797259
0.050037 0.084359 0.581047
0.108670 0.095678 0.586133
0.194168 0.135971 0.579348
0.289409 0.206131 0.557699
0.377643 0.301431 0.521570
0.429749 0.396911 0.481850
0.487874 0.460196 0.485800
0.582049 0.503388 0.529809
0.058021 0.164038 0.608357
0.129864 0.186429 0.642093
0.225639 0.220563 0.645160
0.334210 0.280902 0.627071
0.441394 0.372338 0.596112
0.510054 0.472054 0.558620
0.572916 0.532523 0.558252
0.659237 0.564145 0.592656
0.079339 0.281849 0.652389
0.155751 0.299399 0.682883
0.260199 0.323700 0.692734
0.378420 0.369043 0.684118
0.494918 0.443107 0.660080
0.577493 0.539242 0.625756
0.644481 0.595144 0.621123
0.724392 0.616943 0.646381
0.114202 0.419358 0.700562
0.194087 0.429607 0.719492
0.301005 0.444119 0.730016
0.421460 0.471281 0.728794
0.541431 0.518761 0.713885
0.634441 0.601689 0.684362
0.704911 0.650829 0.675652
0.779660 0.664466 0.692169
0.162192 0.557036 0.739796
0.249758 0.566607 0.754666
0.352136 0.575035 0.760459
0.466023 0.585191 0.760893
0.584620 0.604073 0.756605
0.683188 0.662496 0.735140
0.756237 0.702224 0.722869
0.826797 0.709389 0.730932
0.223160 0.656731 0.743352
0.323715 0.671878 0.759548
0.426778 0.684899 0.770290
0.530336 0.696622 0.776458
0.631972 0.708565 0.778653
0.725431 0.726179 0.775838
0.798561 0.752406 0.761982
0.865345 0.755694 0.761497
0.315653 0.695388 0.718757
0.423696 0.718566 0.740494
0.524511 0.740154 0.759849
0.617681 0.760188 0.776768
0.702801 0.778719 0.791186
0.777306 0.795552 0.802374
0.829240 0.808668 0.800450
0.884139 0.807027 0.796989
0.442253 0.713454 0.701742
0.543641 0.742310 0.729973
0.632716 0.770116 0.757029
0.710604 0.796738 0.782925
0.778270 0.822041 0.807524
0.834337 0.845456 0.829699
0.869066 0.856817 0.839821
0.901510 0.856893 0.839734
0.049801 0.104959 0.661483
0.106366 0.113649 0.667991
0.195732 0.147659 0.668165
0.303488 0.211543 0.657016
0.414214 0.305437 0.631880
0.497863 0.418793 0.594257
0.538435 0.503551 0.564675
0.592317 0.566039 0.572701
0.058120 0.182515 0.682133
0.127641 0.208742 0.719019
0.222284 0.237488 0.727305
0.336656 0.288404 0.716957
0.460496 0.372495 0.695251
0.558631 0.481729 0.661235
0.609333 0.568444 0.631975
0.663955 0.626937 0.635748
0.079964 0.294998 0.719005
0.153575 0.317206 0.753366
0.255917 0.341580 0.767477
0.375845 0.380528 0.764946
0.501326 0.443558 0.748890
0.609277 0.541071 0.719529
0.668760 0.625860 0.691118
0.724514 0.679610 0.691005
0.115867 0.428324 0.763823
0.191581 0.440657 0.785691
0.296338 0.458094 0.798961
0.416665 0.483678 0.801812
0.540348 0.523083 0.792997
0.652130 0.599992 0.769930
0.718822 0.678085 0.743294
0.776123 0.725936 0.739786
0.165653 0.567723 0.807896
0.246362 0.575204 0.822961
0.345215 0.582837 0.828526
0.458588 0.593905 0.829530
0.580075 0.613693 0.827758
0.689290 0.661450 0.812914
0.761423 0.727296 0.789370
0.820593 0.767628 0.783094
0.229421 0.686299 0.834321
0.319048 0.694498 0.847352
0.415322 0.700982 0.853256
0.516516 0.707222 0.853986
0.620448 0.715142 0.851256
0.722151 0.730292 0.846266
0.797290 0.776115 0.828114
0.858100 0.805884 0.820126
0.301264 0.755029 0.824404
0.401270 0.767687 0.838094
0.498052 0.778885 0.848090
0.591179 0.788958 0.854822
0.680154 0.798326 0.858807
0.762879 0.807908 0.860629
0.831433 0.828465 0.856284
0.889570 0.843712 0.851013
0.402299 0.784930 0.800337
0.503278 0.802725 0.817587
0.594381 0.819740 0.833475
0.676484 0.835824 0.847898
0.750316 0.850839 0.860710
0.814592 0.864359 0.871084
0.870706 0.876860 0.879713
0.915292 0.885282 0.880843
