Assets/1__3DArt/KimSe/artstation_asset/LUTs_subway_asset/CUBE/Underground 04.cube
# LUT by SparkleStock. Enhanced with VOXCOLOR algorithms.
LUT_3D_SIZE 5
DOMAIN_MIN 0.000000 0.000000 0.000000
DOMAIN_MAX 0.903226 0.903226 0.903226
0.011722 0.003907 0.003907
0.142881 0.015006 0.020379
0.361149 0.035504 0.036197
0.595597 0.057931 0.048919
0.753823 0.073040 0.061034
0.071677 0.079318 0.091347
0.105419 0.087886 0.093771
0.296863 0.124846 0.093158
0.564472 0.151476 0.074049
0.750136 0.151555 0.054024
0.174808 0.202127 0.227169
0.177601 0.204931 0.229556
0.217633 0.220624 0.234414
0.452519 0.302460 0.243577
0.702788 0.332427 0.189360
0.340013 0.377022 0.404088
0.341742 0.378939 0.405522
0.344129 0.380984 0.407212
0.357703 0.389664 0.410064
0.612344 0.509749 0.426040
0.551373 0.571098 0.578676
0.553773 0.574320 0.580853
0.553883 0.573984 0.579632
0.554337 0.574410 0.579468
0.598216 0.603708 0.589278
0.012115 0.014502 0.124109
0.096017 0.069125 0.113069
0.294924 0.102121 0.158052
0.561774 0.113609 0.205309
0.749059 0.114195 0.233521
0.043264 0.146524 0.192126
0.206295 0.210367 0.247158
0.415835 0.230508 0.246364
0.657489 0.225895 0.239559
0.810094 0.212227 0.233161
0.154844 0.240966 0.268576
0.317065 0.357527 0.378117
0.393299 0.378133 0.389746
0.611403 0.399653 0.354605
0.796254 0.378110 0.291292
0.333386 0.387250 0.413120
0.493934 0.519521 0.532443
0.521241 0.541283 0.551740
0.530080 0.543398 0.549440
0.735413 0.591659 0.506535
0.551630 0.575743 0.582787
0.672071 0.678517 0.674954
0.691017 0.696109 0.690932
0.689817 0.694854 0.689397
0.721253 0.708667 0.687999
0.019016 0.038513 0.306660
0.114918 0.103382 0.290474
0.207145 0.196405 0.256259
0.448040 0.259406 0.348835
0.698940 0.257445 0.419789
0.036994 0.218217 0.403066
0.202384 0.267217 0.436680
0.375750 0.355841 0.409324
0.613324 0.377004 0.448729
0.798317 0.347359 0.473165
0.091486 0.387319 0.453654
0.291506 0.455280 0.510362
0.486421 0.510688 0.531470
0.701347 0.504928 0.521476
0.847765 0.474007 0.504830
0.281863 0.452493 0.480051
0.492848 0.570288 0.582495
0.636329 0.653878 0.655343
0.663848 0.663033 0.660414
0.824117 0.653428 0.599626
0.528227 0.593713 0.598844
0.684186 0.701851 0.696399
0.777393 0.776508 0.766652
0.788888 0.785911 0.775606
0.810823 0.787824 0.766259
0.032305 0.082705 0.508425
0.156870 0.138261 0.509145
0.290249 0.266080 0.463135
0.352624 0.379504 0.414368
0.608840 0.458554 0.544844
0.053466 0.259468 0.587955
0.215332 0.303004 0.629256
0.414296 0.406966 0.603431
0.530272 0.538955 0.558718
0.739159 0.558705 0.640407
0.107807 0.498878 0.691503
0.277941 0.521689 0.710893
0.500471 0.559546 0.705970
0.663141 0.660287 0.669972
0.828508 0.640542 0.705561
0.173129 0.641384 0.689321
0.385516 0.688898 0.718201
0.594730 0.729026 0.741729
0.764385 0.757444 0.757577
0.883569 0.734684 0.748714
0.446679 0.665088 0.671724
0.637568 0.738800 0.735032
0.773281 0.803645 0.794532
0.861033 0.856475 0.843994
0.879622 0.851178 0.834216
0.050100 0.145866 0.668447
0.184697 0.185284 0.673789
0.374127 0.303064 0.658074
0.516804 0.468882 0.613755
0.593577 0.578534 0.607482
0.073299 0.299912 0.719428
0.232129 0.347548 0.764981
0.447012 0.430783 0.756637
0.630753 0.582159 0.723482
0.719190 0.691139 0.712404
0.144316 0.524878 0.807118
0.295304 0.545139 0.826715
0.509247 0.582429 0.827875
0.706971 0.678201 0.807972
0.807782 0.773026 0.792663
0.245423 0.725666 0.863099
0.404810 0.742498 0.873571
0.583500 0.756295 0.872917
0.762157 0.778389 0.867638
0.871681 0.837821 0.852734
0.364791 0.796674 0.828549
0.553454 0.830891 0.851882
0.712064 0.859423 0.872783
0.834763 0.883347 0.890062
0.915869 0.900162 0.897909
