Assets/1__3DArt/KimSe/artstation_asset/LUTs_subway_asset/CUBE/Underground 02.cube
# LUT by SparkleStock. Enhanced with VOXCOLOR algorithms.
LUT_3D_SIZE 32
0.031258 0.042979 0.050794
0.047753 0.043263 0.053440
0.064248 0.043546 0.056087
0.080744 0.043830 0.058734
0.097239 0.044114 0.061381
0.113734 0.044397 0.064028
0.136098 0.045272 0.067384
0.159636 0.046264 0.070881
0.183174 0.047257 0.074379
0.206712 0.048249 0.077876
0.230249 0.049242 0.081374
0.257946 0.050486 0.084934
0.287723 0.051857 0.088527
0.317500 0.053228 0.092119
0.347276 0.054598 0.095711
0.377053 0.055969 0.099303
0.408153 0.057363 0.102706
0.440577 0.058781 0.105920
0.473000 0.060199 0.109134
0.505424 0.061617 0.112348
0.537847 0.063035 0.115562
0.569530 0.064453 0.118697
0.599732 0.065871 0.121675
0.629934 0.067289 0.124652
0.660136 0.068707 0.127630
0.690338 0.070125 0.130608
0.719422 0.071527 0.133711
0.742912 0.072850 0.137445
0.766403 0.074174 0.141179
0.789893 0.075497 0.144913
0.813384 0.076821 0.148647
0.836874 0.078144 0.152381
0.039056 0.053472 0.062893
0.052450 0.053820 0.065092
0.065845 0.054167 0.067291
0.079239 0.054515 0.069489
0.092633 0.054862 0.071688
0.106027 0.055210 0.073886
0.128050 0.056560 0.076611
0.151798 0.058111 0.079441
0.175546 0.059661 0.082270
0.199294 0.061212 0.085100
0.223042 0.062763 0.087930
0.251206 0.064169 0.090597
0.281577 0.065503 0.093183
0.311948 0.066837 0.095769
0.342320 0.068171 0.098355
0.372691 0.069505 0.100940
0.404331 0.070703 0.103346
0.437239 0.071764 0.105572
0.470147 0.072825 0.107798
0.503056 0.073886 0.110024
0.535964 0.074947 0.112250
0.568053 0.075975 0.114465
0.598502 0.076936 0.116656
0.628951 0.077896 0.118846
0.659400 0.078857 0.121037
0.689849 0.079817 0.123228
0.719152 0.080777 0.125576
0.742725 0.081735 0.128706
0.766298 0.082692 0.131836
0.789870 0.083650 0.134966
0.813443 0.084607 0.138096
0.837016 0.085565 0.141227
0.046855 0.063965 0.074993
0.057148 0.064376 0.076743
0.067441 0.064788 0.078494
0.077734 0.065200 0.080244
0.088027 0.065611 0.081994
0.098320 0.066023 0.083745
0.120001 0.067849 0.085838
0.143959 0.069957 0.088000
0.167918 0.072066 0.090162
0.191877 0.074175 0.092324
0.215835 0.076283 0.094486
0.244465 0.077851 0.096260
0.275431 0.079149 0.097839
0.306397 0.080446 0.099419
0.337363 0.081744 0.100998
0.368329 0.083041 0.102578
0.400508 0.084042 0.103987
0.433902 0.084746 0.105225
0.467295 0.085451 0.106463
0.500688 0.086155 0.107701
0.534081 0.086860 0.108939
0.566575 0.087497 0.110232
0.597271 0.088000 0.111636
0.627967 0.088503 0.113041
0.658663 0.089006 0.114445
0.689360 0.089509 0.115849
0.718882 0.090027 0.117440
0.742537 0.090619 0.119967
0.766192 0.091210 0.122493
0.789848 0.091802 0.125019
0.813503 0.092394 0.127546
0.837158 0.092985 0.130072
0.054654 0.074457 0.087093
0.061845 0.074933 0.088395
0.069037 0.075409 0.089697
0.076229 0.075885 0.090999
0.083421 0.076360 0.092301
0.090613 0.076836 0.093603
0.111952 0.079137 0.095065
0.136121 0.081804 0.096559
0.160290 0.084471 0.098054
0.184459 0.087137 0.099548
0.208628 0.089804 0.101042
0.237725 0.091533 0.101922
0.269285 0.092794 0.102495
0.300846 0.094055 0.103069
0.332406 0.095316 0.103642
0.363967 0.096577 0.104215
0.396686 0.097381 0.104627
0.430564 0.097729 0.104877
0.464442 0.098077 0.105127
0.498320 0.098424 0.105377
0.532198 0.098772 0.105627
0.565098 0.099019 0.106000
0.596041 0.099064 0.106617
0.626984 0.099110 0.107235
0.657927 0.099156 0.107852
0.688870 0.099202 0.108470
0.718612 0.099277 0.109305
0.742350 0.099503 0.111227
0.766087 0.099729 0.113150
0.789825 0.099954 0.115072
0.813562 0.100180 0.116995
0.837300 0.100406 0.118918
0.062452 0.084950 0.099193
0.066543 0.085490 0.100046
0.070634 0.086030 0.100900
0.074724 0.086569 0.101754
0.078815 0.087109 0.102608
0.082906 0.087649 0.103462
0.103904 0.090426 0.104293
0.128283 0.093651 0.105119
0.152662 0.096875 0.105945
0.177042 0.100100 0.106772
0.201421 0.103325 0.107598
0.230984 0.105216 0.107585
0.263139 0.106440 0.107152
0.295295 0.107664 0.106719
0.327450 0.108889 0.106286
0.359605 0.110113 0.105853
0.392864 0.110721 0.105267
0.427227 0.110711 0.104529
0.461590 0.110702 0.103791
0.495952 0.110693 0.103054
0.530315 0.110684 0.102316
0.563621 0.110541 0.101767
0.594811 0.110129 0.101598
0.626001 0.109717 0.101429
0.657191 0.109306 0.101259
0.688381 0.108894 0.101090
0.718342 0.108528 0.101169
0.742162 0.108387 0.102488
0.765982 0.108247 0.103807
0.789802 0.108107 0.105126
0.813622 0.107966 0.106444
0.837441 0.107826 0.107763
0.070251 0.095443 0.111292
0.071240 0.096047 0.111698
0.072230 0.096650 0.112103
0.073219 0.097254 0.112509
0.074209 0.097858 0.112915
0.075198 0.098462 0.113320
0.095855 0.101715 0.113520
0.120445 0.105497 0.113678
0.145034 0.109280 0.113837
0.169624 0.113063 0.113996
0.194214 0.116845 0.114154
0.224244 0.118898 0.113247
0.256993 0.120086 0.111808
0.289743 0.121274 0.110369
0.322493 0.122461 0.108930
0.355243 0.123649 0.107490
0.389041 0.124060 0.105908
0.423889 0.123694 0.104182
0.458737 0.123328 0.102456
0.493585 0.122962 0.100730
0.528432 0.122596 0.099004
0.562143 0.122063 0.097535
0.593580 0.121193 0.096579
0.625017 0.120324 0.095623
0.656454 0.119455 0.094667
0.687891 0.118586 0.093711
0.718072 0.117778 0.093033
0.741975 0.117272 0.093748
0.765877 0.116765 0.094464
0.789779 0.116259 0.095179
0.813681 0.115753 0.095894
0.837583 0.115247 0.096609
0.079822 0.107708 0.125243
0.080287 0.108338 0.125612
0.080752 0.108967 0.125981
0.081217 0.109597 0.126350
0.081682 0.110227 0.126719
0.082147 0.110856 0.127088
0.099531 0.113778 0.127278
0.120298 0.117158 0.127432
0.141066 0.120539 0.127586
0.161833 0.123919 0.127740
0.182601 0.127299 0.127894
0.211061 0.130022 0.127189
0.243369 0.132415 0.126055
0.275677 0.134809 0.124920
0.307984 0.137203 0.123786
0.340292 0.139596 0.122652
0.374184 0.140905 0.120929
0.409662 0.141127 0.118620
0.445139 0.141350 0.116310
0.480617 0.141572 0.114000
0.516094 0.141795 0.111690
0.550525 0.141687 0.109523
0.582865 0.140917 0.107644
0.615205 0.140147 0.105764
0.647544 0.139377 0.103884
0.679884 0.138607 0.102004
0.710939 0.137848 0.100401
0.735572 0.137143 0.100185
0.760204 0.136439 0.099968
0.784836 0.135735 0.099752
0.809469 0.135030 0.099535
0.834101 0.134326 0.099319
0.089748 0.120328 0.139564
0.090203 0.120976 0.139979
0.090659 0.121624 0.140394
0.091115 0.122272 0.140809
0.091571 0.122920 0.141223
0.092027 0.123568 0.141638
0.105552 0.125997 0.141942
0.121690 0.128782 0.142224
0.137829 0.131568 0.142506
0.153967 0.134354 0.142788
0.170106 0.137139 0.143070
0.196591 0.140633 0.142786
0.228249 0.144481 0.142219
0.259907 0.148330 0.141652
0.291565 0.152178 0.141085
0.323223 0.156026 0.140518
0.357120 0.158450 0.138827
0.393256 0.159451 0.136014
0.429392 0.160451 0.133201
0.465529 0.161451 0.130388
0.501665 0.162451 0.127575
0.536880 0.162931 0.124756
0.570253 0.162372 0.121925
0.603626 0.161812 0.119094
0.637000 0.161253 0.116262
0.670373 0.160693 0.113431
0.702433 0.160082 0.110869
0.727925 0.159213 0.109656
0.753418 0.158344 0.108442
0.778910 0.157475 0.107229
0.804402 0.156606 0.106015
0.829895 0.155737 0.104801
0.099673 0.132947 0.153886
0.100120 0.133614 0.154346
0.100567 0.134280 0.154806
0.101013 0.134946 0.155267
0.101460 0.135612 0.155727
0.101907 0.136279 0.156188
0.111573 0.138216 0.156606
0.123082 0.140407 0.157016
0.134592 0.142597 0.157427
0.146102 0.144788 0.157837
0.157611 0.146979 0.158247
0.182120 0.151245 0.158384
0.213129 0.156548 0.158384
0.244137 0.161850 0.158384
0.275146 0.167153 0.158384
0.306155 0.172456 0.158384
0.340056 0.175996 0.156725
0.376851 0.177774 0.153409
0.413646 0.179552 0.150093
0.450440 0.181329 0.146777
0.487235 0.183107 0.143461
0.523234 0.184176 0.139989
0.557641 0.183827 0.136207
0.592048 0.183478 0.132424
0.626455 0.183129 0.128641
0.660862 0.182779 0.124858
0.693927 0.182316 0.121338
0.720279 0.181282 0.119127
0.746631 0.180249 0.116916
0.772984 0.179215 0.114706
0.799336 0.178181 0.112495
0.825688 0.177148 0.110284
0.109599 0.145567 0.168207
0.110036 0.146252 0.168713
0.110474 0.146936 0.169219
0.110911 0.147621 0.169725
0.111349 0.148305 0.170231
0.111787 0.148990 0.170738
0.117593 0.150434 0.171271
0.124474 0.152031 0.171809
0.131355 0.153627 0.172347
0.138236 0.155223 0.172885
0.145117 0.156820 0.173423
0.167650 0.161856 0.173981
0.198009 0.168614 0.174548
0.228368 0.175371 0.175115
0.258727 0.182128 0.175682
0.289086 0.188886 0.176250
0.322992 0.193542 0.174624
0.360446 0.196097 0.170804
0.397899 0.198653 0.166985
0.435352 0.201208 0.163166
0.472806 0.203763 0.159346
0.509588 0.205421 0.155222
0.545029 0.205282 0.150488
0.580470 0.205143 0.145754
0.615911 0.205004 0.141020
0.651351 0.204866 0.136286
0.685421 0.204550 0.131806
0.712633 0.203352 0.128598
0.739845 0.202154 0.125390
0.767057 0.200955 0.122182
0.794270 0.199757 0.118975
0.821482 0.198558 0.115767
0.119524 0.158187 0.182528
0.119953 0.158889 0.183080
0.120381 0.159592 0.183632
0.120809 0.160295 0.184184
0.121238 0.160998 0.184736
0.121666 0.161701 0.185288
0.123614 0.162653 0.185935
0.125866 0.163655 0.186601
0.128118 0.164656 0.187267
0.130370 0.165658 0.187934
0.132622 0.166660 0.188600
0.153179 0.172468 0.189578
0.182889 0.180680 0.190713
0.212598 0.188892 0.191847
0.242308 0.197104 0.192981
0.272017 0.205315 0.194116
0.305928 0.211088 0.192522
0.344040 0.214421 0.188199
0.382152 0.217754 0.183877
0.420264 0.221087 0.179554
0.458376 0.224420 0.175232
0.495942 0.226665 0.170455
0.532417 0.226737 0.164770
0.568892 0.226809 0.159084
0.605366 0.226880 0.153399
0.641841 0.226952 0.147713
0.676915 0.226785 0.142274
0.704987 0.225421 0.138069
0.733059 0.224058 0.133864
0.761131 0.222695 0.129659
0.789203 0.221332 0.125454
0.817275 0.219969 0.121249
0.131781 0.173075 0.198645
0.132189 0.173760 0.199194
0.132596 0.174444 0.199743
0.133003 0.175129 0.200292
0.133410 0.175813 0.200841
0.133817 0.176498 0.201389
0.134450 0.177261 0.202057
0.135129 0.178040 0.202747
0.135807 0.178819 0.203438
0.136486 0.179598 0.204129
0.137164 0.180378 0.204819
0.154572 0.185740 0.205863
0.180345 0.193394 0.207082
0.206118 0.201047 0.208302
0.231891 0.208701 0.209522
0.257664 0.216355 0.210742
0.289295 0.222591 0.209637
0.326785 0.227409 0.206208
0.364275 0.232227 0.202779
0.401765 0.237045 0.199350
0.439255 0.241863 0.195921
0.476664 0.245402 0.191648
0.513910 0.246386 0.185688
0.551156 0.247369 0.179729
0.588402 0.248353 0.173769
0.625648 0.249336 0.167809
0.661555 0.249993 0.162011
0.690767 0.249021 0.157022
0.719980 0.248048 0.152033
0.749192 0.247075 0.147045
0.778405 0.246103 0.142056
0.807617 0.245130 0.137067
0.145205 0.189098 0.215660
0.145584 0.189746 0.216182
0.145964 0.190394 0.216703
0.146344 0.191042 0.217225
0.146723 0.191690 0.217746
0.147103 0.192338 0.218267
0.147693 0.193064 0.218907
0.148326 0.193807 0.219570
0.148959 0.194549 0.220234
0.149592 0.195292 0.220897
0.150224 0.196034 0.221560
0.163897 0.200342 0.222491
0.184090 0.206431 0.223555
0.204282 0.212521 0.224619
0.224475 0.218610 0.225683
0.244668 0.224700 0.226747
0.272878 0.231073 0.226361
0.309105 0.237729 0.224524
0.345333 0.244386 0.222686
0.381560 0.251043 0.220849
0.417788 0.257699 0.219012
0.454568 0.262886 0.215822
0.492455 0.265132 0.209926
0.530341 0.267377 0.204030
0.568227 0.269623 0.198134
0.606114 0.271869 0.192238
0.642768 0.273690 0.186381
0.673261 0.273385 0.180715
0.703754 0.273080 0.175050
0.734248 0.272775 0.169384
0.764741 0.272470 0.163718
0.795234 0.272165 0.158053
0.158628 0.205120 0.232676
0.158980 0.205732 0.233170
0.159332 0.206343 0.233664
0.159684 0.206954 0.234158
0.160037 0.207566 0.234652
0.160389 0.208177 0.235146
0.160937 0.208867 0.235758
0.161524 0.209573 0.236393
0.162111 0.210279 0.237029
0.162698 0.210985 0.237665
0.163285 0.211691 0.238301
0.173222 0.214943 0.239119
0.187834 0.219468 0.240027
0.202447 0.223994 0.240936
0.217059 0.228519 0.241845
0.231671 0.233044 0.242753
0.256460 0.239554 0.243085
0.291425 0.248050 0.242839
0.326390 0.256545 0.242594
0.361355 0.265041 0.242349
0.396320 0.273536 0.242103
0.432473 0.280369 0.239995
0.471000 0.283877 0.234164
0.509526 0.287386 0.228332
0.548053 0.290894 0.222500
0.586580 0.294402 0.216668
0.623981 0.297386 0.210751
0.655755 0.297749 0.204409
0.687529 0.298112 0.198066
0.719303 0.298475 0.191723
0.751077 0.298838 0.185381
0.782851 0.299200 0.179038
0.172051 0.221143 0.249691
0.172376 0.221718 0.250157
0.172700 0.222293 0.250624
0.173025 0.222867 0.251090
0.173350 0.223442 0.251557
0.173675 0.224017 0.252024
0.174180 0.224671 0.252608
0.174721 0.225340 0.253217
0.175262 0.226009 0.253825
0.175804 0.226679 0.254433
0.176345 0.227348 0.255042
0.182547 0.229545 0.255747
0.191579 0.232506 0.256500
0.200611 0.235467 0.257253
0.209643 0.238428 0.258006
0.218675 0.241389 0.258759
0.240042 0.248036 0.259809
0.273745 0.258370 0.261155
0.307448 0.268704 0.262502
0.341151 0.279039 0.263848
0.374853 0.289373 0.265194
0.410377 0.297852 0.264169
0.449544 0.302623 0.258401
0.488712 0.307394 0.252633
0.527879 0.312164 0.246866
0.567046 0.316935 0.241098
0.605194 0.321082 0.235121
0.638249 0.322113 0.228102
0.671303 0.323144 0.221082
0.704358 0.324174 0.214063
0.737413 0.325205 0.207043
0.770468 0.326236 0.200024
0.185474 0.237166 0.266706
0.185771 0.237704 0.267145
0.186069 0.238242 0.267584
0.186366 0.238780 0.268023
0.186663 0.239319 0.268462
0.186961 0.239857 0.268902
0.187423 0.240474 0.269459
0.187919 0.241106 0.270040
0.188414 0.241739 0.270621
0.188910 0.242372 0.271202
0.189405 0.243005 0.271782
0.191872 0.244147 0.272374
0.195323 0.245543 0.272972
0.198775 0.246940 0.273570
0.202227 0.248336 0.274168
0.205679 0.249733 0.274765
0.223625 0.256518 0.276533
0.256065 0.268691 0.279471
0.288505 0.280864 0.282409
0.320946 0.293036 0.285347
0.353386 0.305209 0.288285
0.388282 0.315336 0.288343
0.428089 0.321369 0.282639
0.467897 0.327402 0.276935
0.507704 0.333435 0.271231
0.547512 0.339468 0.265527
0.586407 0.344779 0.259492
0.620743 0.346477 0.251795
0.655078 0.348176 0.244099
0.689413 0.349874 0.236402
0.723749 0.351573 0.228706
0.758084 0.353271 0.221009
0.201071 0.254583 0.284501
0.201350 0.255084 0.284904
0.201629 0.255586 0.285306
0.201908 0.256088 0.285709
0.202187 0.256589 0.286111
0.202466 0.257091 0.286514
0.202884 0.257660 0.287027
0.203329 0.258242 0.287562
0.203774 0.258825 0.288097
0.204220 0.259407 0.288632
0.204665 0.259989 0.289167
0.205230 0.260578 0.289677
0.205855 0.261169 0.290174
0.206480 0.261761 0.290671
0.207105 0.262353 0.291168
0.207730 0.262944 0.291665
0.222427 0.269169 0.293612
0.251194 0.281026 0.297007
0.279961 0.292883 0.300402
0.308729 0.304741 0.303798
0.337496 0.316598 0.307193
0.369811 0.327025 0.307941
0.409220 0.334590 0.303395
0.448630 0.342155 0.298848
0.488039 0.349721 0.294302
0.527449 0.357286 0.289755
0.566173 0.364049 0.284671
0.601474 0.366799 0.276902
0.636774 0.369550 0.269132
0.672075 0.372300 0.261362
0.707375 0.375051 0.253593
0.742676 0.377801 0.245823
0.218843 0.273394 0.303076
0.219113 0.273859 0.303433
0.219383 0.274324 0.303790
0.219652 0.274789 0.304146
0.219922 0.275254 0.304503
0.220192 0.275719 0.304860
0.220562 0.276229 0.305312
0.220953 0.276747 0.305783
0.221343 0.277265 0.306254
0.221733 0.277784 0.306725
0.222124 0.278302 0.307197
0.222622 0.278839 0.307654
0.223174 0.279385 0.308106
0.223726 0.279930 0.308557
0.224277 0.280476 0.309008
0.224829 0.281022 0.309460
0.236447 0.285989 0.311045
0.259131 0.295376 0.313763
0.281815 0.304763 0.316481
0.304499 0.314151 0.319200
0.327183 0.323538 0.321918
0.354963 0.332919 0.322965
0.392937 0.342286 0.320669
0.430910 0.351654 0.318373
0.468883 0.361021 0.316077
0.506857 0.370389 0.313781
0.544493 0.378893 0.310661
0.580443 0.383080 0.303422
0.616393 0.387267 0.296183
0.652343 0.391453 0.288944
0.688293 0.395640 0.281704
0.724243 0.399827 0.274465
0.236614 0.292205 0.321651
0.236875 0.292634 0.321962
0.237136 0.293062 0.322273
0.237396 0.293491 0.322584
0.237657 0.293919 0.322895
0.237918 0.294347 0.323206
0.238241 0.294797 0.323597
0.238576 0.295252 0.324004
0.238912 0.295706 0.324412
0.239247 0.296161 0.324819
0.239583 0.296615 0.325226
0.240014 0.297100 0.325632
0.240492 0.297600 0.326037
0.240971 0.298100 0.326443
0.241450 0.298600 0.326848
0.241928 0.299100 0.327254
0.250468 0.302809 0.328478
0.267069 0.309726 0.330519
0.283669 0.316644 0.332561
0.300270 0.323561 0.334602
0.316870 0.330478 0.336644
0.340116 0.338813 0.337989
0.376653 0.349983 0.337944
0.413190 0.361153 0.337898
0.449727 0.372322 0.337852
0.486264 0.383492 0.337806
0.522812 0.393737 0.336650
0.559411 0.399360 0.329942
0.596011 0.404983 0.323233
0.632611 0.410606 0.316525
0.669210 0.416229 0.309816
0.705810 0.421852 0.303108
0.254386 0.311017 0.340226
0.254637 0.311408 0.340491
0.254889 0.311800 0.340757
0.255140 0.312192 0.341022
0.255392 0.312584 0.341287
0.255644 0.312976 0.341553
0.255919 0.313366 0.341883
0.256200 0.313757 0.342226
0.256480 0.314147 0.342569
0.256761 0.314537 0.342912
0.257041 0.314928 0.343255
0.257405 0.315361 0.343609
0.257811 0.315815 0.343969
0.258216 0.316269 0.344329
0.258622 0.316724 0.344689
0.259028 0.317178 0.345048
0.264489 0.319629 0.345911
0.275006 0.324076 0.347275
0.285523 0.328524 0.348640
0.296040 0.332971 0.350004
0.306557 0.337419 0.351369
0.325269 0.344708 0.353013
0.360370 0.357679 0.355218
0.395471 0.370651 0.357423
0.430572 0.383623 0.359627
0.465672 0.396595 0.361832
0.501131 0.408581 0.362640
0.538380 0.415641 0.356462
0.575629 0.422700 0.350284
0.612878 0.429759 0.344106
0.650127 0.436818 0.337928
0.687376 0.443877 0.331750
0.272157 0.329828 0.358801
0.272400 0.330183 0.359021
0.272642 0.330538 0.359240
0.272884 0.330894 0.359460
0.273127 0.331249 0.359679
0.273369 0.331604 0.359899
0.273598 0.331935 0.360168
0.273823 0.332261 0.360447
0.274049 0.332588 0.360726
0.274275 0.332914 0.361005
0.274500 0.333240 0.361284
0.274797 0.333621 0.361586
0.275130 0.334030 0.361900
0.275462 0.334439 0.362215
0.275794 0.334847 0.362529
0.276127 0.335256 0.362843
0.278510 0.336449 0.363344
0.282943 0.338426 0.364031
0.287377 0.340404 0.364719
0.291811 0.342381 0.365406
0.296245 0.344359 0.366094
0.310422 0.350602 0.368037
0.344087 0.365376 0.372493
0.377751 0.380150 0.376948
0.411416 0.394924 0.381403
0.445080 0.409698 0.385858
0.479450 0.423425 0.388629
0.517349 0.431921 0.382982
0.555248 0.440416 0.377334
0.593146 0.448912 0.371687
0.631045 0.457407 0.366040
0.668943 0.465903 0.360392
0.291425 0.349065 0.377345
0.291662 0.349392 0.377521
0.291898 0.349720 0.377698
0.292134 0.350048 0.377875
0.292371 0.350376 0.378052
0.292607 0.350704 0.378229
0.292796 0.350982 0.378445
0.292976 0.351250 0.378669
0.293156 0.351519 0.378893
0.293336 0.351787 0.379117
0.293516 0.352055 0.379342
0.293753 0.352382 0.379593
0.294018 0.352739 0.379858
0.294283 0.353096 0.380124
0.294549 0.353453 0.380389
0.294814 0.353810 0.380654
0.295127 0.354147 0.380901
0.295486 0.354466 0.381128
0.295846 0.354785 0.381355
0.296206 0.355103 0.381582
0.296566 0.355422 0.381809
0.307008 0.360619 0.383820
0.337614 0.375573 0.389397
0.368220 0.390527 0.394974
0.398826 0.405481 0.400551
0.429432 0.420435 0.406129
0.461260 0.434552 0.410027
0.499195 0.444487 0.405532
0.537130 0.454421 0.401038
0.575065 0.464356 0.396543
0.613000 0.474291 0.392048
0.650935 0.484225 0.387554
0.313687 0.369152 0.395825
0.313923 0.369471 0.395965
0.314160 0.369789 0.396106
0.314396 0.370108 0.396246
0.314632 0.370427 0.396386
0.314869 0.370745 0.396526
0.315035 0.370984 0.396706
0.315188 0.371206 0.396893
0.315340 0.371429 0.397081
0.315492 0.371652 0.397269
0.315645 0.371874 0.397456
0.315836 0.372144 0.397659
0.316046 0.372436 0.397869
0.316257 0.372729 0.398080
0.316467 0.373022 0.398290
0.316678 0.373315 0.398500
0.316935 0.373602 0.398706
0.317240 0.373884 0.398905
0.317545 0.374166 0.399105
0.317850 0.374448 0.399305
0.318155 0.374730 0.399504
0.326459 0.378881 0.401119
0.350763 0.390771 0.405561
0.375066 0.402660 0.410004
0.399369 0.414549 0.414447
0.423672 0.426439 0.418890
0.450049 0.438243 0.422243
0.486795 0.449623 0.420145
0.523541 0.461003 0.418047
0.560287 0.472383 0.415949
0.597032 0.483763 0.413851
0.633778 0.495144 0.411753
0.335949 0.389239 0.414305
0.336185 0.389549 0.414409
0.336421 0.389858 0.414513
0.336658 0.390168 0.414616
0.336894 0.390477 0.414720
0.337130 0.390787 0.414824
0.337274 0.390986 0.414967
0.337399 0.391163 0.415118
0.337524 0.391340 0.415269
0.337649 0.391517 0.415420
0.337774 0.391693 0.415571
0.337919 0.391905 0.415725
0.338075 0.392133 0.415880
0.338230 0.392362 0.416036
0.338386 0.392591 0.416191
0.338541 0.392820 0.416347
0.338744 0.393057 0.416511
0.338994 0.393302 0.416683
0.339244 0.393548 0.416855
0.339494 0.393793 0.417027
0.339744 0.394039 0.417200
0.345911 0.397144 0.418417
0.363911 0.405969 0.421726
0.381911 0.414793 0.425034
0.399912 0.423618 0.428343
0.417912 0.432443 0.431652
0.438838 0.441934 0.434458
0.474395 0.454760 0.434757
0.509951 0.467585 0.435056
0.545508 0.480411 0.435355
0.581065 0.493236 0.435654
0.616621 0.506062 0.435953
0.358210 0.409327 0.432786
0.358447 0.409627 0.432853
0.358683 0.409928 0.432920
0.358919 0.410228 0.432987
0.359156 0.410528 0.433054
0.359392 0.410829 0.433121
0.359513 0.410988 0.433228
0.359610 0.411119 0.433342
0.359708 0.411250 0.433456
0.359805 0.411381 0.433571
0.359903 0.411512 0.433685
0.360002 0.411666 0.433790
0.360103 0.411831 0.433891
0.360204 0.411995 0.433992
0.360304 0.412160 0.434092
0.360405 0.412325 0.434193
0.360553 0.412511 0.434316
0.360748 0.412720 0.434460
0.360943 0.412929 0.434605
0.361138 0.413138 0.434750
0.361334 0.413347 0.434895
0.365363 0.415406 0.435716
0.377060 0.421166 0.437890
0.388757 0.426927 0.440065
0.400454 0.432687 0.442239
0.412152 0.438447 0.444413
0.427627 0.445626 0.446674
0.461995 0.459896 0.449370
0.496362 0.474167 0.452065
0.530729 0.488438 0.454761
0.565097 0.502709 0.457456
0.599464 0.516980 0.460152
0.380472 0.429414 0.451266
0.380708 0.429706 0.451297
0.380945 0.429997 0.451327
0.381181 0.430288 0.451358
0.381417 0.430579 0.451388
0.381653 0.430870 0.451419
0.381751 0.430990 0.451489
0.381821 0.431075 0.451566
0.381892 0.431161 0.451644
0.381962 0.431246 0.451722
0.382032 0.431332 0.451800
0.382086 0.431427 0.451856
0.382131 0.431528 0.451902
0.382177 0.431628 0.451948
0.382223 0.431729 0.451993
0.382269 0.431830 0.452039
0.382362 0.431966 0.452121
0.382502 0.432138 0.452238
0.382642 0.432311 0.452355
0.382782 0.432483 0.452473
0.382923 0.432655 0.452590
0.384814 0.433669 0.453015
0.390209 0.436364 0.454055
0.395603 0.439060 0.455095
0.400997 0.441755 0.456135
0.406391 0.444451 0.457174
0.416416 0.449317 0.458890
0.449595 0.465033 0.463982
0.482773 0.480749 0.469074
0.515951 0.496465 0.474167
0.549129 0.512182 0.479259
0.582307 0.527898 0.484351
0.403309 0.449297 0.469400
0.403556 0.449585 0.469397
0.403803 0.449873 0.469394
0.404050 0.450161 0.469391
0.404297 0.450450 0.469388
0.404543 0.450738 0.469385
0.404619 0.450826 0.469419
0.404660 0.450875 0.469460
0.404701 0.450924 0.469501
0.404742 0.450973 0.469542
0.404784 0.451022 0.469583
0.404794 0.451066 0.469595
0.404790 0.451109 0.469592
0.404785 0.451152 0.469589
0.404781 0.451194 0.469586
0.404776 0.451237 0.469583
0.404819 0.451328 0.469628
0.404911 0.451467 0.469721
0.405002 0.451605 0.469814
0.405094 0.451744 0.469907
0.405185 0.451883 0.470000
0.405291 0.452023 0.470094
0.405423 0.452164 0.470190
0.405556 0.452306 0.470286
0.405689 0.452448 0.470382
0.405821 0.452590 0.470478
0.411122 0.455438 0.471702
0.442267 0.471817 0.478568
0.473411 0.488197 0.485433
0.504555 0.504576 0.492299
0.535700 0.520956 0.499165
0.566844 0.537335 0.506030
0.429020 0.468156 0.485801
0.429331 0.468471 0.485780
0.429643 0.468787 0.485758
0.429954 0.469102 0.485737
0.430265 0.469418 0.485716
0.430576 0.469734 0.485694
0.430631 0.469834 0.485694
0.430636 0.469892 0.485699
0.430640 0.469950 0.485704
0.430645 0.470008 0.485708
0.430650 0.470066 0.485713
0.430630 0.470096 0.485700
0.430598 0.470111 0.485679
0.430566 0.470126 0.485657
0.430534 0.470141 0.485636
0.430502 0.470157 0.485615
0.430522 0.470224 0.485646
0.430595 0.470345 0.485730
0.430669 0.470465 0.485814
0.430742 0.470586 0.485897
0.430815 0.470706 0.485981
0.430890 0.470834 0.486072
