Assets/1__3DArt/KimSe/artstation_asset/LUTs_subway_asset/CUBE/Underground 05_S.cube
# LUT by SparkleStock. Enhanced with VOXCOLOR algorithms.
LUT_3D_SIZE 32
0.019536 0.003907 0.011722
0.032250 0.004947 0.013376
0.044964 0.005987 0.015030
0.057679 0.007027 0.016684
0.070393 0.008066 0.018339
0.083107 0.009106 0.019993
0.107716 0.011879 0.020702
0.134704 0.014999 0.021222
0.161692 0.018118 0.021742
0.188680 0.021238 0.022262
0.215668 0.024357 0.022782
0.249525 0.028516 0.023207
0.286817 0.033195 0.023585
0.324109 0.037875 0.023963
0.361401 0.042554 0.024341
0.398692 0.047233 0.024719
0.435866 0.052030 0.025287
0.472921 0.056946 0.026043
0.509977 0.061861 0.026799
0.547032 0.066777 0.027555
0.584088 0.071692 0.028311
0.617787 0.076261 0.029273
0.644775 0.080137 0.030643
0.671763 0.084013 0.032014
0.698751 0.087888 0.033385
0.725739 0.091764 0.034755
0.750577 0.095333 0.036252
0.764662 0.097365 0.038379
0.778747 0.099397 0.040506
0.792832 0.101430 0.042633
0.806916 0.103462 0.044760
0.821001 0.105495 0.046886
0.025633 0.010855 0.019946
0.036591 0.012444 0.021014
0.047549 0.014032 0.022083
0.058506 0.015621 0.023152
0.069464 0.017210 0.024221
0.080422 0.018799 0.025290
0.104784 0.022174 0.025627
0.131827 0.025906 0.025817
0.158870 0.029638 0.026008
0.185913 0.033371 0.026198
0.212956 0.037103 0.026389
0.246953 0.041503 0.026406
0.284428 0.046237 0.026336
0.321903 0.050972 0.026265
0.359377 0.055706 0.026195
0.396852 0.060440 0.026125
0.434222 0.065100 0.026267
0.471488 0.069686 0.026621
0.508754 0.074272 0.026974
0.546020 0.078858 0.027328
0.583286 0.083445 0.027682
0.617193 0.087608 0.028268
0.644382 0.090926 0.029318
0.671571 0.094243 0.030369
0.698761 0.097561 0.031419
0.725950 0.100879 0.032470
0.750967 0.103886 0.033652
0.765125 0.105342 0.035496
0.779283 0.106798 0.037339
0.793441 0.108254 0.039182
0.807599 0.109710 0.041026
0.821757 0.111166 0.042869
0.031730 0.017803 0.028170
0.040932 0.019941 0.028653
0.050133 0.022078 0.029136
0.059334 0.024216 0.029620
0.068536 0.026353 0.030103
0.077737 0.028491 0.030586
0.101852 0.032468 0.030551
0.128950 0.036814 0.030412
0.156048 0.041159 0.030274
0.183146 0.045504 0.030135
0.210243 0.049849 0.029996
0.244381 0.054490 0.029604
0.282039 0.059279 0.029086
0.319696 0.064068 0.028568
0.357354 0.068857 0.028049
0.395012 0.073646 0.027531
0.432579 0.078169 0.027247
0.470055 0.082426 0.027198
0.507531 0.086683 0.027150
0.545007 0.090940 0.027101
0.582484 0.095197 0.027052
0.616598 0.098954 0.027263
0.643989 0.101714 0.027993
0.671379 0.104474 0.028724
0.698770 0.107233 0.029454
0.726160 0.109993 0.030184
0.751358 0.112439 0.031053
0.765589 0.113319 0.032613
0.779820 0.114199 0.034172
0.794051 0.115079 0.035732
0.808282 0.115958 0.037292
0.822514 0.116838 0.038851
0.037827 0.024751 0.036394
0.045272 0.027437 0.036292
0.052717 0.030124 0.036189
0.060162 0.032810 0.036087
0.067607 0.035497 0.035985
0.075052 0.038183 0.035883
0.098920 0.042763 0.035476
0.126073 0.047721 0.035008
0.153226 0.052679 0.034540
0.180378 0.057637 0.034072
0.207531 0.062596 0.033604
0.241809 0.067478 0.032803
0.279650 0.072321 0.031836
0.317490 0.077165 0.030870
0.355331 0.082009 0.029903
0.393172 0.086853 0.028937
0.430935 0.091239 0.028228
0.468622 0.095166 0.027776
0.506308 0.099094 0.027325
0.543995 0.103021 0.026874
0.581682 0.106949 0.026422
0.616003 0.110301 0.026258
0.643595 0.112503 0.026668
0.671187 0.114704 0.027079
0.698779 0.116906 0.027489
0.726371 0.119107 0.027899
0.751748 0.120993 0.028453
0.766052 0.121296 0.029729
0.780357 0.121600 0.031006
0.794661 0.121903 0.032282
0.808966 0.122206 0.033558
0.823270 0.122510 0.034834
0.043925 0.031699 0.044618
0.049613 0.034934 0.043930
0.055302 0.038169 0.043243
0.060990 0.041405 0.042555
0.066679 0.044640 0.041867
0.072367 0.047875 0.041180
0.095988 0.053057 0.040401
0.123196 0.058628 0.039603
0.150403 0.064200 0.038806
0.177611 0.069771 0.038008
0.204819 0.075342 0.037211
0.239237 0.080465 0.036002
0.277261 0.085363 0.034587
0.315284 0.090262 0.033172
0.353308 0.095161 0.031757
0.391331 0.100060 0.030342
0.429292 0.104308 0.029208
0.467189 0.107906 0.028354
0.505086 0.111504 0.027500
0.542983 0.115103 0.026647
0.580880 0.118701 0.025793
0.615409 0.121648 0.025254
0.643202 0.123291 0.025343
0.670995 0.124935 0.025433
0.698788 0.126578 0.025523
0.726581 0.128222 0.025613
0.752138 0.129546 0.025854
0.766516 0.129273 0.026846
0.780893 0.129000 0.027839
0.795271 0.128727 0.028831
0.809649 0.128454 0.029824
0.824026 0.128181 0.030816
0.050022 0.038647 0.052842
0.053954 0.042431 0.051569
0.057886 0.046215 0.050296
0.061818 0.049999 0.049023
0.065750 0.053784 0.047749
0.069682 0.057568 0.046476
0.093056 0.063352 0.045325
0.120319 0.069536 0.044198
0.147581 0.075720 0.043072
0.174844 0.081904 0.041945
0.202106 0.088088 0.040818
0.236665 0.093452 0.039201
0.274871 0.098405 0.037337
0.313078 0.103359 0.035474
0.351284 0.108313 0.033611
0.389491 0.113266 0.031748
0.427648 0.117377 0.030188
0.465755 0.120646 0.028932
0.503863 0.123915 0.027676
0.541970 0.127184 0.026419
0.580078 0.130453 0.025163
0.614814 0.132994 0.024249
0.642808 0.134080 0.024019
0.670803 0.135165 0.023788
0.698797 0.136251 0.023558
0.726792 0.137336 0.023328
0.752529 0.138099 0.023254
0.766979 0.137250 0.023963
0.781430 0.136401 0.024672
0.795881 0.135552 0.025381
0.810332 0.134702 0.026090
0.824782 0.133853 0.026799
0.060058 0.049494 0.064177
0.063522 0.053248 0.062845
0.066986 0.057001 0.061512
0.070450 0.060755 0.060180
0.073914 0.064509 0.058847
0.077378 0.068262 0.057515
0.098045 0.074216 0.056086
0.122153 0.080608 0.054637
0.146261 0.087001 0.053189
0.170369 0.093394 0.051740
0.194477 0.099787 0.050292
0.227760 0.105882 0.048736
0.265631 0.111828 0.047126
0.303503 0.117775 0.045516
0.341374 0.123721 0.043905
0.379245 0.129667 0.042295
0.417496 0.134499 0.040733
0.456126 0.138216 0.039219
0.494756 0.141933 0.037705
0.533387 0.145650 0.036191
0.572017 0.149367 0.034677
0.607370 0.152202 0.033441
0.636168 0.153270 0.032761
0.664966 0.154339 0.032081
0.693763 0.155408 0.031401
0.722561 0.156477 0.030721
0.749068 0.157165 0.030188
0.764118 0.155953 0.030384
0.779168 0.154741 0.030581
0.794218 0.153529 0.030778
0.809268 0.152317 0.030974
0.824318 0.151105 0.031171
0.070881 0.061121 0.076135
0.074135 0.064728 0.074849
0.077388 0.068336 0.073562
0.080642 0.071943 0.072275
0.083896 0.075550 0.070988
0.087149 0.079158 0.069701
0.104618 0.085193 0.068013
0.124929 0.091714 0.066244
0.145241 0.098235 0.064476
0.165553 0.104756 0.062707
0.185864 0.111277 0.060939
0.217589 0.118202 0.059538
0.255021 0.125328 0.058321
0.292453 0.132454 0.057104
0.329885 0.139580 0.055888
0.367317 0.146707 0.054671
0.405641 0.152430 0.053191
0.444857 0.156751 0.051449
0.484073 0.161072 0.049706
0.523289 0.165393 0.047963
0.562505 0.169714 0.046221
0.598556 0.172981 0.044674
0.628278 0.174141 0.043518
0.657999 0.175302 0.042362
0.687721 0.176462 0.041207
0.717443 0.177622 0.040051
0.744837 0.178334 0.039028
0.760591 0.176801 0.038666
0.776346 0.175269 0.038305
0.792100 0.173737 0.037944
0.807854 0.172205 0.037582
0.823609 0.170672 0.037221
0.081705 0.072748 0.088093
0.084748 0.076209 0.086852
0.087791 0.079670 0.085611
0.090834 0.083131 0.084370
0.093878 0.086592 0.083129
0.096921 0.090053 0.081888
0.111191 0.096171 0.079940
0.127706 0.102820 0.077852
0.144221 0.109469 0.075763
0.160736 0.116118 0.073674
0.177251 0.122767 0.071585
0.207418 0.130521 0.070340
0.244411 0.138827 0.069517
0.281404 0.147134 0.068693
0.318397 0.155440 0.067870
0.355390 0.163746 0.067047
0.393787 0.170362 0.065649
0.433588 0.175286 0.063678
0.473390 0.180211 0.061707
0.513191 0.185136 0.059735
0.552992 0.190060 0.057764
0.589742 0.193761 0.055906
0.620388 0.195013 0.054274
0.651033 0.196264 0.052643
0.681679 0.197516 0.051012
0.712325 0.198768 0.049380
0.740606 0.199502 0.047868
0.757065 0.197650 0.046948
0.773523 0.195797 0.046029
0.789982 0.193945 0.045109
0.806441 0.192092 0.044190
0.822900 0.190240 0.043271
0.092528 0.084375 0.100051
0.095361 0.087690 0.098856
0.098194 0.091004 0.097661
0.101027 0.094319 0.096465
0.103860 0.097634 0.095270
0.106692 0.100948 0.094075
0.117763 0.107148 0.091868
0.130482 0.113925 0.089459
0.143201 0.120703 0.087050
0.155920 0.127480 0.084641
0.168638 0.134257 0.082232
0.197247 0.142840 0.081142
0.233801 0.152327 0.080712
0.270355 0.161813 0.080282
0.306909 0.171299 0.079852
0.343462 0.180786 0.079423
0.381933 0.188293 0.078107
0.422320 0.193822 0.075907
0.462706 0.199350 0.073707
0.503093 0.204879 0.071507
0.543480 0.210407 0.069307
0.580928 0.214540 0.067138
0.612497 0.215884 0.065031
0.644067 0.217227 0.062924
0.675637 0.218570 0.060817
0.707206 0.219913 0.058710
0.736375 0.220671 0.056708
0.753538 0.218498 0.055230
0.770701 0.216325 0.053753
0.787864 0.214153 0.052275
0.805028 0.211980 0.050798
0.822191 0.209807 0.049321
0.103352 0.096002 0.112009
0.105974 0.099170 0.110860
0.108597 0.102339 0.109710
0.111219 0.105507 0.108560
0.113842 0.108675 0.107411
0.116464 0.111843 0.106261
0.124336 0.118126 0.103795
0.133259 0.125031 0.101066
0.142181 0.131936 0.098337
0.151103 0.138841 0.095608
0.160026 0.145747 0.092879
0.187076 0.155159 0.091945
0.223191 0.165826 0.091908
0.259306 0.176492 0.091871
0.295420 0.187159 0.091835
0.331535 0.197826 0.091798
0.370078 0.206225 0.090566
0.411051 0.212357 0.088137
0.452023 0.218489 0.085708
0.492995 0.224622 0.083279
0.533968 0.230754 0.080850
0.572114 0.235320 0.078370
0.604607 0.236755 0.075787
0.637101 0.238190 0.073205
0.669595 0.239624 0.070622
0.702088 0.241059 0.068039
0.732144 0.241839 0.065548
0.750012 0.239346 0.063512
0.767879 0.236853 0.061477
0.785747 0.234361 0.059441
0.803614 0.231868 0.057406
0.821482 0.229375 0.055370
0.119028 0.112230 0.127685
0.121434 0.115191 0.126600
0.123840 0.118151 0.125514
0.126246 0.121112 0.124429
0.128652 0.124073 0.123343
0.131058 0.127034 0.122257
0.137453 0.133048 0.119805
0.144646 0.139673 0.117079
0.151840 0.146298 0.114353
0.159033 0.152922 0.111626
0.166226 0.159547 0.108900
0.190115 0.168653 0.107835
0.222351 0.178999 0.107600
0.254587 0.189345 0.107366
0.286823 0.199692 0.107131
0.319059 0.210038 0.106896
0.355608 0.218976 0.105968
0.396470 0.226504 0.104347
0.437333 0.234033 0.102727
0.478195 0.241562 0.101106
0.519058 0.249091 0.099485
0.557469 0.254899 0.097528
0.590978 0.257267 0.094896
0.624487 0.259635 0.092264
0.657996 0.262003 0.089633
0.691505 0.264371 0.087001
0.722595 0.265993 0.084393
0.741588 0.263887 0.081904
0.760581 0.261782 0.079414
0.779573 0.259676 0.076924
0.798566 0.257571 0.074434
0.817559 0.255465 0.071945
0.137130 0.130757 0.145220
0.139317 0.133480 0.144208
0.141503 0.136204 0.143196
0.143689 0.138927 0.142183
0.145876 0.141650 0.141171
0.148062 0.144373 0.140158
0.153842 0.149943 0.137855
0.160340 0.156083 0.135294
0.166838 0.162223 0.132732
0.173336 0.168362 0.130171
0.179834 0.174502 0.127609
0.199758 0.182733 0.126270
0.226396 0.192009 0.125541
0.253033 0.201285 0.124812
0.279671 0.210561 0.124083
0.306308 0.219837 0.123355
0.339829 0.229136 0.122843
0.380234 0.238458 0.122549
0.420639 0.247780 0.122255
0.461044 0.257101 0.121960
0.501450 0.266423 0.121666
0.539910 0.273878 0.120648
0.574480 0.277600 0.118181
0.609050 0.281322 0.115714
0.643620 0.285043 0.113247
0.678191 0.288765 0.110780
0.710387 0.291639 0.108242
0.730715 0.290275 0.105350
0.751044 0.288910 0.102458
0.771372 0.287545 0.099565
0.791700 0.286181 0.096673
0.812029 0.284816 0.093781
0.155233 0.149285 0.162756
0.157199 0.151770 0.161816
0.159166 0.154256 0.160877
0.161133 0.156741 0.159938
0.163100 0.159226 0.158999
0.165067 0.161711 0.158060
0.170230 0.166838 0.155906
0.176033 0.172493 0.153509
0.181836 0.178148 0.151112
0.187639 0.183803 0.148715
0.193442 0.189458 0.146319
0.209402 0.196813 0.144705
0.230441 0.205019 0.143482
0.251479 0.213225 0.142259
0.272518 0.221430 0.141036
0.293557 0.229636 0.139813
0.324050 0.239296 0.139718
0.363998 0.250411 0.140750
0.403946 0.261526 0.141783
0.443894 0.272641 0.142815
0.483841 0.283756 0.143847
0.522350 0.292857 0.143768
0.557982 0.297933 0.141465
0.593613 0.303009 0.139163
0.629244 0.308084 0.136861
0.664876 0.313160 0.134559
0.698179 0.317285 0.132091
0.719843 0.316662 0.128796
0.741507 0.316038 0.125501
0.763171 0.315415 0.122207
0.784835 0.314791 0.118912
0.806499 0.314168 0.115617
0.173335 0.167813 0.180291
0.175082 0.170060 0.179425
0.176829 0.172308 0.178559
0.178577 0.174555 0.177693
0.180324 0.176802 0.176827
0.182071 0.179050 0.175961
0.186619 0.183733 0.173956
0.191726 0.188903 0.171724
0.196834 0.194073 0.169492
0.201942 0.199243 0.167260
0.207049 0.204413 0.165028
0.219045 0.210893 0.163139
0.234486 0.218029 0.161422
0.249926 0.225164 0.159706
0.265366 0.232300 0.157989
0.280806 0.239435 0.156272
0.308272 0.249457 0.156593
0.347762 0.262365 0.158952
0.387252 0.275272 0.161310
0.426743 0.288180 0.163669
0.466233 0.301088 0.166028
0.504791 0.311836 0.166888
0.541483 0.318266 0.164750
0.578176 0.324695 0.162612
0.614868 0.331125 0.160475
0.651561 0.337554 0.158337
0.685971 0.342932 0.155940
0.708971 0.343049 0.152242
0.731970 0.343167 0.148545
0.754970 0.343284 0.144848
0.777969 0.343401 0.141151
0.800969 0.343519 0.137453
0.191437 0.186341 0.197826
0.192965 0.188350 0.197033
0.194493 0.190360 0.196240
0.196020 0.192369 0.195447
0.197548 0.194379 0.194655
0.199076 0.196388 0.193862
0.203007 0.200627 0.192007
0.207420 0.205313 0.189939
0.211832 0.209998 0.187872
0.216245 0.214683 0.185804
0.220657 0.219369 0.183737
0.228689 0.224974 0.181574
0.238531 0.231039 0.179363
0.248372 0.237104 0.177152
0.258214 0.243169 0.174942
0.268056 0.249234 0.172731
0.292493 0.259617 0.173468
0.331526 0.274318 0.177153
0.370559 0.289019 0.180838
0.409592 0.303720 0.184523
0.448625 0.318420 0.188209
0.487231 0.330815 0.190008
0.524985 0.338599 0.188035
0.562738 0.346382 0.186062
0.600492 0.354166 0.184089
0.638246 0.361949 0.182116
0.673763 0.368578 0.179789
0.698098 0.369437 0.175689
0.722434 0.370295 0.171589
0.746769 0.371153 0.167489
0.771104 0.372012 0.163389
0.795439 0.372870 0.159289
0.213297 0.208413 0.217937
0.214665 0.210203 0.217217
0.216032 0.211993 0.216498
0.217400 0.213783 0.215778
0.218768 0.215573 0.215058
0.220135 0.217363 0.214339
0.223556 0.221162 0.212652
0.227388 0.225362 0.210772
0.231219 0.229562 0.208892
0.235050 0.233763 0.207012
0.238882 0.237963 0.205133
0.244586 0.242867 0.202944
0.251226 0.248123 0.200600
0.257866 0.253378 0.198257
0.264505 0.258634 0.195913
0.271145 0.263889 0.193570
0.292180 0.273684 0.194309
0.327608 0.288019 0.198132
0.363037 0.302354 0.201954
0.398465 0.316689 0.205776
0.433894 0.331024 0.209599
0.470246 0.343774 0.211884
0.508443 0.353355 0.211096
0.546640 0.362936 0.210308
0.584838 0.372517 0.209519
0.623035 0.382098 0.208731
0.659145 0.390446 0.207409
0.684815 0.392631 0.203419
0.710486 0.394816 0.199429
0.736157 0.397001 0.195439
0.761828 0.399186 0.191449
0.787499 0.401371 0.187459
0.238914 0.234030 0.240624
0.240181 0.235619 0.239977
0.241448 0.237208 0.239331
0.242715 0.238797 0.238685
0.243982 0.240385 0.238038
0.245249 0.241974 0.237392
0.248265 0.245335 0.235893
0.251630 0.249051 0.234223
0.254995 0.252766 0.232554
0.258360 0.256482 0.230884
0.261724 0.260198 0.229215
0.266736 0.264574 0.227248
0.272571 0.269280 0.225134
0.278406 0.273987 0.223019
0.284241 0.278694 0.220904
0.290076 0.283400 0.218789
0.307332 0.291659 0.219117
0.336009 0.303469 0.221888
0.364687 0.315279 0.224658
0.393364 0.327089 0.227428
0.422041 0.338899 0.230198
0.453834 0.350713 0.232518
0.491858 0.362535 0.233934
0.529881 0.374357 0.235350
0.567905 0.386180 0.236767
0.605928 0.398002 0.238183
0.642116 0.408537 0.238802
0.669122 0.412633 0.235434
0.696128 0.416730 0.232066
0.723135 0.420827 0.228698
0.750141 0.424924 0.225330
0.777148 0.429020 0.221962
0.264532 0.259648 0.263311
0.265698 0.261035 0.262738
0.266865 0.262423 0.262164
0.268031 0.263810 0.261591
0.269197 0.265198 0.261018
0.270364 0.266585 0.260445
0.272973 0.269509 0.259133
0.275872 0.272739 0.257674
0.278770 0.275970 0.256215
0.281669 0.279201 0.254756
0.284567 0.282432 0.253297
0.288886 0.286280 0.251553
0.293916 0.290438 0.249667
0.298946 0.294596 0.247781
0.303976 0.298754 0.245895
0.309006 0.302911 0.244009
0.322484 0.309633 0.243925
0.344410 0.318918 0.245643
0.366336 0.328203 0.247362
0.388262 0.337489 0.249080
0.410189 0.346774 0.250798
0.437423 0.357652 0.253151
0.475272 0.371715 0.256772
0.513122 0.385779 0.260393
0.550972 0.399842 0.264014
0.588822 0.413906 0.267635
0.625087 0.426627 0.270195
0.653429 0.432635 0.267449
0.681771 0.438644 0.264703
0.710113 0.444653 0.261957
0.738455 0.450662 0.259211
0.766797 0.456670 0.256465
0.290149 0.285265 0.285998
0.291215 0.286451 0.285498
0.292281 0.287638 0.284998
0.293346 0.288824 0.284498
0.294412 0.290010 0.283998
0.295478 0.291196 0.283497
0.297682 0.293682 0.282373
0.300114 0.296428 0.281125
0.302546 0.299174 0.279876
0.304978 0.301920 0.278627
0.307409 0.304666 0.277379
0.311037 0.307987 0.275858
0.315261 0.311596 0.274200
0.319486 0.315205 0.272543
0.323711 0.318814 0.270886
0.327936 0.322423 0.269228
0.337636 0.327607 0.268733
0.352811 0.334368 0.269399
0.367986 0.341128 0.270065
0.383161 0.347888 0.270732
0.398336 0.354649 0.271398
0.421011 0.364590 0.273784
0.458687 0.380895 0.279610
0.496363 0.397200 0.285436
0.534039 0.413505 0.291261
0.571715 0.429809 0.297087
0.608058 0.444717 0.301588
0.637735 0.452637 0.299464
0.667413 0.460558 0.297340
0.697091 0.468479 0.295216
0.726768 0.476399 0.293092
0.756446 0.484320 0.290969
0.315767 0.310883 0.308685
0.316732 0.311868 0.308258
0.317697 0.312853 0.307831
0.318662 0.313837 0.307404
0.319627 0.314822 0.306977
0.320592 0.315807 0.306550
0.322391 0.317856 0.305614
0.324356 0.320117 0.304576
0.326321 0.322378 0.303537
0.328287 0.324639 0.302499
0.330252 0.326900 0.301461
0.333187 0.329694 0.300162
0.336607 0.332754 0.298734
0.340027 0.335814 0.297305
0.343446 0.338874 0.295876
0.346866 0.341934 0.294448
0.352788 0.345581 0.293541
0.361212 0.349817 0.293155
0.369636 0.354052 0.292769
0.378059 0.358288 0.292383
0.386483 0.362524 0.291998
0.404600 0.371529 0.294417
0.442102 0.390075 0.302448
0.479604 0.408621 0.310478
0.517106 0.427167 0.318509
0.554608 0.445713 0.326539
0.591029 0.462807 0.332981
0.622042 0.472640 0.331479
0.653055 0.482472 0.329977
0.684068 0.492305 0.328475
0.715082 0.502137 0.326973
0.746095 0.511970 0.325472
0.343149 0.337934 0.332601
0.344034 0.338751 0.332241
0.344920 0.339568 0.331881
0.345806 0.340385 0.331521
0.346692 0.341203 0.331161
0.347578 0.342020 0.330802
0.349043 0.343687 0.330031
0.350624 0.345524 0.329179
0.352205 0.347362 0.328327
0.353786 0.349199 0.327475
0.355367 0.351036 0.326622
0.357723 0.353355 0.325530
0.360466 0.355915 0.324318
0.363209 0.358475 0.323106
0.365951 0.361035 0.321894
0.368694 0.363595 0.320682
0.371930 0.366088 0.319558
0.375657 0.368515 0.318523
0.379385 0.370943 0.317488
0.383113 0.373370 0.316452
0.386841 0.375797 0.315417
0.401007 0.383673 0.317687
0.436048 0.402444 0.326568
0.471089 0.421216 0.335450
0.506131 0.439988 0.344331
0.541172 0.458759 0.353212
0.575695 0.476378 0.360588
0.607626 0.488229 0.360440
0.639557 0.500080 0.360292
0.671488 0.511931 0.360145
0.703419 0.523782 0.359997
0.735350 0.535634 0.359849
0.374060 0.367852 0.358974
0.374909 0.368569 0.358669
0.375758 0.369285 0.358364
0.376607 0.370002 0.358060
0.377457 0.370719 0.357755
0.378306 0.371435 0.357450
0.379582 0.372834 0.356803
0.380943 0.374369 0.356088
0.382305 0.375905 0.355373
0.383667 0.377440 0.354658
0.385028 0.378975 0.353943
0.387030 0.380925 0.353024
0.389352 0.383083 0.352004
0.391674 0.385240 0.350984
0.393996 0.387398 0.349964
0.396318 0.389555 0.348944
0.399050 0.391660 0.347994
0.402193 0.393712 0.347115
0.405335 0.395764 0.346235
0.408477 0.397816 0.345355
0.411620 0.399869 0.344476
0.423050 0.406225 0.346230
0.451057 0.421192 0.353255
0.479063 0.436158 0.360279
0.507070 0.451124 0.367303
0.535076 0.466090 0.374327
0.563751 0.480909 0.380625
0.595764 0.494992 0.383295
0.627777 0.509075 0.385965
0.659791 0.523159 0.388634
0.691804 0.537242 0.391304
0.723817 0.551325 0.393974
0.404971 0.397771 0.385348
0.405783 0.398387 0.385098
0.406596 0.399003 0.384848
0.407409 0.399619 0.384598
0.408221 0.400235 0.384348
0.409034 0.400851 0.384098
0.410121 0.401981 0.383575
0.411263 0.403214 0.382997
0.412405 0.404448 0.382419
0.413547 0.405681 0.381841
0.414689 0.406915 0.381263
0.416337 0.408496 0.380519
0.418238 0.410251 0.379691
0.420140 0.412006 0.378863
0.422041 0.413761 0.378035
0.423942 0.415515 0.377207
0.426171 0.417231 0.376431
0.428728 0.418909 0.375707
0.431285 0.420586 0.374983
0.433842 0.422263 0.374258
0.436399 0.423940 0.373534
0.445094 0.428778 0.374774
0.466065 0.439939 0.379941
0.487037 0.451099 0.385108
0.508009 0.462260 0.390275
0.528981 0.473420 0.395442
0.551806 0.485440 0.400662
0.583902 0.501756 0.406150
0.615998 0.518071 0.411637
0.648093 0.534386 0.417124
0.680189 0.550702 0.422612
0.712285 0.567017 0.428099
0.435882 0.427689 0.411722
0.436658 0.428204 0.411526
0.437434 0.428720 0.411331
0.438210 0.429235 0.411136
0.438986 0.429751 0.410941
0.439762 0.430266 0.410746
0.440660 0.431128 0.410346
0.441582 0.432060 0.409905
0.442505 0.432991 0.409465
0.443427 0.433923 0.409024
0.444350 0.434854 0.408584
0.445644 0.436066 0.408013
0.447125 0.437419 0.407377
0.448605 0.438771 0.406741
0.450085 0.440124 0.406106
0.451566 0.441476 0.405470
0.453292 0.442803 0.404867
0.455263 0.444105 0.404299
0.457235 0.445407 0.403730
0.459206 0.446709 0.403161
0.461177 0.448011 0.402593
0.467137 0.451331 0.403317
0.481074 0.458686 0.406627
0.495011 0.466041 0.409937
0.508948 0.473396 0.413247
0.522885 0.480751 0.416557
0.539862 0.489971 0.420700
0.572040 0.508519 0.429004
0.604218 0.527066 0.437309
0.636396 0.545614 0.445614
0.668574 0.564162 0.453919
0.700752 0.582709 0.462224
0.466793 0.457608 0.438095
0.467532 0.458022 0.437955
0.468272 0.458437 0.437815
0.469011 0.458852 0.437674
0.469751 0.459266 0.437534
0.470490 0.459681 0.437394
0.471199 0.460275 0.437118
0.471902 0.460905 0.436814
0.472605 0.461534 0.436511
0.473308 0.462164 0.436207
0.474010 0.462794 0.435904
0.474951 0.463637 0.435507
0.476011 0.464587 0.435063
0.477070 0.465537 0.434620
0.478130 0.466487 0.434176
0.479190 0.467436 0.433732
0.480413 0.468375 0.433304
0.481798 0.469302 0.432891
0.483184 0.470229 0.432478
0.484570 0.471156 0.432064
0.485956 0.472083 0.431651
0.489181 0.473884 0.431860
0.496083 0.477433 0.433313
0.502985 0.480983 0.434766
0.509887 0.484532 0.436219
0.516789 0.488082 0.437672
0.527918 0.494503 0.440737
0.560178 0.515282 0.451859
0.592439 0.536062 0.462982
0.624699 0.556842 0.474104
0.656959 0.577621 0.485226
0.689220 0.598401 0.496349
0.497601 0.487156 0.464784
0.498307 0.487476 0.464692
0.499013 0.487796 0.464601
0.499719 0.488116 0.464510
0.500425 0.488437 0.464418
0.501131 0.488757 0.464327
0.501667 0.489115 0.464159
0.502168 0.489481 0.463976
0.502670 0.489847 0.463793
0.503171 0.490213 0.463610
0.503673 0.490579 0.463427
0.504295 0.491097 0.463183
0.504976 0.491692 0.462909
0.505658 0.492286 0.462634
0.506339 0.492881 0.462360
0.507021 0.493476 0.462085
0.507794 0.494070 0.461811
0.508660 0.494665 0.461536
0.509526 0.495259 0.461262
0.510392 0.495854 0.460988
0.511258 0.496449 0.460713
0.512169 0.496967 0.460500
0.513169 0.497333 0.460408
0.514170 0.497699 0.460317
0.515170 0.498065 0.460225
0.516170 0.498431 0.460134
0.522217 0.502387 0.462230
0.553499 0.524297 0.475266
0.584780 0.546206 0.488302
0.616062 0.568115 0.501338
0.647343 0.590025 0.514374
0.678625 0.611934 0.527410
0.527898 0.514853 0.493048
0.528586 0.515109 0.492975
0.529273 0.515365 0.492902
0.529961 0.515621 0.492829
0.530648 0.515877 0.492755
0.531336 0.516134 0.492682
0.531777 0.516420 0.492548
0.532169 0.516713 0.492402
0.532561 0.517006 0.492255
0.532953 0.517298 0.492109
0.533345 0.517591 0.491963
0.533820 0.518006 0.491767
0.534337 0.518482 0.491548
0.534853 0.518957 0.491328
0.535370 0.519433 0.491109
0.535887 0.519909 0.490889
0.536483 0.520384 0.490670
0.537156 0.520860 0.490450
0.537830 0.521336 0.490231
0.538504 0.521811 0.490011
0.539178 0.522287 0.489791
0.539882 0.522702 0.489621
