Assets/1__3DArt/KimSe/artstation_asset/LUTs_subway_asset/CUBE/Underground 02.cube
# LUT by SparkleStock. Enhanced with VOXCOLOR algorithms.
LUT_3D_SIZE 5
DOMAIN_MIN 0.000000 0.000000 0.000000
DOMAIN_MAX 0.903226 0.903226 0.903226
0.031258 0.042979 0.050794
0.159636 0.046264 0.070881
0.347276 0.054598 0.095711
0.569530 0.064453 0.118697
0.766403 0.074174 0.141179
0.089748 0.120328 0.139564
0.121690 0.128782 0.142224
0.291565 0.152178 0.141085
0.536880 0.162931 0.124756
0.753418 0.158344 0.108442
0.172051 0.221143 0.249691
0.174721 0.225340 0.253217
0.209643 0.238428 0.258006
0.410377 0.297852 0.264169
0.671303 0.323144 0.221082
0.291425 0.349065 0.377345
0.292976 0.351250 0.378669
0.294549 0.353453 0.380389
0.307008 0.360619 0.383820
0.537130 0.454421 0.401038
0.454732 0.487014 0.502202
0.456612 0.488909 0.501938
0.456287 0.489088 0.501686
0.456489 0.489645 0.502051
0.496964 0.511747 0.511652
0.038954 0.057426 0.131624
0.110495 0.109146 0.152248
0.278881 0.126714 0.208007
0.524984 0.122669 0.262989
0.751437 0.118177 0.302709
0.067565 0.167486 0.200898
0.202119 0.224888 0.258564
0.390161 0.241429 0.280712
0.635427 0.236941 0.294217
0.834414 0.230210 0.304745
0.157884 0.247732 0.273207
0.289043 0.340343 0.360564
0.358502 0.361196 0.377992
0.571831 0.384731 0.366300
0.797135 0.379410 0.330324
0.287404 0.356790 0.381871
0.432349 0.462842 0.475430
0.460135 0.483633 0.494054
0.470675 0.486790 0.494169
0.691317 0.543326 0.478556
0.455397 0.490241 0.502650
0.596715 0.590953 0.586833
0.619314 0.609715 0.603969
0.618234 0.608744 0.602810
0.654139 0.624194 0.605174
0.047588 0.076852 0.231730
0.120573 0.133515 0.254090
0.197458 0.215040 0.268850
0.398897 0.252544 0.353427
0.667865 0.240925 0.425258
0.065011 0.210722 0.319355
0.203580 0.261874 0.370681
0.343588 0.340546 0.386343
0.570399 0.357143 0.440774
0.798513 0.339281 0.489552
0.106179 0.337874 0.375354
0.274946 0.406992 0.441614
0.444024 0.468617 0.484605
0.664623 0.477055 0.506064
0.857483 0.469653 0.522865
0.250204 0.399512 0.418823
0.436184 0.503048 0.511885
0.577635 0.587298 0.587319
0.608244 0.600021 0.596869
0.803468 0.617912 0.577591
0.438129 0.504416 0.513332
0.612316 0.614776 0.608388
0.721150 0.702067 0.691330
0.735331 0.714572 0.703782
0.763658 0.721669 0.700695
0.058584 0.099657 0.346977
0.147537 0.144519 0.380458
0.246975 0.255707 0.392061
0.301565 0.352092 0.384496
0.534568 0.401242 0.488051
0.080988 0.233227 0.431978
0.221180 0.275422 0.497113
0.373367 0.366576 0.510895
0.469043 0.481224 0.499975
0.695296 0.500432 0.585054
0.109064 0.412587 0.538199
0.262980 0.448790 0.582262
0.465401 0.497395 0.608965
0.607551 0.596257 0.604388
0.807947 0.594116 0.668231
0.143189 0.531028 0.550628
0.334852 0.592497 0.606422
0.537901 0.651256 0.657374
0.719930 0.701649 0.700351
0.877794 0.701733 0.725966
0.363875 0.564543 0.566744
0.560250 0.648921 0.641674
0.714779 0.732480 0.721865
0.823276 0.808779 0.799171
0.850942 0.809995 0.797711
0.076033 0.127331 0.470314
0.170807 0.159139 0.506702
0.307292 0.258020 0.531871
0.420307 0.400542 0.521992
0.493858 0.491908 0.522829
0.103148 0.252846 0.537628
0.242728 0.289910 0.615666
0.409739 0.362797 0.638779
0.560073 0.499964 0.628862
0.651419 0.604045 0.625004
0.137760 0.431723 0.644931
0.280930 0.458696 0.692282
0.484612 0.503531 0.724781
0.656038 0.598210 0.728534
0.760561 0.701891 0.725527
0.161424 0.609810 0.726408
0.315225 0.641200 0.762992
0.517856 0.672235 0.786842
0.724022 0.712978 0.810336
0.842590 0.790763 0.815739
0.225437 0.690179 0.710520
0.420937 0.742024 0.759202
0.615309 0.792619 0.806241
0.781906 0.841159 0.852284
0.898916 0.879925 0.887165
