Assets/1__3DArt/KimSe/artstation_asset/LUTs_subway_asset/CUBE/Underground 03_S.cube
# LUT by SparkleStock. Enhanced with VOXCOLOR algorithms.
LUT_3D_SIZE 8
DOMAIN_MIN 0.000000 0.000000 0.000000
DOMAIN_MAX 0.903226 0.903226 0.903226
0.050794 0.023443 0.035165
0.113372 0.024389 0.039135
0.202332 0.029485 0.039222
0.312159 0.037394 0.037630
0.435732 0.046847 0.036260
0.557486 0.056300 0.037205
0.658600 0.064335 0.040671
0.737768 0.070550 0.045973
0.082744 0.058986 0.075623
0.107267 0.070031 0.070958
0.187823 0.085020 0.063446
0.302675 0.098710 0.053828
0.432835 0.107468 0.043438
0.560151 0.110334 0.036772
0.663534 0.108611 0.034579
0.741220 0.103483 0.035404
0.124471 0.107653 0.127866
0.135406 0.120088 0.121408
0.182235 0.139344 0.109835
0.272832 0.162497 0.098171
0.404706 0.185074 0.088998
0.541419 0.192966 0.077520
0.655314 0.189123 0.068665
0.741315 0.177079 0.062241
0.179755 0.172594 0.192367
0.187360 0.182224 0.187360
0.205251 0.200144 0.175726
0.258048 0.225665 0.164080
0.359478 0.256405 0.156629
0.500766 0.282641 0.151921
0.627803 0.288666 0.141592
0.728733 0.279542 0.129395
0.251195 0.255473 0.268841
0.255946 0.261535 0.265828
0.266551 0.273541 0.257718
0.283425 0.289675 0.246223
0.318601 0.311916 0.236082
0.444063 0.360456 0.248024
0.579272 0.388981 0.246370
0.697476 0.396243 0.234812
0.342321 0.357375 0.356564
0.345755 0.360510 0.355161
0.351517 0.366790 0.350735
0.360207 0.375617 0.344204
0.373922 0.386735 0.336881
0.403513 0.401609 0.332429
0.519572 0.454407 0.355609
0.646180 0.493803 0.363890
0.446682 0.465264 0.448226
0.449408 0.466570 0.447823
0.452320 0.469171 0.446038
0.456149 0.472826 0.443201
0.461424 0.477257 0.439687
0.468571 0.482008 0.436162
0.511142 0.503438 0.445083
0.600352 0.545115 0.463395
0.555122 0.564827 0.539037
0.557501 0.565157 0.539037
0.558592 0.565797 0.538648
0.559316 0.566657 0.537916
0.560399 0.567686 0.536942
0.562405 0.569003 0.536063
0.564727 0.570138 0.535368
0.604087 0.593355 0.548148
0.053251 0.023821 0.097365
0.094021 0.049503 0.085088
0.178797 0.058185 0.095470
0.293527 0.060118 0.110040
0.424510 0.062545 0.117012
0.553290 0.065997 0.121177
0.659478 0.069860 0.126888
0.741269 0.073142 0.135348
0.069541 0.091126 0.124211
0.129706 0.116482 0.132988
0.222595 0.126477 0.136724
0.338139 0.129725 0.136356
0.466176 0.132080 0.133175
0.591678 0.132345 0.130183
0.696679 0.129850 0.128987
0.778291 0.124513 0.129359
0.113024 0.135682 0.158073
0.178445 0.179294 0.186799
0.242748 0.200727 0.185679
0.333879 0.212475 0.174011
0.463358 0.222049 0.164554
0.593834 0.221829 0.153510
0.704753 0.212974 0.143724
0.791345 0.197496 0.134850
0.174980 0.185950 0.207046
0.241765 0.249052 0.251729
0.277294 0.279604 0.249849
0.331376 0.296877 0.231278
0.434124 0.313384 0.216605
0.569590 0.323322 0.204880
0.690234 0.316919 0.189703
0.787163 0.298219 0.172854
0.249713 0.260687 0.275470
0.320245 0.332799 0.330192
0.348346 0.362852 0.332397
0.366025 0.377003 0.311987
0.405697 0.394683 0.292386
0.530238 0.423184 0.288132
0.658550 0.432686 0.275119
0.769576 0.423827 0.254964
0.342596 0.358930 0.360266
0.414643 0.429588 0.418298
0.438487 0.455388 0.425564
0.446320 0.464036 0.410327
0.462293 0.474785 0.393090
0.497648 0.487299 0.377542
0.610569 0.520526 0.381431
0.730348 0.538993 0.373523
0.447981 0.464990 0.450586
0.515732 0.527925 0.506691
0.536442 0.548770 0.517832
0.539483 0.553043 0.508943
0.545592 0.558476 0.497741
0.556503 0.564567 0.485198
0.601471 0.580391 0.480557
0.687410 0.607129 0.481394
0.557537 0.564278 0.540134
0.615403 0.616601 0.590825
0.632561 0.632908 0.603732
0.633316 0.634653 0.600058
0.634832 0.636855 0.594733
0.638151 0.639622 0.587906
0.643863 0.642521 0.580175
0.683264 0.659752 0.581363
0.054906 0.028351 0.180188
0.097194 0.058862 0.165765
0.157198 0.086475 0.157286
0.251249 0.105033 0.166453
0.383745 0.111683 0.195155
0.523179 0.112037 0.211664
0.641526 0.110312 0.225114
0.733827 0.107256 0.239649
0.064035 0.111866 0.216439
0.137259 0.134195 0.226109
0.220553 0.159498 0.220143
0.325480 0.175325 0.218743
0.455100 0.175594 0.231705
0.586190 0.171826 0.237335
0.698048 0.165350 0.241201
0.786460 0.156332 0.245327
0.095084 0.185009 0.239367
0.180665 0.221433 0.267322
0.261749 0.247591 0.268920
0.360932 0.260452 0.263022
0.488182 0.259900 0.261383
0.616374 0.254331 0.256667
0.727644 0.243897 0.251898
0.817316 0.229091 0.247489
0.152618 0.242497 0.264259
0.243206 0.301937 0.309699
0.313166 0.336425 0.322916
0.388370 0.352508 0.316212
0.487134 0.356580 0.300768
0.616183 0.356239 0.289332
0.732218 0.345725 0.276728
0.828314 0.326987 0.263571
0.236646 0.289289 0.303975
0.332082 0.369054 0.367580
0.393729 0.418706 0.394413
0.432716 0.445290 0.389280
0.471270 0.456907 0.362367
0.592499 0.468330 0.347879
0.714744 0.464676 0.329859
0.821253 0.447231 0.308347
0.335017 0.372780 0.374439
0.431270 0.456496 0.445382
0.488727 0.508666 0.480471
0.517464 0.535102 0.481821
0.531726 0.543800 0.456599
0.569572 0.553221 0.431341
0.679502 0.570189 0.420859
0.794515 0.573111 0.403373
0.444035 0.471014 0.457629
0.533488 0.548393 0.527783
0.585985 0.596386 0.566325
0.609083 0.619406 0.574143
0.613495 0.624607 0.556643
0.626085 0.631227 0.535436
0.672928 0.642188 0.518972
0.757272 0.657061 0.506812
0.556194 0.566399 0.542990
0.631883 0.632389 0.607328
0.676999 0.673525 0.645423
0.696004 0.692639 0.657814
0.696550 0.695433 0.648792
0.700399 0.699523 0.635875
0.709127 0.704181 0.620701
0.749795 0.716825 0.611679
0.055363 0.036874 0.277805
0.106701 0.062983 0.268139
0.154579 0.107895 0.242118
0.223013 0.150559 0.231472
0.327845 0.176967 0.254042
0.472047 0.187493 0.292445
0.604037 0.185929 0.320420
0.711637 0.178038 0.345344
0.062114 0.125561 0.324155
0.137636 0.141598 0.334758
0.215082 0.181376 0.319699
0.305985 0.219366 0.307717
0.417999 0.238508 0.316745
0.553698 0.239029 0.339113
0.674875 0.231284 0.354127
0.773358 0.218347 0.366740
0.082084 0.230503 0.352292
0.169633 0.250118 0.370807
0.263642 0.277274 0.370739
0.366858 0.301145 0.363820
0.481244 0.313477 0.359811
0.609678 0.307672 0.368302
0.724891 0.296701 0.373230
0.820550 0.281631 0.377023
0.127711 0.314075 0.366069
0.222883 0.349128 0.394256
0.320646 0.376947 0.411941
0.416669 0.395662 0.413094
0.512777 0.403642 0.398617
0.636990 0.396526 0.394351
0.751113 0.384153 0.389168
0.848781 0.367114 0.383915
0.205946 0.359220 0.374418
0.308589 0.416956 0.421151
0.399806 0.466946 0.457463
0.469232 0.498157 0.467615
0.523283 0.505998 0.447589
0.637165 0.503017 0.430641
0.752590 0.491996 0.414762
0.855695 0.473352 0.398966
0.314332 0.410399 0.412010
0.417479 0.480389 0.472294
0.503125 0.542688 0.522535
0.560304 0.584004 0.544505
0.588785 0.598955 0.530238
0.624725 0.603934 0.498846
0.730000 0.607586 0.480049
0.840588 0.600039 0.459530
0.430742 0.490329 0.477128
0.525613 0.559559 0.540743
0.603379 0.621546 0.595807
0.652494 0.663144 0.625042
0.670399 0.678917 0.619879
0.681588 0.684503 0.592541
0.728333 0.690786 0.567629
0.811036 0.696355 0.547366
0.548572 0.575088 0.551744
0.628077 0.636953 0.612564
0.694331 0.692726 0.666603
0.736017 0.730514 0.699147
0.749415 0.745178 0.702554
0.752086 0.749645 0.685286
0.762366 0.755371 0.664056
0.804079 0.764221 0.647300
0.054417 0.049163 0.383985
0.111409 0.069490 0.380503
0.176164 0.119352 0.356544
0.231829 0.181987 0.322228
0.281546 0.242192 0.296756
0.410032 0.279375 0.352064
0.549786 0.290335 0.399414
0.673353 0.284807 0.439837
0.060729 0.136166 0.427371
0.136282 0.151791 0.446269
0.224971 0.192555 0.435513
0.307199 0.250580 0.408176
0.380375 0.312387 0.383544
0.506519 0.332979 0.420694
0.634456 0.333119 0.452096
0.744959 0.320443 0.478216
0.079923 0.256506 0.476183
0.163725 0.269087 0.494708
0.265006 0.291220 0.492424
0.364575 0.330946 0.473894
0.456182 0.383148 0.450793
0.579356 0.388811 0.470947
0.699488 0.380097 0.488343
0.803218 0.362894 0.502515
0.111699 0.376879 0.502773
0.204286 0.393250 0.518453
0.309880 0.406300 0.524321
0.414939 0.428421 0.517966
0.514368 0.459942 0.502811
0.632114 0.454960 0.506239
0.746146 0.441503 0.510958
0.846887 0.423608 0.515278
0.162756 0.467100 0.494838
0.269374 0.496826 0.518845
0.373435 0.521040 0.536332
0.471459 0.538254 0.546346
0.563865 0.546431 0.547547
0.665767 0.537715 0.534001
0.773385 0.524895 0.526713
0.873583 0.509950 0.522206
0.277453 0.480462 0.484898
0.387991 0.530203 0.527852
0.484936 0.575261 0.565287
0.567184 0.614437 0.595376
0.632334 0.643954 0.611717
0.667001 0.644601 0.581533
0.765510 0.637740 0.561717
0.870581 0.624230 0.544534
0.404094 0.530381 0.517729
0.506498 0.586286 0.569624
0.592608 0.637809 0.616625
0.662858 0.684439 0.657344
0.714598 0.722059 0.684570
0.726440 0.726875 0.659160
0.770817 0.728573 0.631238
0.850261 0.726981 0.608164
0.531660 0.594875 0.571423
0.617452 0.649145 0.625354
0.688933 0.699323 0.674806
0.747732 0.745660 0.719461
0.791377 0.784363 0.753133
0.795479 0.790765 0.738850
0.805702 0.796772 0.715165
0.846897 0.802082 0.694077
0.052149 0.065422 0.488345
0.111336 0.080480 0.490279
0.188965 0.126731 0.475053
0.266963 0.198271 0.444250
0.331573 0.283724 0.404433
0.373264 0.344619 0.384948
0.493672 0.392585 0.441300
0.622802 0.411342 0.502489
0.059046 0.148181 0.523388
0.133054 0.166581 0.551101
0.227427 0.203995 0.547903
0.326209 0.266136 0.523899
0.414887 0.349183 0.490335
0.471799 0.412977 0.469008
0.585585 0.445534 0.510243
0.701301 0.450746 0.555599
0.079033 0.269564 0.572980
0.158836 0.283013 0.597540
0.262793 0.304780 0.600973
0.374702 0.347835 0.586532
0.479008 0.414901 0.559829
0.549632 0.474989 0.537183
0.659723 0.491722 0.564600
0.767671 0.485065 0.595663
0.111931 0.405232 0.618318
0.197317 0.415427 0.633762
0.303664 0.425830 0.639544
0.418316 0.447834 0.633252
0.528486 0.487380 0.614929
0.610472 0.536852 0.591723
0.717890 0.539238 0.606160
0.821467 0.524093 0.624136
0.158157 0.529996 0.642383
0.254644 0.545047 0.657966
0.358170 0.555727 0.664713
0.465190 0.563215 0.664150
0.570482 0.572057 0.656505
0.657841 0.604027 0.635249
0.761473 0.595311 0.637292
0.862074 0.576404 0.642966
0.223968 0.594294 0.617952
0.335818 0.620861 0.640131
0.441668 0.643886 0.658326
0.539304 0.662760 0.671589
0.626165 0.676893 0.678275
0.693883 0.684231 0.671203
0.787745 0.670993 0.661984
0.884624 0.655046 0.655246
0.354414 0.610743 0.602872
0.463910 0.648102 0.637223
0.560223 0.682821 0.669056
0.643134 0.714476 0.697398
0.711999 0.741994 0.720384
0.760669 0.759922 0.729927
0.804003 0.758895 0.711018
0.876094 0.752428 0.692280
0.496086 0.638761 0.616876
0.590731 0.680816 0.659055
0.670895 0.720680 0.698766
0.737926 0.758422 0.735892
0.792467 0.793455 0.769264
0.829822 0.821458 0.791719
0.841597 0.828987 0.775538
0.878440 0.830405 0.755256
0.050037 0.084359 0.581047
0.108737 0.095611 0.586200
0.194397 0.135655 0.579673
0.290165 0.205376 0.558572
0.379456 0.299992 0.523333
0.433148 0.394234 0.484795
0.491318 0.457231 0.488085
0.583980 0.501641 0.530861
0.057886 0.163849 0.608479
0.129745 0.185923 0.641772
0.225564 0.218629 0.645191
0.334684 0.276381 0.628209
0.443316 0.364099 0.599013
0.514875 0.459012 0.563715
0.578257 0.518615 0.561705
0.664069 0.552925 0.593602
0.078773 0.281203 0.652672
0.155245 0.298393 0.682404
0.259055 0.321082 0.691697
0.376963 0.362646 0.683575
0.494358 0.430240 0.661547
0.580318 0.517238 0.630370
0.649353 0.570082 0.623941
0.732314 0.593740 0.645823
0.113098 0.418353 0.700818
0.193093 0.428188 0.718864
0.298812 0.441181 0.728035
0.417642 0.464487 0.726065
0.536680 0.504631 0.711927
0.632473 0.574336 0.685985
0.706803 0.617365 0.675876
0.789555 0.630882 0.688525
0.160562 0.556055 0.739807
0.248218 0.565033 0.753829
0.349314 0.571867 0.758230
0.460325 0.579013 0.756643
0.575222 0.592128 0.750416
0.674378 0.635309 0.731538
0.752629 0.665871 0.718493
0.836423 0.670717 0.722617
0.220908 0.656408 0.743576
0.321398 0.670859 0.758925
0.423022 0.682322 0.768341
0.523692 0.691278 0.772440
0.621039 0.698711 0.771710
0.709052 0.708006 0.765354
0.786882 0.723909 0.750905
0.870724 0.723132 0.747261
0.312287 0.696370 0.719413
0.420246 0.718858 0.740326
0.520083 0.739305 0.758619
0.611171 0.757565 0.773809
0.692876 0.773414 0.785487
0.761857 0.785588 0.792415
0.815941 0.793908 0.783222
0.887212 0.790433 0.774763
0.439975 0.714405 0.702250
0.541318 0.742869 0.730010
0.629980 0.770143 0.756530
0.706905 0.796052 0.781521
0.772861 0.820353 0.804602
0.825911 0.841970 0.824288
0.861113 0.853348 0.826339
0.904645 0.855115 0.819434
0.049801 0.104959 0.661483
0.106366 0.113649 0.667991
0.195732 0.147581 0.668165
0.303580 0.211401 0.657107
0.414525 0.305254 0.632191
0.498393 0.418281 0.594788
0.539460 0.502709 0.565425
0.593058 0.565463 0.573195
0.058040 0.182406 0.682560
0.127561 0.208363 0.719361
0.222188 0.236652 0.727699
0.336638 0.286840 0.717612
0.460740 0.369866 0.696388
0.559434 0.477543 0.662909
0.611163 0.562752 0.634081
0.666085 0.621648 0.637068
0.079438 0.294455 0.719992
0.153213 0.316418 0.753993
0.255391 0.340267 0.767916
0.375112 0.378054 0.765520
0.500622 0.439037 0.750015
0.609380 0.533405 0.721643
0.670457 0.614713 0.694213
0.728181 0.667688 0.692944
0.114835 0.427384 0.765046
0.190899 0.439513 0.786407
0.295391 0.456464 0.799290
0.415110 0.480810 0.801982
0.538235 0.517778 0.793414
0.650695 0.590084 0.771660
0.719432 0.662248 0.746605
0.780984 0.707508 0.741723
0.164236 0.566667 0.808813
0.245378 0.573850 0.823501
0.344002 0.581014 0.828708
0.456433 0.591120 0.829248
0.576548 0.608891 0.827071
0.685683 0.651409 0.813343
0.759974 0.708889 0.791780
0.825779 0.744823 0.784068
0.227564 0.685432 0.834891
0.317442 0.693333 0.847544
0.413519 0.699408 0.853150
0.513939 0.704832 0.853482
0.616463 0.711237 0.850131
0.716178 0.723542 0.844265
0.792520 0.760031 0.827883
0.861464 0.784617 0.818646
0.299009 0.755215 0.825175
0.399061 0.767362 0.838275
0.495616 0.778050 0.847921
0.588089 0.787399 0.854215
0.675851 0.795619 0.857442
0.756535 0.803180 0.858108
0.823688 0.818422 0.852942
0.889397 0.830492 0.845799
0.400886 0.785365 0.800867
0.501837 0.802795 0.817707
0.592796 0.819478 0.833372
0.674548 0.835163 0.847525
0.747735 0.849608 0.859865
0.810863 0.862137 0.869583
0.865299 0.872932 0.876728
0.914754 0.880961 0.875310
