Assets/1__3DArt/KimSe/artstation_asset/LUTs_subway_asset/CUBE/Yellow Line 05.cube
# LUT by SparkleStock. Enhanced with VOXCOLOR algorithms.
LUT_3D_SIZE 32
0.046886 0.070330 0.082051
0.098168 0.093584 0.083753
0.149451 0.116838 0.085454
0.200733 0.140092 0.087156
0.252015 0.163346 0.088857
0.303297 0.186600 0.090559
0.359030 0.217220 0.091118
0.415652 0.249313 0.091449
0.472275 0.281405 0.091780
0.528898 0.313498 0.092111
0.585521 0.345591 0.092442
0.630076 0.375068 0.092268
0.668597 0.403238 0.091843
0.707117 0.431407 0.091418
0.745638 0.459577 0.090992
0.784158 0.487747 0.090567
0.813014 0.511119 0.090307
0.832203 0.529694 0.090212
0.851392 0.548269 0.090118
0.870582 0.566844 0.090023
0.889771 0.585419 0.089929
0.905242 0.600969 0.090197
0.913277 0.610469 0.091189
0.921312 0.619969 0.092182
0.929347 0.629469 0.093174
0.937382 0.638970 0.094167
0.944779 0.647714 0.095333
0.948986 0.652676 0.097365
0.953192 0.657639 0.099397
0.957399 0.662602 0.101430
0.961605 0.667565 0.103462
0.965812 0.672527 0.105495
0.055961 0.081531 0.082666
0.101645 0.101538 0.084239
0.147328 0.121545 0.085813
0.193012 0.141551 0.087386
0.238695 0.161558 0.088960
0.284379 0.181565 0.090533
0.339506 0.211041 0.091178
0.396522 0.242411 0.091637
0.453539 0.273780 0.092096
0.510555 0.305150 0.092554
0.567571 0.336520 0.093013
0.613178 0.366123 0.092852
0.653080 0.394841 0.092381
0.692982 0.423560 0.091910
0.732884 0.452278 0.091439
0.772786 0.480997 0.090968
0.802908 0.505188 0.090657
0.823250 0.524852 0.090508
0.843592 0.544515 0.090359
0.863934 0.564179 0.090209
0.884276 0.583842 0.090060
0.900729 0.600481 0.090300
0.909405 0.611070 0.091320
0.918080 0.621659 0.092340
0.926755 0.632247 0.093360
0.935431 0.642836 0.094380
0.943404 0.652594 0.095592
0.947867 0.658197 0.097761
0.952329 0.663800 0.099931
0.956792 0.669403 0.102101
0.961255 0.675007 0.104270
0.965717 0.680610 0.106440
0.065036 0.092733 0.083280
0.105121 0.109492 0.084726
0.145206 0.126251 0.086171
0.185291 0.143010 0.087616
0.225376 0.159769 0.089062
0.265461 0.176529 0.090507
0.319983 0.204861 0.091237
0.377393 0.235508 0.091824
0.434802 0.266156 0.092411
0.492212 0.296803 0.092998
0.549622 0.327450 0.093585
0.596280 0.357178 0.093436
0.637564 0.386445 0.092919
0.678847 0.415712 0.092402
0.720130 0.444980 0.091886
0.761414 0.474247 0.091369
0.792803 0.499257 0.091008
0.814297 0.520009 0.090804
0.835792 0.540761 0.090600
0.857287 0.561514 0.090395
0.878781 0.582266 0.090191
0.896216 0.599993 0.090404
0.905532 0.611671 0.091451
0.914848 0.623348 0.092499
0.924163 0.635025 0.093546
0.933479 0.646703 0.094594
0.942029 0.657474 0.095851
0.946748 0.663718 0.098158
0.951466 0.669961 0.100465
0.956185 0.676205 0.102771
0.960904 0.682448 0.105078
0.965623 0.688692 0.107385
0.074111 0.103935 0.083895
0.108597 0.117446 0.085212
0.143084 0.130958 0.086529
0.177570 0.144469 0.087847
0.212056 0.157981 0.089164
0.246543 0.171493 0.090481
0.300460 0.198682 0.091297
0.358263 0.228606 0.092012
0.416066 0.258531 0.092727
0.473869 0.288455 0.093442
0.531672 0.318380 0.094157
0.579382 0.348232 0.094020
0.622047 0.378049 0.093458
0.664712 0.407865 0.092895
0.707376 0.437681 0.092332
0.750041 0.467498 0.091770
0.782697 0.493326 0.091359
0.805344 0.515167 0.091100
0.827992 0.537008 0.090840
0.850639 0.558849 0.090581
0.873287 0.580689 0.090322
0.891703 0.599505 0.090508
0.901659 0.612271 0.091582
0.911616 0.625037 0.092657
0.921572 0.637803 0.093732
0.931528 0.650569 0.094807
0.940653 0.662355 0.096110
0.945628 0.669239 0.098554
0.950603 0.676123 0.100998
0.955578 0.683006 0.103442
0.960553 0.689890 0.105886
0.965528 0.696774 0.108330
0.083186 0.115136 0.084509
0.112073 0.125401 0.085698
0.140961 0.135665 0.086888
0.169849 0.145929 0.088077
0.198737 0.156193 0.089266
0.227625 0.166457 0.090455
0.280936 0.192502 0.091356
0.339133 0.221704 0.092199
0.397329 0.250906 0.093042
0.455525 0.280108 0.093885
0.513722 0.309310 0.094729
0.562485 0.339287 0.094604
0.606531 0.369652 0.093996
0.650577 0.400018 0.093387
0.694623 0.430383 0.092779
0.738669 0.460748 0.092171
0.772592 0.487395 0.091710
0.796392 0.510325 0.091395
0.820192 0.533254 0.091081
0.843992 0.556183 0.090767
0.867792 0.579113 0.090453
0.887190 0.599017 0.090611
0.897787 0.612872 0.091714
0.908383 0.626727 0.092816
0.918980 0.640581 0.093918
0.929576 0.654436 0.095021
0.939278 0.667235 0.096369
0.944509 0.674760 0.098951
0.949740 0.682284 0.101532
0.954972 0.689808 0.104113
0.960203 0.697332 0.106694
0.965434 0.704856 0.109276
0.092260 0.126338 0.085123
0.115550 0.133355 0.086185
0.138839 0.140371 0.087246
0.162128 0.147388 0.088307
0.185417 0.154404 0.089368
0.208707 0.161421 0.090429
0.261413 0.186323 0.091416
0.320003 0.214802 0.092387
0.378592 0.243281 0.093358
0.437182 0.271760 0.094329
0.495772 0.300239 0.095300
0.545587 0.330342 0.095188
0.591014 0.361256 0.094534
0.636441 0.392170 0.093880
0.681869 0.423084 0.093226
0.727296 0.453998 0.092572
0.762486 0.481464 0.092060
0.787439 0.505482 0.091691
0.812391 0.529500 0.091322
0.837344 0.553518 0.090953
0.862297 0.577536 0.090584
0.882677 0.598529 0.090715
0.893914 0.613473 0.091845
0.905151 0.628416 0.092974
0.916388 0.643359 0.094104
0.927624 0.658302 0.095234
0.937903 0.672116 0.096629
0.943390 0.680280 0.099347
0.948878 0.688445 0.102066
0.954365 0.696610 0.104784
0.959852 0.704774 0.107502
0.965339 0.712939 0.110221
0.116617 0.145417 0.086368
0.139911 0.152762 0.087393
0.163205 0.160106 0.088417
0.186499 0.167450 0.089442
0.209793 0.174795 0.090466
0.233086 0.182139 0.091491
0.279711 0.203082 0.092444
0.331003 0.226745 0.093384
0.382294 0.250407 0.094323
0.433585 0.274070 0.095262
0.484876 0.297733 0.096201
0.532757 0.326220 0.096083
0.578933 0.357119 0.095437
0.625109 0.388017 0.094790
0.671285 0.418916 0.094144
0.717461 0.449815 0.093497
0.753522 0.477684 0.092951
0.779467 0.502524 0.092504
0.805412 0.527364 0.092057
0.831357 0.552204 0.091611
0.857302 0.577044 0.091164
0.878543 0.598871 0.091234
0.890374 0.614674 0.092338
0.902206 0.630478 0.093442
0.914037 0.646281 0.094546
0.925869 0.662084 0.095650
0.936678 0.676691 0.097036
0.942375 0.685321 0.099839
0.948073 0.693951 0.102641
0.953771 0.702580 0.105443
0.959468 0.711210 0.108246
0.965166 0.719839 0.111048
0.144031 0.166072 0.087739
0.168450 0.174459 0.088745
0.192869 0.182846 0.089751
0.217288 0.191233 0.090758
0.241707 0.199621 0.091764
0.266126 0.208008 0.092770
0.305574 0.224429 0.093667
0.348029 0.242456 0.094542
0.390483 0.260484 0.095417
0.432937 0.278512 0.096293
0.475391 0.296539 0.097168
0.520741 0.323062 0.097041
0.567539 0.353833 0.096413
0.614337 0.384604 0.095784
0.661135 0.415374 0.095156
0.707933 0.446145 0.094528
0.744785 0.474335 0.093950
0.771691 0.499943 0.093420
0.798597 0.525551 0.092891
0.825503 0.551159 0.092362
0.852408 0.576768 0.091833
0.874484 0.599379 0.091836
0.886901 0.615996 0.092904
0.899318 0.632614 0.093971
0.911735 0.649231 0.095038
0.924152 0.665848 0.096105
0.935482 0.681206 0.097474
0.941381 0.690265 0.100350
0.947280 0.699325 0.103225
0.953179 0.708385 0.106101
0.959078 0.717444 0.108976
0.964977 0.726504 0.111852
0.171444 0.186727 0.089109
0.196989 0.196157 0.090097
0.222533 0.205587 0.091085
0.248077 0.215017 0.092073
0.273621 0.224447 0.093061
0.299165 0.233877 0.094049
0.331437 0.245775 0.094890
0.365054 0.258168 0.095701
0.398672 0.270560 0.096512
0.432289 0.282953 0.097323
0.465906 0.295345 0.098134
0.508726 0.319905 0.097998
0.556146 0.350547 0.097388
0.603566 0.381190 0.096779
0.650986 0.411833 0.096169
0.698406 0.442475 0.095559
0.736049 0.470985 0.094948
0.763915 0.497362 0.094337
0.791782 0.523738 0.093725
0.819648 0.550115 0.093114
0.847514 0.576492 0.092503
0.870426 0.599887 0.092439
0.883428 0.617318 0.093469
0.896430 0.634750 0.094500
0.909433 0.652181 0.095531
0.922435 0.669613 0.096561
0.934287 0.685720 0.097912
0.940387 0.695210 0.100860
0.946487 0.704699 0.103809
0.952588 0.714189 0.106758
0.958688 0.723678 0.109706
0.964788 0.733168 0.112655
0.198858 0.207381 0.090480
0.225527 0.217854 0.091450
0.252197 0.228327 0.092420
0.278866 0.238800 0.093389
0.305535 0.249273 0.094359
0.332205 0.259746 0.095329
0.357300 0.267122 0.096113
0.382080 0.273880 0.096860
0.406861 0.280637 0.097607
0.431641 0.287394 0.098354
0.456421 0.294152 0.099101
0.496710 0.316747 0.098956
0.544752 0.347262 0.098364
0.592794 0.377776 0.097773
0.640836 0.408291 0.097181
0.688878 0.438805 0.096589
0.727313 0.467635 0.095947
0.756140 0.494780 0.095253
0.784966 0.521926 0.094559
0.813793 0.549071 0.093866
0.842620 0.576216 0.093172
0.866367 0.600394 0.093041
0.879955 0.618640 0.094035
0.893543 0.636886 0.095029
0.907130 0.655131 0.096023
0.920718 0.673377 0.097017
0.933092 0.690235 0.098349
0.939393 0.700154 0.101371
0.945695 0.710074 0.104393
0.951996 0.719993 0.107415
0.958297 0.729913 0.110437
0.964599 0.739832 0.113459
0.226271 0.228036 0.091851
0.254066 0.239552 0.092802
0.281860 0.251067 0.093754
0.309655 0.262583 0.094705
0.337450 0.274099 0.095656
0.365244 0.285615 0.096608
0.383163 0.288469 0.097336
0.399106 0.289591 0.098019
0.415050 0.290713 0.098702
0.430993 0.291836 0.099385
0.446937 0.292958 0.100068
0.484694 0.313589 0.099913
0.533358 0.343976 0.099340
0.582022 0.374363 0.098767
0.630686 0.404749 0.098193
0.679351 0.435136 0.097620
0.718576 0.464286 0.096945
0.748364 0.492199 0.096169
0.778151 0.520113 0.095393
0.807938 0.548026 0.094617
0.837726 0.575940 0.093841
0.862308 0.600902 0.093643
0.876482 0.619962 0.094601
0.890655 0.639022 0.095558
0.904828 0.658082 0.096516
0.919001 0.677141 0.097473
0.931896 0.694749 0.098787
0.938399 0.705099 0.101882
0.944902 0.715448 0.104977
0.951404 0.725798 0.108072
0.957907 0.736147 0.111167
0.964410 0.746497 0.114262
0.262413 0.255591 0.093820
0.289674 0.267107 0.094692
0.316935 0.278623 0.095564
0.344196 0.290138 0.096436
0.371457 0.301654 0.097309
0.398718 0.313170 0.098181
0.414525 0.315384 0.098816
0.428041 0.315738 0.099405
0.441557 0.316091 0.099994
0.455073 0.316445 0.100582
0.468589 0.316799 0.101171
0.501943 0.334019 0.101033
0.545216 0.359673 0.100533
0.588489 0.385327 0.100033
0.631762 0.410981 0.099533
0.675035 0.436635 0.099033
0.711878 0.463569 0.098354
0.742290 0.491781 0.097495
0.772703 0.519993 0.096637
0.803115 0.548206 0.095779
0.833528 0.576418 0.094920
0.858700 0.601808 0.094647
0.873392 0.621554 0.095543
0.888083 0.641300 0.096440
0.902775 0.661046 0.097336
0.917467 0.680792 0.098233
0.930825 0.699037 0.099501
0.937517 0.709780 0.102626
0.944209 0.720523 0.105752
0.950900 0.731266 0.108877
0.957592 0.742008 0.112003
0.964284 0.752751 0.115129
0.302919 0.286597 0.096089
0.328817 0.297591 0.096851
0.354714 0.308585 0.097614
0.380612 0.319580 0.098376
0.406510 0.330574 0.099138
0.432408 0.341568 0.099901
0.448636 0.345083 0.100427
0.462930 0.347102 0.100905
0.477223 0.349120 0.101384
0.491517 0.351139 0.101863
0.505811 0.353158 0.102342
0.533826 0.366243 0.102235
0.568701 0.384862 0.101835
0.603576 0.403482 0.101436
0.638451 0.422101 0.101036
0.673326 0.440720 0.100637
0.706199 0.464168 0.099967
0.737069 0.492444 0.099026
0.767938 0.520721 0.098085
0.798808 0.548997 0.097145
0.829678 0.577273 0.096204
0.855317 0.602914 0.095851
0.870493 0.623282 0.096675
0.885670 0.643650 0.097498
0.900846 0.664018 0.098321
0.916023 0.684386 0.099145
0.929816 0.703212 0.100353
0.936690 0.714330 0.103488
0.943565 0.725448 0.106623
0.950440 0.736565 0.109757
0.957315 0.747683 0.112892
0.964189 0.758801 0.116027
0.343424 0.317602 0.098358
0.367959 0.328075 0.099010
0.392494 0.338548 0.099663
0.417029 0.349021 0.100315
0.441564 0.359494 0.100968
0.466099 0.369967 0.101620
0.482747 0.374782 0.102037
0.497819 0.378465 0.102406
0.512890 0.382149 0.102775
0.527961 0.385833 0.103143
0.543032 0.389516 0.103512
0.565708 0.398467 0.103436
0.592185 0.410051 0.103137
0.618662 0.421636 0.102839
0.645140 0.433220 0.102540
0.671617 0.444805 0.102241
0.700519 0.464767 0.101580
0.731847 0.493107 0.100557
0.763174 0.521448 0.099534
0.794501 0.549788 0.098511
0.825828 0.578129 0.097488
0.851934 0.604019 0.097056
0.867595 0.625009 0.097806
0.883256 0.645999 0.098556
0.898918 0.666989 0.099306
0.914579 0.687979 0.100056
0.928806 0.707386 0.101205
0.935864 0.718879 0.104349
0.942922 0.730372 0.107493
0.949979 0.741865 0.110637
0.957037 0.753358 0.113781
0.964095 0.764851 0.116925
0.383930 0.348608 0.100626
0.407102 0.358559 0.101169
0.430274 0.368511 0.101712
0.453446 0.378462 0.102255
0.476617 0.388414 0.102797
0.499789 0.398365 0.103340
0.516859 0.404481 0.103647
0.532707 0.409829 0.103906
0.548556 0.415178 0.104165
0.564405 0.420526 0.104424
0.580254 0.425875 0.104683
0.597590 0.430691 0.104638
0.615669 0.435240 0.104439
0.633749 0.439790 0.104241
0.651828 0.444339 0.104043
0.669908 0.448889 0.103845
0.694840 0.465366 0.103193
0.726625 0.493771 0.102088
0.758409 0.522175 0.100982
0.790194 0.550580 0.099877
0.821979 0.578984 0.098772
0.848550 0.605124 0.098260
0.864697 0.626736 0.098937
0.880843 0.648349 0.099614
0.896989 0.669961 0.100291
0.913135 0.691573 0.100968
0.927797 0.711561 0.102058
0.935038 0.723429 0.105211
0.942278 0.735297 0.108364
0.949519 0.747165 0.111517
0.956760 0.759033 0.114670
0.964000 0.770901 0.117823
0.424436 0.379613 0.102895
0.446245 0.389043 0.103328
0.468053 0.398473 0.103761
0.489862 0.407903 0.104194
0.511671 0.417333 0.104627
0.533480 0.426763 0.105060
0.550970 0.434180 0.105257
0.567596 0.441193 0.105406
0.584223 0.448207 0.105555
0.600849 0.455220 0.105705
0.617476 0.462233 0.105854
0.629472 0.462914 0.105839
0.639154 0.460429 0.105742
0.648835 0.457944 0.105644
0.658517 0.455459 0.105546
0.668199 0.452974 0.105449
0.689161 0.465965 0.104806
0.721403 0.494434 0.103618
0.753645 0.522902 0.102431
0.785887 0.551371 0.101243
0.818129 0.579839 0.100055
0.845167 0.606230 0.099465
0.861798 0.628464 0.100068
0.878429 0.650698 0.100672
0.895060 0.672932 0.101276
0.911691 0.695166 0.101880
0.926788 0.715735 0.102910
0.934211 0.727978 0.106072
0.941635 0.740222 0.109234
0.949058 0.752465 0.112396
0.956482 0.764708 0.115559
0.963906 0.776951 0.118721
0.463902 0.412935 0.105495
0.484196 0.421660 0.105813
0.504491 0.430386 0.106132
0.524786 0.439112 0.106450
0.545081 0.447837 0.106769
0.565376 0.456563 0.107088
0.582533 0.464449 0.107189
0.599064 0.472167 0.107247
0.615594 0.479884 0.107305
0.632125 0.487602 0.107363
0.648655 0.495320 0.107421
0.658040 0.494470 0.107381
0.663852 0.489337 0.107293
0.669664 0.484203 0.107204
0.675476 0.479070 0.107116
0.681288 0.473936 0.107028
0.698986 0.483939 0.106383
0.728571 0.509077 0.105181
0.758155 0.534216 0.103980
0.787740 0.559355 0.102778
0.817324 0.584493 0.101577
0.842703 0.608774 0.100945
0.859667 0.631337 0.101453
0.876632 0.653901 0.101961
0.893597 0.676464 0.102468
0.910562 0.699028 0.102976
0.925964 0.719927 0.103925
0.933553 0.732504 0.107078
0.941141 0.745081 0.110231
0.948729 0.757658 0.113384
0.956317 0.770235 0.116537
0.963906 0.782811 0.119690
0.502328 0.448572 0.108425
0.520958 0.456411 0.108625
0.539588 0.464249 0.108824
0.558217 0.472087 0.109024
0.576847 0.479925 0.109224
0.595477 0.487764 0.109424
0.611549 0.495288 0.109444
0.627110 0.502750 0.109429
0.642671 0.510212 0.109414
0.658231 0.517673 0.109398
0.673792 0.525135 0.109383
0.683293 0.525359 0.109264
0.689764 0.521963 0.109093
0.696234 0.518568 0.108923
0.702705 0.515172 0.108752
0.709176 0.511777 0.108581
0.724317 0.519287 0.107923
0.748129 0.537701 0.106776
0.771941 0.556116 0.105629
0.795754 0.574531 0.104483
0.819566 0.592946 0.103336
0.841157 0.612756 0.102702
0.858304 0.635356 0.103090
0.875452 0.657956 0.103479
0.892600 0.680556 0.103868
0.909748 0.703156 0.104257
0.925327 0.724135 0.105102
0.933062 0.737004 0.108227
0.940796 0.749874 0.111353
0.948531 0.762744 0.114478
0.956266 0.775614 0.117604
0.964000 0.788483 0.120729
0.540754 0.484210 0.111355
0.557719 0.491161 0.111436
0.574684 0.498112 0.111517
0.591649 0.505063 0.111598
0.608614 0.512013 0.111679
0.625579 0.518964 0.111759
0.640565 0.526128 0.111699
0.655156 0.533333 0.111611
0.669747 0.540539 0.111522
0.684338 0.547744 0.111434
0.698929 0.554950 0.111345
0.708546 0.556247 0.111147
0.715675 0.554589 0.110894
0.722805 0.552932 0.110641
0.729934 0.551275 0.110388
0.737063 0.549618 0.110135
0.749648 0.554634 0.109462
0.767688 0.566326 0.108371
0.785727 0.578017 0.107279
0.803767 0.589708 0.106187
0.821807 0.601399 0.105096
0.839610 0.616739 0.104458
0.856941 0.639375 0.104728
0.874272 0.662012 0.104998
0.891603 0.684649 0.105268
0.908934 0.707285 0.105537
0.924690 0.728343 0.106279
0.932571 0.741505 0.109377
0.940452 0.754668 0.112475
0.948333 0.767830 0.115573
0.956214 0.780993 0.118671
0.964095 0.794155 0.121769
0.579180 0.519847 0.114286
0.594480 0.525911 0.114248
0.609780 0.531974 0.114209
0.625080 0.538038 0.114171
0.640380 0.544102 0.114133
0.655680 0.550165 0.114095
0.669581 0.556967 0.113954
0.683202 0.563916 0.113792
0.696824 0.570866 0.113631
0.710445 0.577815 0.113469
0.724066 0.584765 0.113308
0.733799 0.587135 0.113030
0.741587 0.587216 0.112695
0.749375 0.587297 0.112359
0.757163 0.587377 0.112024
0.764951 0.587458 0.111688
0.774978 0.589982 0.111002
0.787246 0.594950 0.109966
0.799513 0.599917 0.108929
0.811781 0.604884 0.107892
0.824048 0.609852 0.106855
0.838064 0.620721 0.106214
0.855578 0.643394 0.106365
0.873092 0.666067 0.106516
0.890606 0.688741 0.106667
0.908120 0.711414 0.106818
0.924052 0.732551 0.107456
0.932080 0.746006 0.110526
0.940107 0.759461 0.113597
0.948135 0.772916 0.116668
0.956162 0.786372 0.119738
0.964189 0.799827 0.122809
0.617606 0.555485 0.117216
0.631241 0.560661 0.117059
0.644876 0.565837 0.116902
0.658511 0.571013 0.116745
0.672146 0.576190 0.116588
0.685781 0.581366 0.116431
0.698597 0.587806 0.116209
0.711249 0.594500 0.115974
0.723900 0.601193 0.115739
0.736552 0.607886 0.115505
0.749204 0.614579 0.115270
0.759052 0.618023 0.114913
0.767498 0.619842 0.114495
0.775945 0.621661 0.114078
0.784392 0.623480 0.113660
0.792838 0.625299 0.113242
0.800309 0.625330 0.112542
0.806804 0.623574 0.111560
0.813299 0.621817 0.110578
0.819794 0.620061 0.109597
0.826290 0.618304 0.108615
0.836518 0.624703 0.107971
0.854215 0.647413 0.108003
0.871912 0.670123 0.108035
0.889609 0.692833 0.108067
0.907306 0.715543 0.108099
0.923415 0.736759 0.108633
0.931589 0.750507 0.111676
0.939763 0.764255 0.114719
0.947936 0.778003 0.117762
0.956110 0.791751 0.120806
0.964284 0.805498 0.123849
0.651022 0.589736 0.120446
0.663242 0.594125 0.120176
0.675462 0.598515 0.119906
0.687683 0.602904 0.119636
0.699903 0.607294 0.119366
0.712123 0.611683 0.119097
0.723920 0.617652 0.118795
0.735633 0.623937 0.118487
0.747345 0.630221 0.118179
0.759057 0.636506 0.117871
0.770770 0.642791 0.117563
0.780504 0.646856 0.117145
0.789250 0.649813 0.116673
0.797995 0.652769 0.116200
0.806741 0.655725 0.115727
0.815486 0.658682 0.115255
0.821268 0.657262 0.114549
0.824085 0.651465 0.113610
0.826903 0.645668 0.112670
0.829721 0.639871 0.111731
0.832538 0.634074 0.110792
0.840043 0.637236 0.110117
0.856923 0.658315 0.109969
0.873802 0.679393 0.109821
0.890682 0.700472 0.109673
0.907561 0.721550 0.109525
0.923008 0.741435 0.109901
0.931288 0.755354 0.112895
0.939568 0.769272 0.115890
0.947849 0.783191 0.118884
0.956129 0.797110 0.121879
0.964410 0.811028 0.124873
0.674418 0.621214 0.124274
0.685723 0.625018 0.123904
0.697029 0.628822 0.123533
0.708334 0.632626 0.123163
0.719640 0.636430 0.122792
0.730945 0.640234 0.122422
0.741858 0.645511 0.122042
0.752692 0.651082 0.121661
0.763526 0.656653 0.121280
0.774360 0.662224 0.120899
0.785195 0.667795 0.120518
0.794356 0.671580 0.120076
0.802681 0.674473 0.119603
0.811005 0.677365 0.119130
0.819330 0.680257 0.118658
0.827655 0.683150 0.118185
0.833482 0.682361 0.117488
0.836812 0.677890 0.116567
0.840142 0.673420 0.115646
0.843471 0.668950 0.114726
0.846801 0.664479 0.113805
0.853709 0.666869 0.113041
0.867771 0.682981 0.112591
0.881832 0.699092 0.112141
0.895894 0.715203 0.111691
0.909956 0.731314 0.111242
0.923059 0.747047 0.111351
0.931367 0.760893 0.114254
0.939675 0.774738 0.117157
0.947983 0.788584 0.120060
0.956291 0.802429 0.122963
0.964599 0.816275 0.125866
0.697814 0.652692 0.128103
0.708205 0.655911 0.127632
0.718595 0.659129 0.127160
0.728986 0.662348 0.126689
0.739376 0.665566 0.126218
0.749767 0.668785 0.125747
0.759795 0.673369 0.125290
0.769751 0.678227 0.124836
0.779707 0.683084 0.124381
0.789664 0.687942 0.123927
0.799620 0.692800 0.123473
0.808208 0.696304 0.123006
0.816111 0.699133 0.122533
0.824015 0.701961 0.122061
0.831919 0.704789 0.121588
0.839823 0.707617 0.121115
0.845696 0.707460 0.120428
0.849538 0.704316 0.119525
0.853380 0.701172 0.118623
0.857222 0.698028 0.117720
0.861065 0.694884 0.116817
0.867374 0.696503 0.115965
0.878619 0.707647 0.115213
0.889863 0.718790 0.114462
0.901107 0.729934 0.113710
0.912352 0.741078 0.112958
0.923111 0.752660 0.112801
0.931447 0.766432 0.115612
0.939782 0.780204 0.118424
0.948117 0.793977 0.121235
0.956453 0.807749 0.124047
0.964788 0.821521 0.126858
0.721210 0.684170 0.131931
0.730686 0.686803 0.131359
0.740162 0.689436 0.130788
0.749637 0.692070 0.130216
0.759113 0.694703 0.129644
0.768589 0.697336 0.129072
0.777733 0.701228 0.128538
0.786811 0.705372 0.128010
0.795889 0.709516 0.127482
0.804967 0.713660 0.126955
0.814044 0.717804 0.126427
0.822059 0.721028 0.125936
0.829542 0.723792 0.125464
0.837025 0.726557 0.124991
0.844508 0.729321 0.124518
0.851991 0.732085 0.124046
0.857910 0.732559 0.123367
0.862264 0.730741 0.122483
0.866619 0.728924 0.121599
0.870973 0.727106 0.120714
0.875328 0.725289 0.119830
0.881040 0.726136 0.118889
0.889466 0.732313 0.117836
0.897893 0.738489 0.116782
0.906320 0.744665 0.115729
0.914747 0.750842 0.114675
0.923163 0.758272 0.114251
0.931526 0.771971 0.116971
0.939889 0.785670 0.119691
0.948251 0.799369 0.122411
0.956614 0.813068 0.125131
0.964977 0.826767 0.127851
0.744606 0.715649 0.135760
0.753167 0.717696 0.135087
0.761728 0.719744 0.134415
0.770289 0.721791 0.133742
0.778850 0.723839 0.133070
0.787411 0.725887 0.132398
0.795671 0.729087 0.131785
0.803870 0.732517 0.131184
0.812070 0.735948 0.130584
0.820270 0.739378 0.129983
0.828469 0.742809 0.129382
0.835911 0.745752 0.128867
0.842973 0.748452 0.128394
0.850035 0.751153 0.127922
0.857097 0.753853 0.127449
0.864160 0.756553 0.126976
0.870124 0.757658 0.126307
0.874991 0.757167 0.125441
0.879858 0.756676 0.124575
0.884724 0.756185 0.123709
0.889591 0.755694 0.122843
0.894705 0.755770 0.121814
0.900314 0.756979 0.120458
0.905924 0.758188 0.119103
0.911533 0.759397 0.117747
0.917142 0.760606 0.116392
0.923215 0.763884 0.115701
0.931605 0.777510 0.118329
0.939995 0.791136 0.120958
0.948386 0.804762 0.123586
0.956776 0.818388 0.126215
0.965166 0.832014 0.128843
0.765182 0.745197 0.139895
0.772958 0.746738 0.139127
0.780733 0.748280 0.138358
0.788509 0.749821 0.137590
0.796285 0.751362 0.136822
0.804061 0.752904 0.136053
0.811549 0.755466 0.135360
0.818981 0.758231 0.134681
0.826412 0.760997 0.134003
0.833843 0.763763 0.133324
0.841274 0.766529 0.132646
0.848204 0.769175 0.132097
0.854884 0.771763 0.131614
0.861563 0.774350 0.131131
0.868243 0.776937 0.130647
0.874922 0.779525 0.130164
0.880905 0.781127 0.129500
0.886191 0.781745 0.128655
0.891477 0.782362 0.127811
0.896763 0.782980 0.126966
0.902049 0.783597 0.126121
0.906674 0.783066 0.125027
0.909977 0.780236 0.123432
0.913279 0.777406 0.121837
0.916581 0.774576 0.120242
0.919884 0.771746 0.118648
0.924013 0.771574 0.117720
0.932279 0.784691 0.120131
0.940544 0.797808 0.122541
0.948809 0.810924 0.124952
0.957074 0.824041 0.127362
0.965339 0.837158 0.129773
0.771657 0.765095 0.145567
0.779296 0.766527 0.144725
0.786934 0.767958 0.143884
0.794573 0.769390 0.143042
0.802211 0.770822 0.142201
0.809850 0.772253 0.141359
0.817133 0.774446 0.140569
0.824344 0.776791 0.139790
0.831556 0.779136 0.139011
0.838768 0.781481 0.138232
0.845979 0.783826 0.137453
0.852708 0.786095 0.136828
0.859196 0.788325 0.136281
0.865683 0.790556 0.135734
0.872170 0.792786 0.135186
0.878658 0.795017 0.134639
0.884522 0.796450 0.133961
0.889762 0.797086 0.133153
0.895002 0.797722 0.132345
0.900243 0.798357 0.131537
0.905483 0.798993 0.130729
0.910159 0.798675 0.129683
