Assets/1__3DArt/KimSe/artstation_asset/LUTs_subway_asset/CUBE/Yellow Line 01.cube
# LUT by SparkleStock. Enhanced with VOXCOLOR algorithms.
LUT_3D_SIZE 32
0.085958 0.074237 0.062515
0.127646 0.095884 0.067620
0.169333 0.117531 0.072724
0.211021 0.139178 0.077829
0.252708 0.160826 0.082934
0.294395 0.182473 0.088038
0.338643 0.209319 0.092946
0.383402 0.237205 0.097814
0.428162 0.265091 0.102682
0.472921 0.292977 0.107551
0.517681 0.320863 0.112419
0.552767 0.345535 0.116405
0.583016 0.368601 0.119950
0.613266 0.391666 0.123494
0.643515 0.414731 0.127039
0.673764 0.437796 0.130584
0.696640 0.456489 0.133562
0.712143 0.470810 0.135972
0.727646 0.485131 0.138383
0.743149 0.499453 0.140793
0.758651 0.513774 0.143204
0.771460 0.525637 0.145441
0.778881 0.532585 0.147332
0.786301 0.539533 0.149222
0.793722 0.546481 0.151113
0.801142 0.553429 0.153003
0.808145 0.559849 0.154886
0.813061 0.563630 0.156729
0.817976 0.567411 0.158573
0.822892 0.571192 0.160416
0.827807 0.574973 0.162259
0.832723 0.578755 0.164103
0.093804 0.083312 0.063791
0.131028 0.102196 0.068420
0.168251 0.121081 0.073049
0.205474 0.139965 0.077678
0.242697 0.158850 0.082307
0.279920 0.177734 0.086936
0.323728 0.203693 0.091741
0.368854 0.231067 0.096582
0.413979 0.258441 0.101423
0.459105 0.285814 0.106264
0.504230 0.313188 0.111105
0.540109 0.338025 0.115106
0.571365 0.361593 0.118687
0.602620 0.385161 0.122269
0.633876 0.408730 0.125850
0.665132 0.432298 0.129431
0.688950 0.451673 0.132450
0.705331 0.466854 0.134907
0.721712 0.482035 0.137363
0.738093 0.497216 0.139819
0.754474 0.512397 0.142275
0.768051 0.525099 0.144564
0.776020 0.532843 0.146519
0.783990 0.540586 0.148473
0.791959 0.548330 0.150428
0.799929 0.556074 0.152383
0.807442 0.563243 0.154337
0.812678 0.567536 0.156290
0.817914 0.571830 0.158243
0.823149 0.576123 0.160196
0.828385 0.580416 0.162149
0.833621 0.584710 0.164103
0.101650 0.092386 0.065068
0.134409 0.108508 0.069221
0.167168 0.124630 0.073374
0.199927 0.140752 0.077527
0.232686 0.156874 0.081680
0.265445 0.172995 0.085833
0.308814 0.198067 0.090537
0.354306 0.224928 0.095350
0.399797 0.251790 0.100164
0.445288 0.278652 0.104977
0.490780 0.305513 0.109790
0.527451 0.330514 0.113807
0.559713 0.354586 0.117425
0.591975 0.378657 0.121043
0.624237 0.402729 0.124661
0.656499 0.426800 0.128279
0.681259 0.446856 0.131339
0.698519 0.462897 0.133841
0.715778 0.478938 0.136343
0.733037 0.494979 0.138845
0.750296 0.511020 0.141347
0.764642 0.524561 0.143688
0.773160 0.533100 0.145706
0.781678 0.541640 0.147725
0.790197 0.550180 0.149744
0.798715 0.558719 0.151762
0.806740 0.566637 0.153788
0.812295 0.571442 0.155851
0.817851 0.576248 0.157914
0.823407 0.581054 0.159977
0.828963 0.585860 0.162040
0.834519 0.590665 0.164103
0.109496 0.101461 0.066344
0.137791 0.114820 0.070021
0.166086 0.128179 0.073699
0.194380 0.141539 0.077376
0.222675 0.154898 0.081054
0.250970 0.168257 0.084731
0.293900 0.192441 0.089332
0.339757 0.218790 0.094118
0.385615 0.245139 0.098904
0.431472 0.271489 0.103690
0.477329 0.297838 0.108476
0.514794 0.323004 0.112508
0.548062 0.347579 0.116162
0.581330 0.372153 0.119817
0.614598 0.396728 0.123472
0.647866 0.421302 0.127126
0.673569 0.442040 0.130227
0.691706 0.458941 0.132775
0.709844 0.475842 0.135323
0.727981 0.492742 0.137870
0.746119 0.509643 0.140418
0.761233 0.524022 0.142811
0.770300 0.533358 0.144894
0.779367 0.542693 0.146976
0.788434 0.552029 0.149059
0.797501 0.561365 0.151142
0.806037 0.570030 0.153239
0.811913 0.575348 0.155412
0.817789 0.580667 0.157585
0.823665 0.585985 0.159757
0.829541 0.591303 0.161930
0.835417 0.596621 0.164103
0.117342 0.110536 0.067620
0.141173 0.121132 0.070822
0.165003 0.131729 0.074023
0.188834 0.142325 0.077225
0.212664 0.152922 0.080427
0.236495 0.163518 0.083629
0.278986 0.186815 0.088128
0.325209 0.212652 0.092886
0.371432 0.238489 0.097645
0.417655 0.264326 0.102403
0.463879 0.290163 0.107162
0.502136 0.315494 0.111209
0.536410 0.340571 0.114900
0.570685 0.365649 0.118591
0.604959 0.390726 0.122282
0.639234 0.415804 0.125974
0.665879 0.437223 0.129116
0.684894 0.454984 0.131709
0.703910 0.472745 0.134303
0.722925 0.490506 0.136896
0.741941 0.508267 0.139490
0.757823 0.523484 0.141934
0.767440 0.533616 0.144081
0.777056 0.543747 0.146228
0.786672 0.553878 0.148374
0.796288 0.564010 0.150521
0.805334 0.573424 0.152690
0.811530 0.579255 0.154973
0.817726 0.585085 0.157255
0.823922 0.590915 0.159538
0.830119 0.596746 0.161820
0.836315 0.602576 0.164103
0.125188 0.119611 0.068896
0.144554 0.127445 0.071622
0.163921 0.135278 0.074348
0.183287 0.143112 0.077074
0.202653 0.150946 0.079800
0.222019 0.158779 0.082526
0.264071 0.181189 0.086923
0.310661 0.206514 0.091654
0.357250 0.231838 0.096385
0.403839 0.257163 0.101116
0.450428 0.282488 0.105847
0.489478 0.307983 0.109910
0.524759 0.333564 0.113637
0.560040 0.359145 0.117365
0.595320 0.384725 0.121093
0.630601 0.410306 0.124821
0.658188 0.432407 0.128004
0.678082 0.451028 0.130644
0.697976 0.469648 0.133283
0.717870 0.488269 0.135922
0.737763 0.506890 0.138561
0.754414 0.522946 0.141058
0.764579 0.533873 0.143268
0.774744 0.544801 0.145479
0.784909 0.555728 0.147690
0.795074 0.566655 0.149901
0.804631 0.576818 0.152142
0.811147 0.583161 0.154534
0.817664 0.589503 0.156926
0.824180 0.595846 0.159318
0.830697 0.602189 0.161710
0.837213 0.608531 0.164103
0.145047 0.135815 0.071275
0.164279 0.143805 0.073914
0.183511 0.151796 0.076553
0.202743 0.159787 0.079193
0.221975 0.167778 0.081832
0.241208 0.175769 0.084471
0.278498 0.194861 0.088462
0.319400 0.216175 0.092723
0.360302 0.237488 0.096985
0.401204 0.258801 0.101246
0.442107 0.280114 0.105508
0.479663 0.304298 0.109392
0.515546 0.329917 0.113088
0.551429 0.355536 0.116784
0.587311 0.381155 0.120479
0.623194 0.406774 0.124175
0.651453 0.429221 0.127346
0.672088 0.448495 0.129993
0.692723 0.467770 0.132640
0.713358 0.487045 0.135287
0.733992 0.506320 0.137934
0.751303 0.523037 0.140454
0.761963 0.534638 0.142721
0.772623 0.546239 0.144988
0.783284 0.557840 0.147256
0.793944 0.569441 0.149523
0.803953 0.580225 0.151826
0.810706 0.586920 0.154313
0.817459 0.593614 0.156800
0.824212 0.600309 0.159287
0.830964 0.607004 0.161773
0.837717 0.613699 0.164260
0.167309 0.153444 0.073875
0.187273 0.162176 0.076505
0.207237 0.170908 0.079135
0.227201 0.179640 0.081765
0.247164 0.188371 0.084395
0.267128 0.197103 0.087025
0.298793 0.212393 0.090549
0.332797 0.228996 0.094253
0.366802 0.245598 0.097956
0.400807 0.262200 0.101659
0.434811 0.278802 0.105363
0.470416 0.301378 0.109031
0.506820 0.326942 0.112681
0.543224 0.352506 0.116331
0.579629 0.378071 0.119981
0.616033 0.403635 0.123631
0.644909 0.426360 0.126779
0.666258 0.446248 0.129426
0.687606 0.466136 0.132073
0.708954 0.486024 0.134720
0.730303 0.505911 0.137367
0.748250 0.523253 0.139905
0.759395 0.535504 0.142227
0.770541 0.547755 0.144549
0.781686 0.560005 0.146871
0.792831 0.572256 0.149193
0.803281 0.583634 0.151558
0.810253 0.590649 0.154136
0.817226 0.597664 0.156715
0.824198 0.604679 0.159293
0.831170 0.611694 0.161871
0.838143 0.618709 0.164449
0.189570 0.171074 0.076474
0.210266 0.180547 0.079095
0.230962 0.190020 0.081716
0.251658 0.199492 0.084337
0.272353 0.208965 0.086958
0.293049 0.218438 0.089579
0.319088 0.229926 0.092637
0.346195 0.241816 0.095782
0.373302 0.253707 0.098927
0.400409 0.265598 0.102073
0.427516 0.277489 0.105218
0.461168 0.298459 0.108669
0.498094 0.323968 0.112274
0.535020 0.349477 0.115878
0.571946 0.374986 0.119482
0.608872 0.400495 0.123087
0.638366 0.423500 0.126212
0.660427 0.444001 0.128859
0.682489 0.464501 0.131506
0.704551 0.485002 0.134153
0.726613 0.505503 0.136799
0.745198 0.523470 0.139356
0.756828 0.536370 0.141733
0.768458 0.549270 0.144110
0.780088 0.562170 0.146487
0.791718 0.575070 0.148864
0.802609 0.587043 0.151290
0.809801 0.594378 0.153959
0.816992 0.601713 0.156629
0.824184 0.609049 0.159299
0.831376 0.616384 0.161969
0.838568 0.623719 0.164638
0.211832 0.188704 0.079074
0.233260 0.198917 0.081685
0.254687 0.209131 0.084297
0.276115 0.219345 0.086909
0.297542 0.229559 0.089521
0.318970 0.239772 0.092132
0.339382 0.247458 0.094724
0.359592 0.254637 0.097311
0.379801 0.261817 0.099898
0.400011 0.268997 0.102486
0.420220 0.276176 0.105073
0.451921 0.295539 0.108308
0.489369 0.320993 0.111867
0.526816 0.346447 0.115425
0.564263 0.371902 0.118984
0.601710 0.397356 0.122542
0.631822 0.420640 0.125645
0.654597 0.441753 0.128292
0.677373 0.462867 0.130939
0.700148 0.483980 0.133585
0.722923 0.505094 0.136232
0.742145 0.523686 0.138807
0.754260 0.537236 0.141239
0.766375 0.550786 0.143671
0.778490 0.564335 0.146103
0.790605 0.577885 0.148535
0.801936 0.590452 0.151021
0.809348 0.598108 0.153783
0.816759 0.605763 0.156544
0.824170 0.613418 0.159305
0.831582 0.621074 0.162066
0.838993 0.628729 0.164827
0.234094 0.206333 0.081673
0.256253 0.217288 0.084276
0.278412 0.228243 0.086878
0.300572 0.239198 0.089481
0.322731 0.250152 0.092084
0.344891 0.261107 0.094686
0.359677 0.264990 0.096811
0.372989 0.267458 0.098840
0.386301 0.269927 0.100870
0.399613 0.272395 0.102899
0.412925 0.274864 0.104928
0.442674 0.292619 0.107947
0.480643 0.318019 0.111459
0.518612 0.343418 0.114972
0.556580 0.368817 0.118485
0.594549 0.394217 0.121998
0.625278 0.417780 0.125078
0.648767 0.439506 0.127725
0.672256 0.461233 0.130371
0.695745 0.482959 0.133018
0.719234 0.504685 0.135665
0.739093 0.523903 0.138259
0.751693 0.538102 0.140745
0.764293 0.552301 0.143232
0.776892 0.566500 0.145719
0.789492 0.580700 0.148205
0.801264 0.593861 0.150753
0.808895 0.601837 0.153606
0.816526 0.609812 0.156458
0.824157 0.617788 0.159311
0.831788 0.625764 0.162164
0.839419 0.633739 0.165016
0.263098 0.229792 0.085092
0.284727 0.240610 0.087594
0.306356 0.251427 0.090096
0.327985 0.262245 0.092598
0.349614 0.273062 0.095100
0.371243 0.283880 0.097602
0.384299 0.287087 0.099535
0.395641 0.288771 0.101354
0.406983 0.290456 0.103172
0.418325 0.292141 0.104991
0.429667 0.293826 0.106810
0.455993 0.308787 0.109533
0.489812 0.330387 0.112707
0.523630 0.351987 0.115882
0.557449 0.373587 0.119056
0.591267 0.395187 0.122230
0.620162 0.416974 0.125116
0.644133 0.438947 0.127714
0.668104 0.460920 0.130312
0.692074 0.482894 0.132910
0.716045 0.504867 0.135509
0.736363 0.524429 0.138078
0.749374 0.539168 0.140589
0.762386 0.553907 0.143100
0.775397 0.568646 0.145611
0.788409 0.583385 0.148122
0.800560 0.597047 0.150701
0.808411 0.605324 0.153621
0.816261 0.613602 0.156541
0.824112 0.621879 0.159460
0.831962 0.630157 0.162380
0.839813 0.638434 0.165300
0.295474 0.256166 0.088920
0.315941 0.266407 0.091276
0.336409 0.276648 0.093632
0.356876 0.286890 0.095987
0.377343 0.297131 0.098343
0.397810 0.307372 0.100698
0.411084 0.311466 0.102576
0.422920 0.314331 0.104359
0.434756 0.317196 0.106141
0.446592 0.320061 0.107923
0.458428 0.322925 0.109706
0.480595 0.334499 0.112093
0.507928 0.350427 0.114782
0.535261 0.366356 0.117472
0.562593 0.382284 0.120161
0.589926 0.398212 0.122851
0.615760 0.417195 0.125458
0.640097 0.439232 0.127983
0.664434 0.461270 0.130508
0.688770 0.483307 0.133032
0.713107 0.505345 0.135557
0.733794 0.525111 0.138081
0.747180 0.540335 0.140601
0.760567 0.555558 0.143121
0.773953 0.570782 0.145641
0.787340 0.586006 0.148162
0.799840 0.600121 0.150758
0.807910 0.608691 0.153732
0.815981 0.617261 0.156707
0.824051 0.625831 0.159682
0.832121 0.634401 0.162656
0.840191 0.642971 0.165631
0.327851 0.282540 0.092749
0.347156 0.292205 0.094958
0.366461 0.301869 0.097167
0.385767 0.311534 0.099377
0.405072 0.321199 0.101586
0.424377 0.330864 0.103795
0.437870 0.335845 0.105618
0.450200 0.339890 0.107364
0.462529 0.343935 0.109109
0.474859 0.347980 0.110855
0.487189 0.352025 0.112601
0.505197 0.360211 0.114653
0.526044 0.370468 0.116857
0.546891 0.380724 0.119062
0.567737 0.390980 0.121267
0.588584 0.401237 0.123471
0.611359 0.417416 0.125799
0.636061 0.439517 0.128251
0.660764 0.461619 0.130703
0.685467 0.483720 0.133154
0.710169 0.505822 0.135606
0.731225 0.525792 0.138084
0.744986 0.541501 0.140613
0.758748 0.557210 0.143143
0.772510 0.572918 0.145672
0.786271 0.588627 0.148201
0.799121 0.603194 0.150814
0.807410 0.612057 0.153844
0.815700 0.620920 0.156873
0.823990 0.629783 0.159903
0.832279 0.638646 0.162932
0.840569 0.647509 0.165962
0.360227 0.308913 0.096577
0.378370 0.318002 0.098640
0.396514 0.327090 0.100703
0.414657 0.336179 0.102766
0.432801 0.345267 0.104829
0.450944 0.354356 0.106892
0.464655 0.360225 0.108660
0.477479 0.365450 0.110369
0.490303 0.370675 0.112078
0.503127 0.375900 0.113787
0.515951 0.381125 0.115496
0.529799 0.385923 0.117213
0.544160 0.390508 0.118932
0.558521 0.395092 0.120652
0.572882 0.399677 0.122372
0.587242 0.404262 0.124092
0.606957 0.417637 0.126141
0.632026 0.439802 0.128519
0.657094 0.461968 0.130898
0.682163 0.484133 0.133276
0.707231 0.506299 0.135655
0.728656 0.526474 0.138087
0.742792 0.542667 0.140625
0.756929 0.558861 0.143164
0.771066 0.575054 0.145702
0.785202 0.591248 0.148241
0.798401 0.606268 0.150871
0.806910 0.615424 0.153955
0.815419 0.624579 0.157039
0.823929 0.633735 0.160124
0.832438 0.642891 0.163208
0.840947 0.652046 0.166292
0.392603 0.335287 0.100406
0.409585 0.343799 0.102322
0.426566 0.352311 0.104239
0.443548 0.360824 0.106155
0.460530 0.369336 0.108072
0.477512 0.377848 0.109988
0.491440 0.384604 0.111701
0.504758 0.391009 0.113374
0.518076 0.397414 0.115047
0.531394 0.403820 0.116719
0.544712 0.410225 0.118392
0.554401 0.411635 0.119772
0.562276 0.410548 0.121007
0.570151 0.409461 0.122242
0.578026 0.408374 0.123477
0.585901 0.407287 0.124712
0.602555 0.417858 0.126483
0.627990 0.440087 0.128788
0.653424 0.462317 0.131093
0.678859 0.484547 0.133398
0.704293 0.506776 0.135704
0.726087 0.527155 0.138090
0.740598 0.543834 0.140637
0.755110 0.560512 0.143185
0.769622 0.577190 0.145733
0.784134 0.593869 0.148281
0.797681 0.609342 0.150927
0.806410 0.618790 0.154066
0.815139 0.628239 0.157205
0.823868 0.637687 0.160345
0.832596 0.647135 0.163484
0.841325 0.656584 0.166623
0.424389 0.363197 0.104518
0.440099 0.371009 0.106279
0.455809 0.378821 0.108040
0.471519 0.386634 0.109801
0.487229 0.394446 0.111562
0.502939 0.402259 0.113323
0.516526 0.409253 0.114949
0.529689 0.416083 0.116548
0.542851 0.422914 0.118148
0.556013 0.429744 0.119747
0.569176 0.436575 0.121346
0.576810 0.436651 0.122532
0.581680 0.433350 0.123511
0.586549 0.430049 0.124490
0.591419 0.426748 0.125469
0.596289 0.423447 0.126447
0.610391 0.431626 0.127977
0.633726 0.451285 0.130059
0.657061 0.470944 0.132140
0.680396 0.490603 0.134221
0.703731 0.510262 0.136302
0.724211 0.529007 0.138525
0.738978 0.545923 0.141032
0.753746 0.562839 0.143538
0.768514 0.579756 0.146045
0.783282 0.596672 0.148551
0.797073 0.612385 0.151169
0.805980 0.622085 0.154345
0.814887 0.631785 0.157521
0.823794 0.641485 0.160697
0.832701 0.651185 0.163873
0.841609 0.660885 0.167049
0.455583 0.392642 0.108913
0.469912 0.399632 0.110510
0.484241 0.406621 0.112106
0.498569 0.413610 0.113702
0.512898 0.420599 0.115299
0.527227 0.427588 0.116895
0.539913 0.434170 0.118402
0.552270 0.440671 0.119892
0.564628 0.447173 0.121381
0.576985 0.453674 0.122871
0.589343 0.460175 0.124361
0.597025 0.460971 0.125491
0.602371 0.458914 0.126443
0.607716 0.456857 0.127394
0.613062 0.454800 0.128346
0.618407 0.452744 0.129297
0.630465 0.458942 0.130626
0.649235 0.473396 0.132332
0.668005 0.487850 0.134038
0.686775 0.502304 0.135744
0.705546 0.516757 0.137450
0.723027 0.532029 0.139393
0.737932 0.548936 0.141808
0.752838 0.565843 0.144223
0.767743 0.582750 0.146638
0.782648 0.599657 0.149053
0.796576 0.615398 0.151598
0.805620 0.625308 0.154792
0.814665 0.635218 0.157986
0.823709 0.645129 0.161180
0.832753 0.655039 0.164374
0.841798 0.664949 0.167569
0.486778 0.422088 0.113309
0.499725 0.428254 0.114741
0.512673 0.434420 0.116172
0.525620 0.440586 0.117604
0.538568 0.446751 0.119036
0.551515 0.452917 0.120467
0.563300 0.459088 0.121856
0.574852 0.465260 0.123235
0.586405 0.471431 0.124615
0.597957 0.477603 0.125995
0.609509 0.483775 0.127375
0.617241 0.485291 0.128451
0.623062 0.484478 0.129375
0.628883 0.483665 0.130299
0.634704 0.482853 0.131223
0.640526 0.482040 0.132147
0.650539 0.486258 0.133274
0.664744 0.495507 0.134605
0.678949 0.504755 0.135936
0.693155 0.514004 0.137267
0.707360 0.523253 0.138598
0.721844 0.535051 0.140260
0.736887 0.551949 0.142584
0.751929 0.568847 0.144907
0.766971 0.585744 0.147231
0.782014 0.602642 0.149554
0.796079 0.618411 0.152026
0.805261 0.628531 0.155239
0.814442 0.638652 0.158451
0.823624 0.648773 0.161664
0.832805 0.658893 0.164876
0.841987 0.669014 0.168089
0.517972 0.451534 0.117705
0.529538 0.456877 0.118972
0.541105 0.462219 0.120239
0.552671 0.467561 0.121506
0.564237 0.472904 0.122772
0.575803 0.478246 0.124039
0.586687 0.484005 0.125309
0.597434 0.489848 0.126579
0.608181 0.495690 0.127849
0.618929 0.501533 0.129119
0.629676 0.507375 0.130389
0.637456 0.509611 0.131410
0.643753 0.510042 0.132307
0.650050 0.510474 0.133203
0.656347 0.510905 0.134100
0.662644 0.511337 0.134996
0.670612 0.513574 0.135922
0.680253 0.517617 0.136878
0.689893 0.521661 0.137834
0.699534 0.525704 0.138790
0.709174 0.529748 0.139746
0.720661 0.538073 0.141128
0.735841 0.554961 0.143360
0.751020 0.571850 0.145592
0.766200 0.588739 0.147824
0.781379 0.605628 0.150056
0.795582 0.621423 0.152455
0.804901 0.631754 0.155685
0.814220 0.642086 0.158916
0.823538 0.652417 0.162147
0.832857 0.662748 0.165378
0.842176 0.673079 0.168608
0.549167 0.480980 0.122100
0.559352 0.485499 0.123202
0.569536 0.490018 0.124305
0.579721 0.494537 0.125407
0.589906 0.499056 0.126509
0.600091 0.503575 0.127612
0.610073 0.508923 0.128762
0.620016 0.514436 0.129923
0.629958 0.519949 0.131083
0.639900 0.525463 0.132243
0.649843 0.530976 0.133403
0.657672 0.533930 0.134370
0.664444 0.535606 0.135239
0.671217 0.537282 0.136108
0.677990 0.538957 0.136977
0.684762 0.540633 0.137846
0.690686 0.540890 0.138571
0.695762 0.539728 0.139152
0.700837 0.538566 0.139733
0.705913 0.537404 0.140313
0.710989 0.536243 0.140894
0.719478 0.541095 0.141995
0.734795 0.557974 0.144136
0.750111 0.574854 0.146276
0.765428 0.591733 0.148417
0.780745 0.608613 0.150558
0.795085 0.624436 0.152883
0.804541 0.634978 0.156132
0.813997 0.645519 0.159381
0.823453 0.656061 0.162630
0.832909 0.666602 0.165879
0.842365 0.677144 0.169128
0.576817 0.509118 0.126732
0.585824 0.512915 0.127676
0.594832 0.516711 0.128620
0.603840 0.520507 0.129563
0.612848 0.524304 0.130507
0.621855 0.528100 0.131451
0.630981 0.532964 0.132479
0.640131 0.538041 0.133523
0.649280 0.543118 0.134567
0.658430 0.548195 0.135612
0.667579 0.553272 0.136656
0.675274 0.556606 0.137555
0.682242 0.559069 0.138381
0.689210 0.561531 0.139208
0.696177 0.563993 0.140034
0.703145 0.566456 0.140861
0.707717 0.565529 0.141435
0.709892 0.561215 0.141756
0.712068 0.556900 0.142078
0.714244 0.552585 0.142400
0.716419 0.548270 0.142721
0.722730 0.550599 0.143584
0.737308 0.566217 0.145530
0.751887 0.581834 0.147475
0.766466 0.597451 0.149421
0.781045 0.613068 0.151366
0.794785 0.627857 0.153528
0.804329 0.638509 0.156771
0.813873 0.649160 0.160014
0.823418 0.659811 0.163257
0.832962 0.670463 0.166500
0.842507 0.681114 0.169743
0.597377 0.534641 0.131837
0.605616 0.537916 0.132634
0.613855 0.541191 0.133431
0.622095 0.544466 0.134229
0.630334 0.547741 0.135026
0.638573 0.551016 0.135824
0.646931 0.555251 0.136720
0.655312 0.559679 0.137636
0.663693 0.564107 0.138553
0.672074 0.568534 0.139469
0.680455 0.572962 0.140385
0.687650 0.575994 0.141193
0.694252 0.578328 0.141946
0.700853 0.580662 0.142699
0.707455 0.582997 0.143453
0.714057 0.585331 0.144206
0.718661 0.584816 0.144729
0.721266 0.581453 0.145024
0.723872 0.578090 0.145318
0.726478 0.574726 0.145612
0.729083 0.571363 0.145906
0.734851 0.573070 0.146617
0.746941 0.584918 0.148160
0.759032 0.596766 0.149703
0.771122 0.608614 0.151246
0.783213 0.620463 0.152789
0.794878 0.632096 0.154606
0.804413 0.642656 0.157794
0.813948 0.653216 0.160982
0.823483 0.663775 0.164170
0.833019 0.674335 0.167358
0.842554 0.684895 0.170546
0.617937 0.560164 0.136941
0.625408 0.562917 0.137592
0.632879 0.565671 0.138243
0.640349 0.568424 0.138894
0.647820 0.571178 0.139545
0.655291 0.573932 0.140196
0.662880 0.577539 0.140962
0.670493 0.581317 0.141750
0.678105 0.585095 0.142538
0.685718 0.588873 0.143326
0.693331 0.592651 0.144115
0.700026 0.595382 0.144831
0.706261 0.597588 0.145511
0.712497 0.599794 0.146191
0.718733 0.602000 0.146871
0.724969 0.604206 0.147551
0.729605 0.604103 0.148024
0.732640 0.601691 0.148291
0.735676 0.599279 0.148558
0.738712 0.596867 0.148825
0.741747 0.594455 0.149091
0.746972 0.595540 0.149650
0.756574 0.603620 0.150790
0.766176 0.611699 0.151930
0.775779 0.619778 0.153071
0.785381 0.627857 0.154211
0.794971 0.636335 0.155684
0.804497 0.646803 0.158817
0.814023 0.657271 0.161950
0.823549 0.667740 0.165083
0.833075 0.678208 0.168217
0.842601 0.688676 0.171350
0.638497 0.585687 0.142046
0.645199 0.587919 0.142550
0.651902 0.590151 0.143055
0.658604 0.592383 0.143560
0.665307 0.594615 0.144064
0.672009 0.596847 0.144569
0.678830 0.599826 0.145203
0.685674 0.602955 0.145864
0.692518 0.606084 0.146524
0.699362 0.609212 0.147184
0.706207 0.612341 0.147844
0.712401 0.614769 0.148469
0.718271 0.616847 0.149075
0.724141 0.618925 0.149682
0.730011 0.621004 0.150289
0.735881 0.623082 0.150896
0.740549 0.623390 0.151319
0.744014 0.621930 0.151558
0.747480 0.620469 0.151798
0.750945 0.619008 0.152037
0.754411 0.617548 0.152277
0.759093 0.618011 0.152682
0.766207 0.622321 0.153420
0.773321 0.626631 0.154158
0.780435 0.630942 0.154896
0.787549 0.635252 0.155634
0.795064 0.640573 0.156762
0.804581 0.650950 0.159840
0.814098 0.661327 0.162918
0.823614 0.671704 0.165997
0.833131 0.682081 0.169075
0.842648 0.692457 0.172153
0.659057 0.611210 0.147150
0.664991 0.612920 0.147509
0.670925 0.614631 0.147867
0.676859 0.616342 0.148225
0.682793 0.618052 0.148584
0.688727 0.619763 0.148942
0.694779 0.622114 0.149445
0.700855 0.624593 0.149977
0.706931 0.627072 0.150509
0.713007 0.629551 0.151041
0.719082 0.632030 0.151573
0.724777 0.634157 0.152107
0.730281 0.636107 0.152640
0.735785 0.638057 0.153174
0.741289 0.640007 0.153707
0.746793 0.641957 0.154241
0.751493 0.642677 0.154614
0.755388 0.642168 0.154826
0.759284 0.641659 0.155038
0.763179 0.641150 0.155250
0.767075 0.640640 0.155462
0.771214 0.640481 0.155715
0.775840 0.641023 0.156050
0.780466 0.641564 0.156385
0.785091 0.642105 0.156721
0.789717 0.642646 0.157056
0.795157 0.644812 0.157840
0.804664 0.655097 0.160863
0.814172 0.665382 0.163887
0.823680 0.675668 0.166910
0.833188 0.685953 0.169933
0.842696 0.696239 0.172957
0.677585 0.635283 0.152578
0.682860 0.636539 0.152790
0.688135 0.637796 0.153002
0.693411 0.639052 0.153214
0.698686 0.640308 0.153426
0.703961 0.641565 0.153638
0.709326 0.643337 0.154001
0.714708 0.645212 0.154394
0.720090 0.647087 0.154787
0.725472 0.648963 0.155181
0.730854 0.650838 0.155574
0.736083 0.652656 0.156006
0.741234 0.654444 0.156457
0.746386 0.656232 0.156909
0.751538 0.658021 0.157360
0.756690 0.659809 0.157811
0.761384 0.660844 0.158127
0.765621 0.661124 0.158307
0.769858 0.661405 0.158487
0.774095 0.661685 0.158667
0.778333 0.661966 0.158847
0.782021 0.661312 0.158964
0.784613 0.658788 0.158956
0.787205 0.656265 0.158949
0.789797 0.653742 0.158941
0.792389 0.651219 0.158933
0.796101 0.650758 0.159408
0.805415 0.660614 0.162293
0.814730 0.670469 0.165177
0.824044 0.680325 0.168062
0.833358 0.690180 0.170947
0.842672 0.700035 0.173831
0.685951 0.652109 0.159620
0.691116 0.653247 0.159686
0.696282 0.654384 0.159751
0.701447 0.655521 0.159817
0.706613 0.656659 0.159883
0.711778 0.657796 0.159948
0.716858 0.659236 0.160127
0.721919 0.660736 0.160328
0.726981 0.662237 0.160529
0.732043 0.663737 0.160731
0.737105 0.665237 0.160932
0.742038 0.666710 0.161214
0.746906 0.668169 0.161538
0.751774 0.669628 0.161861
0.756643 0.671087 0.162184
0.761511 0.672546 0.162507
0.766013 0.673407 0.162731
0.770150 0.673669 0.162856
0.774286 0.673931 0.162981
0.778422 0.674194 0.163106
0.782559 0.674456 0.163231
0.786260 0.673942 0.163297
