Assets/1__3DArt/KimSe/artstation_asset/LUTs_subway_asset/CUBE/Yellow Line 02_S.cube
# LUT by SparkleStock. Enhanced with VOXCOLOR algorithms.
LUT_3D_SIZE 32
0.074237 0.066422 0.054701
0.119233 0.092229 0.063350
0.164229 0.118035 0.072000
0.209224 0.143842 0.080649
0.254220 0.169648 0.089299
0.299216 0.195455 0.097948
0.344094 0.223743 0.106794
0.388948 0.252527 0.115680
0.433802 0.281311 0.124566
0.478656 0.310095 0.133451
0.523510 0.338879 0.142337
0.558817 0.363630 0.149269
0.589350 0.386364 0.155225
0.619883 0.409098 0.161180
0.650416 0.431833 0.167135
0.680948 0.454567 0.173091
0.704510 0.473284 0.177841
0.721100 0.487983 0.181386
0.737690 0.502682 0.184930
0.754279 0.517382 0.188475
0.770869 0.532081 0.192020
0.784844 0.544905 0.195313
0.793588 0.553980 0.198102
0.802332 0.563055 0.200890
0.811076 0.572130 0.203679
0.819820 0.581204 0.206467
0.828052 0.589830 0.209248
0.833723 0.596211 0.211989
0.839395 0.602592 0.214731
0.845067 0.608972 0.217472
0.850739 0.615353 0.220213
0.856410 0.621734 0.222955
0.083832 0.079467 0.056544
0.123641 0.101962 0.063931
0.163449 0.124457 0.071318
0.203258 0.146952 0.078705
0.243067 0.169447 0.086092
0.282876 0.191942 0.093479
0.326714 0.218565 0.101665
0.371358 0.246013 0.110011
0.416002 0.273462 0.118357
0.460645 0.300910 0.126703
0.505289 0.328359 0.135049
0.541093 0.352439 0.141692
0.572476 0.374835 0.147482
0.603860 0.397230 0.153273
0.635244 0.419626 0.159064
0.666627 0.442022 0.164854
0.691218 0.460890 0.169650
0.709015 0.476229 0.173451
0.726813 0.491569 0.177252
0.744610 0.506909 0.181053
0.762407 0.522248 0.184854
0.777544 0.535957 0.188525
0.787358 0.546404 0.191936
0.797172 0.556851 0.195346
0.806987 0.567298 0.198757
0.816801 0.577745 0.202168
0.826022 0.587786 0.205615
0.832279 0.595795 0.209244
0.838537 0.603804 0.212872
0.844794 0.611813 0.216501
0.851051 0.619822 0.220130
0.857308 0.627831 0.223758
0.093426 0.092513 0.058387
0.128048 0.111696 0.064512
0.162670 0.130879 0.070637
0.197292 0.150062 0.076761
0.231915 0.169246 0.082886
0.266537 0.188429 0.089010
0.309335 0.213387 0.096536
0.353768 0.239500 0.104343
0.398201 0.265613 0.112149
0.442634 0.291726 0.119955
0.487068 0.317839 0.127761
0.523368 0.341248 0.134114
0.555603 0.363305 0.139740
0.587837 0.385362 0.145366
0.620072 0.407420 0.150992
0.652306 0.429477 0.156618
0.677926 0.448496 0.161460
0.696931 0.464476 0.165517
0.715936 0.480456 0.169574
0.734941 0.496436 0.173631
0.753946 0.512416 0.177688
0.770244 0.527009 0.181737
0.781128 0.538828 0.185770
0.792013 0.550647 0.189803
0.802897 0.562466 0.193836
0.813782 0.574286 0.197868
0.823993 0.585741 0.201982
0.830836 0.595378 0.206498
0.837678 0.605016 0.211014
0.844521 0.614653 0.215530
0.851364 0.624291 0.220046
0.858206 0.633928 0.224562
0.103021 0.105558 0.060231
0.132456 0.121429 0.065093
0.161891 0.137301 0.069955
0.191326 0.153173 0.074817
0.220762 0.169045 0.079679
0.250197 0.184916 0.084542
0.291955 0.208209 0.091407
0.336178 0.232987 0.098674
0.380401 0.257764 0.105940
0.424624 0.282541 0.113207
0.468846 0.307319 0.120474
0.505644 0.330057 0.126537
0.538729 0.351776 0.131998
0.571815 0.373494 0.137459
0.604900 0.395213 0.142921
0.637985 0.416932 0.148382
0.664634 0.436102 0.153269
0.684846 0.452722 0.157583
0.705059 0.469342 0.161896
0.725271 0.485963 0.166209
0.745484 0.502583 0.170522
0.762944 0.518061 0.174950
0.774898 0.531252 0.179604
0.786853 0.544443 0.184259
0.798808 0.557635 0.188914
0.810763 0.570826 0.193569
0.821964 0.583697 0.198348
0.829392 0.594962 0.203752
0.836820 0.606228 0.209155
0.844248 0.617494 0.214559
0.851676 0.628759 0.219962
0.859104 0.640025 0.225365
0.112616 0.118603 0.062074
0.136864 0.131163 0.065674
0.161112 0.143723 0.069274
0.185360 0.156283 0.072873
0.209609 0.168843 0.076473
0.233857 0.181403 0.080073
0.274575 0.203032 0.086278
0.318588 0.226473 0.093005
0.362600 0.249915 0.099732
0.406613 0.273357 0.106459
0.450625 0.296798 0.113186
0.487920 0.318866 0.118959
0.521856 0.340246 0.124256
0.555792 0.361627 0.129552
0.589728 0.383007 0.134849
0.623664 0.404387 0.140146
0.651342 0.423708 0.145079
0.672762 0.440968 0.149648
0.694182 0.458229 0.154218
0.715602 0.475490 0.158787
0.737022 0.492751 0.163356
0.755643 0.509112 0.168162
0.768669 0.523676 0.173439
0.781694 0.538239 0.178715
0.794719 0.552803 0.183992
0.807744 0.567367 0.189269
0.819934 0.581652 0.194715
0.827948 0.594546 0.201006
0.835961 0.607440 0.207297
0.843975 0.620334 0.213587
0.851989 0.633228 0.219878
0.860002 0.646122 0.226169
0.122210 0.131648 0.063917
0.141272 0.140896 0.066255
0.160333 0.150145 0.068592
0.179394 0.159393 0.070929
0.198456 0.168642 0.073267
0.217517 0.177891 0.075604
0.257196 0.197854 0.081149
0.300998 0.219960 0.087337
0.344800 0.242066 0.093524
0.388602 0.264172 0.099711
0.432404 0.286278 0.105898
0.470196 0.307675 0.111381
0.504982 0.328717 0.116514
0.539769 0.349759 0.121646
0.574556 0.370800 0.126778
0.609343 0.391842 0.131910
0.638050 0.411314 0.136888
0.660677 0.429215 0.141714
0.683305 0.447116 0.146539
0.705932 0.465017 0.151365
0.728560 0.482918 0.156191
0.748343 0.500164 0.161374
0.762439 0.516100 0.167273
0.776534 0.532036 0.173172
0.790630 0.547971 0.179071
0.804725 0.563907 0.184970
0.817905 0.579607 0.191082
0.826504 0.594130 0.198260
0.835103 0.608652 0.205438
0.843702 0.623175 0.212616
0.852301 0.637697 0.219794
0.860900 0.652219 0.226972
0.143661 0.151664 0.068636
0.162216 0.160818 0.070923
0.180771 0.169972 0.073210
0.199326 0.179126 0.075497
0.217881 0.188280 0.077784
0.236436 0.197434 0.080071
0.271275 0.214496 0.084529
0.309370 0.233140 0.089422
0.347465 0.251784 0.094315
0.385561 0.270427 0.099207
0.423656 0.289071 0.104100
0.459721 0.309001 0.108992
0.494772 0.329575 0.113883
0.529822 0.350149 0.118774
0.564873 0.370723 0.123665
0.599923 0.391296 0.128556
0.629145 0.410583 0.133424
0.652538 0.428584 0.138270
0.675931 0.446584 0.143115
0.699324 0.464584 0.147960
0.722717 0.482584 0.152806
0.743265 0.500069 0.158106
0.758126 0.516523 0.164314
0.772987 0.532977 0.170522
0.787848 0.549431 0.176731
0.802709 0.565886 0.182939
0.816600 0.582133 0.189390
0.825640 0.597346 0.197051
0.834679 0.612559 0.204713
0.843719 0.627772 0.212374
0.852759 0.642985 0.220036
0.861798 0.658198 0.227697
0.167482 0.173075 0.073930
0.186467 0.182778 0.076409
0.205452 0.192481 0.078888
0.224437 0.202184 0.081367
0.243422 0.211887 0.083846
0.262408 0.221590 0.086325
0.291646 0.235503 0.089611
0.322935 0.250259 0.093058
0.354224 0.265015 0.096506
0.385513 0.279770 0.099953
0.416803 0.294526 0.103400
0.450697 0.312831 0.107639
0.485894 0.332911 0.112274
0.521091 0.352991 0.116909
0.556287 0.373071 0.121544
0.591484 0.393150 0.126179
0.621118 0.412186 0.130906
0.645187 0.430177 0.135723
0.669257 0.448168 0.140541
0.693327 0.466159 0.145359
0.717397 0.484150 0.150177
0.738632 0.501745 0.155541
0.754197 0.518546 0.161996
0.769763 0.535348 0.168452
0.785328 0.552150 0.174907
0.800893 0.568952 0.181363
0.815440 0.585573 0.188086
0.824891 0.601289 0.196150
0.834342 0.617005 0.204214
0.843794 0.632721 0.212278
0.853245 0.648438 0.220342
0.862696 0.664154 0.228406
0.191303 0.194486 0.079223
0.210718 0.204738 0.081894
0.230133 0.214989 0.084566
0.249549 0.225241 0.087237
0.268964 0.235493 0.089908
0.288379 0.245745 0.092579
0.312017 0.256510 0.094693
0.336500 0.267378 0.096695
0.360983 0.278246 0.098697
0.385466 0.289114 0.100698
0.409949 0.299981 0.102700
0.441672 0.316661 0.106287
0.477016 0.336247 0.110666
0.512359 0.355833 0.115044
0.547702 0.375419 0.119423
0.583045 0.395004 0.123802
0.613090 0.413788 0.128387
0.637837 0.431770 0.133177
0.662584 0.449752 0.137968
0.687331 0.467734 0.142758
0.712077 0.485716 0.147549
0.733999 0.503420 0.152977
0.750268 0.520570 0.159679
0.766538 0.537719 0.166381
0.782808 0.554868 0.173084
0.799077 0.572018 0.179786
0.814279 0.589012 0.186783
0.824142 0.605232 0.195249
0.834005 0.621451 0.203716
0.843868 0.637670 0.212182
0.853731 0.653890 0.220649
0.863594 0.670109 0.229115
0.215125 0.215897 0.084517
0.234970 0.226697 0.087380
0.254815 0.237498 0.090244
0.274660 0.248299 0.093107
0.294505 0.259100 0.095970
0.314350 0.269900 0.098834
0.332388 0.277517 0.099774
0.350065 0.284497 0.100331
0.367742 0.291477 0.100887
0.385419 0.298457 0.101444
0.403096 0.305437 0.102000
0.432648 0.320491 0.104934
0.468137 0.339583 0.109057
0.503627 0.358675 0.113180
0.539117 0.377767 0.117303
0.574606 0.396858 0.121425
0.605063 0.415391 0.125868
0.630487 0.433363 0.130631
0.655910 0.451336 0.135394
0.681334 0.469309 0.140157
0.706758 0.487282 0.144920
0.729365 0.505096 0.150412
0.746339 0.522593 0.157362
0.763313 0.540090 0.164311
0.780287 0.557587 0.171260
0.797261 0.575084 0.178210
0.813119 0.592452 0.185479
0.823394 0.609174 0.194348
0.833668 0.625897 0.203217
0.843943 0.642619 0.212086
0.854218 0.659342 0.220955
0.864492 0.676064 0.229824
0.238946 0.237307 0.089811
0.259221 0.248657 0.092866
0.279496 0.260007 0.095921
0.299771 0.271356 0.098977
0.320046 0.282706 0.102032
0.340321 0.294055 0.105088
0.352759 0.298524 0.104856
0.363630 0.301616 0.103967
0.374501 0.304708 0.103078
0.385372 0.307800 0.102190
0.396242 0.310892 0.101301
0.423623 0.324321 0.103582
0.459259 0.342919 0.107449
0.494895 0.361517 0.111315
0.530531 0.380115 0.115182
0.566167 0.398712 0.119048
0.597036 0.416993 0.123349
0.623136 0.434957 0.128085
0.649237 0.452920 0.132821
0.675338 0.470884 0.137556
0.701438 0.488847 0.142292
0.724732 0.506771 0.147848
0.742410 0.524616 0.155044
0.760089 0.542461 0.162240
0.777767 0.560305 0.169437
0.795446 0.578150 0.176633
0.811959 0.595892 0.184176
0.822645 0.613117 0.193447
0.833331 0.630343 0.202718
0.844018 0.647568 0.211990
0.854704 0.664794 0.221261
0.865391 0.682020 0.230533
0.268061 0.263823 0.096585
0.287778 0.274892 0.099601
0.307495 0.285961 0.102617
0.327212 0.297030 0.105632
0.346929 0.308099 0.108648
0.366646 0.319168 0.111664
0.377370 0.323043 0.111192
0.386295 0.325480 0.110023
0.395220 0.327916 0.108853
0.404146 0.330353 0.107684
0.413071 0.332789 0.106515
0.437108 0.344036 0.108154
0.468701 0.359688 0.111197
0.500293 0.375340 0.114240
0.531886 0.390993 0.117283
0.563478 0.406645 0.120326
0.592459 0.423369 0.124135
0.618828 0.441165 0.128709
0.645197 0.458961 0.133283
0.671566 0.476756 0.137857
0.697935 0.494552 0.142431
0.721557 0.512375 0.147888
0.739684 0.530250 0.155112
0.757810 0.548125 0.162336
0.775937 0.566000 0.169560
0.794064 0.583875 0.176784
0.811000 0.601657 0.184375
0.821982 0.618971 0.193805
0.832964 0.636285 0.203235
0.843946 0.653599 0.212665
0.854928 0.670913 0.222095
0.865910 0.688227 0.231525
0.299823 0.292891 0.104100
0.318488 0.303264 0.106960
0.337153 0.313638 0.109821
0.355818 0.324012 0.112681
0.374482 0.334386 0.115541
0.393147 0.344760 0.118402
0.404100 0.349319 0.118155
0.413510 0.352716 0.117288
0.422921 0.356113 0.116420
0.432331 0.359510 0.115553
0.441741 0.362907 0.114685
0.461847 0.371693 0.115687
0.487301 0.383174 0.117623
0.512756 0.394655 0.119560
0.538210 0.406135 0.121496
0.563664 0.417616 0.123432
0.589608 0.432131 0.126573
0.616041 0.449680 0.130918
0.642474 0.467229 0.135264
0.668907 0.484778 0.139609
0.695340 0.502327 0.143954
0.719111 0.519941 0.149232
0.737558 0.537689 0.156373
0.756005 0.555436 0.163515
0.774452 0.573183 0.170656
0.792899 0.590930 0.177798
0.810141 0.608585 0.185327
0.821361 0.625780 0.194793
0.832581 0.642975 0.204260
0.843801 0.660170 0.213727
0.855021 0.677365 0.223193
0.866241 0.694561 0.232660
0.331585 0.321958 0.111615
0.349197 0.331637 0.114320
0.366810 0.341315 0.117025
0.384423 0.350994 0.119730
0.402036 0.360673 0.122434
0.419649 0.370351 0.125139
0.430830 0.375595 0.125118
0.440726 0.379953 0.124553
0.450621 0.384310 0.123987
0.460516 0.388668 0.123421
0.470411 0.393025 0.122856
0.486586 0.399351 0.123220
0.505902 0.406660 0.124050
0.525218 0.413969 0.124879
0.544534 0.421278 0.125708
0.563850 0.428588 0.126538
0.586757 0.440893 0.129011
0.613254 0.458195 0.133128
0.639751 0.475497 0.137244
0.666248 0.492799 0.141361
0.692745 0.510101 0.145477
0.716666 0.527508 0.150575
0.735433 0.545127 0.157634
0.754200 0.562746 0.164693
0.772967 0.580365 0.171752
0.791734 0.597984 0.178811
0.809283 0.615513 0.186278
0.820741 0.632589 0.195781
0.832199 0.649665 0.205284
0.843656 0.666742 0.214788
0.855114 0.683818 0.224291
0.866572 0.700894 0.233794
0.363346 0.351026 0.119130
0.379907 0.360009 0.121680
0.396468 0.368993 0.124229
0.413029 0.377976 0.126778
0.429590 0.386959 0.129327
0.446151 0.395943 0.131877
0.457561 0.401872 0.132082
0.467941 0.407190 0.131818
0.478321 0.412508 0.131554
0.488701 0.417826 0.131290
0.499081 0.423144 0.131027
0.511326 0.427008 0.130754
0.524503 0.430146 0.130476
0.537681 0.433284 0.130199
0.550859 0.436421 0.129921
0.564036 0.439559 0.129644
0.583906 0.449655 0.131449
0.610467 0.466710 0.135337
0.637028 0.483765 0.139225
0.663589 0.500820 0.143113
0.690150 0.517875 0.147000
0.714220 0.535075 0.151918
0.733307 0.552566 0.158895
0.752395 0.570057 0.165872
0.771482 0.587548 0.172849
0.790569 0.605039 0.179825
0.808425 0.622441 0.187229
0.820120 0.639398 0.196769
0.831816 0.656356 0.206309
0.843512 0.673313 0.215849
0.855207 0.690270 0.225389
0.866903 0.707228 0.234929
0.395108 0.380094 0.126645
0.410617 0.388382 0.129039
0.426126 0.396670 0.131433
0.441635 0.404958 0.133827
0.457144 0.413246 0.136220
0.472652 0.421534 0.138614
0.484291 0.428148 0.139045
0.495156 0.434426 0.139083
0.506021 0.440705 0.139121
0.516886 0.446983 0.139159
0.527750 0.453262 0.139197
0.536065 0.454666 0.138287
0.543104 0.453632 0.136903
0.550144 0.452598 0.135518
0.557183 0.451564 0.134134
0.564222 0.450531 0.132749
0.581055 0.458418 0.133887
0.607680 0.475226 0.137546
0.634305 0.492034 0.141205
0.660930 0.508841 0.144864
0.687555 0.525649 0.148524
0.711775 0.542642 0.153261
0.731182 0.560005 0.160156
0.750589 0.577368 0.167050
0.769997 0.594731 0.173945
0.789404 0.612094 0.180839
0.807566 0.629369 0.188181
0.819500 0.646207 0.197757
0.831433 0.663046 0.207334
0.843367 0.679884 0.216910
0.855300 0.696723 0.226486
0.867234 0.713561 0.236063
0.425428 0.410414 0.134231
0.439881 0.417929 0.136442
0.454333 0.425444 0.138653
0.468785 0.432959 0.140864
0.483237 0.440474 0.143074
0.497690 0.447989 0.145285
0.509175 0.454729 0.145853
0.520067 0.461314 0.146092
0.530960 0.467899 0.146332
0.541852 0.474484 0.146571
0.552744 0.481069 0.146811
0.559195 0.481542 0.145720
0.563426 0.478957 0.143966
0.567657 0.476373 0.142211
0.571888 0.473789 0.140456
0.576119 0.471204 0.138701
0.590429 0.477237 0.139381
0.614817 0.491886 0.142496
0.639206 0.506535 0.145611
0.663594 0.521184 0.148726
0.687983 0.535833 0.151840
0.710742 0.551313 0.156139
0.730241 0.568456 0.162805
0.749739 0.585600 0.169471
0.769238 0.602743 0.176136
0.788737 0.619886 0.182802
0.806998 0.636937 0.189936
0.819069 0.653524 0.199407
0.831140 0.670110 0.208878
0.843210 0.686697 0.218349
0.855281 0.703284 0.227821
0.867352 0.719871 0.237292
0.454307 0.441987 0.141888
0.467698 0.448651 0.143889
0.481089 0.455315 0.145889
0.494480 0.461980 0.147889
0.507871 0.468644 0.149890
0.521263 0.475308 0.151890
0.532213 0.481617 0.152507
0.542675 0.487854 0.152847
0.553137 0.494092 0.153187
0.563600 0.500329 0.153527
0.574062 0.506566 0.153867
0.580718 0.507636 0.153054
0.585470 0.506122 0.151665
0.590222 0.504608 0.150276
0.594975 0.503094 0.148887
0.599727 0.501580 0.147498
0.612029 0.506112 0.147931
0.631880 0.516690 0.150186
0.651731 0.527268 0.152441
0.671582 0.537847 0.154696
0.691433 0.548425 0.156951
0.711121 0.561088 0.160551
0.730483 0.577920 0.166842
0.749845 0.594752 0.173133
0.769206 0.611584 0.179424
0.788568 0.628417 0.185714
0.806721 0.645144 0.192494
0.818828 0.661347 0.201718
0.830935 0.677549 0.210943
0.843043 0.693752 0.220167
0.855150 0.709954 0.229391
0.867257 0.726157 0.238615
0.483186 0.473559 0.149545
0.495516 0.479373 0.151335
0.507846 0.485186 0.153125
0.520175 0.491000 0.154915
0.532505 0.496814 0.156705
0.544835 0.502627 0.158495
0.555251 0.508504 0.159160
0.565283 0.514394 0.159601
0.575315 0.520284 0.160042
0.585347 0.526174 0.160482
0.595380 0.532063 0.160923
0.602240 0.533731 0.160388
0.607514 0.533287 0.159365
0.612787 0.532843 0.158342
0.618061 0.532400 0.157319
0.623335 0.531956 0.156296
0.633629 0.534988 0.156482
0.648942 0.541495 0.157877
0.664256 0.548002 0.159272
0.679570 0.554510 0.160667
0.694884 0.561017 0.162062
0.711501 0.570862 0.164964
0.730725 0.587383 0.170879
0.749950 0.603905 0.176795
0.769174 0.620426 0.182711
0.788399 0.636947 0.188627
0.806443 0.653351 0.195052
0.818587 0.669170 0.204030
0.830731 0.684988 0.213007
0.842875 0.700806 0.221984
0.855019 0.716625 0.230961
0.867163 0.732443 0.239939
0.512064 0.505132 0.157202
0.523333 0.510095 0.158781
0.534602 0.515058 0.160361
0.545871 0.520020 0.161941
0.557139 0.524983 0.163520
0.568408 0.529946 0.165100
0.578288 0.535392 0.165814
0.587891 0.540934 0.166355
0.597493 0.546476 0.166897
0.607095 0.552018 0.167438
0.616698 0.557560 0.167979
0.623762 0.559825 0.167721
0.629557 0.560452 0.167064
0.635352 0.561079 0.166407
0.641148 0.561705 0.165750
0.646943 0.562332 0.165093
0.655229 0.563863 0.165032
0.666005 0.566300 0.165567
0.676781 0.568736 0.166102
0.687558 0.571173 0.166637
0.698334 0.573609 0.167172
0.711881 0.580637 0.169376
0.730968 0.596847 0.174917
0.750055 0.613057 0.180457
0.769142 0.629267 0.185998
0.788230 0.645478 0.191539
0.806166 0.661559 0.197611
0.818346 0.676993 0.206341
0.830527 0.692427 0.215071
0.842707 0.707861 0.223802
0.854888 0.723295 0.232532
0.867068 0.738729 0.241262
0.540943 0.536705 0.164859
0.551151 0.540817 0.166228
0.561358 0.544929 0.167597
0.571566 0.549041 0.168966
0.581773 0.553153 0.170335
0.591981 0.557265 0.171705
0.601326 0.562279 0.172468
0.610498 0.567474 0.173110
0.619671 0.572668 0.173751
0.628843 0.577863 0.174393
0.638015 0.583057 0.175035
0.645284 0.585920 0.175055
0.651601 0.587617 0.174764
0.657917 0.589314 0.174473
0.664234 0.591011 0.174181
0.670551 0.592708 0.173890
0.676829 0.592739 0.173582
0.683067 0.591105 0.173257
0.689306 0.589470 0.172933
0.695545 0.587836 0.172608
0.701784 0.586201 0.172283
0.712260 0.590411 0.173788
0.731210 0.606311 0.178954
0.750160 0.622210 0.184120
0.769110 0.638109 0.189285
0.788060 0.654008 0.194451
0.805888 0.669766 0.200169
0.818105 0.684816 0.208652
0.830323 0.699866 0.217136
0.842540 0.714916 0.225619
0.854757 0.729966 0.234102
0.866974 0.745016 0.242585
0.566434 0.567049 0.172185
0.575776 0.570435 0.173377
0.585118 0.573821 0.174569
0.594459 0.577208 0.175762
0.603801 0.580594 0.176954
0.613142 0.583980 0.178146
0.621987 0.588518 0.178941
0.630733 0.593285 0.179656
0.639478 0.598053 0.180371
0.648224 0.602820 0.181086
0.656969 0.607588 0.181801
0.664307 0.610760 0.182045
0.670941 0.613134 0.182052
0.677574 0.615508 0.182060
0.684208 0.617882 0.182067
0.690842 0.620255 0.182075
0.695828 0.619416 0.181679
0.699167 0.615364 0.180878
0.702506 0.611311 0.180078
0.705845 0.607258 0.179277
0.709184 0.603206 0.178477
0.717381 0.605340 0.179481
0.735291 0.619849 0.184095
0.753201 0.634358 0.188708
0.771111 0.648866 0.193322
0.789021 0.663375 0.197936
0.805978 0.677908 0.203140
0.818164 0.692558 0.211300
0.830351 0.707208 0.219460
0.842538 0.721859 0.227620
0.854724 0.736509 0.235780
0.866911 0.751160 0.243940
0.585151 0.594935 0.178849
0.594017 0.597845 0.179932
0.602883 0.600756 0.181014
0.611749 0.603667 0.182097
0.620615 0.606577 0.183179
0.629481 0.609488 0.184262
0.637896 0.613458 0.185053
0.646220 0.617640 0.185787
0.654545 0.621822 0.186520
0.662869 0.626004 0.187253
0.671194 0.630187 0.187987
0.678331 0.633090 0.188346
0.684873 0.635354 0.188518
0.691415 0.637618 0.188691
0.697958 0.639882 0.188863
0.704500 0.642147 0.189035
0.709628 0.641696 0.188867
0.713342 0.638531 0.188360
0.717056 0.635366 0.187852
0.720770 0.632200 0.187344
0.724484 0.629035 0.186837
0.731982 0.630578 0.187734
0.747047 0.641537 0.191442
0.762113 0.652497 0.195150
0.777178 0.663456 0.198858
0.792243 0.674415 0.202566
0.806801 0.685918 0.206937
0.818823 0.700139 0.214621
0.830845 0.714359 0.222305
0.842867 0.728580 0.229990
0.854889 0.742800 0.237674
0.866911 0.757021 0.245358
0.603868 0.622821 0.185513
0.612258 0.625256 0.186486
0.620648 0.627691 0.187459
0.629038 0.630126 0.188432
0.637429 0.632560 0.189404
0.645819 0.634995 0.190377
0.653804 0.638398 0.191166
0.661708 0.641995 0.191917
0.669612 0.645592 0.192669
0.677515 0.649188 0.193421
0.685419 0.652785 0.194172
0.692354 0.655420 0.194647
0.698805 0.657575 0.194984
0.705256 0.659729 0.195321
0.711707 0.661883 0.195658
0.718158 0.664038 0.195995
0.723428 0.663976 0.196056
0.727517 0.661698 0.195841
0.731606 0.659420 0.195626
0.735695 0.657142 0.195411
0.739784 0.654865 0.195196
0.746584 0.655816 0.195987
0.758804 0.663226 0.198789
0.771024 0.670636 0.201592
0.783244 0.678045 0.204394
0.795465 0.685455 0.207196
0.807624 0.693929 0.210733
0.819482 0.707719 0.217942
0.831339 0.721510 0.225150
0.843196 0.735300 0.232359
0.855054 0.749091 0.239568
0.866911 0.762882 0.246776
0.622585 0.650707 0.192178
0.630499 0.652666 0.193041
0.638414 0.654625 0.193904
0.646328 0.656585 0.194767
0.654243 0.658544 0.195630
0.662157 0.660503 0.196493
0.669712 0.663339 0.197278
0.677195 0.666350 0.198048
0.684678 0.669361 0.198818
0.692161 0.672372 0.199588
0.699644 0.675384 0.200358
0.706378 0.677750 0.200949
0.712738 0.679795 0.201450
0.719097 0.681840 0.201952
0.725456 0.683884 0.202454
0.731816 0.685929 0.202955
0.737228 0.686256 0.203245
0.741692 0.684865 0.203323
0.746156 0.683475 0.203401
0.750620 0.682084 0.203478
0.755084 0.680694 0.203556
0.761186 0.681054 0.204240
0.770561 0.684914 0.206137
0.779936 0.688775 0.208033
0.789311 0.692635 0.209930
0.798686 0.696495 0.211827
0.808448 0.701939 0.214530
0.820140 0.715300 0.221262
0.831833 0.728660 0.227995
0.843526 0.742021 0.234728
0.855218 0.755382 0.241461
0.866911 0.768742 0.248194
0.641301 0.678593 0.198842
0.648740 0.680077 0.199595
0.656179 0.681560 0.200348
0.663618 0.683044 0.201102
0.671057 0.684527 0.201855
0.678496 0.686011 0.202608
0.685621 0.688279 0.203390
0.692683 0.690705 0.204179
0.699745 0.693131 0.204967
0.706807 0.695556 0.205755
0.713869 0.697982 0.206543
0.720402 0.700081 0.207250
0.726670 0.702015 0.207917
0.732938 0.703950 0.208583
0.739206 0.705885 0.209249
0.745474 0.707820 0.209915
0.751027 0.708536 0.210434
0.755867 0.708033 0.210804
0.760706 0.707529 0.211175
0.765545 0.707026 0.211545
0.770384 0.706523 0.211916
0.775787 0.706291 0.212493
0.782317 0.706602 0.213484
0.788848 0.706913 0.214475
0.795378 0.707224 0.215466
0.801908 0.707536 0.216457
0.809271 0.709950 0.218326
0.820799 0.722880 0.224583
0.832327 0.735811 0.230840
0.843855 0.748742 0.237098
0.855383 0.761673 0.243355
0.866911 0.774603 0.249612
0.658411 0.705045 0.205498
0.665457 0.706122 0.206166
0.672502 0.707198 0.206834
0.679548 0.708275 0.207502
0.686593 0.709351 0.208170
0.693638 0.710428 0.208837
0.700380 0.712179 0.209611
0.707061 0.714065 0.210405
0.713742 0.715951 0.211199
0.720424 0.717837 0.211994
0.727105 0.719723 0.212788
0.733437 0.721548 0.213586
0.739595 0.723342 0.214384
0.745753 0.725137 0.215183
0.751911 0.726931 0.215982
0.758069 0.728726 0.216781
0.763718 0.729741 0.217490
0.768858 0.729978 0.218109
0.773998 0.730214 0.218728
0.779137 0.730450 0.219347
0.784277 0.730687 0.219966
0.789092 0.729987 0.220465
0.793259 0.727417 0.220722
0.797426 0.724846 0.220980
0.801593 0.722275 0.221238
0.805760 0.719705 0.221495
0.811094 0.719587 0.222660
0.822265 0.731734 0.228359
0.833437 0.743881 0.234058
0.844608 0.756028 0.239758
0.855779 0.768175 0.245457
0.866950 0.780322 0.251156
0.667486 0.724329 0.212115
0.674550 0.725342 0.212820
0.681613 0.726354 0.213524
0.688677 0.727367 0.214229
0.695741 0.728379 0.214933
0.702805 0.729391 0.215637
0.709397 0.730873 0.216371
0.715895 0.732448 0.217111
0.722393 0.734022 0.217850
0.728891 0.735597 0.218589
0.735390 0.737172 0.219329
0.741527 0.738699 0.220090
0.747484 0.740200 0.220861
0.753441 0.741702 0.221633
0.759397 0.743204 0.222404
0.765354 0.744706 0.223176
0.770866 0.745575 0.223885
0.775932 0.745811 0.224531
0.780999 0.746048 0.225178
0.786065 0.746284 0.225824
0.791132 0.746520 0.226470
0.795914 0.745973 0.227030
