Assets/1__3DArt/KimSe/artstation_asset/LUTs_subway_asset/CUBE/Yellow Line 04.cube
# LUT by SparkleStock. Enhanced with VOXCOLOR algorithms.
LUT_3D_SIZE 8
DOMAIN_MIN 0.000000 0.000000 0.000000
DOMAIN_MAX 0.903226 0.903226 0.903226
0.011722 0.027350 0.042979
0.239537 0.153452 0.083249
0.466013 0.285313 0.118831
0.659246 0.405522 0.148072
0.797353 0.500926 0.170121
0.869952 0.560101 0.185057
0.907732 0.594541 0.197314
0.930458 0.617070 0.209547
0.054827 0.088416 0.057726
0.187357 0.148214 0.079553
0.392988 0.256795 0.111104
0.600540 0.377602 0.142797
0.758810 0.482904 0.168194
0.848240 0.556716 0.187374
0.897608 0.605183 0.204852
0.928177 0.639477 0.222580
0.150829 0.173989 0.081579
0.262928 0.221601 0.100308
0.394567 0.278626 0.118717
0.551710 0.361325 0.140982
0.723662 0.471095 0.168159
0.828162 0.556744 0.190651
0.887959 0.617303 0.211984
0.925391 0.661374 0.233868
0.286494 0.282020 0.113671
0.394044 0.330400 0.132388
0.469078 0.354464 0.141947
0.561534 0.392575 0.152692
0.694643 0.467001 0.171169
0.810377 0.559859 0.195186
0.878999 0.630015 0.219121
0.922257 0.682199 0.244094
0.445421 0.408098 0.152097
0.527210 0.443763 0.166204
0.598372 0.474927 0.177554
0.648621 0.486246 0.181909
0.686258 0.484586 0.181148
0.797674 0.568388 0.202000
0.871141 0.643102 0.226703
0.918995 0.701656 0.253707
0.591941 0.539304 0.190854
0.645921 0.559308 0.199838
0.697463 0.581653 0.208657
0.741589 0.598071 0.215086
0.775932 0.603363 0.217691
0.804651 0.598320 0.216295
0.866165 0.658959 0.235705
0.916214 0.719976 0.262391
0.692300 0.653653 0.222049
0.728715 0.662996 0.228471
0.764663 0.675044 0.234988
0.798184 0.686416 0.240980
0.827282 0.693447 0.245595
0.847340 0.687622 0.246101
0.879967 0.703123 0.252960
0.915055 0.739201 0.271604
0.754138 0.745173 0.246713
0.780984 0.749137 0.253068
0.807247 0.753469 0.258580
0.832536 0.758083 0.263759
0.856405 0.762499 0.268833
0.877537 0.764231 0.273060
0.895609 0.759936 0.275589
0.918821 0.772591 0.286248
0.014179 0.039828 0.074552
0.118607 0.093771 0.089793
0.313138 0.193388 0.118904
0.528424 0.309560 0.150719
0.710972 0.418978 0.177269
0.824553 0.503182 0.196449
0.888558 0.563505 0.212707
0.926866 0.607886 0.229923
0.028889 0.096942 0.119889
0.103982 0.141692 0.138331
0.289679 0.237738 0.168360
0.506962 0.352817 0.200227
0.694856 0.461284 0.226995
0.813824 0.543920 0.246794
0.881937 0.602727 0.264174
0.923490 0.647021 0.282385
0.140041 0.213709 0.173607
0.210567 0.239574 0.173431
0.331956 0.291868 0.187327
0.496084 0.374079 0.210926
0.681740 0.479945 0.239233
0.804494 0.564877 0.262169
0.876187 0.626894 0.283560
0.920725 0.674168 0.305886
0.299637 0.349660 0.220081
0.369400 0.360079 0.202715
0.437677 0.378108 0.203205
0.535575 0.419912 0.216116
0.673728 0.492622 0.236861
0.797395 0.579379 0.262757
0.871588 0.645485 0.288532
0.918413 0.696192 0.315679
0.467675 0.476122 0.249944
0.527386 0.482424 0.231566
0.588908 0.501732 0.232489
0.639431 0.514957 0.237375
0.683218 0.522066 0.239785
0.794961 0.598478 0.263889
0.868470 0.665174 0.291996
0.916497 0.717877 0.322805
0.609219 0.588886 0.268356
0.656531 0.597544 0.260153
0.702207 0.611844 0.262846
0.742942 0.624917 0.268493
0.777317 0.632136 0.271677
0.808968 0.633188 0.272627
0.867937 0.686451 0.296705
0.915392 0.739016 0.328713
0.701673 0.683573 0.281035
0.738901 0.694300 0.286985
0.772648 0.703580 0.293227
0.803489 0.711668 0.299006
0.831234 0.717680 0.303507
0.851731 0.715005 0.304793
0.883019 0.729925 0.313383
0.915810 0.760914 0.336460
0.757876 0.761847 0.292941
0.787560 0.772482 0.313734
0.813878 0.778017 0.324742
0.838192 0.781428 0.331112
0.861266 0.784576 0.336468
0.881718 0.786110 0.340694
0.899331 0.783501 0.342711
0.920907 0.794684 0.354667
0.016101 0.051770 0.106125
0.075210 0.077617 0.110022
0.233908 0.151526 0.131587
0.439919 0.254226 0.161025
0.645797 0.367460 0.190300
0.788957 0.466221 0.212584
0.872705 0.542992 0.231271
0.922617 0.601907 0.251305
0.021285 0.105243 0.161006
0.074789 0.145939 0.180999
0.227137 0.221279 0.203661
0.429631 0.319772 0.229596
0.636563 0.428347 0.257634
0.782013 0.520414 0.279078
0.867796 0.590934 0.297289
0.919691 0.645971 0.316475
0.077522 0.195867 0.226260
0.129498 0.233001 0.239356
0.248456 0.289706 0.258970
0.422290 0.371283 0.284145
0.626266 0.474215 0.312520
0.773758 0.561867 0.335114
0.862016 0.628666 0.354877
0.916129 0.681178 0.375077
0.203957 0.330285 0.296385
0.261780 0.353846 0.289983
0.350657 0.387169 0.298916
0.474378 0.438144 0.316319
0.627587 0.509913 0.337348
0.771055 0.593648 0.362625
0.858790 0.658309 0.386323
0.913413 0.709185 0.410562
0.395816 0.498097 0.360997
0.464763 0.506674 0.333944
0.542684 0.523077 0.326431
0.606969 0.536472 0.327248
0.657221 0.549494 0.331503
0.779081 0.620982 0.357065
0.860057 0.682732 0.385919
0.912463 0.732260 0.417033
0.563694 0.620411 0.381147
0.624898 0.627930 0.356048
0.684195 0.638193 0.349852
0.732554 0.647998 0.352150
0.766884 0.655293 0.355290
0.802510 0.660571 0.357353
0.864231 0.708673 0.384742
0.913018 0.755649 0.420449
0.675840 0.710728 0.382706
0.724685 0.719507 0.369839
0.768328 0.728193 0.374450
0.803787 0.735300 0.383272
0.830034 0.739503 0.387489
0.851025 0.738455 0.388747
0.882815 0.752538 0.398374
0.915262 0.779845 0.425841
0.744948 0.781432 0.380134
0.782550 0.790144 0.383754
0.815129 0.798561 0.403991
0.842236 0.804184 0.422354
0.864279 0.805923 0.428221
0.884232 0.806673 0.432042
0.901538 0.804633 0.433353
0.922200 0.814284 0.447071
0.017567 0.063413 0.139037
0.064599 0.080160 0.137469
0.192621 0.135276 0.151678
0.381479 0.224782 0.177087
0.600674 0.339095 0.208120
0.762862 0.444870 0.232429
0.860526 0.530972 0.252489
0.918606 0.598637 0.273821
0.021543 0.115264 0.196870
0.068892 0.155491 0.218424
0.190103 0.211432 0.232353
0.373111 0.293532 0.250715
0.592259 0.401803 0.278914
0.756840 0.500316 0.301769
0.856650 0.579766 0.320780
0.916776 0.643016 0.340615
0.028388 0.176644 0.265983
0.073582 0.228449 0.294722
0.187645 0.287647 0.319084
0.363447 0.365386 0.342813
0.579151 0.463707 0.367766
0.747056 0.554236 0.389825
0.850117 0.626164 0.407987
0.912791 0.683763 0.426000
0.094008 0.283521 0.347927
0.145360 0.332069 0.365765
0.250703 0.384510 0.388989
0.399858 0.445690 0.412031
0.577416 0.518288 0.432144
0.742315 0.600868 0.455268
0.845470 0.666073 0.475175
0.908990 0.718331 0.494491
0.246951 0.448519 0.436718
0.316077 0.480299 0.428670
0.410494 0.511474 0.429925
0.510295 0.539983 0.437790
0.609140 0.570527 0.450991
0.750581 0.638990 0.474316
0.846157 0.697942 0.499066
0.907212 0.745970 0.524605
0.446737 0.612951 0.493191
0.523502 0.630727 0.467305
0.605602 0.647035 0.457415
0.682143 0.661906 0.458098
0.744690 0.674887 0.463820
0.785288 0.682807 0.465751
0.854971 0.727458 0.492385
0.909115 0.770986 0.526648
0.597002 0.720187 0.502766
0.662760 0.731462 0.476370
0.726419 0.743183 0.474402
0.781699 0.753264 0.482939
0.823525 0.759776 0.491065
0.844825 0.759183 0.491913
0.878970 0.772312 0.500975
0.913223 0.797055 0.529592
0.698012 0.795444 0.494759
0.749589 0.802793 0.477145
0.796509 0.813366 0.493447
0.835697 0.822381 0.518289
0.865280 0.826689 0.533804
0.884599 0.826324 0.537202
0.901715 0.824120 0.537746
0.922254 0.832277 0.552080
0.018654 0.074969 0.174485
0.055532 0.084014 0.167722
0.162656 0.126516 0.175477
0.339724 0.207819 0.197010
0.567098 0.323486 0.228686
0.744635 0.434457 0.254934
0.852100 0.525465 0.275882
0.915501 0.597572 0.297534
0.022282 0.128064 0.238320
0.064605 0.166481 0.258332
0.165872 0.209781 0.264958
0.335392 0.281243 0.276620
0.560060 0.388697 0.302758
0.739751 0.491797 0.326844
0.849392 0.575591 0.346141
0.914801 0.642662 0.365799
0.028054 0.189354 0.311425
0.069787 0.241328 0.340080
0.171262 0.294967 0.361574
0.335402 0.363874 0.379202
0.548430 0.453738 0.396264
0.730642 0.547402 0.418344
0.843454 0.623014 0.435922
0.911446 0.683889 0.453063
0.035348 0.255454 0.385138
0.074367 0.314272 0.416121
0.174615 0.377083 0.449780
0.333622 0.444799 0.477379
0.536733 0.518433 0.495274
0.719798 0.601559 0.515420
0.835746 0.668518 0.531601
0.906548 0.722618 0.546441
0.067277 0.341449 0.459801
0.108833 0.403114 0.490076
0.203996 0.464415 0.519135
0.354266 0.525519 0.549277
0.547236 0.587261 0.579682
0.715383 0.653944 0.596425
0.829819 0.711450 0.612413
0.901961 0.758770 0.627141
0.265380 0.552646 0.572571
0.342691 0.591141 0.569583
0.444324 0.626094 0.567747
0.566936 0.658667 0.573089
0.695240 0.687718 0.586350
0.755915 0.701123 0.589348
0.840674 0.744277 0.610112
0.903954 0.785796 0.635842
0.455280 0.697362 0.614811
0.535513 0.720558 0.595687
0.624046 0.740701 0.584781
0.715467 0.759318 0.588160
0.798848 0.775550 0.604751
0.831153 0.777711 0.607009
0.871284 0.790408 0.613725
0.909594 0.813417 0.638044
0.602345 0.794525 0.619549
0.672499 0.807471 0.596164
0.741739 0.819561 0.591188
0.805403 0.832292 0.608084
0.857730 0.844692 0.641042
0.881655 0.845035 0.646372
0.899543 0.842588 0.646555
0.920762 0.849379 0.659185
0.019410 0.086691 0.214565
0.048824 0.089442 0.202094
0.137286 0.121191 0.203519
0.290898 0.188443 0.218465
0.503397 0.293041 0.245292
0.727919 0.428163 0.278859
0.847361 0.524782 0.301271
0.913757 0.598316 0.322581
0.023331 0.142567 0.285426
0.061929 0.178996 0.301996
0.145785 0.211195 0.301106
0.290896 0.266575 0.303623
0.498367 0.361359 0.322618
0.724702 0.487703 0.353116
0.846169 0.576580 0.373159
0.914337 0.644502 0.392041
0.029396 0.206845 0.364727
0.068494 0.257365 0.389798
0.159235 0.304764 0.405926
0.303115 0.360689 0.415442
0.495850 0.435510 0.423266
0.718185 0.546455 0.447963
0.841509 0.625644 0.465020
0.911993 0.686851 0.480740
0.036433 0.275531 0.443197
0.072771 0.331733 0.469416
0.167902 0.392293 0.499880
0.313763 0.452818 0.522606
0.500167 0.514745 0.532917
0.710465 0.604414 0.549277
0.834572 0.672633 0.563170
0.907656 0.726539 0.575887
0.046829 0.347328 0.513963
0.081694 0.408218 0.542591
0.171464 0.470023 0.572162
0.318105 0.532626 0.603643
0.512329 0.596037 0.634139
0.703857 0.660963 0.642845
0.827014 0.717827 0.654315
0.902430 0.764384 0.665054
0.079828 0.431624 0.573017
0.119174 0.493595 0.602036
0.206131 0.552739 0.628428
0.343019 0.610127 0.654996
0.522563 0.665464 0.682243
0.703505 0.712241 0.701908
0.823426 0.759756 0.715377
0.898710 0.799923 0.726820
0.250749 0.610810 0.662776
0.320100 0.654913 0.670693
0.417147 0.694377 0.677376
0.539385 0.731024 0.687205
0.678254 0.765276 0.702392
0.798437 0.791648 0.719296
0.859265 0.807668 0.724077
0.904185 0.829470 0.737540
0.431607 0.755451 0.711974
0.513674 0.782538 0.703306
0.606936 0.805578 0.699716
0.706011 0.826506 0.705301
0.802580 0.846109 0.721654
0.869824 0.860810 0.743963
0.894696 0.860237 0.746417
0.917397 0.865936 0.754207
0.020166 0.099043 0.259057
0.044311 0.096597 0.240145
0.117171 0.119125 0.235372
0.248811 0.173576 0.244067
0.439636 0.263888 0.264948
0.665280 0.393155 0.296198
0.823920 0.513152 0.324058
0.912420 0.599909 0.348035
0.024868 0.157822 0.335967
0.060708 0.192794 0.349025
0.130190 0.215657 0.341011
0.253320 0.256655 0.334852
0.437891 0.335776 0.345653
0.662553 0.455171 0.371982
0.823602 0.566314 0.397307
0.914208 0.646836 0.418709
0.031540 0.225296 0.420662
0.068748 0.274728 0.442137
0.150684 0.316632 0.452617
0.276546 0.360814 0.454110
0.444944 0.418761 0.452262
0.661112 0.520349 0.470726
0.821533 0.618502 0.491457
0.913265 0.690513 0.508749
0.038922 0.297625 0.503512
0.073510 0.351341 0.524649
0.164574 0.409234 0.550737
0.298853 0.462636 0.567661
0.465554 0.511383 0.569776
0.663578 0.588419 0.578024
0.818845 0.670069 0.592841
0.910221 0.731836 0.605488
0.045895 0.370823 0.576298
0.078402 0.427810 0.598803
0.164921 0.486536 0.624155
0.307186 0.546780 0.652603
0.494768 0.606873 0.679914
0.671220 0.658018 0.680415
0.816781 0.721091 0.689292
0.905787 0.771472 0.697572
0.051012 0.437627 0.628106
0.082598 0.497849 0.654724
0.165370 0.556708 0.680897
0.302243 0.615167 0.708125
0.486852 0.672765 0.736108
0.681992 0.722759 0.757257
0.818084 0.770440 0.764665
0.901206 0.809272 0.769563
0.112389 0.539514 0.683481
0.156035 0.595054 0.705717
0.241864 0.646546 0.725494
0.371566 0.695989 0.745733
0.539197 0.743979 0.767986
0.712625 0.785545 0.789877
0.828158 0.815402 0.798131
0.900779 0.842655 0.805809
0.238157 0.668919 0.739062
0.301686 0.712646 0.750746
0.393902 0.751334 0.761336
0.513310 0.787287 0.774388
0.652811 0.821644 0.792058
0.782262 0.851290 0.813518
0.863022 0.867928 0.823358
0.912824 0.881193 0.829869
0.021742 0.111623 0.306786
0.041690 0.104994 0.281129
0.101486 0.119567 0.270082
0.213447 0.162431 0.272646
0.381911 0.238458 0.287560
0.595461 0.354917 0.314485
0.779438 0.484906 0.344613
0.895211 0.588236 0.371182
0.027163 0.173250 0.388521
0.060705 0.206990 0.398568
0.118542 0.222200 0.383734
0.222628 0.250739 0.369178
0.384377 0.314573 0.371835
0.594580 0.420088 0.391862
0.779667 0.540108 0.418487
0.897424 0.636095 0.442450
0.034404 0.243322 0.476912
0.070115 0.292007 0.495634
0.145008 0.329426 0.500952
0.255452 0.363573 0.494889
0.400727 0.405946 0.483723
0.599529 0.492500 0.494271
0.780608 0.596929 0.514666
0.897839 0.682098 0.533639
0.042169 0.318666 0.562291
0.075563 0.370682 0.579360
0.163441 0.426270 0.601565
0.287927 0.473461 0.613062
0.436386 0.510297 0.607350
0.613737 0.571353 0.606832
0.783946 0.655426 0.619307
0.897212 0.726921 0.632176
0.049325 0.395719 0.636524
0.080830 0.449375 0.653407
0.165113 0.504879 0.674319
0.303628 0.562229 0.699223
0.483963 0.618258 0.722937
0.638546 0.654397 0.715447
0.791259 0.715256 0.719974
0.896292 0.770923 0.726665
0.054399 0.467152 0.689112
0.084880 0.521838 0.708210
0.166145 0.576110 0.729179
0.300730 0.630999 0.752954
0.481768 0.685866 0.778660
0.670360 0.732874 0.797951
0.805779 0.774519 0.799917
0.896275 0.813263 0.801188
0.057293 0.526114 0.721392
0.087327 0.582388 0.744747
0.165930 0.635728 0.767110
0.296588 0.688153 0.790509
0.474369 0.740237 0.815616
0.667862 0.787074 0.838528
0.808543 0.822313 0.848020
0.897859 0.852684 0.852178
0.111571 0.615114 0.761701
0.153915 0.666650 0.782861
0.237524 0.713478 0.801636
0.364489 0.758182 0.820899
0.529494 0.801995 0.842131
0.702404 0.841383 0.862726
0.828144 0.870391 0.876783
0.904813 0.891222 0.882727
