Assets/1__3DArt/KimSe/artstation_asset/LUTs_subway_asset/CUBE/Yellow Line 05.cube
# LUT by SparkleStock. Enhanced with VOXCOLOR algorithms.
LUT_3D_SIZE 5
DOMAIN_MIN 0.000000 0.000000 0.000000
DOMAIN_MAX 0.903226 0.903226 0.903226
0.046886 0.070330 0.082051
0.415652 0.249313 0.091449
0.745638 0.459577 0.090992
0.905242 0.600969 0.090197
0.953192 0.657639 0.099397
0.144031 0.166072 0.087739
0.348029 0.242456 0.094542
0.661135 0.415374 0.095156
0.874484 0.599379 0.091836
0.947280 0.699325 0.103225
0.383930 0.348608 0.100626
0.532707 0.409829 0.103906
0.651828 0.444339 0.104043
0.848550 0.605124 0.098260
0.942278 0.735297 0.108364
0.651022 0.589736 0.120446
0.735633 0.623937 0.118487
0.806741 0.655725 0.115727
0.840043 0.637236 0.110117
0.939568 0.769272 0.115890
0.778132 0.784994 0.151239
0.829708 0.795351 0.144899
0.876098 0.808635 0.139725
0.913645 0.814285 0.134339
0.946057 0.823209 0.128875
0.052779 0.074316 0.106479
0.202702 0.134169 0.121027
0.561352 0.299253 0.137914
0.838683 0.492407 0.141372
0.944284 0.633291 0.150988
0.105729 0.173486 0.186963
0.241836 0.256133 0.220892
0.562848 0.414930 0.244727
0.837369 0.591432 0.253087
0.942183 0.709151 0.268098
0.374342 0.425085 0.278595
0.479244 0.453793 0.247554
0.621531 0.504757 0.253550
0.836032 0.643828 0.269768
0.940103 0.757044 0.302994
0.663696 0.662851 0.294688
0.742619 0.682630 0.258195
0.810322 0.702746 0.255141
0.850923 0.700823 0.251649
0.941316 0.799416 0.297802
0.783838 0.809679 0.278896
0.839446 0.830808 0.296420
0.885694 0.842394 0.310534
0.921673 0.847463 0.307867
0.951164 0.854874 0.314413
0.054591 0.079798 0.134003
0.155508 0.113969 0.145045
0.473258 0.249498 0.181967
0.798570 0.447199 0.201007
0.938837 0.618310 0.214357
0.062052 0.149248 0.226172
0.181315 0.245522 0.290186
0.481644 0.389026 0.334685
0.800360 0.565035 0.354540
0.937350 0.704076 0.366859
0.137235 0.292090 0.352665
0.263356 0.399872 0.412098
0.511655 0.519580 0.474958
0.798017 0.662758 0.509250
0.933201 0.771456 0.532260
0.483388 0.632487 0.517259
0.620045 0.684470 0.487806
0.767029 0.726636 0.492824
0.832715 0.738448 0.496610
0.937854 0.820872 0.551391
0.716434 0.817343 0.517310
0.808248 0.843635 0.490338
0.883919 0.864606 0.534211
0.923578 0.870470 0.548507
0.952700 0.876901 0.563547
0.056261 0.087164 0.167766
0.126085 0.104127 0.169147
0.382463 0.210046 0.207955
0.774016 0.432850 0.257796
0.936058 0.612550 0.280619
0.066825 0.165109 0.281420
0.169511 0.252554 0.338494
0.411166 0.358761 0.372228
0.780767 0.558128 0.416743
0.937308 0.703968 0.433404
0.088193 0.274483 0.413519
0.202059 0.393436 0.488338
0.464683 0.523282 0.565984
0.779644 0.669577 0.609170
0.932819 0.779075 0.625741
0.125821 0.400073 0.523322
0.242886 0.528864 0.601190
0.497907 0.653618 0.676219
0.790620 0.764670 0.741869
0.929324 0.841147 0.762864
0.480454 0.737610 0.693685
0.625784 0.799728 0.694116
0.789766 0.850212 0.713030
0.913609 0.887055 0.759126
0.949068 0.895778 0.772068
0.058041 0.097192 0.210635
0.107458 0.102319 0.199128
0.299887 0.177385 0.231425
0.650148 0.365316 0.287890
0.914614 0.597944 0.337368
0.074283 0.185335 0.345512
0.165461 0.267407 0.394220
0.350985 0.337459 0.408417
0.669285 0.497359 0.448391
0.921761 0.694726 0.490515
0.104614 0.311224 0.497615
0.211843 0.422902 0.559192
0.452059 0.536075 0.623286
0.710868 0.639393 0.649142
0.924821 0.778886 0.680334
0.134256 0.442696 0.614811
0.235623 0.556137 0.672461
0.484035 0.672185 0.740937
0.777907 0.777422 0.805235
0.928631 0.850178 0.819094
0.206247 0.588821 0.697410
0.316790 0.687908 0.747146
0.543522 0.780099 0.800600
0.804827 0.862127 0.853815
0.939026 0.908889 0.880059
