Assets/1__3DArt/KimSe/artstation_asset/LUTs_subway_asset/CUBE/Yellow Line 01.cube
# LUT by SparkleStock. Enhanced with VOXCOLOR algorithms.
LUT_3D_SIZE 5
DOMAIN_MIN 0.000000 0.000000 0.000000
DOMAIN_MAX 0.903226 0.903226 0.903226
0.085958 0.074237 0.062515
0.383402 0.237205 0.097814
0.643515 0.414731 0.127039
0.771460 0.525637 0.145441
0.817976 0.567411 0.158573
0.167309 0.153444 0.073875
0.332797 0.228996 0.094253
0.579629 0.378071 0.119981
0.748250 0.523253 0.139905
0.817226 0.597664 0.156715
0.360227 0.308913 0.096577
0.477479 0.365450 0.110369
0.572882 0.399677 0.122372
0.728656 0.526474 0.138087
0.815419 0.624579 0.157039
0.576817 0.509118 0.126732
0.640131 0.538041 0.133523
0.696177 0.563993 0.140034
0.722730 0.550599 0.143584
0.813873 0.649160 0.160014
0.694316 0.668935 0.166663
0.729131 0.676260 0.166262
0.761747 0.684154 0.167008
0.790498 0.686572 0.167630
0.820670 0.690955 0.170983
0.087715 0.077317 0.085446
0.219310 0.138872 0.102237
0.505278 0.288992 0.135957
0.717941 0.446299 0.164310
0.808976 0.551852 0.186823
0.141478 0.168308 0.166297
0.255081 0.247138 0.196957
0.510221 0.390039 0.233274
0.723626 0.537098 0.265110
0.817075 0.628086 0.292138
0.363755 0.393582 0.262330
0.444648 0.414568 0.234454
0.557216 0.462139 0.248761
0.726141 0.578893 0.282535
0.819740 0.670300 0.325862
0.594831 0.593046 0.290313
0.654478 0.601566 0.260343
0.706893 0.618497 0.265149
0.739897 0.618127 0.268913
0.822566 0.700838 0.322575
0.702324 0.707349 0.287349
0.744330 0.725568 0.311341
0.778720 0.737030 0.330552
0.806667 0.739604 0.332866
0.834733 0.745480 0.342565
0.091559 0.082658 0.112198
0.181616 0.120356 0.119574
0.440427 0.249374 0.156363
0.688200 0.416064 0.192750
0.803951 0.546832 0.221816
0.109221 0.153224 0.217879
0.210004 0.246949 0.271251
0.453356 0.378672 0.309913
0.700143 0.530334 0.345813
0.816595 0.639062 0.373793
0.178666 0.296451 0.356390
0.281547 0.398443 0.406593
0.482270 0.508119 0.461178
0.709200 0.634261 0.505151
0.826037 0.723666 0.539491
0.461326 0.611388 0.520710
0.569137 0.644935 0.487525
0.685872 0.679439 0.492157
0.739213 0.690354 0.500212
0.832805 0.765750 0.561160
0.654669 0.759019 0.524568
0.726760 0.772352 0.501015
0.790029 0.798225 0.547288
0.822582 0.805356 0.564204
0.850144 0.812370 0.579249
0.096498 0.089007 0.147844
0.159359 0.109849 0.143388
0.369724 0.213692 0.174443
0.672777 0.410070 0.228331
0.801863 0.549856 0.264297
0.118664 0.175918 0.290914
0.203949 0.259952 0.334154
0.398899 0.357318 0.351636
0.690178 0.533214 0.398433
0.819296 0.649236 0.428194
0.142097 0.300382 0.444565
0.235742 0.411487 0.503969
0.448267 0.529247 0.563611
0.703180 0.657134 0.601405
0.831877 0.747099 0.627166
0.173725 0.434395 0.558349
0.271465 0.550643 0.620915
0.478830 0.661126 0.681264
0.719046 0.757841 0.738118
0.840127 0.823812 0.763040
0.468409 0.737959 0.707995
0.587204 0.782830 0.703556
0.720994 0.824261 0.719644
0.827017 0.862323 0.763461
0.859987 0.869884 0.774869
0.102659 0.097333 0.200347
0.147530 0.105514 0.179178
0.308730 0.181385 0.198864
0.581875 0.352081 0.251614
0.788282 0.544695 0.308338
0.130946 0.204812 0.378675
0.205997 0.282369 0.411149
0.355051 0.343429 0.401549
0.606378 0.485681 0.431646
0.810392 0.651327 0.481856
0.157792 0.356518 0.550257
0.246031 0.454930 0.593196
0.441673 0.553814 0.635796
0.650831 0.640635 0.647439
0.829995 0.758233 0.681796
0.176054 0.501715 0.662875
0.265241 0.594661 0.702644
0.470055 0.692316 0.753440
0.713279 0.782889 0.804060
0.844230 0.842449 0.817840
0.236959 0.634995 0.730159
0.338609 0.713228 0.764098
0.526284 0.789842 0.804949
0.741503 0.860340 0.849331
0.858502 0.899648 0.872949
