Assets/1__3DArt/KimSe/artstation_asset/LUTs_subway_asset/CUBE/Yellow Line 01_S.cube
# LUT by SparkleStock. Enhanced with VOXCOLOR algorithms.
LUT_3D_SIZE 5
DOMAIN_MIN 0.000000 0.000000 0.000000
DOMAIN_MAX 0.903226 0.903226 0.903226
0.085958 0.074237 0.062515
0.381559 0.233747 0.096562
0.638710 0.403836 0.123802
0.766994 0.513608 0.142148
0.816842 0.564008 0.157722
0.167135 0.153531 0.073788
0.317731 0.228903 0.082309
0.550729 0.349245 0.093776
0.727496 0.473558 0.113124
0.814279 0.575762 0.147210
0.358005 0.309331 0.095986
0.462661 0.369039 0.101820
0.546595 0.405815 0.099252
0.705737 0.502469 0.109614
0.812229 0.607008 0.145493
0.570357 0.510615 0.125495
0.630221 0.539913 0.129748
0.679466 0.568116 0.130554
0.708056 0.561157 0.127949
0.811350 0.646409 0.151861
0.689637 0.670070 0.165812
0.725303 0.677253 0.165118
0.757718 0.685247 0.165188
0.786638 0.688205 0.164645
0.819709 0.692995 0.167181
0.087715 0.077317 0.085446
0.219129 0.130358 0.109409
0.498365 0.257275 0.147424
0.710050 0.406235 0.171611
0.807133 0.537810 0.188529
0.141279 0.168441 0.166383
0.253838 0.238674 0.201876
0.488450 0.328224 0.231626
0.704201 0.430417 0.250384
0.826801 0.554067 0.272894
0.362029 0.393608 0.261963
0.422857 0.413362 0.236376
0.517793 0.449199 0.244215
0.698387 0.514164 0.259145
0.838016 0.605896 0.290892
0.589624 0.593480 0.289478
0.635320 0.601219 0.260875
0.669664 0.619449 0.263476
0.710324 0.625375 0.262158
0.839993 0.683365 0.293610
0.698637 0.707866 0.286731
0.738800 0.726194 0.311105
0.769371 0.738822 0.328552
0.797567 0.745771 0.326722
0.842486 0.754614 0.327560
0.091559 0.082658 0.112198
0.182445 0.117502 0.124146
0.439364 0.234246 0.171574
0.682424 0.384511 0.207561
0.802309 0.533649 0.225983
0.108792 0.153607 0.218526
0.216044 0.242202 0.281676
0.449512 0.337275 0.335043
0.685717 0.435822 0.361023
0.827503 0.560181 0.369795
0.177796 0.297042 0.356807
0.281261 0.397710 0.407272
0.472655 0.483623 0.453602
0.690394 0.537564 0.470699
0.853531 0.611658 0.486057
0.456929 0.611815 0.519707
0.556791 0.643828 0.486925
0.653421 0.671392 0.485689
0.708924 0.679529 0.482221
0.861590 0.715567 0.503438
0.650982 0.759344 0.523759
0.721932 0.772375 0.500568
0.779688 0.797681 0.544760
0.809798 0.809435 0.552284
0.863162 0.820000 0.547446
0.096498 0.089007 0.147844
0.159669 0.109525 0.144337
0.370019 0.211135 0.178416
0.672045 0.402545 0.237987
0.801049 0.544079 0.267705
0.118110 0.176564 0.291705
0.206387 0.258237 0.339601
0.401026 0.344740 0.368661
0.683296 0.496621 0.425671
0.824756 0.602759 0.438340
0.141049 0.302013 0.446174
0.237521 0.411217 0.506590
0.448969 0.517258 0.566828
0.692866 0.606052 0.610800
0.850280 0.659294 0.616929
0.172525 0.435879 0.559067
0.271764 0.551968 0.620939
0.477547 0.655716 0.675124
0.706881 0.728269 0.713656
0.864223 0.744332 0.710859
0.466099 0.738714 0.707624
0.584601 0.783156 0.703226
0.715923 0.823207 0.717983
0.815798 0.857934 0.756228
0.870297 0.864117 0.745210
0.102659 0.097333 0.200347
0.147530 0.105514 0.179228
0.308730 0.181184 0.199207
0.581857 0.351610 0.252501
0.788117 0.544036 0.309161
0.130665 0.205091 0.380881
0.206457 0.281804 0.413374
0.355802 0.341008 0.405753
0.606254 0.479011 0.438251
0.811248 0.640281 0.486955
0.157099 0.357320 0.553581
0.246149 0.454630 0.596114
0.441485 0.550812 0.638863
0.649882 0.629566 0.652924
0.834139 0.733130 0.686494
0.174698 0.503168 0.665453
0.265013 0.595194 0.704914
0.469513 0.690909 0.754661
0.710213 0.775487 0.803188
0.850593 0.815041 0.814732
0.236227 0.635937 0.730882
0.338325 0.713929 0.764785
0.525926 0.789670 0.805079
0.739994 0.858082 0.847738
0.862255 0.890909 0.865961
