Assets/1__3DArt/KimSe/artstation_asset/LUTs_subway_asset/CUBE/Yellow Line 05_S.cube
# LUT by SparkleStock. Enhanced with VOXCOLOR algorithms.
LUT_3D_SIZE 8
DOMAIN_MIN 0.000000 0.000000 0.000000
DOMAIN_MAX 0.903226 0.903226 0.903226
0.046886 0.070330 0.082051
0.250880 0.161456 0.088668
0.468801 0.275214 0.090732
0.662523 0.391910 0.089818
0.805073 0.495490 0.087621
0.882776 0.569790 0.087243
0.925188 0.619355 0.091276
0.951633 0.653527 0.098547
0.083186 0.115136 0.084320
0.190138 0.157961 0.084204
0.373223 0.239488 0.082956
0.568336 0.338254 0.080140
0.728139 0.437004 0.076350
0.830139 0.522867 0.076558
0.895750 0.596070 0.084104
0.940496 0.659705 0.097059
0.171043 0.186727 0.088865
0.261199 0.225416 0.087511
0.369110 0.267325 0.083159
0.508798 0.330864 0.077421
0.675745 0.422490 0.072182
0.793748 0.511726 0.071938
0.875215 0.595711 0.080837
0.932514 0.673896 0.096866
0.301319 0.286597 0.095687
0.393452 0.329946 0.094992
0.449392 0.352071 0.089415
0.524394 0.382237 0.081874
0.647311 0.440089 0.075108
0.772779 0.527312 0.073315
0.863225 0.613300 0.081701
0.927771 0.695189 0.098529
0.460034 0.412935 0.104738
0.533651 0.447118 0.104043
0.591306 0.479011 0.099736
0.626991 0.491734 0.092784
0.653662 0.489678 0.084734
0.768116 0.562795 0.080362
0.859318 0.643901 0.086641
0.926211 0.722287 0.102309
0.610146 0.555485 0.116271
0.661661 0.575763 0.114551
0.706649 0.600075 0.111397
0.742091 0.618922 0.106677
0.767738 0.625941 0.100402
0.792029 0.620019 0.092809
0.864179 0.682219 0.095381
0.927907 0.752775 0.107956
0.711733 0.684170 0.130482
0.749563 0.694569 0.127859
0.784253 0.708932 0.124857
0.814805 0.722853 0.121515
0.840129 0.731857 0.117640
0.856711 0.726789 0.111828
0.890822 0.742741 0.107764
0.931666 0.782642 0.114386
0.772177 0.784994 0.150246
0.802841 0.790281 0.146587
0.831362 0.797119 0.142872
0.857749 0.804512 0.139535
0.881858 0.811219 0.136619
0.902307 0.813946 0.132716
0.918405 0.809907 0.126307
0.941294 0.823547 0.125215
0.051046 0.072409 0.095663
0.138238 0.107769 0.106379
0.312969 0.177166 0.116066
0.515643 0.268772 0.122275
0.698353 0.371309 0.123737
0.820698 0.470053 0.121895
0.895677 0.557234 0.122513
0.942838 0.629913 0.128198
0.062170 0.110190 0.127352
0.132435 0.149715 0.145046
0.290319 0.212055 0.154778
0.479946 0.289471 0.158604
0.656353 0.374671 0.158728
0.782711 0.458688 0.158718
0.869671 0.542462 0.163529
0.931990 0.627229 0.174237
0.170158 0.218818 0.169715
0.226848 0.241898 0.165207
0.319447 0.274314 0.164681
0.454621 0.325092 0.165076
0.623366 0.396660 0.164658
0.754755 0.471485 0.165604
0.851783 0.552121 0.173076
0.924991 0.639718 0.187529
0.328306 0.354353 0.200797
0.373733 0.361006 0.174360
0.414312 0.372278 0.164884
0.486788 0.396975 0.162481
0.608218 0.441113 0.160631
0.740168 0.508430 0.161785
0.842429 0.583259 0.170596
0.921446 0.665428 0.187323
0.497120 0.485612 0.208202
0.533309 0.488893 0.179017
0.568205 0.503686 0.168956
0.596101 0.512809 0.165495
0.627029 0.514666 0.160928
0.742555 0.567693 0.161116
0.841718 0.631789 0.170025
0.920992 0.702061 0.187485
0.639914 0.609135 0.203488
0.671905 0.617094 0.185403
0.699999 0.629727 0.178907
0.723883 0.641148 0.176139
0.745104 0.646938 0.171789
0.773186 0.644043 0.166604
0.850635 0.690159 0.173712
0.923863 0.746817 0.190370
0.729792 0.714889 0.200720
0.760336 0.726643 0.199335
0.786356 0.736525 0.197937
0.808941 0.745106 0.195897
0.828828 0.751635 0.192731
0.845217 0.749008 0.187929
0.881790 0.761118 0.186186
0.929466 0.791625 0.196946
0.780977 0.798661 0.205500
0.810182 0.811182 0.222634
0.836235 0.818976 0.226924
0.859567 0.824752 0.225424
0.880583 0.830074 0.223029
0.899318 0.832922 0.219258
0.916102 0.830738 0.213316
0.942720 0.840849 0.214626
0.053062 0.075025 0.110213
0.099034 0.090387 0.119221
0.237931 0.137972 0.136600
0.427138 0.211573 0.152378
0.626420 0.305045 0.159909
0.778167 0.412680 0.159196
0.875483 0.519594 0.157954
0.936943 0.614058 0.162278
0.056221 0.110135 0.151934
0.112807 0.148656 0.179705
0.243084 0.198116 0.202939
0.415714 0.259306 0.217931
0.599968 0.332315 0.223196
0.747885 0.417235 0.222832
0.852452 0.511061 0.223466
0.926961 0.609675 0.229363
0.111077 0.188918 0.206558
0.164544 0.227586 0.225853
0.265592 0.270643 0.245690
0.408625 0.320021 0.259031
0.579382 0.377013 0.262568
0.724758 0.443070 0.263316
0.835224 0.522029 0.267491
0.919994 0.614291 0.277923
0.241179 0.322829 0.268623
0.288899 0.348298 0.263600
0.358174 0.377515 0.269598
0.453284 0.408404 0.275994
0.574687 0.442024 0.276772
0.713936 0.493498 0.278774
0.826145 0.557496 0.286199
0.916463 0.636467 0.300957
0.442162 0.502425 0.326129
0.488097 0.511592 0.294029
0.535294 0.523263 0.279914
0.571090 0.529399 0.274356
0.602529 0.531361 0.271165
0.720294 0.568462 0.273246
0.826624 0.618018 0.282310
0.916494 0.680000 0.299284
0.610503 0.637815 0.330879
0.652727 0.646888 0.297684
0.687481 0.654552 0.284557
0.711277 0.659924 0.280388
0.726081 0.662253 0.277039
0.755189 0.660046 0.272637
0.837556 0.692535 0.281647
0.919959 0.737271 0.300056
0.716353 0.738403 0.319825
0.754358 0.750080 0.299352
0.784603 0.758445 0.298713
0.806057 0.764181 0.302207
0.819738 0.767394 0.299726
0.833849 0.765325 0.294952
0.871905 0.773515 0.294061
0.926348 0.796122 0.307448
0.777064 0.813295 0.309404
0.810506 0.825628 0.308631
0.839138 0.835128 0.326722
0.862127 0.841734 0.341436
0.879746 0.845695 0.340169
0.895680 0.848064 0.336239
0.912136 0.846917 0.330096
0.942327 0.854188 0.332937
0.054118 0.078097 0.125779
0.090722 0.088556 0.130810
0.202470 0.126183 0.150806
0.375443 0.191272 0.174475
0.584857 0.281548 0.192568
0.752594 0.388622 0.196001
0.863492 0.502109 0.195186
0.933671 0.605361 0.199233
0.056765 0.113304 0.171318
0.108742 0.151569 0.203224
0.215914 0.193015 0.232777
0.374139 0.247657 0.257187
0.567402 0.320537 0.273616
0.728355 0.404584 0.275076
0.844012 0.502752 0.273027
0.925113 0.605947 0.274775
0.063114 0.159398 0.229189
0.119996 0.214461 0.269787
0.228648 0.268382 0.306506
0.379070 0.322281 0.333412
0.554978 0.377518 0.347079
0.708855 0.437708 0.348572
0.827568 0.514219 0.349285
0.918184 0.605295 0.354467
0.133994 0.261312 0.305925
0.192451 0.316128 0.333299
0.292857 0.369649 0.361760
0.418013 0.415503 0.383429
0.554685 0.451950 0.393755
0.698714 0.492473 0.395633
0.817206 0.547401 0.399766
0.913882 0.620326 0.409744
0.299468 0.436301 0.396937
0.360620 0.473718 0.392033
0.436693 0.504879 0.393755
0.511518 0.528298 0.399379
0.583005 0.545620 0.405844
0.703579 0.570901 0.406684
0.815482 0.608225 0.412734
0.912956 0.661614 0.426043
0.509633 0.619699 0.452782
0.571721 0.642300 0.423629
0.630585 0.658465 0.410729
0.678796 0.669452 0.407532
0.713038 0.675548 0.407733
0.740896 0.672154 0.402212
0.826867 0.693395 0.409355
0.916481 0.727986 0.425510
0.654086 0.739296 0.456576
0.708354 0.755721 0.424176
0.755767 0.768319 0.419380
0.791942 0.776899 0.425118
0.814574 0.781039 0.428415
0.824878 0.778037 0.422795
0.863149 0.782406 0.420793
0.923005 0.798426 0.433602
0.744688 0.819900 0.443038
0.789193 0.832524 0.419793
0.828171 0.844382 0.436423
0.859001 0.853549 0.461563
0.880342 0.858850 0.473367
0.892800 0.860367 0.469318
0.907960 0.859605 0.462466
0.940901 0.864591 0.465188
0.055063 0.081618 0.142652
0.083617 0.087759 0.143823
0.176416 0.118995 0.159323
0.340261 0.183624 0.186133
0.560664 0.281702 0.217685
0.739982 0.387935 0.229406
0.858391 0.500154 0.232000
0.932630 0.602944 0.237499
0.057838 0.118417 0.194613
0.104697 0.156160 0.226441
0.196454 0.192613 0.250484
0.348560 0.249855 0.277720
0.554133 0.336577 0.310448
0.723749 0.420704 0.318921
0.843774 0.515963 0.318038
0.926048 0.614257 0.318634
0.064561 0.166634 0.258142
0.116760 0.221239 0.300396
0.217883 0.274484 0.338765
0.366193 0.333358 0.374116
0.549053 0.400003 0.404164
0.708755 0.460411 0.410964
0.829703 0.532985 0.410136
0.919825 0.616749 0.410534
0.073856 0.222749 0.325271
0.126727 0.287844 0.370202
0.234575 0.355880 0.417108
0.381568 0.419670 0.458188
0.548972 0.473656 0.486532
0.697474 0.512472 0.490800
0.817751 0.561337 0.491098
0.914534 0.625669 0.494099
0.111521 0.305210 0.398883
0.167958 0.376024 0.441770
0.271534 0.445104 0.481424
0.411224 0.508878 0.517020
0.569690 0.561642 0.544781
0.695888 0.582332 0.544417
0.810812 0.610249 0.545348
0.911194 0.654363 0.552013
0.338519 0.540771 0.529285
0.412180 0.586867 0.531391
0.502395 0.627106 0.533292
0.600652 0.660503 0.539357
0.692869 0.684235 0.549253
0.730798 0.683730 0.544313
0.820380 0.696951 0.546197
0.913822 0.722883 0.555506
0.530831 0.702619 0.577766
0.602740 0.732591 0.558231
0.676961 0.757204 0.547218
0.746936 0.776797 0.550278
0.803681 0.790303 0.565336
0.818742 0.788757 0.560854
0.857293 0.790124 0.556133
0.920068 0.800695 0.564264
0.669184 0.808805 0.583647
0.730927 0.827789 0.557200
0.789058 0.843683 0.551540
0.839543 0.857359 0.570223
0.877847 0.868421 0.605784
0.891272 0.870480 0.604811
0.904940 0.869820 0.597465
0.939133 0.872961 0.598034
0.056009 0.085966 0.162503
0.078561 0.088302 0.159430
0.154370 0.112933 0.170685
0.295478 0.169011 0.193677
0.500824 0.262022 0.224680
0.730786 0.395332 0.254551
0.858732 0.508162 0.265293
0.933179 0.605633 0.274640
0.059808 0.125254 0.221782
0.101913 0.162590 0.251065
0.178246 0.192948 0.267347
0.310401 0.242661 0.286657
0.504642 0.328309 0.317561
0.724562 0.447672 0.347470
0.850669 0.543107 0.354244
0.929316 0.631536 0.357810
0.068074 0.177307 0.293045
0.115882 0.231454 0.332688
0.207724 0.282315 0.366937
0.341947 0.337139 0.396342
0.514471 0.403816 0.422509
0.717474 0.501358 0.451703
0.840873 0.573901 0.456850
0.924572 0.645648 0.457899
0.079125 0.238178 0.367589
0.127133 0.300871 0.408880
0.230512 0.368770 0.455782
0.370787 0.432405 0.496584
0.533146 0.489016 0.525154
0.711946 0.559282 0.550495
0.830942 0.607207 0.554533
0.919673 0.658967 0.555178
0.095201 0.306717 0.438915
0.144126 0.376232 0.481858
0.244648 0.447044 0.526047
0.388315 0.516520 0.570485
0.559680 0.580430 0.611374
0.710313 0.623689 0.629999
0.822825 0.649327 0.632152
0.915377 0.681644 0.633264
0.137190 0.394007 0.503890
0.190081 0.465887 0.545148
0.286379 0.534299 0.583373
0.420238 0.598913 0.619933
0.578783 0.657530 0.653863
0.717182 0.697385 0.673466
0.821746 0.711766 0.672681
0.913269 0.730027 0.672807
0.332088 0.595545 0.614285
0.404530 0.647600 0.628990
0.498231 0.694302 0.642088
0.607781 0.736443 0.657344
0.723128 0.773388 0.676039
0.809498 0.797036 0.691170
0.857226 0.799867 0.685775
0.918474 0.806096 0.685854
0.519426 0.756417 0.678054
0.597703 0.789589 0.671830
0.680915 0.817907 0.671044
0.764459 0.842630 0.679833
0.841446 0.864009 0.699371
0.889176 0.877607 0.722279
0.905364 0.878162 0.718241
0.937757 0.879857 0.715041
0.057111 0.091418 0.185348
0.075493 0.090558 0.177786
0.137090 0.109021 0.184984
0.256805 0.155898 0.204779
0.439637 0.238123 0.234257
0.669135 0.367287 0.267641
0.837236 0.502254 0.291003
0.933016 0.609110 0.308727
0.062179 0.133437 0.251945
0.101076 0.170600 0.278723
0.164148 0.194788 0.287446
0.276389 0.235242 0.298530
0.450284 0.312128 0.324321
0.671477 0.432292 0.357063
0.836045 0.553302 0.378217
0.932818 0.649709 0.391445
0.072492 0.189570 0.330768
0.117505 0.243515 0.367722
0.201046 0.291428 0.396532
0.319950 0.339876 0.417878
0.473305 0.398587 0.435304
0.676738 0.499565 0.465595
0.833341 0.599943 0.485122
0.930538 0.679268 0.495466
0.086214 0.255849 0.412739
0.131145 0.316583 0.449870
0.230203 0.383498 0.493747
0.361628 0.444474 0.529885
0.510966 0.496649 0.551634
0.686919 0.570370 0.575718
0.830613 0.645668 0.592949
0.927024 0.704337 0.601381
0.101436 0.327723 0.489522
0.145993 0.393399 0.527034
0.242625 0.462124 0.568412
0.384557 0.532122 0.613002
0.556278 0.599113 0.656070
0.702720 0.644879 0.672608
0.829412 0.693801 0.686223
0.923080 0.731161 0.692910
0.114908 0.396278 0.548472
0.159710 0.466189 0.588264
0.253467 0.535280 0.628301
0.391436 0.603519 0.669110
0.561603 0.668962 0.709279
0.721421 0.719860 0.738390
0.833022 0.749977 0.748074
0.919837 0.769707 0.751130
0.190479 0.509069 0.616737
0.243731 0.573520 0.649272
0.335348 0.633922 0.679729
0.462114 0.691674 0.710430
0.614500 0.746485 0.742086
0.756572 0.790357 0.769650
0.846009 0.813157 0.778015
0.920784 0.825356 0.780263
0.328689 0.653147 0.689138
0.396844 0.703427 0.707606
0.487737 0.748705 0.725457
0.598423 0.790836 0.745952
0.721300 0.830330 0.770773
0.827296 0.862026 0.797473
0.888561 0.879090 0.807181
0.937682 0.887246 0.808501
0.058041 0.097192 0.210635
0.073568 0.094130 0.198376
0.123473 0.107273 0.201566
0.224044 0.145401 0.218333
0.383635 0.215826 0.246121
0.598564 0.332853 0.280328
0.791745 0.476002 0.312091
0.914367 0.597368 0.338109
0.064743 0.142310 0.284392
0.101692 0.179480 0.309004
0.154072 0.198116 0.311101
0.248249 0.229209 0.314759
0.400014 0.294827 0.335146
0.607563 0.405258 0.366502
0.796179 0.537680 0.396302
0.917722 0.648780 0.418996
0.077183 0.202327 0.370132
0.120934 0.256432 0.405160
0.197924 0.301316 0.428799
0.302572 0.342600 0.442321
0.434957 0.390611 0.450779
0.624558 0.483778 0.476975
0.801528 0.597948 0.504079
0.919108 0.692884 0.523455
0.093699 0.273502 0.458441
0.137415 0.333180 0.492391
0.233220 0.398724 0.532747
0.356013 0.455787 0.563263
0.490374 0.500759 0.576832
0.651419 0.567886 0.594058
0.809353 0.657734 0.616963
0.919666 0.732496 0.632970
0.112353 0.351382 0.540716
0.154844 0.413936 0.572932
0.248457 0.480057 0.610298
0.387598 0.548705 0.652380
0.555843 0.615140 0.693477
0.687935 0.655701 0.702230
0.820990 0.717799 0.719456
0.920337 0.770275 0.731749
0.129161 0.426950 0.603934
0.170145 0.490873 0.635740
0.260607 0.555481 0.670755
0.396377 0.621119 0.709237
0.565931 0.686127 0.749513
0.727599 0.739366 0.781313
0.838742 0.778835 0.794262
0.921985 0.809753 0.800932
0.140465 0.491017 0.645071
0.180407 0.555901 0.678677
0.267384 0.618515 0.712937
0.399085 0.680450 0.749081
0.566275 0.741579 0.786852
0.733391 0.794569 0.820187
0.845874 0.829828 0.836915
0.925440 0.853021 0.843482
0.205598 0.590001 0.698216
0.255082 0.647778 0.726850
0.342562 0.701695 0.754924
0.466492 0.753917 0.784532
0.619081 0.805061 0.816262
0.768407 0.849690 0.845559
0.869652 0.880399 0.865042
0.935467 0.898809 0.872487
