Assets/1__3DArt/KimSe/artstation_asset/LUTs_subway_asset/CUBE/Yellow Line 02.cube
# LUT by SparkleStock. Enhanced with VOXCOLOR algorithms.
LUT_3D_SIZE 8
DOMAIN_MIN 0.000000 0.000000 0.000000
DOMAIN_MAX 0.903226 0.903226 0.903226
0.074237 0.066422 0.054701
0.254977 0.171161 0.089866
0.436118 0.286478 0.126236
0.593477 0.395912 0.158297
0.710056 0.486423 0.182213
0.775848 0.544842 0.196203
0.813912 0.580259 0.206255
0.840388 0.605853 0.215723
0.112616 0.118603 0.062074
0.215341 0.168014 0.083334
0.377461 0.261181 0.115752
0.544176 0.368773 0.148874
0.675757 0.467646 0.175187
0.756039 0.540701 0.191958
0.804934 0.590267 0.204913
0.839052 0.626344 0.217547
0.191839 0.194486 0.079357
0.277513 0.234914 0.097702
0.379274 0.282141 0.118578
0.504283 0.354533 0.143180
0.645631 0.455818 0.170334
0.738434 0.540193 0.189057
0.797054 0.601541 0.204431
0.838049 0.646823 0.219928
0.301430 0.292654 0.104581
0.383749 0.334522 0.121791
0.440616 0.353554 0.133723
0.513151 0.385609 0.148004
0.621378 0.452462 0.168475
0.723207 0.543130 0.187954
0.789990 0.613861 0.204999
0.836952 0.667243 0.222812
0.428713 0.409634 0.135326
0.491603 0.440414 0.147524
0.547273 0.467578 0.158200
0.586143 0.475641 0.165936
0.615364 0.471213 0.172048
0.712564 0.551947 0.189478
0.783790 0.627410 0.206913
0.835483 0.687516 0.226208
0.547064 0.535547 0.166899
0.589754 0.552422 0.173827
0.631758 0.572109 0.180997
0.668127 0.586319 0.187598
0.696305 0.589758 0.193070
0.719590 0.582818 0.197180
0.780082 0.644401 0.211419
0.833678 0.707288 0.230496
0.630123 0.649171 0.194848
0.661763 0.657264 0.198703
0.693286 0.668290 0.203265
0.722754 0.678717 0.208183
0.748227 0.684702 0.212969
0.765413 0.677298 0.216201
0.796082 0.692170 0.222508
0.833544 0.729408 0.236430
0.681240 0.742621 0.220434
0.709129 0.746524 0.223398
0.735156 0.751321 0.226435
0.759439 0.756395 0.229785
0.781974 0.760800 0.233508
0.801868 0.761416 0.237082
0.817991 0.755542 0.239848
0.841410 0.768049 0.247761
0.075938 0.067557 0.071716
0.160075 0.115358 0.086975
0.314078 0.200487 0.117021
0.485647 0.301846 0.151582
0.634316 0.401835 0.182506
0.732456 0.483819 0.203375
0.793597 0.545607 0.217988
0.835192 0.593692 0.230763
0.091484 0.115053 0.108656
0.156078 0.160106 0.129727
0.304020 0.245484 0.160769
0.476474 0.347560 0.193795
0.628078 0.446987 0.222539
0.729829 0.526950 0.242111
0.793945 0.586796 0.256964
0.838138 0.633868 0.271199
0.187582 0.225961 0.157267
0.245116 0.251922 0.158940
0.340331 0.297749 0.174650
0.469867 0.370261 0.199495
0.619340 0.466648 0.227998
0.724098 0.548818 0.249214
0.791581 0.611899 0.267127
0.838742 0.661616 0.285253
0.320336 0.356416 0.199482
0.373467 0.364987 0.181994
0.425409 0.379341 0.183962
0.501986 0.415106 0.198784
0.612980 0.480167 0.220568
0.718662 0.563806 0.243645
0.788825 0.630988 0.265091
0.838475 0.684075 0.287646
0.454883 0.476048 0.224446
0.500227 0.480175 0.204324
0.548068 0.496492 0.204558
0.587368 0.506706 0.211525
0.621977 0.511100 0.218275
0.717534 0.583756 0.239657
0.787423 0.651259 0.263004
0.838409 0.706285 0.289038
0.567817 0.584251 0.238455
0.605994 0.591923 0.227342
0.643006 0.604489 0.228393
0.676415 0.615713 0.233934
0.705081 0.621275 0.238712
0.731142 0.620081 0.243262
0.788389 0.673836 0.263866
0.838842 0.728422 0.291233
0.643632 0.677847 0.249327
0.677085 0.689467 0.251685
0.706772 0.698528 0.255785
0.733809 0.705979 0.260490
0.758374 0.711294 0.264809
0.776429 0.707125 0.267517
0.806086 0.721020 0.275480
0.841336 0.752903 0.295969
0.691101 0.756593 0.262216
0.721002 0.769609 0.278839
0.747104 0.776338 0.287188
0.770723 0.780405 0.291852
0.792708 0.783985 0.296000
0.812262 0.784880 0.299272
0.828611 0.780764 0.300980
0.851073 0.791524 0.311193
0.076836 0.069762 0.089669
0.126577 0.094840 0.096426
0.251976 0.159026 0.120096
0.414782 0.248292 0.152821
0.579991 0.349205 0.187239
0.700732 0.443661 0.213018
0.778315 0.522022 0.231087
0.830643 0.585363 0.246346
0.085307 0.114441 0.137305
0.135851 0.157565 0.161004
0.258450 0.228134 0.186464
0.418554 0.317192 0.215036
0.583358 0.414869 0.245811
0.704297 0.502446 0.268620
0.782523 0.573770 0.285605
0.835936 0.632133 0.301309
0.137958 0.199230 0.198377
0.186167 0.239075 0.215301
0.283132 0.295213 0.239029
0.421432 0.371390 0.267150
0.583708 0.464801 0.296555
0.705491 0.548231 0.319357
0.785047 0.615727 0.337629
0.839719 0.671053 0.355157
0.247150 0.330306 0.266749
0.295668 0.355289 0.262585
0.368257 0.389567 0.275130
0.467365 0.437975 0.295552
0.589260 0.502917 0.317716
0.707925 0.582629 0.342300
0.787018 0.648116 0.364350
0.841920 0.701758 0.386535
0.406378 0.496421 0.331044
0.459434 0.504851 0.302827
0.522076 0.520655 0.295755
0.573839 0.532549 0.298649
0.613686 0.542894 0.305772
0.715406 0.610454 0.330150
0.789554 0.673041 0.357264
0.842942 0.725515 0.386923
0.540024 0.616047 0.349468
0.588670 0.623560 0.321020
0.637878 0.633401 0.313710
0.678548 0.642313 0.316235
0.707069 0.648199 0.320416
0.736488 0.651400 0.325091
0.794683 0.699983 0.351427
0.845121 0.749459 0.386093
0.630055 0.705443 0.350211
0.672237 0.715546 0.333075
0.711295 0.724856 0.336130
0.743333 0.732078 0.344607
0.766671 0.735965 0.348774
0.785307 0.733758 0.351086
0.815178 0.747007 0.360658
0.849743 0.775518 0.388098
0.686936 0.775857 0.348389
0.722704 0.787203 0.347284
0.755206 0.797358 0.366149
0.782473 0.804206 0.384214
0.803966 0.806834 0.389379
0.823164 0.807526 0.392659
0.839586 0.804491 0.393593
0.861419 0.814037 0.406896
0.077404 0.072961 0.109425
0.118972 0.089830 0.112072
0.220958 0.139767 0.129990
0.369861 0.219063 0.159646
0.544017 0.320214 0.195915
0.678956 0.420073 0.225061
0.767535 0.507659 0.245653
0.826942 0.580264 0.262764
0.086082 0.116993 0.162002
0.132532 0.158716 0.187718
0.231291 0.214113 0.206351
0.376044 0.290817 0.229155
0.549530 0.388727 0.260989
0.684469 0.481471 0.286579
0.773579 0.561493 0.305327
0.833966 0.628375 0.322100
0.099015 0.172019 0.228480
0.144790 0.226590 0.262205
0.240928 0.289141 0.292889
0.382337 0.365973 0.321870
0.553143 0.457327 0.349671
0.689296 0.542578 0.373612
0.779513 0.614717 0.391699
0.840582 0.675209 0.408009
0.160717 0.275829 0.310678
0.208534 0.327335 0.332929
0.298520 0.384348 0.362306
0.420492 0.447256 0.390823
0.561825 0.516498 0.414186
0.695354 0.594528 0.438662
0.784829 0.660078 0.459035
0.845527 0.715111 0.478079
0.292527 0.441607 0.402295
0.348790 0.475162 0.395550
0.427509 0.508905 0.399932
0.510192 0.539217 0.412093
0.590525 0.569556 0.429673
0.706164 0.634471 0.453854
0.789865 0.694203 0.479539
0.848441 0.745346 0.506173
0.454348 0.607460 0.461873
0.514786 0.626331 0.433659
0.583511 0.643888 0.423856
0.648896 0.659617 0.426096
0.702011 0.672594 0.434070
0.735416 0.678919 0.438444
0.798541 0.724263 0.466474
0.851866 0.770702 0.502881
0.573642 0.715477 0.472514
0.628047 0.728277 0.442221
0.684217 0.741397 0.439362
0.734366 0.752596 0.448742
0.772352 0.759727 0.458369
0.791343 0.758515 0.460496
0.822722 0.771341 0.470502
0.858063 0.797853 0.501625
0.654019 0.791023 0.465493
0.700549 0.800495 0.443244
0.745738 0.813002 0.459014
0.784776 0.823778 0.485250
0.814440 0.829584 0.502312
0.833350 0.829829 0.506014
0.849825 0.827412 0.506626
0.871445 0.836164 0.522100
0.077947 0.077002 0.131711
0.112453 0.086497 0.129765
0.199355 0.126340 0.142779
0.339240 0.200131 0.169783
0.518404 0.304008 0.207017
0.664723 0.408258 0.239145
0.760703 0.500525 0.261683
0.824257 0.577739 0.280194
0.088089 0.122626 0.192356
0.130622 0.162302 0.217361
0.214300 0.206198 0.229734
0.348746 0.274905 0.247051
0.526123 0.375393 0.278145
0.672527 0.472230 0.306264
0.768863 0.556506 0.326245
0.833248 0.627437 0.343570
0.101540 0.178402 0.265580
0.143772 0.232408 0.299456
0.230764 0.289096 0.327626
0.363855 0.359495 0.351923
0.532560 0.447574 0.374487
0.679400 0.535868 0.399872
0.776567 0.611515 0.418339
0.841376 0.675467 0.434377
0.116090 0.240517 0.341075
0.155239 0.302238 0.377689
0.242997 0.369845 0.418697
0.374791 0.442285 0.454205
0.537906 0.518517 0.479241
0.684867 0.597694 0.502587
0.783139 0.664779 0.520507
0.848418 0.721621 0.535804
0.149193 0.324723 0.418849
0.189135 0.390100 0.454696
0.271447 0.456976 0.490578
0.397434 0.524294 0.529041
0.556777 0.591058 0.568354
0.692566 0.655671 0.588435
0.789051 0.713908 0.607207
0.854202 0.764024 0.624181
0.314765 0.542390 0.541090
0.376290 0.583904 0.538783
0.461000 0.622115 0.539128
0.565531 0.658096 0.548519
0.675843 0.690135 0.567297
0.725927 0.703113 0.573846
0.799582 0.747295 0.598016
0.858345 0.791823 0.627837
0.465483 0.691564 0.588140
0.530238 0.717239 0.567009
0.605888 0.739614 0.555873
0.687145 0.760556 0.561566
0.763237 0.779103 0.582696
0.792178 0.781630 0.587300
0.828034 0.794747 0.596240
0.865552 0.820073 0.625071
0.580270 0.791458 0.595449
0.641126 0.806373 0.568506
0.704105 0.820367 0.562624
0.764744 0.835183 0.582099
0.816860 0.849838 0.620470
0.840812 0.851599 0.627591
0.858297 0.849853 0.628869
0.880190 0.858113 0.644225
0.078325 0.081539 0.157801
0.107562 0.085327 0.150879
0.180901 0.115832 0.158605
0.303624 0.178365 0.180437
0.471884 0.274594 0.214378
0.652892 0.400653 0.253971
0.757702 0.498262 0.279094
0.823013 0.577050 0.298741
0.090956 0.130676 0.228691
0.130372 0.168383 0.251213
0.200553 0.201705 0.256538
0.316383 0.256151 0.265642
0.480859 0.346909 0.291304
0.662632 0.467142 0.326435
0.767723 0.556646 0.348454
0.833821 0.628697 0.366101
0.106584 0.189757 0.311021
0.145926 0.242324 0.342097
0.224269 0.292689 0.365130
0.341558 0.350814 0.381839
0.494501 0.425837 0.396481
0.672735 0.534216 0.426176
0.777671 0.614029 0.445492
0.843948 0.678574 0.460937
0.122329 0.254727 0.393932
0.157833 0.313979 0.426037
0.241063 0.378929 0.463857
0.362695 0.443978 0.494624
0.513190 0.509471 0.512833
0.681968 0.600103 0.535306
0.786076 0.669270 0.552359
0.852462 0.726105 0.566182
0.138563 0.324406 0.469437
0.171546 0.389339 0.503722
0.248864 0.456567 0.540244
0.372521 0.525090 0.580213
0.534501 0.594069 0.620288
0.689530 0.662813 0.636351
0.792141 0.721168 0.652105
0.858796 0.770600 0.665564
0.169185 0.409464 0.533570
0.204372 0.476257 0.567548
0.277956 0.541105 0.599961
0.392839 0.604618 0.633927
0.543565 0.665954 0.669954
0.695383 0.717286 0.698888
0.796657 0.766628 0.717357
0.862900 0.809679 0.732772
0.305582 0.597767 0.634362
0.361263 0.645925 0.643926
0.442312 0.689695 0.653314
0.547178 0.730627 0.667415
0.668705 0.768914 0.688629
0.775830 0.798784 0.712748
0.829194 0.816297 0.721490
0.870566 0.840663 0.739776
0.445874 0.750286 0.691381
0.513591 0.780352 0.681714
0.593981 0.806314 0.678643
0.682828 0.830012 0.686887
0.772726 0.852227 0.708221
0.838265 0.869682 0.736933
0.863048 0.870784 0.742503
0.885853 0.878699 0.753941
0.079806 0.086707 0.187829
0.104506 0.085884 0.175321
0.166222 0.108323 0.177755
0.272851 0.160024 0.194456
0.425175 0.244611 0.223884
0.606598 0.366499 0.262891
0.741259 0.485855 0.295052
0.822897 0.576696 0.318689
0.095047 0.140088 0.269088
0.131985 0.176357 0.289177
0.190849 0.200612 0.287440
0.289627 0.241791 0.288089
0.436417 0.319048 0.306698
0.616641 0.434524 0.339563
0.752326 0.546167 0.368339
0.835248 0.630549 0.389680
0.112801 0.203120 0.360299
0.150265 0.254546 0.388485
0.221380 0.299291 0.405888
0.324184 0.345933 0.414428
0.457625 0.405098 0.419644
0.630766 0.506382 0.444951
0.764859 0.606514 0.469845
0.847379 0.682506 0.488132
0.130128 0.272012 0.450362
0.163407 0.328959 0.477513
0.242869 0.391019 0.511014
0.355008 0.448645 0.535753
0.489688 0.501011 0.545406
0.648293 0.580662 0.560965
0.777244 0.665759 0.581324
0.857836 0.731841 0.596521
0.144496 0.342913 0.529880
0.173970 0.404499 0.557778
0.247756 0.468535 0.589909
0.367868 0.534351 0.626669
0.525185 0.599818 0.663363
0.667745 0.655288 0.671292
0.788376 0.722889 0.686974
0.865572 0.777942 0.699482
0.152504 0.409407 0.587012
0.179725 0.475346 0.618739
0.248864 0.540457 0.651097
0.363332 0.605321 0.685833
0.518535 0.669064 0.722679
0.683815 0.724061 0.753545
0.798097 0.776157 0.767955
0.869781 0.819428 0.777880
0.200808 0.516289 0.649130
0.236008 0.577464 0.675216
0.306441 0.635051 0.699754
0.414732 0.690514 0.725987
0.556969 0.744025 0.755641
0.708004 0.790189 0.786407
0.808913 0.823663 0.801633
0.873469 0.854437 0.814905
0.295647 0.654984 0.713493
0.347057 0.703207 0.726949
0.423713 0.746695 0.740592
0.525642 0.787318 0.758165
0.647780 0.825893 0.781901
0.765592 0.859102 0.810993
0.840389 0.878518 0.826942
0.887138 0.894627 0.838271
0.082839 0.092717 0.222230
0.103623 0.087979 0.203379
0.155536 0.103306 0.200222
0.247712 0.144922 0.211807
0.383460 0.217305 0.236597
0.555271 0.328399 0.272695
0.708395 0.456558 0.308900
0.810909 0.562717 0.337389
0.100238 0.150173 0.312691
0.135301 0.185279 0.330277
0.184803 0.201857 0.321644
0.268569 0.231149 0.313996
0.397637 0.294666 0.325239
0.566309 0.398389 0.353267
0.719869 0.518926 0.385094
0.823732 0.618827 0.411004
0.119521 0.216799 0.411157
0.155915 0.267484 0.436818
0.221206 0.307505 0.448825
0.311369 0.343978 0.449419
0.426035 0.387906 0.445166
0.585069 0.475747 0.463718
0.734761 0.583157 0.490095
0.837227 0.673464 0.512151
0.137872 0.289271 0.506475
0.170078 0.344655 0.529423
0.246757 0.404228 0.558757
0.350693 0.455225 0.577507
0.470276 0.495239 0.578622
0.611735 0.559328 0.585787
0.752055 0.648321 0.605515
0.850085 0.726018 0.623094
0.152830 0.364069 0.589350
0.180743 0.422788 0.611219
0.252263 0.483507 0.638404
0.369243 0.546173 0.671073
0.520822 0.607319 0.703596
0.645042 0.646804 0.702817
0.771002 0.713478 0.715413
0.861232 0.775901 0.728294
0.160770 0.434887 0.648275
0.185511 0.496051 0.671797
0.252590 0.556764 0.698340
0.364995 0.617892 0.728986
0.517629 0.678577 0.762852
0.678512 0.730277 0.791256
0.791791 0.776961 0.800796
0.869345 0.821566 0.808403
0.161936 0.496043 0.684712
0.185381 0.559153 0.711987
0.248826 0.619484 0.739588
0.356570 0.678693 0.769466
0.505862 0.736992 0.802213
0.673276 0.788693 0.834049
0.796443 0.828030 0.851672
0.875230 0.862789 0.862224
0.199806 0.592540 0.731377
0.232560 0.649890 0.755199
0.299623 0.702993 0.778295
0.404495 0.753912 0.803247
0.544356 0.803380 0.831283
0.697076 0.846972 0.859787
0.811885 0.879116 0.881608
0.882701 0.903059 0.893618
