Assets/1__3DArt/KimSe/artstation_asset/LUTs_subway_asset/CUBE/Yellow Line 03_S.cube
# LUT by SparkleStock. Enhanced with VOXCOLOR algorithms.
LUT_3D_SIZE 5
DOMAIN_MIN 0.000000 0.000000 0.000000
DOMAIN_MAX 0.903226 0.903226 0.903226
0.019536 0.023443 0.031258
0.400354 0.223869 0.068959
0.733129 0.445083 0.130702
0.886959 0.590027 0.189980
0.936287 0.659073 0.233715
0.115349 0.122439 0.049100
0.307930 0.211188 0.056334
0.601465 0.367217 0.089104
0.815212 0.533587 0.155379
0.918071 0.670632 0.234880
0.357864 0.325046 0.096632
0.493662 0.395914 0.107186
0.594879 0.434563 0.105669
0.783377 0.563765 0.156721
0.908042 0.705959 0.245400
0.623168 0.585316 0.181551
0.701202 0.620623 0.191838
0.759000 0.652054 0.200674
0.792741 0.638751 0.192373
0.906090 0.753960 0.266243
0.756910 0.782646 0.285202
0.802880 0.791265 0.288729
0.843232 0.800857 0.293592
0.878374 0.803761 0.296027
0.916232 0.812667 0.305338
0.020859 0.031352 0.054449
0.181418 0.091694 0.075546
0.541421 0.254868 0.122966
0.811180 0.451027 0.184232
0.924459 0.622901 0.250114
0.073881 0.137842 0.149135
0.215743 0.214217 0.184242
0.499569 0.325687 0.220536
0.757105 0.458437 0.264680
0.905801 0.616747 0.325436
0.353127 0.414080 0.275755
0.428538 0.430121 0.244982
0.533823 0.460714 0.247364
0.737982 0.540839 0.278329
0.899661 0.660377 0.340931
0.639574 0.662574 0.344002
0.692519 0.671338 0.315582
0.726586 0.681844 0.313884
0.762713 0.676395 0.304250
0.901623 0.747087 0.354818
0.763738 0.805545 0.385542
0.808159 0.821816 0.403887
0.841404 0.829495 0.417855
0.870506 0.832409 0.413458
0.915465 0.839350 0.413338
0.021316 0.037134 0.083753
0.132740 0.075471 0.092559
0.463870 0.218595 0.143732
0.775719 0.415994 0.208438
0.917534 0.611883 0.277489
0.026206 0.117807 0.203767
0.163293 0.216280 0.268825
0.450710 0.327895 0.322184
0.734763 0.453788 0.363697
0.902614 0.611482 0.406174
0.111355 0.287985 0.363472
0.249859 0.396142 0.414185
0.469957 0.477569 0.450621
0.712934 0.539624 0.469958
0.895433 0.632474 0.502804
0.476198 0.648017 0.557318
0.590177 0.685390 0.522560
0.692739 0.703451 0.510484
0.739441 0.697931 0.495534
0.897796 0.736544 0.520645
0.704737 0.820171 0.585619
0.780303 0.837881 0.560697
0.837678 0.851678 0.593683
0.864500 0.855311 0.593903
0.914204 0.859675 0.582650
0.019300 0.043925 0.126433
0.098072 0.065788 0.117182
0.372695 0.186555 0.152481
0.765368 0.426908 0.235802
0.916512 0.616925 0.311341
0.030362 0.143379 0.286921
0.144329 0.234078 0.335879
0.391047 0.331972 0.361322
0.744778 0.518234 0.429132
0.906250 0.654220 0.469992
0.068915 0.289903 0.459365
0.198340 0.408009 0.521726
0.441933 0.511554 0.573682
0.727096 0.609260 0.613877
0.898558 0.675820 0.630726
0.132796 0.444821 0.587518
0.268650 0.568346 0.651651
0.492827 0.664530 0.695898
0.734406 0.723915 0.719149
0.895757 0.742951 0.715908
0.504423 0.768221 0.749649
0.628447 0.815211 0.741594
0.762855 0.849162 0.748541
0.863046 0.872043 0.777226
0.913077 0.873984 0.760671
0.014132 0.053929 0.192690
0.072860 0.062297 0.159579
0.283750 0.149641 0.177150
0.644022 0.359099 0.246407
0.899745 0.606866 0.344696
0.036029 0.175870 0.389214
0.136898 0.259242 0.421905
0.327665 0.323200 0.406691
0.649604 0.487259 0.441847
0.896541 0.687587 0.512847
0.094236 0.349226 0.578482
0.213081 0.453609 0.621736
0.433427 0.545154 0.656715
0.681339 0.628506 0.663980
0.894957 0.750598 0.702395
0.161999 0.514203 0.703903
0.276887 0.611880 0.744067
0.492518 0.699687 0.784899
0.745668 0.772713 0.822619
0.898479 0.814668 0.830231
0.267083 0.660855 0.776594
0.381719 0.740686 0.810339
0.570235 0.807240 0.841610
0.785680 0.863029 0.873750
0.911094 0.891088 0.887020
