Assets/1__3DArt/KimSe/artstation_asset/LUTs_subway_asset/CUBE/Yellow Line 03_S.cube
# LUT by SparkleStock. Enhanced with VOXCOLOR algorithms.
LUT_3D_SIZE 32
0.019536 0.023443 0.031258
0.072614 0.049959 0.035653
0.125692 0.076474 0.040049
0.178770 0.102989 0.044444
0.231848 0.129505 0.048840
0.284927 0.156020 0.053236
0.342219 0.189271 0.060782
0.400354 0.223869 0.068959
0.458490 0.258466 0.077136
0.516625 0.293064 0.085313
0.574761 0.327662 0.093489
0.619410 0.358447 0.102485
0.657316 0.387325 0.111891
0.695222 0.416204 0.121297
0.733129 0.445083 0.130702
0.771035 0.473961 0.140108
0.799110 0.497877 0.148970
0.817354 0.516830 0.157289
0.835598 0.535783 0.165607
0.853842 0.554736 0.173926
0.872086 0.573689 0.182244
0.886959 0.590027 0.189980
0.895088 0.601134 0.196550
0.903218 0.612242 0.203119
0.911347 0.623349 0.209689
0.919477 0.634456 0.216259
0.927024 0.644893 0.222655
0.931655 0.651983 0.228185
0.936287 0.659073 0.233715
0.940919 0.666163 0.239245
0.945551 0.673252 0.244775
0.950183 0.680342 0.250305
0.028185 0.034503 0.033101
0.075134 0.057661 0.036673
0.122083 0.080819 0.040246
0.169032 0.103977 0.043818
0.215981 0.127136 0.047390
0.262930 0.150294 0.050962
0.318820 0.181681 0.057716
0.376498 0.214715 0.065106
0.434176 0.247748 0.072496
0.491854 0.280781 0.079886
0.549532 0.313815 0.087276
0.594755 0.343883 0.095821
0.633749 0.372469 0.104943
0.672744 0.401055 0.114065
0.711739 0.429641 0.123187
0.750734 0.458227 0.132309
0.780108 0.482399 0.141185
0.799862 0.502157 0.149815
0.819615 0.521915 0.158444
0.839369 0.541673 0.167074
0.859122 0.561431 0.175703
0.875461 0.578854 0.183915
0.884972 0.591608 0.191290
0.894483 0.604362 0.198664
0.903994 0.617116 0.206039
0.913505 0.629870 0.213414
0.922353 0.641994 0.220643
0.927891 0.650968 0.227143
0.933429 0.659942 0.233642
0.938966 0.668916 0.240142
0.944504 0.677890 0.246641
0.950041 0.686864 0.253141
0.036835 0.045563 0.034944
0.077655 0.065364 0.037693
0.118474 0.085165 0.040442
0.159294 0.104965 0.043191
0.200114 0.124766 0.045940
0.240934 0.144567 0.048689
0.295421 0.174091 0.054650
0.352642 0.205560 0.061253
0.409862 0.237029 0.067857
0.467083 0.268499 0.074460
0.524304 0.299968 0.081063
0.570099 0.329319 0.089157
0.610183 0.357613 0.097995
0.650266 0.385906 0.106834
0.690350 0.414199 0.115672
0.730433 0.442492 0.124511
0.761106 0.466920 0.133400
0.782369 0.487483 0.142341
0.803632 0.508047 0.151281
0.824895 0.528610 0.160222
0.846158 0.549173 0.169163
0.863964 0.567682 0.177850
0.874856 0.582082 0.186030
0.885748 0.596483 0.194209
0.896641 0.610883 0.202389
0.907533 0.625283 0.210569
0.917683 0.639094 0.218630
0.924127 0.649952 0.226100
0.930570 0.660811 0.233569
0.937013 0.671670 0.241038
0.943456 0.682528 0.248508
0.949900 0.693387 0.255977
0.045484 0.056623 0.036788
0.080175 0.073066 0.038713
0.114866 0.089510 0.040639
0.149556 0.105953 0.042565
0.184247 0.122397 0.044490
0.218938 0.138840 0.046416
0.272022 0.166502 0.051584
0.328785 0.196406 0.057401
0.385548 0.226311 0.063217
0.442312 0.256216 0.069034
0.499075 0.286121 0.074850
0.545444 0.314756 0.082492
0.586616 0.342756 0.091047
0.627788 0.370757 0.099602
0.668960 0.398757 0.108157
0.710132 0.426758 0.116712
0.742104 0.451442 0.125615
0.764877 0.472810 0.134867
0.787649 0.494178 0.144119
0.810421 0.515546 0.153370
0.833194 0.536915 0.162622
0.852466 0.556509 0.171785
0.864740 0.572556 0.180769
0.877014 0.588603 0.189754
0.889287 0.604650 0.198739
0.901561 0.620697 0.207724
0.913013 0.636194 0.216618
0.920362 0.648937 0.225057
0.927711 0.661680 0.233496
0.935060 0.674423 0.241935
0.942409 0.687166 0.250374
0.949758 0.699909 0.258813
0.054134 0.067683 0.038631
0.082695 0.080769 0.039733
0.111257 0.093855 0.040836
0.139818 0.106941 0.041938
0.168380 0.120028 0.043040
0.196941 0.133114 0.044143
0.248623 0.158912 0.048518
0.304929 0.187252 0.053548
0.361235 0.215593 0.058578
0.417540 0.243933 0.063607
0.473846 0.272274 0.068637
0.520789 0.300192 0.075828
0.563049 0.327900 0.084099
0.605310 0.355608 0.092371
0.647571 0.383315 0.100642
0.689831 0.411023 0.108913
0.723102 0.435964 0.117830
0.747384 0.458137 0.127393
0.771666 0.480310 0.136956
0.795948 0.502483 0.146518
0.820229 0.524656 0.156081
0.840969 0.545336 0.165719
0.854624 0.563030 0.175509
0.868279 0.580724 0.185299
0.881934 0.598417 0.195089
0.895589 0.616111 0.204879
0.908343 0.633294 0.214605
0.916598 0.647921 0.224014
0.924852 0.662549 0.233423
0.933107 0.677177 0.242831
0.941361 0.691804 0.252240
0.949616 0.706432 0.261649
0.062783 0.078743 0.040474
0.085215 0.088472 0.040753
0.107648 0.098201 0.041032
0.130080 0.107929 0.041311
0.152513 0.117658 0.041590
0.174945 0.127387 0.041869
0.225224 0.151322 0.045452
0.281072 0.178098 0.049695
0.336921 0.204874 0.053938
0.392769 0.231650 0.058181
0.448618 0.258427 0.062424
0.496133 0.285629 0.069164
0.539483 0.313044 0.077152
0.582832 0.340459 0.085139
0.626181 0.367874 0.093127
0.669530 0.395289 0.101115
0.704100 0.420485 0.110045
0.729892 0.443463 0.119919
0.755683 0.466442 0.129793
0.781474 0.489420 0.139667
0.807265 0.512398 0.149540
0.829471 0.534164 0.159654
0.844508 0.553504 0.170249
0.859544 0.572844 0.180844
0.874580 0.592185 0.191439
0.889616 0.611525 0.202034
0.903673 0.630394 0.212593
0.912833 0.646906 0.222971
0.921994 0.663418 0.233349
0.931154 0.679930 0.243728
0.940314 0.696442 0.254106
0.949474 0.712954 0.264485
0.087463 0.099610 0.044563
0.109667 0.109549 0.044986
0.131870 0.119489 0.045410
0.154074 0.129428 0.045834
0.176278 0.139367 0.046258
0.198481 0.149306 0.046682
0.242605 0.169756 0.049303
0.291112 0.192307 0.052363
0.339619 0.214858 0.055423
0.388126 0.237410 0.058483
0.436633 0.259961 0.061543
0.481930 0.285422 0.067663
0.525620 0.312339 0.075314
0.569311 0.339255 0.082965
0.613002 0.366172 0.090615
0.656693 0.393088 0.098266
0.691902 0.418129 0.107066
0.718631 0.441295 0.117014
0.745360 0.464460 0.126963
0.772089 0.487626 0.136911
0.798818 0.510792 0.146859
0.821944 0.532886 0.157160
0.837867 0.552836 0.168163
0.853789 0.572786 0.179166
0.869711 0.592737 0.190170
0.885633 0.612687 0.201173
0.900520 0.632194 0.212166
0.910235 0.649485 0.223102
0.919951 0.666776 0.234039
0.929666 0.684067 0.244975
0.939381 0.701359 0.255911
0.949096 0.718650 0.266848
0.115349 0.122439 0.049100
0.138504 0.133302 0.049862
0.161659 0.144165 0.050625
0.184814 0.155029 0.051387
0.207969 0.165892 0.052149
0.231124 0.176755 0.052912
0.268141 0.193394 0.054537
0.307930 0.211188 0.056334
0.347720 0.228983 0.058132
0.387509 0.246777 0.059929
0.427298 0.264572 0.061727
0.469816 0.288087 0.067195
0.513699 0.314464 0.074498
0.557582 0.340841 0.081801
0.601465 0.367217 0.089104
0.645348 0.393594 0.096408
0.681065 0.418397 0.105047
0.708617 0.441627 0.115023
0.736169 0.464857 0.124999
0.763722 0.488087 0.134975
0.791274 0.511316 0.144951
0.815212 0.533587 0.155379
0.831920 0.553940 0.166712
0.848629 0.574293 0.178044
0.865338 0.594645 0.189377
0.882047 0.614998 0.200710
0.897671 0.634934 0.212056
0.907871 0.652783 0.223468
0.918071 0.670632 0.234880
0.928271 0.688481 0.246292
0.938471 0.706331 0.257704
0.948671 0.724180 0.269117
0.143235 0.145268 0.053637
0.167342 0.157055 0.054738
0.191448 0.168842 0.055839
0.215555 0.180629 0.056940
0.239661 0.192416 0.058041
0.263768 0.204203 0.059141
0.293678 0.217033 0.059771
0.324749 0.230070 0.060306
0.355820 0.243107 0.060841
0.386891 0.256145 0.061376
0.417962 0.269182 0.061911
0.457703 0.290753 0.066727
0.501778 0.316589 0.073682
0.545853 0.342426 0.080638
0.589928 0.368263 0.087593
0.634003 0.394100 0.094549
0.670228 0.418666 0.103028
0.698603 0.441959 0.113032
0.726979 0.465253 0.123035
0.755354 0.488547 0.133038
0.783730 0.511841 0.143042
0.808479 0.534289 0.153598
0.825974 0.555044 0.165260
0.843470 0.575799 0.176922
0.860965 0.596554 0.188584
0.878461 0.617310 0.200246
0.894821 0.637673 0.211946
0.905506 0.656081 0.223834
0.916191 0.674488 0.235722
0.926876 0.692895 0.247610
0.937560 0.711302 0.259497
0.948245 0.729710 0.271385
0.171121 0.168096 0.058175
0.196179 0.180808 0.059614
0.221237 0.193519 0.061053
0.246295 0.206230 0.062493
0.271353 0.218941 0.063932
0.296411 0.231652 0.065371
0.319214 0.240671 0.065005
0.341568 0.248951 0.064278
0.363921 0.257232 0.063551
0.386274 0.265512 0.062823
0.408627 0.273793 0.062096
0.445589 0.293418 0.066259
0.489856 0.318715 0.072867
0.534123 0.344012 0.079475
0.578390 0.369309 0.086082
0.622658 0.394607 0.092690
0.659390 0.418934 0.101010
0.688589 0.442292 0.111040
0.717788 0.465650 0.121071
0.746987 0.489008 0.131102
0.776186 0.512365 0.141133
0.801746 0.534990 0.151817
0.820028 0.556148 0.163809
0.838310 0.577305 0.175800
0.856592 0.598463 0.187792
0.874875 0.619621 0.199783
0.891972 0.640413 0.211836
0.903141 0.659379 0.224200
0.914311 0.678344 0.236563
0.925481 0.697309 0.248927
0.936650 0.716274 0.261290
0.947820 0.735240 0.273654
0.199007 0.190925 0.062712
0.225017 0.204560 0.064490
0.251026 0.218195 0.066268
0.277035 0.231830 0.068045
0.303044 0.245465 0.069823
0.329054 0.259101 0.071601
0.344751 0.264309 0.070239
0.358386 0.267833 0.068250
0.372021 0.271356 0.066260
0.385656 0.274880 0.064270
0.399291 0.278403 0.062280
0.433476 0.296083 0.065791
0.477935 0.320840 0.072051
0.522394 0.345598 0.078311
0.566853 0.370355 0.084572
0.611312 0.395113 0.090832
0.648553 0.419202 0.098991
0.678575 0.442624 0.109049
0.708597 0.466046 0.119107
0.738620 0.489468 0.129166
0.768642 0.512890 0.139224
0.795013 0.535691 0.150036
0.814082 0.557251 0.162357
0.833151 0.578812 0.174678
0.852220 0.600372 0.186999
0.871289 0.621932 0.199319
0.889122 0.643153 0.211727
0.900776 0.662676 0.224566
0.912431 0.682200 0.237405
0.924085 0.701723 0.250244
0.935740 0.721246 0.263083
0.947395 0.740770 0.275923
0.235496 0.221537 0.070117
0.260999 0.235004 0.072020
0.286502 0.248472 0.073923
0.312005 0.261939 0.075825
0.337508 0.275406 0.077728
0.363011 0.288874 0.079631
0.376492 0.293460 0.078341
0.387569 0.296270 0.076412
0.398645 0.299080 0.074483
0.409722 0.301890 0.072555
0.420799 0.304700 0.070626
0.450729 0.319578 0.073258
0.490087 0.340490 0.078171
0.529445 0.361402 0.083083
0.568802 0.382315 0.087995
0.608160 0.403227 0.092908
0.643005 0.425307 0.100325
0.673339 0.448555 0.110246
0.703672 0.471803 0.120167
0.734005 0.495051 0.130088
0.764338 0.518299 0.140009
0.791061 0.540987 0.150766
0.810563 0.562553 0.163197
0.830065 0.584120 0.175627
0.849567 0.605686 0.188058
0.869069 0.627252 0.200488
0.887305 0.648482 0.213020
0.899213 0.668026 0.226054
0.911120 0.687571 0.239088
0.923028 0.707116 0.252123
0.934936 0.726660 0.265157
0.946843 0.746205 0.278191
0.276285 0.256040 0.078955
0.300553 0.268794 0.080877
0.324821 0.281548 0.082798
0.349089 0.294301 0.084719
0.373357 0.307055 0.086640
0.397625 0.319809 0.088561
0.411335 0.325366 0.087876
0.422933 0.329485 0.086670
0.434531 0.333603 0.085464
0.446129 0.337721 0.084258
0.457728 0.341839 0.083052
0.482666 0.353488 0.084693
0.514276 0.368902 0.087758
0.545885 0.384317 0.090822
0.577494 0.399731 0.093887
0.609104 0.415145 0.096951
0.640102 0.434330 0.103334
0.670491 0.457285 0.113036
0.700879 0.480241 0.122737
0.731267 0.503196 0.132439
0.761655 0.526151 0.142140
0.788499 0.548580 0.152751
0.808258 0.569954 0.165182
0.828016 0.591328 0.177612
0.847774 0.612702 0.190043
0.867532 0.634077 0.202474
0.886004 0.655105 0.215014
0.898049 0.674403 0.228103
0.910094 0.693700 0.241192
0.922139 0.712998 0.254282
0.934184 0.732296 0.267371
0.946229 0.751593 0.280460
0.317074 0.290543 0.087794
0.340107 0.302583 0.089733
0.363141 0.314624 0.091673
0.386174 0.326664 0.093612
0.409207 0.338704 0.095551
0.432240 0.350744 0.097491
0.446178 0.357273 0.097411
0.458298 0.362699 0.096928
0.470417 0.368126 0.096445
0.482537 0.373552 0.095961
0.494656 0.378978 0.095478
0.514604 0.387398 0.096128
0.538465 0.397314 0.097345
0.562326 0.407231 0.098561
0.586187 0.417147 0.099778
0.610048 0.427064 0.100995
0.637199 0.443353 0.106344
0.667642 0.466016 0.115826
0.698085 0.488678 0.125308
0.728528 0.511341 0.134790
0.758971 0.534003 0.144272
0.785938 0.556173 0.154736
0.805952 0.577355 0.167167
0.825967 0.598537 0.179597
0.845981 0.619719 0.192028
0.865995 0.640901 0.204459
0.884704 0.661728 0.217008
0.896886 0.680779 0.230152
0.909068 0.699829 0.243296
0.921250 0.718880 0.256440
0.933432 0.737931 0.269585
0.945614 0.756981 0.282729
0.357864 0.325046 0.096632
0.379662 0.336373 0.098590
0.401460 0.347700 0.100548
0.423258 0.359026 0.102505
0.445056 0.370353 0.104463
0.466854 0.381680 0.106421
0.481021 0.389180 0.106946
0.493662 0.395914 0.107186
0.506303 0.402649 0.107425
0.518944 0.409383 0.107665
0.531585 0.416117 0.107904
0.546541 0.421308 0.107563
0.562653 0.425726 0.106932
0.578766 0.430145 0.106301
0.594879 0.434563 0.105669
0.610991 0.438982 0.105038
0.634297 0.452376 0.109354
0.664794 0.474746 0.118616
0.695292 0.497116 0.127878
0.725790 0.519486 0.137141
0.756288 0.541855 0.146403
0.783377 0.563765 0.156721
0.803647 0.584755 0.169152
0.823917 0.605745 0.181583
0.844188 0.626735 0.194013
0.864458 0.647726 0.206444
0.883403 0.668351 0.219002
0.895723 0.687155 0.232201
0.908042 0.705959 0.245400
0.920361 0.724762 0.258599
0.932681 0.743566 0.271798
0.945000 0.762370 0.284997
0.398653 0.359549 0.105471
0.419216 0.370163 0.107447
0.439779 0.380776 0.109423
0.460342 0.391389 0.111399
0.480905 0.402002 0.113375
0.501469 0.412615 0.115351
0.515865 0.421086 0.116482
0.529027 0.429129 0.117444
0.542189 0.437172 0.118406
0.555352 0.445214 0.119368
0.568514 0.453257 0.120330
0.578478 0.455218 0.118998
0.586842 0.454139 0.116519
0.595206 0.453059 0.114040
0.603571 0.451980 0.111561
0.611935 0.450900 0.109082
0.631394 0.461399 0.112363
0.661946 0.483476 0.121406
0.692499 0.505553 0.130449
0.723052 0.527630 0.139492
0.753604 0.549707 0.148534
0.780815 0.571358 0.158707
0.801342 0.592156 0.171137
0.821868 0.612954 0.183568
0.842395 0.633752 0.195998
0.862921 0.654550 0.208429
0.882103 0.674974 0.220997
0.894559 0.693531 0.234251
0.907016 0.712088 0.247504
0.919472 0.730644 0.260758
0.931929 0.749201 0.274012
0.944385 0.767758 0.287266
0.438048 0.395943 0.116342
0.457221 0.405678 0.118267
0.476393 0.415413 0.120193
0.495566 0.425148 0.122119
0.514739 0.434883 0.124044
0.533911 0.444618 0.125970
0.548011 0.453305 0.127443
0.561095 0.461782 0.128826
0.574180 0.470259 0.130209
0.587264 0.478736 0.131592
0.600349 0.487213 0.132975
0.607866 0.487929 0.131429
0.612598 0.484764 0.128420
0.617331 0.481598 0.125410
0.622063 0.478433 0.122400
0.626796 0.475268 0.119391
0.643128 0.483354 0.121792
0.671060 0.502691 0.129604
0.698992 0.522029 0.137417
0.726924 0.541366 0.145229
0.754855 0.560703 0.153041
0.780314 0.580419 0.162340
0.800827 0.600892 0.174610
0.821340 0.621366 0.186881
0.841853 0.641839 0.199151
0.862366 0.662312 0.211422
0.881535 0.682397 0.223839
0.893987 0.700542 0.236987
0.906439 0.718687 0.250136
0.918891 0.736832 0.263285
0.931343 0.754977 0.276433
0.943795 0.773122 0.289582
0.476049 0.434227 0.129245
0.493675 0.442920 0.131052
0.511302 0.451612 0.132858
0.528929 0.460304 0.134665
0.546555 0.468996 0.136472
0.564182 0.477688 0.138279
0.577459 0.485835 0.139831
0.589867 0.493873 0.141333
0.602275 0.501911 0.142835
0.614683 0.509949 0.144337
0.627090 0.517987 0.145838
0.634704 0.519441 0.144857
0.639922 0.517602 0.142634
0.645139 0.515763 0.140411
0.650357 0.513924 0.138188
0.655574 0.512086 0.135965
0.669500 0.518241 0.137639
0.692135 0.532392 0.143210
0.714771 0.546542 0.148781
0.737406 0.560693 0.154353
0.760041 0.574843 0.159924
0.781874 0.590949 0.167621
0.802103 0.610964 0.179572
0.822333 0.630980 0.191522
0.842562 0.650996 0.203472
0.862791 0.671012 0.215422
0.881700 0.690620 0.227528
0.894005 0.708188 0.240412
0.906311 0.725757 0.253295
0.918616 0.743326 0.266179
0.930922 0.760894 0.279062
0.943227 0.778463 0.291945
0.514049 0.472512 0.142148
0.530130 0.480161 0.143836
0.546211 0.487810 0.145524
0.562291 0.495459 0.147212
0.578372 0.503109 0.148899
0.594453 0.510758 0.150587
0.606908 0.518365 0.152219
0.618639 0.525964 0.153840
0.630370 0.533563 0.155461
0.642101 0.541162 0.157081
0.653831 0.548761 0.158702
0.661543 0.550952 0.158285
0.667245 0.550440 0.156848
0.672948 0.549928 0.155412
0.678650 0.549415 0.153976
0.684352 0.548903 0.152540
0.695872 0.553129 0.153487
0.713211 0.562092 0.156816
0.730549 0.571056 0.160146
0.747888 0.580019 0.163476
0.765226 0.588983 0.166806
0.783434 0.601478 0.172903
0.803379 0.621036 0.184533
0.823325 0.640595 0.196163
0.843271 0.660153 0.207793
0.863216 0.679711 0.219423
0.881864 0.698842 0.231218
0.894023 0.715835 0.243836
0.906183 0.732827 0.256454
0.918342 0.749819 0.269072
0.930501 0.766812 0.281690
0.942660 0.783804 0.294309
0.552050 0.510796 0.155051
0.566585 0.517402 0.156620
0.581119 0.524009 0.158189
0.595654 0.530615 0.159758
0.610189 0.537221 0.161327
0.624723 0.543828 0.162896
0.636357 0.550895 0.164607
0.647411 0.558055 0.166347
0.658465 0.565215 0.168086
0.669519 0.572375 0.169826
0.680572 0.579535 0.171566
0.688382 0.582464 0.171712
0.694569 0.583278 0.171063
0.700756 0.584092 0.170413
0.706943 0.584907 0.169764
0.713130 0.585721 0.169114
0.722244 0.588016 0.169334
0.734286 0.591793 0.170423
0.746328 0.595569 0.171511
0.758370 0.599346 0.172600
0.770412 0.603123 0.173688
0.784994 0.612007 0.178184
0.804656 0.631108 0.189494
0.824318 0.650209 0.200804
0.843980 0.669310 0.212114
0.863642 0.688411 0.223424
0.882029 0.707065 0.234908
0.894042 0.723481 0.247260
0.906055 0.739897 0.259613
0.918067 0.756313 0.271966
0.930080 0.772729 0.284319
0.942093 0.789145 0.296672
0.590051 0.549080 0.167955
0.603039 0.554644 0.169405
0.616028 0.560207 0.170855
0.629017 0.565771 0.172304
0.642005 0.571334 0.173754
0.654994 0.576898 0.175204
0.665806 0.583426 0.176995
0.676183 0.590146 0.178853
0.686560 0.596867 0.180712
0.696937 0.603588 0.182571
0.707313 0.610309 0.184429
0.715220 0.613976 0.185140
0.721892 0.616116 0.185277
0.728564 0.618257 0.185415
0.735236 0.620398 0.185552
0.741908 0.622538 0.185689
0.748617 0.622903 0.185181
0.755362 0.621493 0.184029
0.762107 0.620083 0.182876
0.768852 0.618673 0.181723
0.775597 0.617262 0.180571
0.786553 0.622537 0.183466
0.805932 0.641180 0.194455
0.825310 0.659824 0.205445
0.844689 0.678467 0.216435
0.864067 0.697111 0.227425
0.882194 0.715287 0.238597
0.894060 0.731127 0.250685
0.905926 0.746967 0.262772
0.917793 0.762806 0.274860
0.929659 0.778646 0.286947
0.941526 0.794486 0.299035
0.623168 0.585316 0.181551
0.634824 0.589962 0.182873
0.646480 0.594608 0.184195
0.658136 0.599253 0.185517
0.669792 0.603899 0.186839
0.681448 0.608545 0.188160
0.691486 0.614457 0.189952
0.701202 0.620623 0.191838
0.710917 0.626789 0.193724
0.720632 0.632954 0.195610
0.730347 0.639120 0.197497
0.738206 0.643153 0.198589
0.745137 0.646120 0.199284
0.752068 0.649087 0.199979
0.759000 0.652054 0.200674
0.765931 0.655021 0.201370
0.771067 0.654238 0.200490
0.774409 0.649706 0.198035
0.777751 0.645173 0.195581
0.781093 0.640640 0.193126
0.784435 0.636107 0.190671
0.792741 0.638751 0.192373
0.810973 0.655748 0.202387
0.829205 0.672745 0.212401
0.847437 0.689742 0.222415
0.865669 0.706739 0.232429
0.882802 0.723446 0.242733
0.894446 0.738703 0.254488
0.906090 0.753960 0.266243
0.917734 0.769218 0.277998
0.929378 0.784475 0.289753
0.941022 0.799732 0.301509
0.646516 0.617456 0.196534
0.657267 0.621434 0.197709
0.668017 0.625412 0.198885
0.678767 0.629390 0.200060
0.689518 0.633368 0.201236
0.700268 0.637346 0.202412
0.709630 0.642491 0.204050
0.718714 0.647870 0.205780
0.727798 0.653249 0.207510
0.736882 0.658628 0.209241
0.745966 0.664007 0.210971
0.753486 0.667662 0.212079
0.760225 0.670455 0.212875
0.766964 0.673249 0.213671
0.773703 0.676042 0.214467
0.780442 0.678835 0.215262
0.785675 0.678468 0.214721
0.789401 0.674942 0.212843
0.793128 0.671415 0.210964
0.796854 0.667889 0.209086
0.800580 0.664362 0.207208
0.808184 0.666335 0.208531
0.823544 0.679307 0.216258
0.838903 0.692279 0.223985
0.854263 0.705251 0.231712
0.869622 0.718222 0.239439
0.884300 0.731476 0.247760
0.895568 0.746139 0.259048
0.906837 0.760801 0.270337
0.918106 0.775464 0.281625
0.929375 0.790127 0.292914
0.940644 0.804789 0.304203
0.669865 0.649596 0.211517
0.679710 0.652906 0.212546
0.689554 0.656216 0.213575
0.699399 0.659526 0.214604
0.709244 0.662836 0.215633
0.719089 0.666147 0.216663
0.727773 0.670525 0.218147
0.736226 0.675117 0.219722
0.744679 0.679710 0.221296
0.753132 0.684302 0.222871
0.761584 0.688894 0.224446
0.768767 0.692171 0.225569
0.775313 0.694791 0.226466
0.781860 0.697410 0.227362
0.788407 0.700029 0.228259
0.794954 0.702649 0.229155
0.800283 0.702698 0.228952
0.804393 0.700178 0.227650
0.808504 0.697658 0.226348
0.812614 0.695137 0.225046
0.816725 0.692617 0.223744
0.823627 0.693919 0.224689
0.836114 0.702866 0.230129
0.848601 0.711813 0.235569
0.861088 0.720759 0.241009
0.873575 0.729706 0.246449
0.885797 0.739506 0.252786
0.896691 0.753575 0.263608
0.907584 0.767643 0.274431
0.918478 0.781711 0.285253
0.929372 0.795779 0.296075
0.940265 0.809847 0.306897
0.693214 0.681736 0.226500
0.702153 0.684378 0.227382
0.711092 0.687021 0.228265
0.720031 0.689663 0.229148
0.728970 0.692305 0.230031
0.737909 0.694947 0.230914
0.745917 0.698559 0.232244
0.753738 0.702365 0.233663
0.761560 0.706170 0.235083
0.769381 0.709976 0.236502
0.777203 0.713781 0.237921
0.784047 0.716680 0.239059
0.790401 0.719126 0.240056
0.796756 0.721571 0.241054
0.803111 0.724017 0.242051
0.809466 0.726462 0.243048
0.814891 0.726928 0.243184
0.819385 0.725414 0.242458
0.823880 0.723900 0.241732
0.828375 0.722386 0.241006
0.832869 0.720872 0.240281
0.839071 0.721503 0.240848
0.848685 0.726425 0.244001
0.858300 0.731347 0.247154
0.867914 0.736268 0.250307
0.877529 0.741190 0.253460
0.887294 0.747537 0.257813
0.897813 0.761010 0.268169
0.908331 0.774484 0.278524
0.918850 0.787957 0.288880
0.929369 0.801431 0.299235
0.939887 0.814904 0.309591
0.716562 0.713876 0.241483
0.724596 0.715851 0.242219
0.732629 0.717825 0.242955
0.740663 0.719799 0.243692
0.748696 0.721774 0.244428
0.756730 0.723748 0.245165
0.764060 0.726593 0.246341
0.771251 0.729612 0.247605
0.778441 0.732631 0.248869
0.785631 0.735650 0.250132
0.792822 0.738668 0.251396
0.799327 0.741189 0.252550
0.805490 0.743461 0.253647
0.811652 0.745733 0.254745
0.817815 0.748004 0.255843
0.823978 0.750276 0.256941
0.829498 0.751158 0.257415
0.834377 0.750650 0.257265
0.839256 0.750143 0.257116
0.844135 0.749635 0.256967
0.849014 0.749127 0.256817
0.854514 0.749088 0.257006
0.861256 0.749984 0.257872
0.867998 0.750881 0.258738
0.874740 0.751777 0.259604
0.881482 0.752674 0.260470
0.888791 0.755567 0.262840
0.898935 0.768446 0.272729
0.909078 0.781325 0.282618
0.919222 0.794204 0.292507
0.929366 0.807083 0.302396
0.939509 0.819961 0.312285
0.737627 0.743889 0.256371
0.744864 0.745287 0.256973
0.752102 0.746685 0.257575
0.759339 0.748083 0.258178
0.766577 0.749482 0.258780
0.773814 0.750880 0.259382
0.780536 0.753022 0.260396
0.787155 0.755314 0.261492
0.793773 0.757605 0.262588
0.800392 0.759897 0.263685
0.807010 0.762189 0.264781
0.813192 0.764329 0.265912
0.819155 0.766393 0.267060
0.825118 0.768458 0.268208
0.831081 0.770522 0.269356
0.837044 0.772586 0.270504
0.842614 0.773782 0.271242
0.847792 0.774108 0.271570
0.852970 0.774434 0.271898
0.858147 0.774760 0.272225
0.863325 0.775087 0.272553
0.868229 0.774512 0.272437
0.872585 0.772135 0.271434
0.876941 0.769758 0.270431
0.881297 0.767381 0.269428
0.885653 0.765004 0.268424
0.890892 0.765021 0.269121
0.900548 0.777010 0.278318
0.910203 0.788998 0.287515
0.919859 0.800987 0.296711
0.929515 0.812975 0.305908
0.939171 0.824964 0.315105
0.747269 0.763268 0.270787
0.754259 0.764547 0.271316
0.761250 0.765826 0.271845
0.768240 0.767105 0.272374
0.775231 0.768384 0.272903
0.782221 0.769664 0.273432
0.788673 0.771428 0.274243
0.795017 0.773290 0.275111
0.801362 0.775151 0.275978
0.807706 0.777013 0.276846
0.814050 0.778875 0.277713
0.819981 0.780621 0.278633
0.825706 0.782311 0.279580
0.831431 0.784000 0.280527
0.837157 0.785689 0.281474
0.842882 0.787379 0.282421
0.848269 0.788373 0.283049
0.853319 0.788671 0.283358
0.858368 0.788970 0.283668
0.863418 0.789269 0.283977
0.868468 0.789568 0.284287
0.873301 0.789137 0.284232
