Assets/1__3DArt/KimSe/artstation_asset/LUTs_subway_asset/CUBE/Yellow Line 01.cube
# LUT by SparkleStock. Enhanced with VOXCOLOR algorithms.
LUT_3D_SIZE 8
DOMAIN_MIN 0.000000 0.000000 0.000000
DOMAIN_MAX 0.903226 0.903226 0.903226
0.085958 0.074237 0.062515
0.252708 0.160826 0.082934
0.428162 0.265091 0.102682
0.583016 0.368601 0.119950
0.696640 0.456489 0.133562
0.758651 0.513774 0.143204
0.793722 0.546481 0.151113
0.817976 0.567411 0.158573
0.117342 0.110536 0.067620
0.212664 0.152922 0.080427
0.371432 0.238489 0.097645
0.536410 0.340571 0.114900
0.665879 0.437223 0.129116
0.741941 0.508267 0.139490
0.786672 0.553878 0.148374
0.817726 0.585085 0.157255
0.189570 0.171074 0.076474
0.272353 0.208965 0.086958
0.373302 0.253707 0.098927
0.498094 0.323968 0.112274
0.638366 0.423500 0.126212
0.726613 0.505503 0.136799
0.780088 0.562170 0.146487
0.816992 0.601713 0.156629
0.295474 0.256166 0.088920
0.377343 0.297131 0.098343
0.434756 0.317196 0.106141
0.507928 0.350427 0.114782
0.615760 0.417195 0.125458
0.713107 0.505345 0.135557
0.773953 0.570782 0.145641
0.815981 0.617261 0.156707
0.424389 0.363197 0.104518
0.487229 0.394446 0.111562
0.542851 0.422914 0.118148
0.581680 0.433350 0.123511
0.610391 0.431626 0.127977
0.703731 0.510262 0.136302
0.768514 0.579756 0.146045
0.814887 0.631785 0.157521
0.549167 0.480980 0.122100
0.589906 0.499056 0.126509
0.629958 0.519949 0.131083
0.664444 0.535606 0.135239
0.690686 0.540890 0.138571
0.710989 0.536243 0.140894
0.765428 0.591733 0.148417
0.813997 0.645519 0.159381
0.638497 0.585687 0.142046
0.665307 0.594615 0.144064
0.692518 0.606084 0.146524
0.718271 0.616847 0.149075
0.740549 0.623390 0.151319
0.754411 0.617548 0.152277
0.780435 0.630942 0.154896
0.814098 0.661327 0.162918
0.694316 0.668935 0.166663
0.714540 0.673009 0.166339
0.733873 0.677386 0.166271
0.752578 0.681894 0.166618
0.770642 0.685970 0.167336
0.786785 0.686946 0.167616
0.799701 0.681747 0.167333
0.820670 0.690955 0.170983
0.086715 0.075749 0.075371
0.162863 0.114037 0.085983
0.310128 0.188144 0.102871
0.477253 0.280737 0.121602
0.623737 0.376273 0.138746
0.718095 0.455806 0.152047
0.774657 0.514054 0.163127
0.812366 0.557220 0.173978
0.100973 0.109121 0.106529
0.158726 0.150232 0.126301
0.300279 0.228187 0.147155
0.468727 0.324310 0.167337
0.619043 0.421910 0.185368
0.717027 0.500470 0.199288
0.776224 0.556325 0.211325
0.816167 0.597671 0.223167
0.193711 0.205611 0.148694
0.244681 0.230097 0.148318
0.335888 0.273144 0.158057
0.463423 0.343386 0.174089
0.611848 0.438912 0.192707
0.712877 0.519801 0.208573
0.774943 0.578584 0.223508
0.817293 0.622250 0.239044
0.324278 0.323879 0.182559
0.370820 0.331383 0.161471
0.420545 0.345989 0.160170
0.496652 0.382396 0.170033
0.606711 0.447674 0.184533
0.708746 0.530054 0.201932
0.773025 0.592756 0.219992
0.817350 0.639709 0.239927
0.459779 0.434752 0.196894
0.498511 0.437144 0.173130
0.543828 0.453850 0.170138
0.582452 0.465817 0.174837
0.616248 0.472274 0.179880
0.708384 0.544376 0.195787
0.772136 0.607381 0.215619
0.817518 0.656265 0.239095
0.575775 0.535118 0.200279
0.606797 0.540540 0.187365
0.640260 0.553355 0.186534
0.671643 0.565906 0.190271
0.698266 0.572954 0.193372
0.721784 0.573897 0.196026
0.773191 0.623694 0.213751
0.818157 0.672247 0.238792
0.653762 0.619113 0.204807
0.679486 0.628665 0.208275
0.704150 0.637760 0.211515
0.727560 0.645944 0.214436
0.748939 0.651860 0.216798
0.764109 0.649001 0.217444
0.789474 0.662121 0.222746
0.820268 0.689901 0.241351
0.702007 0.686859 0.216775
0.724081 0.699153 0.237978
0.743823 0.705911 0.245739
0.762179 0.710118 0.247751
0.779717 0.713615 0.249314
0.795714 0.714785 0.249840
0.808948 0.711054 0.248543
0.828273 0.719737 0.256235
0.088141 0.077931 0.088897
0.130916 0.097880 0.094264
0.250236 0.152772 0.109255
0.408482 0.232807 0.128543
0.570640 0.327412 0.147843
0.687600 0.418617 0.163974
0.760055 0.492782 0.177656
0.808020 0.550546 0.191379
0.096990 0.110657 0.131386
0.141173 0.151319 0.155379
0.256970 0.215747 0.175462
0.412065 0.299060 0.194862
0.574513 0.393854 0.215033
0.692299 0.479871 0.231508
0.765246 0.547060 0.245633
0.813692 0.599098 0.259790
0.147854 0.183617 0.187734
0.190755 0.223187 0.205568
0.282237 0.277746 0.227391
0.416175 0.352344 0.250446
0.575705 0.444965 0.272450
0.694337 0.527859 0.291137
0.768431 0.591241 0.307693
0.817825 0.639960 0.324002
0.257924 0.305748 0.252400
0.300824 0.330297 0.248058
0.367994 0.365424 0.260006
0.462956 0.414952 0.278068
0.582257 0.480577 0.295855
0.697489 0.560435 0.317527
0.770853 0.622101 0.338577
0.820246 0.669571 0.360185
0.422548 0.466625 0.313682
0.467623 0.471633 0.282798
0.522232 0.487006 0.273601
0.568873 0.500202 0.274939
0.607383 0.512398 0.280820
0.705539 0.580751 0.302778
0.773672 0.640272 0.329258
0.821303 0.687769 0.359235
0.558377 0.579225 0.325678
0.597451 0.581555 0.294648
0.637836 0.590328 0.285726
0.672704 0.600241 0.287237
0.699178 0.607694 0.290599
0.726232 0.612760 0.293898
0.778667 0.659424 0.320164
0.823379 0.705303 0.356071
0.647242 0.657905 0.321355
0.679174 0.663020 0.304009
0.709501 0.671836 0.307314
0.735502 0.680310 0.315607
0.755752 0.685306 0.318659
0.771668 0.684258 0.319482
0.797411 0.697418 0.327584
0.827210 0.724249 0.356039
0.701273 0.715674 0.317871
0.727068 0.724138 0.320727
0.751570 0.735501 0.342134
0.772764 0.744373 0.360528
0.789864 0.747763 0.363738
0.805517 0.748895 0.365055
0.818749 0.746179 0.363626
0.837047 0.754942 0.376092
0.090236 0.080862 0.103880
0.124181 0.095053 0.105819
0.220259 0.137899 0.118558
0.364804 0.208638 0.138186
0.535653 0.302216 0.160664
0.666384 0.397935 0.179161
0.749743 0.480841 0.194935
0.804954 0.547195 0.211012
0.099048 0.114917 0.153895
0.139717 0.155006 0.179409
0.231749 0.205997 0.195646
0.370917 0.277670 0.212642
0.540989 0.371540 0.235417
0.672744 0.462088 0.253777
0.756479 0.537755 0.269370
0.811752 0.597882 0.285235
0.110591 0.161542 0.217984
0.153401 0.216553 0.253284
0.243814 0.278943 0.284412
0.379028 0.354868 0.311425
0.544827 0.444761 0.334624
0.677747 0.529557 0.354613
0.762544 0.597656 0.371335
0.818208 0.651092 0.387097
0.173717 0.260167 0.299837
0.219682 0.312406 0.323864
0.304129 0.371252 0.354524
0.419264 0.435757 0.383027
0.554385 0.505661 0.404858
0.683954 0.584566 0.427922
0.767801 0.646660 0.448368
0.823010 0.695067 0.467538
0.312175 0.424183 0.393468
0.364508 0.455536 0.385925
0.435453 0.489038 0.389769
0.510004 0.520705 0.401489
0.584144 0.553401 0.418662
0.695164 0.619951 0.442765
0.772825 0.677277 0.469342
0.825755 0.723288 0.497115
0.483461 0.587084 0.452253
0.536244 0.599849 0.421787
0.593299 0.614979 0.410861
0.647522 0.630865 0.412539
0.693207 0.645492 0.420072
0.724116 0.653457 0.423938
0.781438 0.698017 0.453320
0.828949 0.741922 0.492112
0.602600 0.684567 0.459794
0.646576 0.690468 0.428081
0.690324 0.701600 0.425801
0.729454 0.713547 0.435764
0.760181 0.722359 0.444813
0.776421 0.722335 0.446239
0.803794 0.735421 0.455780
0.834272 0.761635 0.489061
0.678753 0.745971 0.450671
0.713172 0.750269 0.429956
0.747011 0.763366 0.449301
0.776681 0.776962 0.477719
0.799724 0.785165 0.493812
0.814891 0.786241 0.496353
0.828089 0.784202 0.495462
0.845946 0.793089 0.511107
0.092906 0.084454 0.121060
0.119661 0.093395 0.119414
0.199309 0.128047 0.128813
0.334306 0.194276 0.148572
0.511234 0.290295 0.175686
0.652686 0.389142 0.197330
0.743382 0.476351 0.215046
0.803072 0.546845 0.233033
0.102597 0.121582 0.182071
0.140056 0.160458 0.206747
0.216377 0.201654 0.217265
0.344512 0.266434 0.231136
0.518298 0.362555 0.257146
0.660689 0.456303 0.278157
0.751676 0.535941 0.295161
0.811266 0.599798 0.312199
0.114500 0.172617 0.256197
0.154739 0.227019 0.290828
0.236541 0.284353 0.318792
0.362770 0.354088 0.342362
0.524519 0.439701 0.363658
0.667228 0.526764 0.385191
0.758956 0.598337 0.402273
0.818532 0.655082 0.418234
0.127031 0.232914 0.332926
0.167558 0.296497 0.371492
0.253818 0.366501 0.413433
0.379009 0.440435 0.449585
0.530870 0.516636 0.475241
0.672431 0.596103 0.497786
0.764945 0.659682 0.515730
0.824889 0.709391 0.531184
0.161133 0.317766 0.412561
0.204950 0.385103 0.450438
0.288587 0.452979 0.487502
0.407788 0.522139 0.526536
0.551650 0.592209 0.566215
0.680286 0.658252 0.587809
0.770457 0.713649 0.607772
0.830290 0.757247 0.625266
0.348996 0.539837 0.539955
0.409579 0.576984 0.537714
0.486585 0.611868 0.537796
0.576633 0.646690 0.546493
0.668760 0.680024 0.564330
0.713901 0.694409 0.571084
0.781209 0.737593 0.596651
0.834161 0.778891 0.627928
0.507672 0.681120 0.586696
0.565828 0.699649 0.565361
0.628475 0.717558 0.554195
0.692991 0.737244 0.559600
0.752466 0.757431 0.580055
0.776447 0.761215 0.584502
0.808050 0.774387 0.593537
0.840721 0.799290 0.623788
0.621672 0.766492 0.592317
0.670580 0.774634 0.566815
0.718502 0.785828 0.562483
0.763971 0.801790 0.582978
0.803561 0.820443 0.621437
0.822068 0.823526 0.627780
0.835974 0.822223 0.628250
0.853933 0.830824 0.643788
0.095742 0.088046 0.142046
0.117228 0.092888 0.136301
0.183001 0.120229 0.142120
0.299422 0.176846 0.159001
0.463250 0.265876 0.185419
0.641294 0.385654 0.216870
0.740650 0.477571 0.238172
0.802066 0.549132 0.257946
0.107336 0.130297 0.216230
0.142018 0.168021 0.238960
0.205031 0.200195 0.242995
0.313749 0.252163 0.249615
0.472863 0.339184 0.271955
0.651167 0.455222 0.303566
0.750795 0.539701 0.323344
0.812040 0.604512 0.341158
0.120623 0.188425 0.302389
0.158572 0.241330 0.334017
0.232562 0.292773 0.356546
0.343009 0.351002 0.372386
0.487751 0.424191 0.386356
0.660716 0.529687 0.416071
0.759835 0.604895 0.434512
0.820818 0.662136 0.450159
0.133959 0.256565 0.389095
0.171667 0.316574 0.422184
0.254543 0.383291 0.460036
0.370326 0.449752 0.490514
0.509200 0.515253 0.508831
0.669487 0.603605 0.533505
0.767077 0.668591 0.550760
0.828022 0.718235 0.564828
0.149161 0.331683 0.467924
0.187935 0.396933 0.502860
0.268844 0.464274 0.539393
0.388080 0.533896 0.578694
0.535809 0.604901 0.617992
0.677407 0.671686 0.636602
0.772378 0.726530 0.653289
0.833527 0.769279 0.667099
0.183777 0.421584 0.534576
0.227079 0.486786 0.567921
0.305975 0.549592 0.599579
0.418192 0.611600 0.632528
0.555519 0.672527 0.667278
0.685690 0.724029 0.695185
0.777270 0.771210 0.714889
0.837729 0.808927 0.731113
0.346429 0.607436 0.635351
0.405945 0.649885 0.644598
0.482969 0.688823 0.653916
0.575311 0.726472 0.667606
0.676734 0.763362 0.687673
0.762252 0.793422 0.709834
0.808214 0.810186 0.718572
0.844828 0.832370 0.737085
0.502193 0.747989 0.690927
0.566106 0.770715 0.682417
0.634033 0.791678 0.680527
0.704174 0.812961 0.689139
0.772388 0.835212 0.709471
0.821608 0.853985 0.735626
0.840449 0.855316 0.740232
0.859055 0.862764 0.751242
0.099051 0.092268 0.168545
0.116609 0.093622 0.157604
0.170886 0.114519 0.159005
0.270671 0.162044 0.172326
0.417344 0.240852 0.196525
0.594412 0.356556 0.229854
0.723713 0.469546 0.259214
0.801543 0.552939 0.284094
0.112669 0.140496 0.255903
0.145350 0.177677 0.276534
0.197537 0.201767 0.273723
0.289117 0.241613 0.272458
0.429598 0.316338 0.288990
0.605018 0.427962 0.320346
0.735075 0.533599 0.348692
0.813206 0.610411 0.371545
0.127635 0.206397 0.352884
0.164038 0.258416 0.381698
0.231629 0.304402 0.398542
0.328126 0.351550 0.406105
0.453039 0.409604 0.410706
0.619448 0.508273 0.437229
0.746946 0.602349 0.463265
0.823916 0.670414 0.483064
0.142193 0.283549 0.447860
0.178094 0.340318 0.475677
0.258168 0.403423 0.508903
0.365423 0.462023 0.532832
0.488874 0.514265 0.541897
0.637566 0.591696 0.559844
0.758413 0.670689 0.582149
0.832784 0.728641 0.598710
0.154916 0.365218 0.531038
0.191170 0.424643 0.558810
0.269612 0.487259 0.590252
0.386481 0.552941 0.625640
0.530522 0.619215 0.660796
0.658431 0.672470 0.670469
0.768958 0.734284 0.688204
0.839256 0.781481 0.701889
0.164235 0.439554 0.590128
0.202222 0.501123 0.620086
0.279467 0.562318 0.650965
0.393620 0.624258 0.684054
0.536568 0.686290 0.718832
0.677810 0.740144 0.747490
0.779063 0.787642 0.763483
0.843155 0.824219 0.774479
0.226353 0.547515 0.652765
0.272832 0.601457 0.675687
0.349570 0.652651 0.698142
0.455097 0.703077 0.722632
0.583131 0.753161 0.750277
0.708697 0.797287 0.778205
0.792191 0.827504 0.792540
0.847173 0.853923 0.805735
0.343571 0.675447 0.713694
0.402242 0.715126 0.725041
0.477953 0.751699 0.737548
0.569592 0.787358 0.754092
0.672346 0.822972 0.776203
0.765575 0.854700 0.802382
0.823350 0.872280 0.816036
0.860693 0.886059 0.826336
0.102659 0.097333 0.200347
0.117112 0.095876 0.183276
0.161823 0.111002 0.179658
0.246789 0.149980 0.189000
0.375960 0.218169 0.210366
0.542161 0.324005 0.243195
0.690004 0.446012 0.278138
0.788282 0.544695 0.308338
0.118564 0.151709 0.300084
0.149647 0.189148 0.318671
0.192953 0.206308 0.308915
0.269556 0.234972 0.299446
0.391552 0.296970 0.309320
0.554320 0.397740 0.337395
0.702186 0.512573 0.370707
0.800985 0.604420 0.399341
0.135169 0.225127 0.405675
0.170464 0.277181 0.432377
0.232749 0.318652 0.443771
0.317123 0.355698 0.443075
0.423305 0.398763 0.437906
0.574587 0.484624 0.458133
0.717161 0.586043 0.487418
0.813503 0.667410 0.512386
0.150827 0.310705 0.505758
0.185596 0.365378 0.529602
0.263327 0.425494 0.558720
0.363147 0.476909 0.576318
0.472249 0.516268 0.576067
0.603211 0.578461 0.585080
0.734305 0.661048 0.608079
0.824958 0.729163 0.628247
0.164227 0.401120 0.591044
0.199160 0.455479 0.612804
0.275677 0.513298 0.639272
0.390024 0.574595 0.670347
0.529175 0.635399 0.700784
0.639038 0.672644 0.700608
0.753217 0.732896 0.716009
0.834733 0.785802 0.730920
0.173918 0.483055 0.650354
0.210168 0.536158 0.671863
0.285732 0.590515 0.696736
0.398058 0.647044 0.725579
0.538721 0.704717 0.757143
0.676110 0.754162 0.782444
0.774531 0.795468 0.793518
0.842417 0.831933 0.802624
0.180747 0.546746 0.686600
0.219176 0.599183 0.709625
0.293879 0.650789 0.734197
0.403610 0.703225 0.761696
0.541888 0.756554 0.792140
0.683093 0.804637 0.820756
0.783484 0.839353 0.836691
0.849018 0.867904 0.847229
0.236959 0.634995 0.730159
0.284734 0.680429 0.749228
0.360394 0.723891 0.769175
0.463525 0.767439 0.791898
0.588965 0.811630 0.817946
0.713854 0.851508 0.843617
0.803016 0.880013 0.862253
0.858502 0.899648 0.872949
