Assets/1__3DArt/KimSe/artstation_asset/LUTs_subway_asset/CUBE/Yellow Line 03.cube
# LUT by SparkleStock. Enhanced with VOXCOLOR algorithms.
LUT_3D_SIZE 5
DOMAIN_MIN 0.000000 0.000000 0.000000
DOMAIN_MAX 0.903226 0.903226 0.903226
0.019536 0.023443 0.031258
0.403293 0.228493 0.070141
0.740825 0.458797 0.134531
0.894017 0.604876 0.194706
0.938131 0.663185 0.235133
0.115853 0.122439 0.049100
0.333439 0.215225 0.065711
0.656164 0.409687 0.115578
0.862176 0.603099 0.190025
0.930539 0.701363 0.250075
0.360400 0.324873 0.097326
0.516059 0.396624 0.115028
0.642967 0.438258 0.126022
0.834807 0.607131 0.190962
0.922770 0.734161 0.263382
0.630604 0.584537 0.183796
0.714749 0.621729 0.196554
0.784867 0.654404 0.211519
0.822540 0.636117 0.207719
0.916350 0.763783 0.277307
0.762157 0.781795 0.286904
0.807943 0.791275 0.290581
0.849082 0.801442 0.296222
0.884654 0.804264 0.299449
0.919031 0.812599 0.306828
0.020859 0.031352 0.054449
0.183603 0.098898 0.067291
0.559375 0.286112 0.108341
0.832407 0.494029 0.175496
0.930199 0.638970 0.248682
0.073993 0.137709 0.149104
0.217963 0.227328 0.182281
0.549436 0.404243 0.228450
0.819851 0.593710 0.293565
0.920503 0.711201 0.357359
0.355001 0.414162 0.276184
0.457355 0.439610 0.247472
0.602380 0.495281 0.261511
0.813985 0.642813 0.322946
0.914481 0.754694 0.397564
0.645454 0.662477 0.345574
0.717609 0.677256 0.318564
0.782317 0.696939 0.325645
0.825403 0.695369 0.327847
0.913249 0.792026 0.406062
0.768043 0.805271 0.386626
0.815027 0.822615 0.405443
0.855117 0.831518 0.423162
0.888691 0.834308 0.426683
0.920868 0.841680 0.438974
0.021316 0.037134 0.083753
0.132430 0.077614 0.087799
0.468974 0.231056 0.127316
0.792636 0.448076 0.191409
0.923211 0.626506 0.273322
0.026268 0.117205 0.203165
0.154178 0.222013 0.261159
0.466165 0.375354 0.301361
0.783340 0.566161 0.356885
0.914881 0.707372 0.420047
0.111981 0.287517 0.363104
0.248012 0.399918 0.417258
0.488996 0.512825 0.467574
0.772651 0.661785 0.521149
0.905113 0.770410 0.575429
0.481119 0.648083 0.558553
0.605394 0.689805 0.525816
0.737924 0.722121 0.524751
0.802238 0.732270 0.531007
0.906500 0.814495 0.602544
0.709032 0.820171 0.586712
0.786301 0.838652 0.562001
0.851527 0.854905 0.598486
0.888614 0.858973 0.612953
0.919836 0.865586 0.628488
0.019300 0.043925 0.126433
0.097985 0.066184 0.116299
0.372948 0.188553 0.148279
0.768290 0.432751 0.225902
0.919467 0.622948 0.307801
0.030682 0.142897 0.286054
0.140741 0.235991 0.331661
0.391003 0.345916 0.346552
0.764123 0.558893 0.404999
0.914068 0.709028 0.464604
0.069761 0.288426 0.457695
0.195150 0.408942 0.520653
0.442457 0.525972 0.575073
0.754350 0.668263 0.611432
0.905293 0.778395 0.651408
0.134530 0.443154 0.586629
0.267209 0.567823 0.652997
0.495559 0.672911 0.706132
0.760234 0.759634 0.752119
0.900023 0.835397 0.782915
0.507433 0.767741 0.750266
0.631550 0.815351 0.742623
0.769742 0.851314 0.751566
0.880233 0.878968 0.787334
0.917985 0.886807 0.799011
0.014132 0.053929 0.192690
0.072809 0.062348 0.159529
0.283709 0.149783 0.176807
0.644324 0.359552 0.245387
0.900074 0.607360 0.343873
0.036341 0.175770 0.387263
0.136329 0.259792 0.419886
0.327331 0.325932 0.402911
0.651701 0.494405 0.436071
0.898774 0.699879 0.508676
0.095450 0.348395 0.575259
0.212694 0.454066 0.619223
0.433892 0.548746 0.654561
0.685612 0.640915 0.659704
0.897850 0.778570 0.699770
0.163958 0.512649 0.701541
0.277337 0.611577 0.742548
0.493464 0.701734 0.784481
0.751805 0.781153 0.825235
0.901268 0.844874 0.836020
0.268263 0.659876 0.775766
0.382118 0.740135 0.809985
0.570846 0.807620 0.842085
0.788714 0.865736 0.876435
0.912327 0.900696 0.896361
