Assets/1__3DArt/KimSe/artstation_asset/LUTs_subway_asset/CUBE/Yellow Line 02.cube
# LUT by SparkleStock. Enhanced with VOXCOLOR algorithms.
LUT_3D_SIZE 5
DOMAIN_MIN 0.000000 0.000000 0.000000
DOMAIN_MAX 0.903226 0.903226 0.903226
0.074237 0.066422 0.054701
0.390791 0.256560 0.117019
0.655394 0.443460 0.170964
0.789523 0.557147 0.199307
0.840388 0.605853 0.215723
0.167829 0.173075 0.074016
0.338465 0.254455 0.109686
0.586551 0.408799 0.158399
0.761720 0.558094 0.193874
0.838265 0.641705 0.219275
0.365710 0.350506 0.119894
0.482834 0.406458 0.143551
0.577632 0.437237 0.162363
0.739302 0.567094 0.192913
0.836241 0.677415 0.224447
0.573122 0.565796 0.174430
0.640821 0.592592 0.184991
0.700918 0.616384 0.195794
0.732554 0.599359 0.201838
0.833393 0.712466 0.231732
0.681240 0.742621 0.220434
0.728841 0.750030 0.225668
0.770895 0.758868 0.231657
0.806464 0.760921 0.237895
0.841410 0.768049 0.247761
0.076695 0.069101 0.085084
0.219842 0.143445 0.109937
0.513358 0.308940 0.169299
0.732291 0.472947 0.215798
0.831714 0.587051 0.242394
0.131313 0.182105 0.175575
0.255628 0.264170 0.208045
0.517266 0.411540 0.257403
0.736017 0.560393 0.298589
0.838953 0.661420 0.328277
0.352379 0.423663 0.280169
0.445031 0.446688 0.255928
0.562667 0.492058 0.274683
0.737135 0.608528 0.314047
0.841180 0.708945 0.358611
0.579264 0.635785 0.320167
0.654053 0.649961 0.293124
0.713896 0.664962 0.299809
0.751193 0.661650 0.305738
0.844120 0.750317 0.359154
0.689422 0.770496 0.322276
0.746390 0.790612 0.339668
0.790459 0.799866 0.360544
0.824921 0.801744 0.366698
0.858762 0.808508 0.379648
0.077687 0.074946 0.120296
0.180539 0.118365 0.130738
0.446579 0.261601 0.183687
0.701730 0.437975 0.238749
0.825496 0.578870 0.271399
0.096445 0.159967 0.227652
0.204766 0.254348 0.280654
0.459139 0.389432 0.323285
0.713049 0.544054 0.367032
0.839088 0.663442 0.396289
0.166147 0.308685 0.365087
0.270008 0.408391 0.413086
0.483919 0.514869 0.467133
0.722436 0.638874 0.511112
0.849196 0.737823 0.544459
0.424853 0.623386 0.525368
0.546514 0.666251 0.493872
0.689655 0.701568 0.499753
0.752386 0.710052 0.508215
0.856492 0.788146 0.565929
0.621476 0.794213 0.532901
0.716298 0.814986 0.506111
0.800576 0.836564 0.550217
0.842272 0.840752 0.568362
0.876038 0.847236 0.584049
0.078530 0.082737 0.164717
0.154790 0.103772 0.159787
0.376204 0.217725 0.199388
0.685337 0.425492 0.265806
0.822814 0.576911 0.303517
0.103621 0.176786 0.300475
0.194591 0.260188 0.343804
0.402112 0.358474 0.363318
0.703229 0.539759 0.410664
0.842083 0.667028 0.440861
0.131189 0.292706 0.446776
0.218794 0.403122 0.505564
0.442605 0.518534 0.566581
0.717871 0.649682 0.600974
0.857059 0.750119 0.626148
0.159441 0.417619 0.556493
0.241621 0.537836 0.620781
0.454312 0.652074 0.683146
0.732835 0.749325 0.742977
0.865622 0.822663 0.765849
0.410692 0.734580 0.707982
0.538182 0.791345 0.702095
0.705773 0.837716 0.718316
0.845255 0.874880 0.766264
0.886831 0.883379 0.778831
0.082839 0.092717 0.222230
0.139354 0.097408 0.199396
0.313010 0.178349 0.223394
0.596355 0.357878 0.281730
0.810909 0.562717 0.337389
0.114507 0.199199 0.385717
0.194230 0.274186 0.417703
0.354866 0.334943 0.410535
0.619011 0.480678 0.438974
0.833784 0.659957 0.484030
0.145852 0.326954 0.549623
0.226831 0.428920 0.592339
0.431121 0.528345 0.637636
0.661027 0.618492 0.648012
0.855875 0.751260 0.677486
0.162078 0.451625 0.660758
0.231436 0.558965 0.704569
0.438703 0.665408 0.758758
0.719301 0.760964 0.814759
0.871151 0.832538 0.825801
0.199806 0.592540 0.731377
0.279326 0.690155 0.772596
0.473507 0.779065 0.817232
0.731465 0.856726 0.866245
0.882701 0.903059 0.893618
