Assets/1__3DArt/KimSe/artstation_asset/LUTs_subway_asset/CUBE/Yellow Line 03.cube
# LUT by SparkleStock. Enhanced with VOXCOLOR algorithms.
LUT_3D_SIZE 8
DOMAIN_MIN 0.000000 0.000000 0.000000
DOMAIN_MAX 0.903226 0.903226 0.903226
0.019536 0.023443 0.031258
0.232983 0.131206 0.049218
0.462232 0.264414 0.078695
0.663878 0.398488 0.114963
0.807539 0.513482 0.153413
0.879570 0.589106 0.187065
0.915995 0.633377 0.212998
0.938131 0.663185 0.235133
0.054323 0.067683 0.038631
0.177461 0.118070 0.046199
0.386279 0.227492 0.068188
0.602001 0.360578 0.101394
0.767233 0.488069 0.141929
0.857121 0.582720 0.182022
0.904572 0.644068 0.215492
0.933831 0.685646 0.243879
0.143881 0.145268 0.053637
0.252498 0.191569 0.062322
0.386395 0.247071 0.072173
0.550220 0.337966 0.094602
0.730685 0.469905 0.134618
0.836356 0.579437 0.179181
0.893884 0.654923 0.218652
0.929428 0.706362 0.252063
0.277971 0.255961 0.079271
0.386502 0.308105 0.090882
0.462946 0.331530 0.095677
0.559595 0.373219 0.106445
0.699840 0.461291 0.132413
0.817757 0.579178 0.178745
0.884014 0.665622 0.222454
0.924987 0.725361 0.259738
0.441624 0.395652 0.117437
0.525896 0.436049 0.127603
0.598335 0.472196 0.138845
0.649783 0.483997 0.142790
0.689384 0.479815 0.141806
0.804008 0.585187 0.182173
0.875266 0.676497 0.227205
0.920659 0.742835 0.267112
0.596841 0.548411 0.169995
0.651985 0.571683 0.176795
0.703488 0.598481 0.186848
0.747069 0.618100 0.195379
0.780943 0.623944 0.199188
0.809796 0.617931 0.197987
0.869320 0.690799 0.234993
0.917073 0.759424 0.275089
0.701642 0.680531 0.229170
0.738027 0.692045 0.232970
0.772826 0.706825 0.239262
0.804759 0.720460 0.246006
0.832343 0.728341 0.251026
0.851169 0.720352 0.249605
0.882107 0.739242 0.260269
0.915215 0.778136 0.285303
0.762157 0.781795 0.286904
0.788912 0.786985 0.288727
0.814068 0.792789 0.291302
0.837779 0.798649 0.294456
0.860049 0.803659 0.297750
0.879955 0.804635 0.299385
0.897091 0.799466 0.297579
0.919031 0.812599 0.306828
0.020292 0.028359 0.044114
0.112839 0.071135 0.052267
0.304130 0.161542 0.069243
0.523682 0.278661 0.095374
0.715242 0.403060 0.129927
0.832354 0.508835 0.169288
0.896053 0.588137 0.207027
0.933654 0.647926 0.241634
0.029611 0.066012 0.079736
0.100746 0.111696 0.099934
0.284557 0.207540 0.122707
0.504748 0.329526 0.151424
0.700271 0.455911 0.187439
0.821303 0.559297 0.226668
0.887755 0.633503 0.263012
0.927797 0.688018 0.295693
0.143778 0.185116 0.133877
0.208446 0.212512 0.132840
0.327381 0.264604 0.141424
0.494056 0.353492 0.163674
0.686575 0.477115 0.200272
0.811137 0.582955 0.242215
0.880878 0.659588 0.281913
0.923531 0.715153 0.317544
0.308824 0.333902 0.184710
0.369252 0.343372 0.162190
0.434432 0.360528 0.158853
0.534220 0.405960 0.171149
0.677268 0.489895 0.196911
0.803131 0.597253 0.241132
0.875411 0.677952 0.285099
0.920119 0.736300 0.325090
0.480765 0.475550 0.219821
0.531297 0.480881 0.196507
0.590019 0.502452 0.195954
0.640854 0.516511 0.200131
0.685816 0.523107 0.203036
0.800002 0.616604 0.242525
0.871493 0.696870 0.288068
0.917162 0.756440 0.331229
0.625444 0.605037 0.252034
0.664978 0.613639 0.240878
0.707731 0.630205 0.243182
0.747649 0.645756 0.249708
0.781474 0.654190 0.253978
0.813400 0.654886 0.255412
0.870344 0.717541 0.293892
0.915460 0.775941 0.337757
0.717389 0.711445 0.288913
0.748646 0.722832 0.292641
0.779572 0.733829 0.297591
0.808836 0.743789 0.302886
0.835032 0.750924 0.307276
0.854685 0.746887 0.306904
0.884776 0.764248 0.318762
0.915671 0.796914 0.347658
0.769817 0.794358 0.328399
0.795240 0.805550 0.346054
0.819443 0.812327 0.353929
0.842263 0.817043 0.357550
0.863572 0.821037 0.360635
0.882931 0.822376 0.362185
0.900003 0.819090 0.360880
0.920575 0.830061 0.372346
0.021048 0.032203 0.058041
0.070661 0.051774 0.061468
0.223234 0.115091 0.074106
0.430236 0.213235 0.095519
0.644812 0.334869 0.125397
0.794461 0.456177 0.165697
0.879194 0.557101 0.209351
0.929027 0.636512 0.251492
0.022006 0.067935 0.106153
0.075037 0.112572 0.132584
0.223356 0.188683 0.153225
0.425385 0.291441 0.176369
0.638559 0.412186 0.207347
0.787901 0.524698 0.245277
0.872882 0.613831 0.284475
0.923490 0.682625 0.321606
0.079334 0.156261 0.173683
0.134291 0.200156 0.193603
0.250496 0.262019 0.215342
0.422927 0.351620 0.241590
0.630474 0.468254 0.273897
0.779954 0.574772 0.311774
0.866113 0.656654 0.349794
0.917942 0.718663 0.385019
0.217286 0.304770 0.254977
0.273273 0.332877 0.251090
0.357297 0.370759 0.261863
0.478040 0.428028 0.280846
0.632588 0.509595 0.305066
0.777053 0.610701 0.344662
0.862081 0.688308 0.385012
0.913898 0.746354 0.422553
0.429552 0.499320 0.337536
0.485018 0.508048 0.306748
0.552544 0.525796 0.296785
0.611422 0.539855 0.296280
0.661593 0.553802 0.301644
0.784239 0.639502 0.339435
0.862572 0.712546 0.383903
0.912201 0.768147 0.427515
0.599357 0.638608 0.372421
0.646225 0.646122 0.343469
0.695260 0.656917 0.334747
0.738150 0.667840 0.336366
0.771493 0.676642 0.340661
0.806964 0.682586 0.343989
0.866063 0.738195 0.383910
0.912142 0.789796 0.431065
0.705299 0.737257 0.393258
0.742384 0.746915 0.377518
0.777789 0.755933 0.379754
0.808627 0.763798 0.387292
0.833356 0.769404 0.391384
0.853303 0.767937 0.391935
0.883862 0.784153 0.404755
0.914309 0.812628 0.438239
0.765856 0.809224 0.411784
0.794710 0.819266 0.412833
0.821419 0.827690 0.430142
0.845177 0.833659 0.445911
0.865760 0.836842 0.449844
0.884390 0.838064 0.451647
0.901132 0.835846 0.450598
0.920783 0.845240 0.464893
0.021411 0.035527 0.074300
0.061168 0.049463 0.074544
0.182510 0.097063 0.085311
0.370207 0.181227 0.105638
0.595845 0.298546 0.134676
0.766034 0.425465 0.173464
0.865962 0.537976 0.219051
0.924891 0.628836 0.264991
0.021722 0.072784 0.130792
0.070828 0.117348 0.158949
0.187887 0.175664 0.175112
0.368586 0.261578 0.193336
0.591589 0.378354 0.222363
0.761244 0.496203 0.258422
0.861130 0.596555 0.298927
0.920379 0.676303 0.338921
0.027359 0.127661 0.204092
0.083526 0.189500 0.243438
0.196447 0.257714 0.275126
0.368226 0.344945 0.303043
0.583229 0.454801 0.330946
0.753010 0.562410 0.364800
0.853880 0.650121 0.400660
0.914044 0.718561 0.434806
0.104974 0.244741 0.299749
0.167366 0.304273 0.327126
0.270833 0.366393 0.357609
0.413209 0.436645 0.385407
0.585260 0.518977 0.409125
0.749489 0.616620 0.443126
0.848867 0.693812 0.478080
0.908773 0.753117 0.510799
0.285794 0.438256 0.412115
0.353170 0.476231 0.406274
0.439329 0.511521 0.408284
0.528601 0.542735 0.416848
0.618502 0.576526 0.432552
0.758091 0.657458 0.465677
0.849434 0.726086 0.504140
0.906556 0.779415 0.541938
0.505168 0.628345 0.490190
0.567799 0.648014 0.461822
0.634351 0.664738 0.449299
0.697582 0.680047 0.448598
0.751821 0.694392 0.454999
0.791459 0.703972 0.459177
0.857378 0.754991 0.497150
0.907945 0.802380 0.542663
0.649580 0.744355 0.516152
0.699672 0.756953 0.486926
0.748389 0.768230 0.482298
0.792154 0.778004 0.489115
0.827580 0.785365 0.496853
0.847612 0.785245 0.498126
0.880053 0.800653 0.510799
0.911875 0.826529 0.545986
0.737244 0.819232 0.523317
0.775225 0.828324 0.503635
0.810336 0.838131 0.517533
0.841151 0.846373 0.540235
0.866556 0.851415 0.554253
0.884617 0.852306 0.556729
0.900962 0.850686 0.556129
0.920244 0.859019 0.572242
0.021080 0.038836 0.094009
0.052677 0.047740 0.090155
0.154066 0.086550 0.097666
0.329036 0.164212 0.118309
0.560269 0.280877 0.151482
0.745881 0.410504 0.189538
0.856643 0.528284 0.235003
0.921723 0.624588 0.282122
0.021830 0.080063 0.162558
0.067464 0.123731 0.189578
0.165577 0.170611 0.199485
0.332107 0.246867 0.213681
0.558259 0.363034 0.244370
0.743012 0.483647 0.279441
0.853217 0.588888 0.319239
0.918133 0.673613 0.359576
0.030097 0.139830 0.246127
0.083176 0.201057 0.284637
0.185146 0.263112 0.313039
0.344532 0.341356 0.336349
0.552607 0.442881 0.359577
0.736086 0.552076 0.391347
0.846875 0.644024 0.425572
0.912569 0.716981 0.459040
0.044188 0.211621 0.333218
0.102984 0.282877 0.376011
0.208397 0.356402 0.418795
0.359946 0.434186 0.453538
0.548080 0.518411 0.477709
0.728278 0.615141 0.506658
0.839673 0.694080 0.536306
0.906439 0.755856 0.564145
0.091193 0.311040 0.424317
0.157208 0.386506 0.466451
0.259807 0.457720 0.503833
0.398410 0.526065 0.539705
0.565558 0.594242 0.574748
0.727327 0.672193 0.599626
0.835076 0.738324 0.626910
0.901628 0.790261 0.652705
0.341854 0.560847 0.569575
0.415943 0.604127 0.568856
0.504770 0.641548 0.567606
0.606682 0.675281 0.572568
0.711360 0.705175 0.585544
0.766634 0.720712 0.591602
0.845377 0.769602 0.622647
0.903621 0.814553 0.658985
0.538409 0.719118 0.629269
0.603806 0.743593 0.609112
0.672827 0.763620 0.596600
0.743298 0.781387 0.598319
0.808448 0.796786 0.613835
0.836747 0.799804 0.617307
0.873916 0.815122 0.628371
0.908959 0.839529 0.659753
0.671844 0.816441 0.645419
0.724191 0.830058 0.620788
0.774645 0.841610 0.614133
0.821427 0.852781 0.629289
0.861522 0.863375 0.660884
0.883144 0.865334 0.666347
0.899834 0.864313 0.666919
0.919400 0.872013 0.682556
0.019757 0.042806 0.119343
0.045499 0.047319 0.110366
0.129422 0.077799 0.113687
0.281046 0.144166 0.130708
0.496324 0.251884 0.162124
0.728482 0.402149 0.209694
0.851636 0.525198 0.255891
0.919899 0.623222 0.302540
0.021970 0.090180 0.202382
0.065149 0.132404 0.226546
0.146706 0.168522 0.228991
0.288928 0.229262 0.234625
0.497114 0.333663 0.259932
0.727392 0.477747 0.304064
0.849442 0.588258 0.344140
0.917212 0.674136 0.383370
0.033982 0.157651 0.298472
0.085036 0.217088 0.333100
0.177147 0.272096 0.355210
0.316505 0.336255 0.369669
0.503178 0.421821 0.383888
0.723698 0.549695 0.420894
0.844540 0.645574 0.454182
0.912713 0.719124 0.485796
0.053793 0.237602 0.395504
0.108873 0.304755 0.431894
0.209366 0.374357 0.470005
0.348126 0.442932 0.498543
0.518668 0.513391 0.514300
0.719911 0.616996 0.541337
0.838393 0.697293 0.568116
0.907443 0.759110 0.593111
0.083033 0.325658 0.484499
0.142485 0.398212 0.523006
0.240729 0.468017 0.559635
0.377086 0.536085 0.595884
0.545196 0.604181 0.630248
0.718589 0.678412 0.647576
0.832753 0.743427 0.669399
0.902505 0.794800 0.689960
0.141367 0.429244 0.560671
0.206739 0.501339 0.597573
0.301740 0.566192 0.629112
0.427263 0.626022 0.658540
0.577918 0.681827 0.687211
0.724931 0.729452 0.709629
0.831940 0.782155 0.731927
0.900144 0.825541 0.752771
0.354291 0.630352 0.672154
0.424967 0.677032 0.682045
0.510382 0.716997 0.689652
0.609859 0.752478 0.699589
0.718409 0.784558 0.714477
0.812138 0.809673 0.731967
0.865398 0.828146 0.741102
0.905850 0.851624 0.761344
0.543614 0.780972 0.734697
0.610423 0.806629 0.725109
0.680957 0.827732 0.720470
0.753470 0.846120 0.724970
0.823939 0.862797 0.740342
0.875737 0.875742 0.762236
0.897526 0.876675 0.766168
0.918353 0.884020 0.777630
0.017173 0.048037 0.152239
0.039134 0.048768 0.136188
0.108700 0.071700 0.134145
0.238941 0.126864 0.146791
0.432289 0.221427 0.174606
0.664885 0.365496 0.221200
0.827916 0.511094 0.274309
0.918309 0.622537 0.324519
0.021826 0.102290 0.249159
0.063679 0.143396 0.270403
0.131850 0.169986 0.264831
0.252276 0.216058 0.261088
0.436885 0.304662 0.278659
0.664883 0.441511 0.319285
0.826766 0.575657 0.366025
0.916819 0.675442 0.408686
0.038385 0.178109 0.356295
0.088602 0.236000 0.387330
0.172670 0.284286 0.402713
0.293938 0.335015 0.407514
0.455169 0.401956 0.410492
0.668173 0.519683 0.441234
0.825041 0.636448 0.479583
0.913731 0.722354 0.513628
0.064496 0.267134 0.461438
0.117639 0.330389 0.491548
0.214046 0.395468 0.524169
0.340919 0.454579 0.545232
0.490737 0.509185 0.550447
0.677179 0.598118 0.568124
0.824042 0.693121 0.596932
0.909914 0.764008 0.622583
0.097118 0.361028 0.554215
0.152317 0.427095 0.584579
0.246089 0.491524 0.615291
0.377510 0.555035 0.647117
0.538474 0.617420 0.676952
0.692947 0.674316 0.683331
0.825009 0.745389 0.702845
0.906145 0.801080 0.721321
0.129740 0.446586 0.621190
0.187667 0.514367 0.654085
0.278658 0.576871 0.684097
0.403561 0.635902 0.713181
0.557227 0.692075 0.741798
0.713310 0.740988 0.764618
0.830292 0.791978 0.779699
0.903405 0.833424 0.793061
0.225086 0.566240 0.690971
0.287029 0.624612 0.715832
0.373352 0.676137 0.736896
0.485281 0.723184 0.757261
0.618938 0.766995 0.778883
0.752134 0.804386 0.800838
0.844343 0.833428 0.812558
0.904617 0.860907 0.826205
0.374151 0.701871 0.756473
0.439700 0.743743 0.767720
0.519322 0.779515 0.777770
0.613269 0.811486 0.790046
0.717945 0.841016 0.806752
0.814114 0.866094 0.827820
0.875856 0.880565 0.838881
0.916235 0.893877 0.848827
0.014132 0.053929 0.192690
0.033520 0.051953 0.167746
0.091156 0.068332 0.159015
0.202030 0.112972 0.166449
0.372459 0.193737 0.189986
0.592389 0.324498 0.233268
0.781846 0.478897 0.289531
0.900074 0.607360 0.343873
0.021737 0.115208 0.301624
0.063037 0.156212 0.320043
0.120406 0.174710 0.306003
0.221675 0.207356 0.292336
0.382561 0.279871 0.301471
0.595385 0.401968 0.335594
0.782052 0.545153 0.384061
0.899538 0.662005 0.430611
0.043097 0.199054 0.416645
0.093320 0.256444 0.445133
0.170937 0.299097 0.454110
0.276419 0.337694 0.449307
0.413327 0.386558 0.440774
0.607690 0.487584 0.462439
0.784867 0.611069 0.500598
0.898443 0.711843 0.537458
0.075492 0.296571 0.526137
0.127920 0.357102 0.551620
0.221017 0.418301 0.579511
0.337414 0.468745 0.593457
0.467783 0.508144 0.588200
0.631724 0.578340 0.594883
0.791743 0.675665 0.621144
0.897752 0.757401 0.647867
0.115358 0.398839 0.620463
0.168046 0.459085 0.644092
0.258013 0.518021 0.668995
0.384398 0.576335 0.695992
0.537126 0.632036 0.720943
0.667764 0.670262 0.716179
0.803826 0.737961 0.730547
0.898215 0.799072 0.747774
0.154877 0.491453 0.687365
0.207632 0.549919 0.710976
0.293738 0.604824 0.734084
0.413702 0.657781 0.758291
0.561898 0.709006 0.783569
0.710483 0.752836 0.803531
0.823107 0.795706 0.811468
0.900542 0.836077 0.820387
0.186407 0.564496 0.728775
0.239724 0.621437 0.754185
0.322423 0.672790 0.777165
0.436277 0.720905 0.799968
0.577581 0.766936 0.823744
0.724302 0.807565 0.846254
0.832794 0.839476 0.858473
0.904309 0.868537 0.867794
0.268263 0.659876 0.775766
0.324890 0.707948 0.796264
0.404324 0.750043 0.814208
0.508278 0.788825 0.832254
0.633618 0.825798 0.851953
0.760395 0.858451 0.871915
0.853425 0.882315 0.887178
0.912327 0.900696 0.896361
