Assets/1__3DArt/KimSe/artstation_asset/LUTs_subway_asset/CUBE/Yellow Line 04_S.cube
# LUT by SparkleStock. Enhanced with VOXCOLOR algorithms.
LUT_3D_SIZE 32
0.011722 0.027350 0.042979
0.068439 0.058451 0.053047
0.125157 0.089551 0.063114
0.181874 0.120651 0.073181
0.238592 0.151751 0.083249
0.295309 0.182851 0.093316
0.351239 0.214857 0.101768
0.407011 0.247044 0.109898
0.462783 0.279231 0.118027
0.518555 0.311418 0.126157
0.574327 0.343605 0.134287
0.617086 0.370341 0.140651
0.653338 0.394352 0.146134
0.689590 0.418362 0.151617
0.725842 0.442373 0.157100
0.762094 0.466383 0.162582
0.789389 0.485832 0.167167
0.807728 0.500721 0.170854
0.826066 0.515609 0.174540
0.844405 0.530497 0.178227
0.862744 0.545386 0.181913
0.877821 0.558305 0.185443
0.886376 0.567285 0.188657
0.894931 0.576265 0.191870
0.903486 0.585246 0.195084
0.912041 0.594226 0.198298
0.919918 0.602607 0.201560
0.924408 0.607996 0.205057
0.928898 0.613384 0.208555
0.933388 0.618772 0.212052
0.937879 0.624160 0.215550
0.942369 0.629548 0.219048
0.022498 0.042617 0.046619
0.072757 0.069674 0.055140
0.123016 0.096730 0.063661
0.173275 0.123787 0.072183
0.223534 0.150844 0.080704
0.273793 0.177900 0.089225
0.328425 0.208203 0.097077
0.383932 0.239155 0.104795
0.439439 0.270108 0.112513
0.494946 0.301060 0.120231
0.550453 0.332012 0.127948
0.593800 0.358141 0.134115
0.631067 0.381859 0.139506
0.668335 0.405576 0.144898
0.705602 0.429294 0.150289
0.742869 0.453012 0.155680
0.771386 0.472640 0.160384
0.791152 0.488177 0.164400
0.810917 0.503715 0.168416
0.830683 0.519253 0.172432
0.850449 0.534791 0.176448
0.866935 0.548622 0.180455
0.876862 0.559038 0.184447
0.886789 0.569455 0.188438
0.896716 0.579871 0.192430
0.906643 0.590288 0.196422
0.915817 0.600182 0.200499
0.921222 0.607463 0.205002
0.926627 0.614745 0.209506
0.932032 0.622027 0.214010
0.937436 0.629309 0.218514
0.942841 0.636591 0.223018
0.033274 0.057883 0.050258
0.077075 0.080897 0.057233
0.120875 0.103910 0.064209
0.164676 0.126923 0.071184
0.208476 0.149936 0.078159
0.252277 0.172950 0.085135
0.305612 0.201550 0.092386
0.360853 0.231267 0.099692
0.416095 0.260984 0.106998
0.471336 0.290701 0.114304
0.526578 0.320418 0.121610
0.570514 0.345941 0.127579
0.608797 0.369366 0.132879
0.647079 0.392791 0.138178
0.685362 0.416216 0.143478
0.723645 0.439640 0.148778
0.753383 0.459447 0.153600
0.774575 0.475634 0.157946
0.795768 0.491821 0.162291
0.816961 0.508009 0.166636
0.838154 0.524196 0.170982
0.856049 0.538939 0.175468
0.867348 0.550791 0.180237
0.878647 0.562644 0.185006
0.889947 0.574497 0.189776
0.901246 0.586349 0.194545
0.911715 0.597756 0.199437
0.918035 0.606931 0.204948
0.924355 0.616107 0.210458
0.930675 0.625282 0.215968
0.936994 0.634458 0.221478
0.943314 0.643633 0.226988
0.044051 0.073150 0.053897
0.081393 0.092120 0.059327
0.118735 0.111090 0.064756
0.156077 0.130059 0.070185
0.193419 0.149029 0.075615
0.230761 0.167999 0.081044
0.282798 0.194896 0.087694
0.337774 0.223378 0.094589
0.392751 0.251860 0.101483
0.447727 0.280343 0.108378
0.502703 0.308825 0.115272
0.547228 0.333740 0.121043
0.586526 0.356873 0.126251
0.625824 0.380005 0.131459
0.665122 0.403137 0.136668
0.704420 0.426269 0.141876
0.735379 0.446254 0.146817
0.757999 0.463091 0.151492
0.780619 0.479927 0.156166
0.803239 0.496764 0.160841
0.825859 0.513601 0.165516
0.845163 0.529255 0.170481
0.857834 0.542544 0.176028
0.870506 0.555833 0.181574
0.883177 0.569122 0.187121
0.895849 0.582411 0.192668
0.907614 0.595330 0.198376
0.914849 0.606399 0.204893
0.922083 0.617468 0.211409
0.929318 0.628537 0.217925
0.936552 0.639606 0.224442
0.943787 0.650675 0.230958
0.054827 0.088416 0.057537
0.085710 0.103343 0.061420
0.116594 0.118269 0.065303
0.147478 0.133196 0.069187
0.178361 0.148122 0.073070
0.209245 0.163049 0.076953
0.259985 0.188242 0.083003
0.314696 0.215490 0.089486
0.369407 0.242737 0.095969
0.424118 0.269984 0.102452
0.478829 0.297231 0.108934
0.523941 0.321540 0.114507
0.564255 0.344380 0.119623
0.604569 0.367219 0.124740
0.644882 0.390058 0.129857
0.685196 0.412898 0.134974
0.717376 0.433061 0.140034
0.741423 0.450547 0.145038
0.765470 0.468034 0.150042
0.789517 0.485520 0.155046
0.813564 0.503006 0.160050
0.834277 0.519572 0.165494
0.848320 0.534297 0.171818
0.862364 0.549023 0.178142
0.876408 0.563748 0.184467
0.890451 0.578473 0.190791
0.903513 0.592904 0.197315
0.911662 0.605867 0.204838
0.919811 0.618830 0.212360
0.927961 0.631793 0.219883
0.936110 0.644755 0.227406
0.944259 0.657718 0.234929
0.065603 0.103683 0.061176
0.090028 0.114566 0.063513
0.114453 0.125449 0.065851
0.138879 0.136332 0.068188
0.163304 0.147215 0.070525
0.187729 0.158098 0.072863
0.237171 0.181589 0.078312
0.291617 0.207601 0.084383
0.346062 0.233613 0.090454
0.400508 0.259626 0.096525
0.454954 0.285638 0.102596
0.500655 0.309340 0.107970
0.541984 0.331886 0.112996
0.583313 0.354433 0.118021
0.624642 0.376980 0.123046
0.665971 0.399527 0.128071
0.699373 0.419868 0.133251
0.724847 0.438004 0.138584
0.750321 0.456140 0.143917
0.775795 0.474275 0.149251
0.801269 0.492411 0.154584
0.823391 0.509889 0.160507
0.838806 0.526051 0.167609
0.854222 0.542212 0.174710
0.869638 0.558373 0.181812
0.885054 0.574535 0.188914
0.899411 0.590479 0.196254
0.908475 0.605335 0.204783
0.917540 0.620191 0.213312
0.926604 0.635048 0.221841
0.935668 0.649904 0.230370
0.944732 0.664760 0.238899
0.091819 0.126157 0.067494
0.115656 0.136831 0.069787
0.139492 0.147505 0.072080
0.163329 0.158180 0.074373
0.187166 0.168854 0.076666
0.211002 0.179528 0.078959
0.254395 0.199668 0.083168
0.301699 0.221701 0.087761
0.349004 0.243733 0.092353
0.396308 0.265766 0.096945
0.443612 0.287799 0.101537
0.487157 0.309913 0.106307
0.528823 0.332068 0.111164
0.570489 0.354223 0.116022
0.612155 0.376378 0.120879
0.653821 0.398533 0.125737
0.687831 0.418744 0.130887
0.714183 0.437011 0.136328
0.740535 0.455278 0.141770
0.766887 0.473545 0.147211
0.793240 0.491812 0.152653
0.816239 0.509553 0.158777
0.832531 0.526244 0.166268
0.848824 0.542934 0.173759
0.865116 0.559625 0.181249
0.881409 0.576315 0.188740
0.896595 0.592832 0.196501
0.906246 0.608476 0.205617
0.915897 0.624121 0.214733
0.925548 0.639765 0.223849
0.935199 0.655410 0.232965
0.944850 0.671054 0.242081
0.121123 0.150073 0.074347
0.145545 0.161305 0.076896
0.169967 0.172537 0.079446
0.194389 0.183769 0.081995
0.218812 0.195002 0.084544
0.243234 0.206234 0.087093
0.279627 0.222693 0.089935
0.318414 0.240198 0.092835
0.357202 0.257702 0.095735
0.395989 0.275207 0.098635
0.434777 0.292712 0.101534
0.475617 0.313042 0.105617
0.517484 0.334785 0.110292
0.559352 0.356529 0.114967
0.601219 0.378272 0.119641
0.643086 0.400015 0.124316
0.677580 0.420034 0.129406
0.704701 0.438328 0.134912
0.731822 0.456623 0.140417
0.758942 0.474917 0.145923
0.786063 0.493212 0.151428
0.809834 0.511087 0.157699
0.826904 0.528125 0.165501
0.843974 0.545163 0.173303
0.861044 0.562202 0.181104
0.878114 0.579240 0.188906
0.894035 0.596140 0.197011
0.904207 0.612352 0.206630
0.914380 0.628564 0.216249
0.924552 0.644775 0.225868
0.934725 0.660987 0.235487
0.944897 0.677199 0.245106
0.150427 0.173989 0.081201
0.175435 0.185779 0.084006
0.200442 0.197569 0.086811
0.225450 0.209359 0.089617
0.250457 0.221150 0.092422
0.275465 0.232940 0.095227
0.304858 0.245719 0.096701
0.335129 0.258695 0.097909
0.365400 0.271671 0.099116
0.395670 0.284648 0.100324
0.425941 0.297624 0.101531
0.464077 0.316171 0.104928
0.506146 0.337502 0.109420
0.548214 0.358834 0.113912
0.590283 0.380165 0.118403
0.632351 0.401497 0.122895
0.667330 0.421324 0.127926
0.695219 0.439646 0.133495
0.723108 0.457967 0.139065
0.750997 0.476289 0.144634
0.778886 0.494611 0.150204
0.803428 0.512621 0.156621
0.821276 0.530007 0.164734
0.839124 0.547393 0.172847
0.856972 0.564778 0.180959
0.874819 0.582164 0.189072
0.891475 0.599449 0.197520
0.902169 0.616228 0.207642
0.912863 0.633006 0.217764
0.923557 0.649785 0.227887
0.934251 0.666564 0.238009
0.944945 0.683343 0.248131
0.179731 0.197905 0.088054
0.205324 0.210253 0.091115
0.230917 0.222601 0.094177
0.256510 0.234949 0.097238
0.282103 0.247298 0.100300
0.307696 0.259646 0.103362
0.330090 0.268744 0.103468
0.351844 0.277192 0.102983
0.373598 0.285640 0.102498
0.395352 0.294088 0.102013
0.417106 0.302537 0.101528
0.452537 0.319299 0.104239
0.494807 0.340219 0.108548
0.537076 0.361139 0.112857
0.579346 0.382059 0.117165
0.621616 0.402979 0.121474
0.657080 0.422614 0.126445
0.685737 0.440963 0.132079
0.714395 0.459312 0.137712
0.743052 0.477662 0.143346
0.771710 0.496011 0.148980
0.797023 0.514155 0.155543
0.815649 0.531888 0.163967
0.834274 0.549622 0.172391
0.852899 0.567355 0.180815
0.871524 0.585088 0.189238
0.888915 0.602757 0.198029
0.900130 0.620103 0.208654
0.911346 0.637449 0.219280
0.922561 0.654795 0.229905
0.933777 0.672141 0.240531
0.944992 0.689488 0.251156
0.209035 0.221820 0.094907
0.235214 0.234727 0.098225
0.261392 0.247633 0.101543
0.287571 0.260539 0.104860
0.313749 0.273446 0.108178
0.339928 0.286352 0.111496
0.355322 0.291769 0.110234
0.368559 0.295689 0.108057
0.381796 0.299609 0.105880
0.395033 0.303529 0.103703
0.408270 0.307449 0.101525
0.440997 0.322428 0.103550
0.483468 0.342936 0.107676
0.525939 0.363444 0.111802
0.568410 0.383953 0.115927
0.610881 0.404461 0.120053
0.646829 0.423903 0.124965
0.676255 0.442280 0.130662
0.705681 0.460657 0.136360
0.735107 0.479034 0.142058
0.764533 0.497410 0.147755
0.790618 0.515689 0.154465
0.810021 0.533770 0.163200
0.829424 0.551851 0.171935
0.848827 0.569932 0.180670
0.868230 0.588013 0.189405
0.886355 0.606066 0.198538
0.898092 0.623979 0.209667
0.909829 0.641892 0.220795
0.921565 0.659805 0.231924
0.933302 0.677719 0.243052
0.945039 0.695632 0.254181
0.245335 0.250746 0.103462
0.270800 0.263326 0.106780
0.296264 0.275906 0.110097
0.321729 0.288486 0.113415
0.347194 0.301066 0.116733
0.372659 0.313646 0.120050
0.385884 0.318280 0.118624
0.396660 0.321325 0.116248
0.407436 0.324370 0.113873
0.418213 0.327415 0.111498
0.428989 0.330459 0.109122
0.457638 0.343046 0.110357
0.495224 0.360405 0.113397
0.532810 0.377763 0.116438
0.570396 0.395121 0.119478
0.607982 0.412480 0.122518
0.641632 0.430272 0.126830
0.671344 0.448500 0.132415
0.701057 0.466727 0.138000
0.730770 0.484954 0.143585
0.760482 0.503182 0.149170
0.786904 0.521364 0.155831
0.806743 0.539458 0.164645
0.826581 0.557551 0.173459
0.846420 0.575644 0.182273
0.866259 0.593737 0.191087
0.884793 0.611812 0.200320
0.896801 0.629792 0.211647
0.908810 0.647772 0.222974
0.920818 0.665753 0.234300
0.932826 0.683733 0.245627
0.944834 0.701713 0.256954
0.285131 0.282177 0.112868
0.309233 0.293989 0.116057
0.333335 0.305800 0.119247
0.357437 0.317612 0.122437
0.381539 0.329424 0.125626
0.405641 0.341235 0.128816
0.419111 0.346534 0.127825
0.430454 0.350530 0.125999
0.441798 0.354526 0.124172
0.453141 0.358522 0.122346
0.464485 0.362518 0.120519
0.488371 0.372410 0.120912
0.518529 0.385249 0.122416
0.548687 0.398088 0.123919
0.578845 0.410928 0.125422
0.609002 0.423767 0.126926
0.638960 0.439181 0.130369
0.668719 0.457171 0.135753
0.698477 0.475160 0.141136
0.728236 0.493150 0.146520
0.757994 0.511139 0.151903
0.784534 0.529111 0.158418
0.804639 0.547049 0.167196
0.824743 0.564987 0.175973
0.844847 0.582924 0.184751
0.864951 0.600862 0.193528
0.883730 0.618776 0.202738
0.895885 0.636574 0.214111
0.908040 0.654371 0.225483
0.920194 0.672168 0.236856
0.932349 0.689966 0.248228
0.944504 0.707763 0.259601
0.324928 0.313608 0.122273
0.347667 0.324651 0.125335
0.370406 0.335695 0.128396
0.393145 0.346738 0.131458
0.415883 0.357781 0.134520
0.438622 0.368824 0.137581
0.452338 0.374787 0.137027
0.464248 0.379735 0.135749
0.476159 0.384682 0.134471
0.488070 0.389630 0.133194
0.499980 0.394578 0.131916
0.519104 0.401773 0.131468
0.541833 0.410094 0.131434
0.564563 0.418414 0.131401
0.587293 0.426734 0.131367
0.610022 0.435054 0.131333
0.636289 0.448090 0.133908
0.666093 0.465841 0.139090
0.695898 0.483593 0.144273
0.725702 0.501345 0.149455
0.755506 0.519096 0.154637
0.782165 0.536858 0.161006
0.802534 0.554640 0.169747
0.822904 0.572422 0.178488
0.843274 0.590205 0.187228
0.863643 0.607987 0.195969
0.882668 0.625741 0.205156
0.894969 0.643355 0.216575
0.907270 0.660970 0.227993
0.919571 0.678584 0.239411
0.931872 0.696199 0.250829
0.944173 0.713813 0.262247
0.364725 0.345039 0.131679
0.386101 0.355314 0.134613
0.407476 0.365589 0.137546
0.428852 0.375863 0.140479
0.450228 0.386138 0.143413
0.471604 0.396413 0.146346
0.485565 0.403041 0.146228
0.498042 0.408940 0.145499
0.510520 0.414839 0.144770
0.522998 0.420738 0.144042
0.535476 0.426637 0.143313
0.549836 0.431137 0.142023
0.565138 0.434938 0.140452
0.580439 0.438739 0.138882
0.595741 0.442540 0.137312
0.611042 0.446341 0.135741
0.633618 0.456998 0.137447
0.663468 0.474512 0.142428
0.693318 0.492026 0.147409
0.723168 0.509540 0.152390
0.753017 0.527053 0.157371
0.779796 0.544605 0.163593
0.800430 0.562232 0.172297
0.821065 0.579858 0.181002
0.841700 0.597485 0.189706
0.862335 0.615111 0.198410
0.881605 0.632706 0.207575
0.894052 0.650137 0.219038
0.906500 0.667569 0.230502
0.918947 0.685000 0.241966
0.931394 0.702431 0.253430
0.943842 0.719863 0.264894
0.404522 0.376470 0.141085
0.424534 0.385976 0.143890
0.444547 0.395483 0.146695
0.464560 0.404989 0.149501
0.484573 0.414495 0.152306
0.504585 0.424002 0.155112
0.518792 0.431294 0.155429
0.531837 0.438145 0.155249
0.544882 0.444995 0.155069
0.557927 0.451845 0.154890
0.570972 0.458696 0.154710
0.580569 0.460500 0.152578
0.588442 0.459782 0.149471
0.596316 0.459064 0.146364
0.604189 0.458346 0.143256
0.612062 0.457628 0.140149
0.630947 0.465907 0.140985
0.660842 0.483183 0.145765
0.690738 0.500459 0.150545
0.720634 0.517735 0.155325
0.750529 0.535011 0.160105
0.777426 0.552352 0.166180
0.798326 0.569823 0.174848
0.819227 0.587294 0.183516
0.840127 0.604765 0.192184
0.861027 0.622236 0.200851
0.880542 0.639670 0.209993
0.893136 0.656919 0.221502
0.905730 0.674167 0.233012
0.918324 0.691416 0.244522
0.930917 0.708664 0.256031
0.943511 0.725913 0.267541
0.442357 0.408634 0.150490
0.460956 0.417275 0.153140
0.479556 0.425917 0.155790
0.498155 0.434559 0.158440
0.516754 0.443201 0.161090
0.535354 0.451843 0.163740
0.549309 0.459228 0.164333
0.562336 0.466362 0.164514
0.575363 0.473496 0.164695
0.588389 0.480630 0.164877
0.601416 0.487763 0.165058
0.608733 0.488516 0.162761
0.613194 0.486078 0.159223
0.617655 0.483640 0.155686
0.622116 0.481202 0.152149
0.626577 0.478764 0.148612
0.642482 0.485092 0.148837
0.669830 0.500187 0.152826
0.697177 0.515281 0.156814
0.724525 0.530375 0.160803
0.751873 0.545469 0.164791
0.777069 0.561264 0.170271
0.797960 0.578461 0.178733
0.818851 0.595658 0.187195
0.839742 0.612854 0.195657
0.860633 0.630051 0.204119
0.880142 0.647201 0.213071
0.892745 0.664120 0.224475
0.905348 0.681040 0.235880
0.917951 0.697959 0.247284
0.930554 0.714878 0.258689
0.943156 0.731797 0.270093
0.478231 0.441530 0.159896
0.495366 0.449211 0.162363
0.512502 0.456892 0.164830
0.529638 0.464574 0.167297
0.546773 0.472255 0.169764
0.563909 0.479936 0.172231
0.577118 0.486841 0.172938
0.589541 0.493591 0.173293
0.601964 0.500340 0.173648
0.614386 0.507090 0.174003
0.626809 0.513840 0.174359
0.634327 0.515184 0.172570
0.639392 0.513826 0.169710
0.644457 0.512467 0.166850
0.649522 0.511109 0.163989
0.654587 0.509750 0.161129
0.668223 0.514555 0.161003
0.690429 0.525523 0.163610
0.712636 0.536492 0.166217
0.734843 0.547460 0.168824
0.757049 0.558429 0.171431
0.778723 0.571342 0.175865
0.799330 0.588145 0.183952
0.819938 0.604949 0.192039
0.840545 0.621752 0.200126
0.861152 0.638555 0.208212
0.880404 0.655299 0.216809
0.892879 0.671742 0.227958
0.905354 0.688186 0.239106
0.917829 0.704629 0.250254
0.930304 0.721073 0.261403
0.942778 0.737516 0.272551
0.514105 0.474426 0.169302
0.529777 0.481147 0.171586
0.545449 0.487867 0.173870
0.561121 0.494588 0.176154
0.576793 0.501309 0.178437
0.592465 0.508030 0.180721
0.604926 0.514454 0.181543
0.616745 0.520820 0.182072
0.628564 0.527185 0.182601
0.640384 0.533551 0.183130
0.652203 0.539916 0.183659
0.659922 0.541852 0.182380
0.665590 0.541573 0.180197
0.671259 0.541294 0.178013
0.676928 0.541015 0.175830
0.682596 0.540736 0.173647
0.693963 0.544018 0.173168
0.711029 0.550860 0.174394
0.728095 0.557703 0.175620
0.745160 0.564546 0.176845
0.762226 0.571388 0.178071
0.780377 0.581420 0.181459
0.800701 0.597830 0.189171
0.821025 0.614240 0.196883
0.841349 0.630650 0.204594
0.861672 0.647060 0.212306
0.880667 0.663396 0.220548
0.893013 0.679364 0.231440
0.905360 0.695332 0.242332
0.917707 0.711300 0.253224
0.930054 0.727267 0.264117
0.942400 0.743235 0.275009
0.549978 0.507322 0.178707
0.564187 0.513082 0.180808
0.578395 0.518842 0.182909
0.592603 0.524603 0.185010
0.606812 0.530363 0.187111
0.621020 0.536123 0.189212
0.632734 0.542067 0.190148
0.643950 0.548049 0.190851
0.655165 0.554030 0.191554
0.666381 0.560011 0.192257
0.677596 0.565992 0.192960
0.685516 0.568520 0.192190
0.691789 0.569320 0.190683
0.698061 0.570121 0.189177
0.704333 0.570921 0.187671
0.710606 0.571722 0.186164
0.719704 0.573480 0.185333
0.731629 0.576197 0.185178
0.743553 0.578914 0.185022
0.755478 0.581631 0.184867
0.767402 0.584348 0.184711
0.782032 0.591498 0.187053
0.802072 0.607515 0.194390
0.822112 0.623531 0.201726
0.842152 0.639548 0.209063
0.862192 0.655565 0.216400
0.880929 0.671494 0.224286
0.893148 0.686986 0.234922
0.905366 0.702478 0.245558
0.917585 0.717970 0.256195
0.929803 0.733462 0.266831
0.942022 0.748954 0.277467
0.585852 0.540218 0.188113
0.598597 0.545018 0.190031
0.611341 0.549817 0.191949
0.624086 0.554617 0.193867
0.636831 0.559417 0.195785
0.649575 0.564216 0.197703
0.660543 0.569681 0.198753
0.671154 0.575278 0.199630
0.681766 0.580875 0.200507
0.692378 0.586472 0.201383
0.702989 0.592069 0.202260
0.711111 0.595188 0.201999
0.717987 0.597068 0.201170
0.724863 0.598947 0.200341
0.731739 0.600827 0.199511
0.738616 0.602707 0.198682
0.745445 0.602943 0.197499
0.752228 0.601534 0.195962
0.759012 0.600125 0.194425
0.765795 0.598716 0.192888
0.772578 0.597308 0.191351
0.783686 0.601576 0.192647
0.803442 0.617199 0.199609
0.823199 0.632823 0.206570
0.842956 0.648446 0.213532
0.862712 0.664069 0.220494
0.881191 0.679591 0.228025
0.893282 0.694608 0.238405
0.905372 0.709624 0.248785
0.917463 0.724640 0.259165
0.929553 0.739657 0.269544
0.941644 0.754673 0.279924
0.617267 0.571413 0.196825
0.628756 0.575383 0.198597
0.640244 0.579353 0.200369
0.651732 0.583323 0.202140
0.663221 0.587294 0.203912
0.674709 0.591264 0.205684
0.684961 0.596196 0.206816
0.694966 0.601320 0.207821
0.704971 0.606445 0.208826
0.714976 0.611569 0.209831
0.724980 0.616694 0.210835
0.733137 0.620106 0.210979
0.740370 0.622663 0.210692
0.747603 0.625220 0.210406
0.754836 0.627777 0.210119
0.762069 0.630334 0.209833
0.767437 0.629683 0.208556
0.770939 0.625826 0.206291
0.774441 0.621969 0.204025
0.777943 0.618111 0.201759
0.781446 0.614254 0.199494
0.789982 0.616424 0.200073
0.808586 0.630651 0.206343
0.827190 0.644878 0.212612
0.845794 0.659104 0.218881
0.864397 0.673331 0.225151
0.881880 0.687605 0.232049
0.893757 0.702115 0.242094
0.905635 0.716625 0.252138
0.917512 0.731136 0.262183
0.929389 0.745646 0.272227
0.941266 0.760156 0.282272
0.639765 0.599204 0.204151
0.650412 0.602607 0.205850
0.661059 0.606010 0.207548
0.671705 0.609414 0.209247
0.682352 0.612817 0.210945
0.692999 0.616220 0.212644
0.702600 0.620516 0.213795
0.711992 0.624991 0.214836
0.721384 0.629466 0.215877
0.730776 0.633941 0.216919
0.740168 0.638415 0.217960
0.748029 0.641526 0.218299
0.755125 0.643955 0.218287
0.762220 0.646384 0.218275
0.769316 0.648813 0.218262
0.776412 0.651241 0.218250
0.781930 0.650980 0.217399
0.785872 0.648028 0.215710
0.789813 0.645076 0.214021
0.793754 0.642125 0.212331
0.797695 0.639173 0.210642
0.805561 0.640813 0.211164
0.821274 0.651637 0.216107
0.836987 0.662460 0.221050
0.852700 0.673284 0.225992
0.868413 0.684107 0.230935
0.883423 0.695451 0.236646
0.894916 0.709394 0.246197
0.906409 0.723337 0.255747
0.917902 0.737280 0.265298
0.929395 0.751223 0.274848
0.940888 0.765166 0.284399
0.662263 0.626996 0.211477
0.672068 0.629832 0.213103
0.681873 0.632668 0.214728
0.691679 0.635504 0.216353
0.701484 0.638339 0.217979
0.711289 0.641175 0.219604
0.720239 0.644836 0.220773
0.729018 0.648661 0.221851
0.737797 0.652487 0.222929
0.746576 0.656312 0.224007
0.755355 0.660137 0.225085
0.762920 0.662946 0.225619
0.769879 0.665247 0.225881
0.776837 0.667548 0.226143
0.783796 0.669848 0.226406
0.790754 0.672149 0.226668
0.796424 0.672276 0.226243
0.800804 0.670230 0.225130
0.805185 0.668184 0.224016
0.809565 0.666138 0.222903
0.813945 0.664092 0.221790
0.821140 0.665201 0.222254
0.833962 0.672622 0.225870
0.846785 0.680043 0.229487
0.859607 0.687463 0.233103
0.872429 0.694884 0.236720
0.884966 0.703297 0.241243
0.896075 0.716673 0.250300
0.907184 0.730048 0.259356
0.918292 0.743424 0.268413
0.929401 0.756800 0.277469
0.940510 0.770176 0.286526
0.684761 0.654788 0.218803
0.693725 0.657056 0.220356
0.702688 0.659325 0.221908
0.711652 0.661594 0.223460
0.720615 0.663862 0.225012
0.729579 0.666131 0.226564
0.737878 0.669156 0.227751
0.746044 0.672332 0.228866
0.754210 0.675507 0.229980
0.762376 0.678683 0.231095
0.770542 0.681859 0.232210
0.777812 0.684366 0.232939
0.784633 0.686539 0.233476
0.791454 0.688712 0.234012
0.798276 0.690884 0.234549
0.805097 0.693057 0.235086
0.810917 0.693573 0.235086
0.815737 0.692432 0.234549
0.820556 0.691292 0.234012
0.825376 0.690152 0.233476
0.830195 0.689011 0.232939
0.836719 0.689590 0.233344
0.846650 0.693607 0.235634
0.856582 0.697625 0.237924
0.866514 0.701642 0.240215
0.876445 0.705660 0.242505
0.886509 0.711143 0.245840
0.897234 0.723951 0.254403
0.907958 0.736760 0.262965
0.918683 0.749569 0.271528
0.929407 0.762377 0.280090
0.940132 0.775186 0.288653
0.707259 0.682579 0.226129
0.715381 0.684281 0.227608
0.723503 0.685982 0.229087
0.731625 0.687684 0.230566
0.739747 0.689385 0.232045
0.747868 0.691087 0.233524
0.755516 0.693476 0.234730
0.763070 0.696002 0.235881
0.770623 0.698528 0.237032
0.778176 0.701055 0.238183
0.785729 0.703581 0.239334
0.792703 0.705786 0.240259
0.799387 0.707831 0.241070
0.806071 0.709875 0.241881
0.812755 0.711920 0.242692
0.819439 0.713965 0.243503
0.825411 0.714869 0.243929
0.830669 0.714635 0.243968
0.835928 0.714400 0.244008
0.841186 0.714165 0.244048
0.846445 0.713930 0.244087
0.852298 0.713978 0.244435
0.859339 0.714593 0.245398
0.866380 0.715207 0.246362
0.873420 0.715822 0.247326
0.880461 0.716436 0.248289
0.888052 0.718989 0.250437
0.898392 0.731230 0.258505
0.908733 0.743472 0.266574
0.919073 0.755713 0.274642
0.929413 0.767955 0.282711
0.939753 0.780196 0.290779
0.727811 0.708827 0.233195
0.735181 0.710037 0.234629
0.742552 0.711248 0.236062
0.749922 0.712458 0.237495
0.757292 0.713669 0.238928
0.764662 0.714880 0.240361
0.771716 0.716678 0.241585
0.778707 0.718595 0.242767
0.785697 0.720511 0.243948
0.792688 0.722428 0.245130
0.799679 0.724344 0.246311
0.806357 0.726235 0.247401
0.812880 0.728111 0.248443
0.819402 0.729988 0.249486
0.825925 0.731865 0.250529
0.832447 0.733742 0.251572
0.838505 0.734938 0.252366
0.844099 0.735453 0.252910
0.849693 0.735969 0.253454
0.855287 0.736484 0.253998
0.860881 0.736999 0.254543
0.866154 0.736628 0.254875
0.870785 0.734485 0.254782
0.875415 0.732341 0.254689
0.880045 0.730197 0.254596
0.884676 0.728054 0.254503
0.890175 0.728163 0.255668
0.900022 0.739540 0.263125
0.909868 0.750918 0.270582
0.919714 0.762295 0.278039
0.929561 0.773672 0.285497
0.939407 0.785049 0.292954
0.738635 0.727354 0.238962
0.745703 0.728455 0.240486
0.752772 0.729556 0.242011
0.759840 0.730657 0.243536
0.766908 0.731758 0.245060
0.773977 0.732858 0.246585
0.780721 0.734296 0.247824
0.787400 0.735801 0.249005
0.794080 0.737306 0.250187
0.800760 0.738810 0.251369
0.807439 0.740315 0.252550
0.813825 0.741824 0.253652
0.820064 0.743335 0.254713
0.826303 0.744846 0.255774
0.832542 0.746357 0.256835
0.838781 0.747868 0.257896
0.844606 0.748867 0.258772
0.850017 0.749355 0.259463
0.855428 0.749843 0.260154
0.860839 0.750331 0.260844
0.866250 0.750819 0.261535
0.871397 0.750585 0.262062
