Assets/1__3DArt/KimSe/artstation_asset/LUTs_subway_asset/CUBE/Yellow Line 01_S.cube
# LUT by SparkleStock. Enhanced with VOXCOLOR algorithms.
LUT_3D_SIZE 32
0.085958 0.074237 0.062515
0.127457 0.095600 0.067478
0.168955 0.116964 0.072441
0.210453 0.138328 0.077404
0.251952 0.159691 0.082366
0.293450 0.181055 0.087329
0.337272 0.206948 0.091977
0.381559 0.233747 0.096562
0.425846 0.260546 0.101146
0.470133 0.287345 0.105731
0.514420 0.314144 0.110315
0.549096 0.337760 0.114018
0.578967 0.359786 0.117279
0.608838 0.381811 0.120540
0.638710 0.403836 0.123802
0.668581 0.425862 0.127063
0.691339 0.444035 0.129922
0.706983 0.458356 0.132380
0.722628 0.472677 0.134838
0.738272 0.486998 0.137296
0.753917 0.501319 0.139753
0.766994 0.513608 0.142148
0.774934 0.521832 0.144417
0.782874 0.530056 0.146686
0.790815 0.538280 0.148954
0.798755 0.546504 0.151223
0.806255 0.554177 0.153468
0.811548 0.559093 0.155595
0.816842 0.564008 0.157722
0.822136 0.568924 0.159849
0.827429 0.573839 0.161976
0.832723 0.578755 0.164103
0.093804 0.083312 0.063791
0.130546 0.102169 0.068004
0.167287 0.121026 0.072217
0.204028 0.139883 0.076429
0.240770 0.158740 0.080642
0.277511 0.177597 0.084855
0.320403 0.202035 0.089027
0.364525 0.227590 0.093190
0.408648 0.253145 0.097354
0.452770 0.278700 0.101518
0.496892 0.304255 0.105682
0.532142 0.327274 0.109140
0.562955 0.349025 0.112246
0.593769 0.370776 0.115352
0.624582 0.392526 0.118458
0.655396 0.414277 0.121563
0.679224 0.432606 0.124396
0.696067 0.447513 0.126954
0.712910 0.462419 0.129512
0.729753 0.477326 0.132071
0.746596 0.492232 0.134629
0.760800 0.505323 0.137222
0.769729 0.514782 0.139884
0.778657 0.524241 0.142546
0.787586 0.533700 0.145208
0.796514 0.543159 0.147870
0.804916 0.552117 0.150541
0.810685 0.558570 0.153253
0.816455 0.565022 0.155965
0.822224 0.571474 0.158678
0.827993 0.577927 0.161390
0.833763 0.584379 0.164103
0.101650 0.092386 0.065068
0.133635 0.108737 0.068530
0.165619 0.125087 0.071993
0.197603 0.141438 0.075455
0.229588 0.157788 0.078918
0.261572 0.174139 0.082380
0.303534 0.197123 0.086076
0.347492 0.221434 0.089819
0.391449 0.245744 0.093562
0.435407 0.270055 0.097306
0.479365 0.294366 0.101049
0.515188 0.316787 0.104263
0.546943 0.338264 0.107213
0.578699 0.359740 0.110164
0.610455 0.381216 0.113114
0.642210 0.402693 0.116064
0.667109 0.421177 0.118869
0.685150 0.436669 0.121528
0.703192 0.452161 0.124187
0.721233 0.467653 0.126846
0.739274 0.483145 0.129505
0.754607 0.497038 0.132296
0.764524 0.507732 0.135351
0.774440 0.518426 0.138407
0.784356 0.529120 0.141462
0.794273 0.539814 0.144518
0.803577 0.550057 0.147613
0.809822 0.558047 0.150911
0.816067 0.566036 0.154209
0.822312 0.574025 0.157507
0.828557 0.582014 0.160805
0.834802 0.590004 0.164103
0.109496 0.101461 0.066344
0.136724 0.115305 0.069056
0.163951 0.129149 0.071768
0.191179 0.142993 0.074481
0.218406 0.156837 0.077193
0.245633 0.170681 0.079906
0.286665 0.192210 0.083126
0.330458 0.215277 0.086448
0.374251 0.238344 0.089771
0.418044 0.261410 0.093093
0.461837 0.284477 0.096415
0.498233 0.306301 0.099386
0.530931 0.327503 0.102180
0.563629 0.348704 0.104975
0.596327 0.369906 0.107770
0.629025 0.391108 0.110565
0.654994 0.409748 0.113342
0.674234 0.425826 0.116101
0.693473 0.441903 0.118861
0.712713 0.457981 0.121621
0.731953 0.474058 0.124380
0.748414 0.488753 0.127370
0.759318 0.500682 0.130818
0.770223 0.512611 0.134267
0.781127 0.524540 0.137716
0.792032 0.536469 0.141165
0.802239 0.547998 0.144686
0.808959 0.557524 0.148569
0.815680 0.567050 0.152453
0.822401 0.576576 0.156336
0.829122 0.586102 0.160219
0.835842 0.595628 0.164103
0.117342 0.110536 0.067620
0.139813 0.121873 0.069582
0.162283 0.133211 0.071544
0.184754 0.144548 0.073507
0.207224 0.155886 0.075469
0.229695 0.167223 0.077431
0.269797 0.187298 0.080176
0.313425 0.209121 0.083077
0.357053 0.230943 0.085979
0.400681 0.252766 0.088880
0.444310 0.274588 0.091782
0.481279 0.295814 0.094508
0.514919 0.316741 0.097147
0.548559 0.337669 0.099787
0.582200 0.358596 0.102426
0.615840 0.379524 0.105065
0.642879 0.398319 0.107815
0.663317 0.414982 0.110675
0.683755 0.431645 0.113535
0.704193 0.448308 0.116396
0.724631 0.464971 0.119256
0.742221 0.480468 0.122443
0.754113 0.493632 0.126286
0.766006 0.506796 0.130128
0.777898 0.519960 0.133970
0.789790 0.533124 0.137812
0.800900 0.545938 0.141759
0.808096 0.557001 0.146227
0.815293 0.568064 0.150696
0.822489 0.579127 0.155165
0.829686 0.590190 0.159634
0.836882 0.601253 0.164103
0.125188 0.119611 0.068896
0.142902 0.128442 0.070108
0.160615 0.137273 0.071320
0.178329 0.146103 0.072532
0.196042 0.154934 0.073744
0.213756 0.163765 0.074957
0.252928 0.182386 0.077226
0.296391 0.202964 0.079706
0.339855 0.223542 0.082187
0.383318 0.244121 0.084668
0.426782 0.264699 0.087148
0.464325 0.285327 0.089631
0.498907 0.305980 0.092115
0.533490 0.326633 0.094598
0.568072 0.347287 0.097082
0.602654 0.367940 0.099566
0.630764 0.386890 0.102288
0.652400 0.404139 0.105249
0.674037 0.421387 0.108210
0.695673 0.438636 0.111171
0.717310 0.455885 0.114131
0.736028 0.472183 0.117517
0.748908 0.486582 0.121753
0.761788 0.500981 0.125988
0.774669 0.515380 0.130224
0.787549 0.529779 0.134459
0.799561 0.543878 0.138831
0.807234 0.556478 0.143886
0.814906 0.569078 0.148940
0.822578 0.581677 0.153994
0.830250 0.594277 0.159048
0.837922 0.606877 0.164103
0.144968 0.135854 0.071236
0.162407 0.144770 0.072376
0.179846 0.153687 0.073516
0.197286 0.162603 0.074657
0.214725 0.171519 0.075797
0.232164 0.180435 0.076938
0.266649 0.196591 0.078698
0.304543 0.214195 0.080583
0.342437 0.231799 0.082467
0.380331 0.249402 0.084352
0.418225 0.267006 0.086236
0.454137 0.286379 0.088361
0.489060 0.306635 0.090605
0.523982 0.326892 0.092849
0.558905 0.347149 0.095094
0.593827 0.367405 0.097338
0.622492 0.386203 0.099926
0.644900 0.403541 0.102858
0.667308 0.420880 0.105790
0.689716 0.438218 0.108722
0.712124 0.455557 0.111654
0.731587 0.472055 0.115072
0.745158 0.486873 0.119465
0.758729 0.501691 0.123858
0.772300 0.516510 0.128250
0.785871 0.531328 0.132643
0.798519 0.545871 0.137202
0.806552 0.559040 0.142598
0.814586 0.572208 0.147994
0.822619 0.585377 0.153390
0.830653 0.598545 0.158786
0.838686 0.611714 0.164181
0.167135 0.153531 0.073788
0.185197 0.163051 0.074992
0.203258 0.172571 0.076197
0.221319 0.182091 0.077401
0.239380 0.191611 0.078606
0.257441 0.201131 0.079810
0.286488 0.214620 0.081055
0.317731 0.228903 0.082309
0.348974 0.243186 0.083562
0.380218 0.257469 0.084815
0.411461 0.271752 0.086069
0.445304 0.289737 0.087812
0.480446 0.309573 0.089800
0.515588 0.329409 0.091788
0.550729 0.349245 0.093776
0.585871 0.369081 0.095764
0.614989 0.387663 0.098197
0.638084 0.404993 0.101074
0.661178 0.422322 0.103951
0.684272 0.439651 0.106828
0.707366 0.456981 0.109705
0.727496 0.473558 0.113124
0.741698 0.488633 0.117626
0.755900 0.503707 0.122129
0.770103 0.518781 0.126631
0.784305 0.533856 0.131133
0.797535 0.548675 0.135833
0.805907 0.562219 0.141522
0.814279 0.575762 0.147210
0.822651 0.589306 0.152899
0.831023 0.602849 0.158587
0.839395 0.616393 0.164276
0.189302 0.171208 0.076340
0.207986 0.181332 0.077609
0.226669 0.191456 0.078877
0.245352 0.201579 0.080146
0.264035 0.211703 0.081414
0.282719 0.221827 0.082683
0.306326 0.232649 0.083413
0.330919 0.243612 0.084035
0.355512 0.254574 0.084657
0.380105 0.265536 0.085279
0.404698 0.276499 0.085901
0.436470 0.293096 0.087263
0.471831 0.312511 0.088995
0.507193 0.331926 0.090727
0.542554 0.351341 0.092459
0.577916 0.370756 0.094191
0.607487 0.389124 0.096468
0.631267 0.406444 0.099290
0.655047 0.423764 0.102112
0.678827 0.441085 0.104934
0.702607 0.458405 0.107757
0.723405 0.475062 0.111175
0.738239 0.490392 0.115788
0.753072 0.505723 0.120400
0.767906 0.521053 0.125012
0.782739 0.536384 0.129624
0.796552 0.551479 0.134464
0.805262 0.565398 0.140445
0.813973 0.579316 0.146427
0.822683 0.593235 0.152408
0.831394 0.607153 0.158389
0.840104 0.621072 0.164370
0.211470 0.188885 0.078892
0.230775 0.199612 0.080225
0.250080 0.210340 0.081558
0.269385 0.221068 0.082890
0.288691 0.231795 0.084223
0.307996 0.242523 0.085555
0.326165 0.250679 0.085770
0.344108 0.258320 0.085761
0.362050 0.265962 0.085751
0.379992 0.273603 0.085742
0.397934 0.281245 0.085733
0.427636 0.296455 0.086714
0.463217 0.315449 0.088190
0.498798 0.334444 0.089666
0.534379 0.353438 0.091142
0.569960 0.372432 0.092617
0.599984 0.390585 0.094739
0.624450 0.407896 0.097506
0.648916 0.425207 0.100274
0.673383 0.442518 0.103041
0.697849 0.459829 0.105808
0.719315 0.476565 0.109227
0.734779 0.492152 0.113949
0.750244 0.507738 0.118671
0.765709 0.523325 0.123393
0.781173 0.538912 0.128114
0.795569 0.554283 0.133095
0.804617 0.568576 0.139369
0.813666 0.582870 0.145643
0.822715 0.597164 0.151917
0.831764 0.611458 0.158191
0.840813 0.625751 0.164465
0.233637 0.206562 0.081445
0.253564 0.217893 0.082841
0.273491 0.229224 0.084238
0.293419 0.240556 0.085634
0.313346 0.251887 0.087031
0.333273 0.263218 0.088428
0.346004 0.268708 0.088127
0.357296 0.273029 0.087486
0.368588 0.277349 0.086846
0.379879 0.281670 0.086206
0.391171 0.285991 0.085565
0.418802 0.299814 0.086165
0.454603 0.318387 0.087385
0.490403 0.336961 0.088605
0.526204 0.355534 0.089824
0.562004 0.374108 0.091044
0.592481 0.392045 0.093010
0.617633 0.409347 0.095722
0.642786 0.426649 0.098435
0.667938 0.443951 0.101147
0.693090 0.461253 0.103860
0.715224 0.478068 0.107278
0.731320 0.493911 0.112110
0.747416 0.509754 0.116942
0.763512 0.525597 0.121773
0.779607 0.541439 0.126605
0.794585 0.557087 0.131726
0.803973 0.571755 0.138293
0.813360 0.586424 0.144859
0.822747 0.601093 0.151426
0.832135 0.615762 0.157993
0.841522 0.630431 0.164559
0.262295 0.230068 0.084785
0.281771 0.241192 0.086166
0.301247 0.252316 0.087547
0.320723 0.263440 0.088929
0.340199 0.274564 0.090310
0.359675 0.285688 0.091691
0.370707 0.290703 0.091304
0.380050 0.294496 0.090563
0.389393 0.298290 0.089822
0.398736 0.302083 0.089081
0.408079 0.305876 0.088340
0.432373 0.317706 0.088654
0.464143 0.333553 0.089496
0.495912 0.349400 0.090338
0.527682 0.365248 0.091179
0.559451 0.381095 0.092021
0.588066 0.397595 0.093712
0.613526 0.414748 0.096254
0.638987 0.431900 0.098796
0.664447 0.449052 0.101337
0.689907 0.466205 0.103879
0.712383 0.482915 0.107172
0.728891 0.498739 0.111967
0.745399 0.514564 0.116762
0.761906 0.530388 0.121557
0.778414 0.546213 0.126352
0.793778 0.561841 0.131456
0.803424 0.576488 0.138109
0.813071 0.591136 0.144761
0.822717 0.605783 0.151413
0.832364 0.620431 0.158065
0.842010 0.635078 0.164717
0.294198 0.256489 0.088519
0.312686 0.267000 0.089845
0.331174 0.277511 0.091172
0.349662 0.288022 0.092498
0.368151 0.298533 0.093824
0.386639 0.309044 0.095151
0.397841 0.314681 0.094892
0.407587 0.319344 0.094315
0.417333 0.324006 0.093739
0.427078 0.328669 0.093163
0.436824 0.333331 0.092586
0.457148 0.342864 0.092663
0.482761 0.354833 0.093065
0.508373 0.366801 0.093468
0.533986 0.378770 0.093870
0.559599 0.390739 0.094273
0.585195 0.405189 0.095630
0.610774 0.422122 0.097943
0.636354 0.439055 0.100256
0.661933 0.455988 0.102569
0.687512 0.472921 0.104882
0.710168 0.489433 0.107986
0.726978 0.505102 0.112671
0.743787 0.520771 0.117356
0.760596 0.536440 0.122042
0.777406 0.552109 0.126727
0.793058 0.567571 0.131737
0.802924 0.581999 0.138371
0.812790 0.596426 0.145005
0.822656 0.610854 0.151638
0.832522 0.625282 0.158272
0.842388 0.639710 0.164906
0.326102 0.282910 0.092253
0.343602 0.292808 0.093524
0.361102 0.302706 0.094796
0.378602 0.312604 0.096067
0.396102 0.322502 0.097339
0.413602 0.332400 0.098610
0.424976 0.338660 0.098479
0.435124 0.344191 0.098068
0.445272 0.349723 0.097656
0.455420 0.355254 0.097244
0.465568 0.360786 0.096833
0.481922 0.368023 0.096671
0.501378 0.376113 0.096634
0.520834 0.384202 0.096598
0.540291 0.392292 0.096561
0.559747 0.400382 0.096525
0.582324 0.412784 0.097548
0.608022 0.429497 0.099633
0.633720 0.446211 0.101717
0.659419 0.462924 0.103801
0.685117 0.479637 0.105885
0.707953 0.495951 0.108800
0.725064 0.511464 0.113375
0.742175 0.526978 0.117951
0.759287 0.542491 0.122527
0.776398 0.558004 0.127102
0.792338 0.573300 0.132018
0.802424 0.587509 0.138633
0.812510 0.601717 0.145249
0.822595 0.615925 0.151864
0.832681 0.630134 0.158480
0.842767 0.644342 0.165095
0.358005 0.309331 0.095986
0.374518 0.318616 0.097203
0.391030 0.327901 0.098420
0.407542 0.337186 0.099636
0.424054 0.346472 0.100853
0.440566 0.355757 0.102070
0.452110 0.362638 0.102067
0.462661 0.369039 0.101820
0.473212 0.375439 0.101573
0.483762 0.381840 0.101326
0.494313 0.388240 0.101079
0.506696 0.393181 0.100679
0.519996 0.397392 0.100204
0.533295 0.401603 0.099728
0.546595 0.405815 0.099252
0.559895 0.410026 0.098777
0.579453 0.420378 0.099466
0.605270 0.436872 0.101322
0.631087 0.453366 0.103178
0.656905 0.469860 0.105033
0.682722 0.486353 0.106889
0.705737 0.502469 0.109614
0.723151 0.517826 0.114080
0.740564 0.533184 0.118546
0.757977 0.548542 0.123011
0.775390 0.563900 0.127477
0.791619 0.579030 0.132298
0.801924 0.593019 0.138895
0.812229 0.607008 0.145493
0.822534 0.620996 0.152090
0.832839 0.634985 0.158687
0.843145 0.648974 0.165284
0.389909 0.335752 0.099720
0.405433 0.344424 0.100882
0.420957 0.353096 0.102044
0.436481 0.361769 0.103206
0.452006 0.370441 0.104368
0.467530 0.379113 0.105529
0.479245 0.386617 0.105654
0.490198 0.393886 0.105572
0.501151 0.401156 0.105490
0.512104 0.408425 0.105407
0.523057 0.415695 0.105325
0.531470 0.418340 0.104688
0.538613 0.418672 0.103773
0.545757 0.419004 0.102858
0.552900 0.419337 0.101943
0.560043 0.419669 0.101029
0.576582 0.427972 0.101385
0.602518 0.444247 0.103011
0.628454 0.460521 0.104638
0.654390 0.476795 0.106265
0.680326 0.493070 0.107892
0.703522 0.508986 0.110428
0.721237 0.524189 0.114784
0.738952 0.539391 0.119140
0.756667 0.554594 0.123496
0.774382 0.569796 0.127852
0.790899 0.584760 0.132579
0.801424 0.598529 0.139158
0.811949 0.612298 0.145736
0.822473 0.626067 0.152315
0.832998 0.639837 0.158894
0.843523 0.653606 0.165473
0.421127 0.363780 0.103738
0.435567 0.371725 0.104831
0.450007 0.379670 0.105924
0.464448 0.387615 0.107017
0.478888 0.395560 0.108111
0.493328 0.403505 0.109204
0.504797 0.411062 0.109420
0.515673 0.418542 0.109461
0.526548 0.426022 0.109503
0.537423 0.433502 0.109544
0.548299 0.440982 0.109585
0.554768 0.442706 0.108903
0.559034 0.441552 0.107861
0.563300 0.440398 0.106818
0.567566 0.439244 0.105775
0.571832 0.438089 0.104732
0.585831 0.444655 0.104862
0.609562 0.458939 0.106164
0.633294 0.473224 0.107466
0.657025 0.487508 0.108768
0.680756 0.501793 0.110070
0.702516 0.516306 0.112321
0.720332 0.531275 0.116471
0.738147 0.546244 0.120621
0.755963 0.561213 0.124772
0.773779 0.576182 0.128922
0.790404 0.590900 0.133458
0.801080 0.604358 0.139922
0.811756 0.617816 0.146387
0.822431 0.631274 0.152851
0.833107 0.644732 0.159316
0.843783 0.658191 0.165780
0.451660 0.393414 0.108039
0.464920 0.400518 0.109050
0.478180 0.407621 0.110061
0.491440 0.414725 0.111071
0.504700 0.421828 0.112082
0.517960 0.428932 0.113093
0.528768 0.435975 0.113365
0.539085 0.443007 0.113488
0.549403 0.450039 0.113612
0.559720 0.457070 0.113735
0.570038 0.464102 0.113859
0.576589 0.466280 0.113326
0.581258 0.466032 0.112467
0.585926 0.465783 0.111607
0.590595 0.465535 0.110747
0.595263 0.465286 0.109887
0.607199 0.470424 0.109897
0.626402 0.480949 0.110779
0.645605 0.491474 0.111660
0.664808 0.501999 0.112541
0.684011 0.512523 0.113423
0.702719 0.524426 0.115293
0.720434 0.539084 0.119141
0.738149 0.553742 0.122989
0.755864 0.568400 0.126838
0.773579 0.583058 0.130686
0.790134 0.597449 0.134935
0.800892 0.610505 0.141189
0.811650 0.623561 0.147443
0.822408 0.636617 0.153697
0.833167 0.649672 0.159952
0.843925 0.662728 0.166206
0.482193 0.423049 0.112340
0.494273 0.429311 0.113269
0.506353 0.435573 0.114197
0.518433 0.441835 0.115126
0.530513 0.448097 0.116054
0.542593 0.454358 0.116983
0.552739 0.460888 0.117309
0.562498 0.467472 0.117515
0.572257 0.474055 0.117721
0.582017 0.480639 0.117926
0.591776 0.487222 0.118132
0.598410 0.489855 0.117749
0.603481 0.490512 0.117073
0.608552 0.491169 0.116396
0.613623 0.491826 0.115719
0.618694 0.492483 0.115042
0.628567 0.496194 0.114933
0.643242 0.502959 0.115394
0.657917 0.509724 0.115854
0.672592 0.516489 0.116315
0.687267 0.523254 0.116775
0.702921 0.532546 0.118264
0.720536 0.546893 0.121811
0.738150 0.561241 0.125357
0.755765 0.575588 0.128903
0.773379 0.589935 0.132450
0.789865 0.603999 0.136412
0.800705 0.616653 0.142456
0.811545 0.629306 0.148500
0.822386 0.641959 0.154544
0.833226 0.654612 0.160587
0.844066 0.667265 0.166631
0.512726 0.452684 0.116641
0.523626 0.458104 0.117487
0.534526 0.463525 0.118333
0.545425 0.468945 0.119180
0.556325 0.474365 0.120026
0.567225 0.479785 0.120872
0.576709 0.485801 0.121253
0.585911 0.491936 0.121541
0.595112 0.498072 0.121829
0.604314 0.504207 0.122118
0.613515 0.510342 0.122406
0.620231 0.513429 0.122173
0.625705 0.514992 0.121679
0.631178 0.516555 0.121185
0.636652 0.518117 0.120691
0.642125 0.519680 0.120197
0.649935 0.521964 0.119969
0.660082 0.524969 0.120009
0.670229 0.527974 0.120049
0.680375 0.530980 0.120088
0.690522 0.533985 0.120128
0.703124 0.540667 0.121236
0.720638 0.554703 0.124480
0.738152 0.568739 0.127725
0.755666 0.582775 0.130969
0.773179 0.596811 0.134214
0.789595 0.610549 0.137890
0.800517 0.622800 0.143723
0.811440 0.635051 0.149557
0.822363 0.647301 0.155390
0.833285 0.659552 0.161223
0.844208 0.671803 0.167057
0.543259 0.482319 0.120942
0.552979 0.486898 0.121706
0.562698 0.491476 0.122470
0.572418 0.496055 0.123234
0.582138 0.500633 0.123998
0.591858 0.505212 0.124761
0.600680 0.510714 0.125197
0.609324 0.516401 0.125568
0.617967 0.522088 0.125938
0.626610 0.527775 0.126309
0.635254 0.533462 0.126679
0.642052 0.537003 0.126596
0.647928 0.539472 0.126285
0.653804 0.541940 0.125974
0.659680 0.544409 0.125662
0.665556 0.546877 0.125351
0.671303 0.547734 0.125005
0.676922 0.546979 0.124624
0.682540 0.546225 0.124243
0.688159 0.545470 0.123862
0.693777 0.544715 0.123481
0.703327 0.548787 0.124207
0.720740 0.562512 0.127150
0.738153 0.576237 0.130093
0.755566 0.589962 0.133035
0.772980 0.603687 0.135978
0.789325 0.617099 0.139367
0.800330 0.628948 0.144990
0.811335 0.640796 0.150613
0.822340 0.652644 0.156236
0.833345 0.664492 0.161859
0.844350 0.676340 0.167482
0.570357 0.510615 0.125495
0.579074 0.514452 0.126171
0.587790 0.518290 0.126846
0.596507 0.522128 0.127522
0.605223 0.525965 0.128197
0.613940 0.529803 0.128872
0.622133 0.534747 0.129332
0.630221 0.539913 0.129748
0.638309 0.545078 0.130164
0.646398 0.550244 0.130581
0.654486 0.555409 0.130997
0.661234 0.559128 0.131030
0.667311 0.562124 0.130871
0.673388 0.565120 0.130713
0.679466 0.568116 0.130554
0.685543 0.571112 0.130396
0.689936 0.571098 0.130005
0.692646 0.568075 0.129383
0.695355 0.565052 0.128761
0.698064 0.562028 0.128139
0.700774 0.559005 0.127517
0.708056 0.561157 0.127949
0.724484 0.573659 0.130489
0.740912 0.586161 0.133029
0.757341 0.598663 0.135569
0.773769 0.611166 0.138109
0.789297 0.623494 0.141121
0.800323 0.634952 0.146491
0.811350 0.646409 0.151861
0.822376 0.657867 0.157231
0.833402 0.669325 0.162601
0.844429 0.680783 0.167970
0.590586 0.536232 0.130553
0.598653 0.539530 0.131127
0.606720 0.542828 0.131702
0.614787 0.546126 0.132277
0.622854 0.549424 0.132852
0.630921 0.552721 0.133427
0.638549 0.557019 0.133846
0.646088 0.561517 0.134235
0.653628 0.566015 0.134624
0.661167 0.570513 0.135013
0.668707 0.575010 0.135402
0.675137 0.578354 0.135486
0.681013 0.581122 0.135419
0.686889 0.583889 0.135352
0.692765 0.586656 0.135285
0.698641 0.589423 0.135218
0.703099 0.589652 0.134933
0.706137 0.587342 0.134430
0.709176 0.585032 0.133927
0.712215 0.582723 0.133424
0.715253 0.580413 0.132920
0.721837 0.582025 0.133230
0.735512 0.591481 0.135167
0.749187 0.600937 0.137103
0.762861 0.610393 0.139039
0.776536 0.619849 0.140976
0.789753 0.629577 0.143428
0.800678 0.640669 0.148459
0.811604 0.651761 0.153491
0.822530 0.662853 0.158522
0.833456 0.673945 0.163553
0.844381 0.685037 0.168585
0.610816 0.561850 0.135610
0.618233 0.564608 0.136084
0.625651 0.567366 0.136558
0.633068 0.570124 0.137032
0.640486 0.572882 0.137507
0.647903 0.575640 0.137981
0.654965 0.579292 0.138361
0.661955 0.583121 0.138722
0.668946 0.586951 0.139084
0.675937 0.590781 0.139445
0.682927 0.594611 0.139806
0.689041 0.597580 0.139943
0.694715 0.600119 0.139967
0.700390 0.602657 0.139992
0.706065 0.605196 0.140016
0.711740 0.607735 0.140041
0.716261 0.608206 0.139861
0.719629 0.606609 0.139476
0.722997 0.605013 0.139092
0.726365 0.603417 0.138708
0.729733 0.601820 0.138324
0.735619 0.602893 0.138512
0.746540 0.609302 0.139844
0.757461 0.615712 0.141177
0.768382 0.622122 0.142510
0.779303 0.628532 0.143842
0.790209 0.635661 0.145735
0.801034 0.646387 0.150428
0.811859 0.657113 0.155121
0.822684 0.667839 0.159813
0.833509 0.678565 0.164506
0.844334 0.689291 0.169199
0.631045 0.587467 0.140667
0.637813 0.589685 0.141041
0.644581 0.591904 0.141414
0.651349 0.594122 0.141788
0.658117 0.596341 0.142161
0.664885 0.598559 0.142535
0.671381 0.601564 0.142875
0.677823 0.604726 0.143209
0.684264 0.607888 0.143543
0.690706 0.611050 0.143877
0.697148 0.614212 0.144211
0.702944 0.616806 0.144400
0.708418 0.619116 0.144515
0.713891 0.621426 0.144631
0.719365 0.623736 0.144747
0.724838 0.626046 0.144863
0.729424 0.626759 0.144788
0.733121 0.625877 0.144523
0.736818 0.624994 0.144258
0.740516 0.624111 0.143993
0.744213 0.623228 0.143727
0.749400 0.623761 0.143793
0.757568 0.627124 0.144522
0.765735 0.630488 0.145251
0.773903 0.633851 0.145980
0.782071 0.637214 0.146708
0.790664 0.641744 0.148042
0.801389 0.652104 0.152396
0.812113 0.662464 0.156750
0.822838 0.672824 0.161105
0.833562 0.683184 0.165459
0.844287 0.693544 0.169814
0.651274 0.613084 0.145725
0.657393 0.614763 0.145997
0.663511 0.616442 0.146270
0.669630 0.618120 0.146543
0.675748 0.619799 0.146816
0.681867 0.621478 0.147089
0.687797 0.623836 0.147390
0.693690 0.626330 0.147696
0.699583 0.628825 0.148003
0.705475 0.631319 0.148309
0.711368 0.633813 0.148616
0.716847 0.636032 0.148856
0.722120 0.638114 0.149064
0.727392 0.640195 0.149271
0.732664 0.642276 0.149478
0.737937 0.644357 0.149686
0.742586 0.645313 0.149716
0.746613 0.645144 0.149570
0.750639 0.644975 0.149423
0.754666 0.644805 0.149277
0.758693 0.644636 0.149131
0.763182 0.644629 0.149075
0.768596 0.644946 0.149200
0.774010 0.645263 0.149325
0.779424 0.645580 0.149450
0.784838 0.645897 0.149575
0.791120 0.647827 0.150348
0.801744 0.657822 0.154364
0.812368 0.667816 0.158380
0.822992 0.677810 0.162396
0.833616 0.687804 0.166412
0.844240 0.697798 0.170428
0.669786 0.637174 0.151160
0.675336 0.638384 0.151326
0.680886 0.639595 0.151492
0.686435 0.640805 0.151659
0.691985 0.642016 0.151825
0.697535 0.643226 0.151991
0.702945 0.644991 0.152232
0.708327 0.646866 0.152488
0.713709 0.648742 0.152744
0.719091 0.650617 0.153000
0.724473 0.652492 0.153257
0.729641 0.654340 0.153521
0.734701 0.656174 0.153789
0.739762 0.658009 0.154058
0.744822 0.659843 0.154326
0.749882 0.661677 0.154594
0.754554 0.662803 0.154703
0.758837 0.663221 0.154651
0.763119 0.663638 0.154599
0.767402 0.664056 0.154547
0.771685 0.664474 0.154495
0.775587 0.664033 0.154335
0.778728 0.661876 0.153958
0.781869 0.659719 0.153582
0.785010 0.657561 0.153205
0.788150 0.655404 0.152829
0.792488 0.655165 0.153115
0.802808 0.664517 0.156713
0.813129 0.673869 0.160311
0.823449 0.683221 0.163909
0.833770 0.692574 0.167507
0.844090 0.701926 0.171106
0.679712 0.653622 0.158486
0.685097 0.654722 0.158515
0.690482 0.655823 0.158544
0.695867 0.656924 0.158573
0.701252 0.658025 0.158602
0.706637 0.659126 0.158631
0.711753 0.660559 0.158712
0.716815 0.662060 0.158803
0.721877 0.663560 0.158895
0.726939 0.665060 0.158986
0.732001 0.666560 0.159078
0.736885 0.668058 0.159226
0.741680 0.669553 0.159403
0.746475 0.671049 0.159580
0.751270 0.672545 0.159757
0.756065 0.674040 0.159934
0.760549 0.674974 0.159982
0.764722 0.675346 0.159903
0.768895 0.675718 0.159824
0.773068 0.676090 0.159745
0.777241 0.676462 0.159665
0.781112 0.676119 0.159490
