Assets/1__3DArt/KimSe/artstation_asset/LUTs_subway_asset/CUBE/Yellow Line 05_S.cube
# LUT by SparkleStock. Enhanced with VOXCOLOR algorithms.
LUT_3D_SIZE 32
0.046886 0.070330 0.082051
0.097885 0.093111 0.083706
0.148883 0.115893 0.085360
0.199882 0.138674 0.087014
0.250880 0.161456 0.088668
0.301879 0.184237 0.090323
0.356973 0.213675 0.090638
0.412887 0.244444 0.090685
0.468801 0.275214 0.090732
0.524715 0.305983 0.090779
0.580629 0.336752 0.090827
0.624570 0.364969 0.090433
0.662523 0.391910 0.089818
0.700477 0.418851 0.089204
0.738430 0.445791 0.088590
0.776383 0.472732 0.087975
0.805073 0.495490 0.087621
0.824499 0.514065 0.087526
0.843925 0.532640 0.087432
0.863350 0.551215 0.087337
0.882776 0.569790 0.087243
0.898673 0.585892 0.087589
0.907511 0.597046 0.088818
0.916350 0.608200 0.090047
0.925188 0.619355 0.091276
0.934027 0.630509 0.092505
0.942180 0.640860 0.093915
0.946906 0.647194 0.096231
0.951633 0.653527 0.098547
0.956359 0.659861 0.100863
0.961086 0.666194 0.103179
0.965812 0.672527 0.105495
0.055961 0.081531 0.082618
0.100895 0.101294 0.083852
0.145828 0.121057 0.085085
0.190761 0.140819 0.086319
0.235695 0.160582 0.087552
0.280628 0.180345 0.088786
0.334232 0.207946 0.088932
0.389569 0.237114 0.088860
0.444907 0.266282 0.088788
0.500245 0.295451 0.088717
0.555582 0.324619 0.088645
0.600007 0.352003 0.088132
0.638976 0.378496 0.087399
0.677945 0.404988 0.086665
0.716914 0.431481 0.085932
0.755883 0.457974 0.085199
0.785839 0.480869 0.084803
0.806784 0.500166 0.084745
0.827728 0.519464 0.084687
0.848672 0.538762 0.084629
0.869617 0.558059 0.084571
0.887004 0.575185 0.085028
0.897279 0.587968 0.086513
0.907554 0.600751 0.087998
0.917829 0.613534 0.089483
0.928103 0.626316 0.090968
0.937603 0.638361 0.092664
0.943226 0.646716 0.095420
0.948849 0.655072 0.098175
0.954472 0.663427 0.100930
0.960094 0.671782 0.103685
0.965717 0.680137 0.106440
0.065036 0.092733 0.083186
0.103904 0.109477 0.083998
0.142773 0.126221 0.084811
0.181641 0.142965 0.085624
0.220509 0.159708 0.086436
0.259377 0.176452 0.087249
0.311490 0.202216 0.087225
0.366251 0.229783 0.087035
0.421012 0.257351 0.086844
0.475774 0.284918 0.086654
0.530535 0.312486 0.086463
0.575445 0.339038 0.085831
0.615429 0.365082 0.084979
0.655414 0.391126 0.084127
0.695398 0.417171 0.083275
0.735382 0.443215 0.082422
0.766606 0.466247 0.081985
0.789069 0.486267 0.081964
0.811532 0.506288 0.081943
0.833994 0.526308 0.081921
0.856457 0.546329 0.081900
0.875336 0.564479 0.082466
0.887047 0.578890 0.084207
0.898758 0.593301 0.085949
0.910469 0.607713 0.087690
0.922180 0.622124 0.089431
0.933026 0.635862 0.091414
0.939545 0.646239 0.094608
0.946065 0.656616 0.097803
0.952584 0.666993 0.100997
0.959103 0.677370 0.104191
0.965623 0.687747 0.107385
0.074111 0.103935 0.083753
0.106914 0.117660 0.084145
0.139717 0.131385 0.084536
0.172520 0.145110 0.084928
0.205323 0.158835 0.085320
0.238126 0.172560 0.085712
0.288748 0.196486 0.085519
0.342933 0.222453 0.085210
0.397118 0.248419 0.084900
0.451303 0.274386 0.084591
0.505488 0.300352 0.084281
0.550883 0.326072 0.083531
0.591882 0.351668 0.082560
0.632882 0.377264 0.081588
0.673882 0.402860 0.080617
0.714882 0.428456 0.079646
0.747372 0.451626 0.079168
0.771354 0.472369 0.079183
0.795335 0.493112 0.079198
0.819316 0.513855 0.079214
0.843298 0.534598 0.079229
0.863668 0.553773 0.079905
0.876815 0.569812 0.081902
0.889962 0.585852 0.083899
0.903109 0.601891 0.085897
0.916257 0.617931 0.087894
0.928449 0.633363 0.090164
0.935865 0.645762 0.093797
0.943280 0.658161 0.097431
0.950696 0.670559 0.101064
0.958112 0.682958 0.104697
0.965528 0.695356 0.108330
0.083186 0.115136 0.084320
0.109924 0.125843 0.084291
0.136662 0.136549 0.084262
0.163400 0.147255 0.084233
0.190138 0.157961 0.084204
0.216876 0.168667 0.084175
0.266006 0.190756 0.083813
0.319615 0.215122 0.083385
0.373223 0.239488 0.082956
0.426832 0.263853 0.082528
0.480441 0.288219 0.082100
0.526320 0.313106 0.081230
0.568336 0.338254 0.080140
0.610351 0.363402 0.079050
0.652366 0.388550 0.077960
0.694381 0.413697 0.076869
0.728139 0.437004 0.076350
0.753639 0.458470 0.076402
0.779139 0.479936 0.076454
0.804639 0.501401 0.076506
0.830139 0.522867 0.076558
0.852000 0.543067 0.077343
0.866583 0.560735 0.079597
0.881166 0.578402 0.081850
0.895750 0.596070 0.084104
0.910333 0.613738 0.086357
0.923872 0.630865 0.088914
0.932184 0.645285 0.092986
0.940496 0.659705 0.097059
0.948809 0.674125 0.101131
0.957121 0.688546 0.105203
0.965434 0.702966 0.109276
0.092260 0.126338 0.084887
0.112933 0.134026 0.084437
0.133606 0.141713 0.083988
0.154279 0.149400 0.083538
0.174952 0.157088 0.083088
0.195625 0.164775 0.082638
0.243264 0.185027 0.082107
0.296296 0.207792 0.081560
0.349329 0.230556 0.081012
0.402361 0.253321 0.080465
0.455394 0.276086 0.079918
0.501758 0.300140 0.078929
0.544789 0.324840 0.077720
0.587819 0.349539 0.076511
0.630850 0.374239 0.075302
0.673880 0.398939 0.074093
0.708905 0.422383 0.073533
0.735923 0.444571 0.073621
0.762942 0.466759 0.073710
0.789961 0.488948 0.073798
0.816979 0.511136 0.073886
0.840331 0.532361 0.074782
0.856351 0.551657 0.077292
0.872371 0.570953 0.079801
0.888390 0.590249 0.082311
0.904410 0.609545 0.084820
0.919294 0.628366 0.087664
0.928503 0.644808 0.092175
0.937712 0.661250 0.096687
0.946921 0.677692 0.101198
0.956130 0.694133 0.105709
0.965339 0.710575 0.110221
0.116499 0.145417 0.086124
0.137008 0.153333 0.085657
0.157516 0.161249 0.085191
0.178024 0.169165 0.084724
0.198532 0.177082 0.084258
0.219041 0.184998 0.083791
0.260658 0.202200 0.083037
0.306497 0.221260 0.082226
0.352336 0.240320 0.081415
0.398175 0.259380 0.080604
0.444014 0.278439 0.079793
0.488149 0.300889 0.078653
0.531433 0.325034 0.077347
0.574717 0.349178 0.076042
0.618000 0.373323 0.074737
0.661284 0.397467 0.073432
0.696889 0.420694 0.072804
0.724817 0.443003 0.072853
0.752744 0.465312 0.072902
0.780671 0.487621 0.072950
0.808598 0.509929 0.072999
0.832860 0.531439 0.073895
0.849790 0.551350 0.076485
0.866720 0.571260 0.079076
0.883649 0.591171 0.081666
0.900579 0.611081 0.084257
0.916316 0.630556 0.087206
0.926086 0.647854 0.091951
0.935856 0.665151 0.096696
0.945626 0.682448 0.101440
0.955396 0.699746 0.106185
0.965166 0.717043 0.110930
0.143771 0.166072 0.087495
0.165295 0.174866 0.087092
0.186818 0.183660 0.086690
0.208342 0.192455 0.086287
0.229866 0.201249 0.085885
0.251389 0.210043 0.085482
0.286078 0.223954 0.084495
0.323401 0.238888 0.083391
0.360723 0.253822 0.082287
0.398045 0.268756 0.081183
0.435367 0.283690 0.080080
0.476731 0.304380 0.078781
0.520115 0.327949 0.077384
0.563500 0.351517 0.075987
0.606884 0.375085 0.074591
0.650268 0.398653 0.073194
0.686317 0.421592 0.072493
0.715031 0.443901 0.072487
0.743745 0.466210 0.072481
0.772459 0.488519 0.072475
0.801173 0.510828 0.072469
0.826228 0.532474 0.073343
0.843962 0.552796 0.075979
0.861697 0.573119 0.078615
0.879432 0.593441 0.081252
0.897167 0.613763 0.083888
0.913657 0.633685 0.086907
0.923921 0.651604 0.091844
0.934185 0.669524 0.096781
0.944449 0.687443 0.101718
0.954713 0.705362 0.106655
0.964977 0.723282 0.111592
0.171043 0.186727 0.088865
0.193582 0.196399 0.088527
0.216121 0.206071 0.088188
0.238660 0.215744 0.087850
0.261199 0.225416 0.087511
0.283738 0.235089 0.087173
0.311499 0.245708 0.085953
0.340305 0.256516 0.084556
0.369110 0.267325 0.083159
0.397916 0.278133 0.081763
0.426721 0.288941 0.080366
0.465313 0.307872 0.078909
0.508798 0.330864 0.077421
0.552283 0.353856 0.075933
0.595768 0.376848 0.074444
0.639252 0.399840 0.072956
0.675745 0.422490 0.072182
0.705246 0.444799 0.072121
0.734747 0.467108 0.072060
0.764247 0.489417 0.071999
0.793748 0.511726 0.071938
0.819595 0.533509 0.072791
0.838135 0.554243 0.075473
0.856675 0.574977 0.078155
0.875215 0.595711 0.080837
0.893755 0.616445 0.083519
0.910998 0.636814 0.086609
0.921756 0.655355 0.091737
0.932514 0.673896 0.096866
0.943272 0.692438 0.101995
0.954030 0.710979 0.107124
0.964788 0.729521 0.112253
0.198314 0.207381 0.090236
0.221869 0.217932 0.089961
0.245423 0.228482 0.089687
0.268978 0.239033 0.089413
0.292532 0.249584 0.089138
0.316087 0.260135 0.088864
0.336920 0.267462 0.087410
0.357209 0.274144 0.085721
0.377497 0.280827 0.084032
0.397786 0.287510 0.082342
0.418075 0.294192 0.080653
0.453895 0.311363 0.079037
0.497480 0.333779 0.077457
0.541066 0.356195 0.075878
0.584651 0.378610 0.074298
0.628237 0.401026 0.072719
0.665173 0.423388 0.071871
0.695461 0.445697 0.071755
0.725748 0.468006 0.071639
0.756036 0.490315 0.071523
0.786323 0.512624 0.071407
0.812963 0.534545 0.072239
0.832308 0.555690 0.074967
0.851653 0.576836 0.077695
0.870998 0.597981 0.080422
0.890343 0.619127 0.083150
0.908339 0.639942 0.086310
0.919591 0.659106 0.091631
0.930843 0.678269 0.096952
0.942095 0.697433 0.102273
0.953347 0.716596 0.107594
0.964599 0.735760 0.112915
0.225586 0.228036 0.091607
0.250156 0.239465 0.091396
0.274726 0.250894 0.091186
0.299296 0.262322 0.090975
0.323866 0.273751 0.090765
0.348436 0.285180 0.090555
0.362341 0.289216 0.088868
0.374112 0.291773 0.086886
0.385884 0.294329 0.084904
0.397656 0.296886 0.082922
0.409428 0.299443 0.080940
0.442476 0.314855 0.079165
0.486163 0.336694 0.077494
0.529849 0.358533 0.075823
0.573535 0.380373 0.074152
0.617221 0.402212 0.072481
0.654601 0.424286 0.071560
0.685675 0.446595 0.071389
0.716750 0.468904 0.071218
0.747824 0.491213 0.071048
0.778898 0.513522 0.070877
0.806331 0.535580 0.071687
0.826481 0.557137 0.074461
0.846631 0.578694 0.077234
0.866781 0.600252 0.080007
0.886930 0.621809 0.082781
0.905680 0.643071 0.086011
0.917426 0.662856 0.091524
0.929172 0.682642 0.097037
0.940918 0.702427 0.102550
0.952664 0.722213 0.108064
0.964410 0.741999 0.113577
0.261334 0.255591 0.093513
0.285492 0.266959 0.093330
0.309650 0.278327 0.093147
0.333809 0.289695 0.092964
0.357967 0.301063 0.092781
0.382125 0.312430 0.092598
0.394038 0.316031 0.090896
0.403501 0.318079 0.088889
0.412965 0.320127 0.086883
0.422429 0.322174 0.084876
0.431892 0.324222 0.082870
0.460705 0.337140 0.081022
0.499192 0.355494 0.079253
0.537679 0.373848 0.077485
0.576166 0.392202 0.075716
0.614653 0.410556 0.073947
0.649571 0.430787 0.072917
0.680919 0.452894 0.072624
0.712268 0.475002 0.072331
0.743617 0.497110 0.072039
0.774965 0.519217 0.071746
0.802729 0.541153 0.072456
0.823325 0.562743 0.075171
0.843920 0.584334 0.077887
0.864515 0.605925 0.080602
0.885110 0.627516 0.083318
0.904273 0.648818 0.086509
0.916275 0.668676 0.092080
0.928277 0.688535 0.097651
0.940279 0.708394 0.103222
0.952282 0.728253 0.108793
0.964284 0.748111 0.114364
0.301319 0.286597 0.095687
0.324353 0.297434 0.095513
0.347386 0.308271 0.095339
0.370419 0.319108 0.095166
0.393452 0.329946 0.094992
0.416485 0.340783 0.094818
0.428873 0.345378 0.093209
0.439133 0.348725 0.091312
0.449392 0.352071 0.089415
0.459652 0.355418 0.087518
0.469911 0.358765 0.085622
0.493756 0.368823 0.083743
0.524394 0.382237 0.081874
0.555033 0.395651 0.080005
0.585671 0.409065 0.078136
0.616309 0.422479 0.076266
0.647311 0.440089 0.075108
0.678678 0.461894 0.074659
0.710045 0.483700 0.074211
0.741412 0.505506 0.073763
0.772779 0.527312 0.073315
0.800644 0.548994 0.073884
0.821504 0.570429 0.076490
0.842365 0.591864 0.079096
0.863225 0.613300 0.081701
0.884085 0.634735 0.084307
0.903492 0.655874 0.087405
0.915632 0.675531 0.092967
0.927771 0.695189 0.098529
0.939910 0.714846 0.104091
0.952050 0.734504 0.109653
0.964189 0.754161 0.115215
0.341305 0.317602 0.097861
0.363213 0.327909 0.097697
0.385121 0.338216 0.097532
0.407029 0.348522 0.097367
0.428937 0.358829 0.097203
0.450845 0.369136 0.097038
0.463709 0.374725 0.095521
0.474764 0.379371 0.093735
0.485819 0.384016 0.091948
0.496875 0.388662 0.090161
0.507930 0.393307 0.088374
0.526808 0.400505 0.086465
0.549597 0.408980 0.084495
0.572386 0.417454 0.082525
0.595175 0.425928 0.080555
0.617965 0.434402 0.078585
0.645052 0.449391 0.077299
0.676437 0.470895 0.076695
0.707822 0.492398 0.076091
0.739207 0.513902 0.075487
0.770593 0.535406 0.074884
0.798558 0.556835 0.075313
0.819684 0.578115 0.077809
0.840809 0.599395 0.080305
0.861935 0.620674 0.082801
0.883061 0.641954 0.085297
0.902712 0.662930 0.088302
0.914988 0.682386 0.093855
0.927265 0.701842 0.099408
0.939542 0.721299 0.104960
0.951818 0.740755 0.110513
0.964095 0.760211 0.116066
0.381291 0.348608 0.100035
0.402074 0.358384 0.099880
0.422856 0.368160 0.099724
0.443639 0.377936 0.099569
0.464422 0.387712 0.099413
0.485205 0.397488 0.099258
0.498544 0.404072 0.097834
0.510396 0.410016 0.096157
0.522247 0.415961 0.094480
0.534098 0.421906 0.092803
0.545949 0.427850 0.091126
0.559860 0.432188 0.089186
0.574800 0.435722 0.087116
0.589740 0.439256 0.085045
0.604680 0.442790 0.082975
0.619620 0.446325 0.080904
0.642792 0.458693 0.079490
0.674196 0.479895 0.078730
0.705599 0.501097 0.077971
0.737003 0.522299 0.077212
0.768406 0.543501 0.076452
0.796472 0.564677 0.076742
0.817863 0.585801 0.079128
0.839254 0.606925 0.081514
0.860645 0.628049 0.083900
0.882036 0.649173 0.086286
0.901931 0.669986 0.089198
0.914345 0.689241 0.094742
0.926759 0.708496 0.100286
0.939173 0.727751 0.105829
0.951586 0.747006 0.111373
0.964000 0.766261 0.116917
0.421277 0.379613 0.102210
0.440934 0.388859 0.102063
0.460592 0.398104 0.101917
0.480249 0.407350 0.101771
0.499907 0.416595 0.101624
0.519564 0.425841 0.101478
0.533380 0.433418 0.100147
0.546027 0.440662 0.098580
0.558674 0.447906 0.097013
0.571321 0.455149 0.095445
0.583968 0.462393 0.093878
0.592911 0.463870 0.091908
0.600003 0.462465 0.089737
0.607094 0.461059 0.087566
0.614185 0.459653 0.085395
0.621276 0.458247 0.083223
0.640533 0.467995 0.081681
0.671954 0.488895 0.080766
0.703376 0.509795 0.079851
0.734798 0.530695 0.078936
0.766220 0.551595 0.078021
0.794386 0.572518 0.078170
0.816043 0.593487 0.080447
0.837699 0.614455 0.082723
0.859355 0.635424 0.084999
0.881012 0.656393 0.087276
0.901150 0.677042 0.090095
0.913702 0.696096 0.095629
0.926253 0.715150 0.101164
0.938804 0.734203 0.106698
0.951355 0.753257 0.112233
0.963906 0.772311 0.117768
0.460034 0.412935 0.104738
0.478438 0.421480 0.104564
0.496842 0.430026 0.104391
0.515247 0.438572 0.104217
0.533651 0.447118 0.104043
0.552055 0.455663 0.103869
0.565764 0.463536 0.102633
0.578535 0.471273 0.101185
0.591306 0.479011 0.099736
0.604076 0.486749 0.098288
0.616847 0.494486 0.096839
0.623459 0.494933 0.094928
0.626991 0.491734 0.092784
0.630524 0.488536 0.090640
0.634057 0.485337 0.088497
0.637589 0.482138 0.086353
0.653662 0.489678 0.084734
0.682276 0.507958 0.083641
0.710889 0.526237 0.082548
0.739502 0.544516 0.081455
0.768116 0.562795 0.080362
0.794404 0.581873 0.080334
0.816042 0.602549 0.082436
0.837680 0.623225 0.084539
0.859318 0.643901 0.086641
0.880956 0.664577 0.088744
0.901082 0.684921 0.091405
0.913647 0.703604 0.096857
0.926211 0.722287 0.102309
0.938776 0.740971 0.107761
0.951341 0.759654 0.113213
0.963906 0.778337 0.118666
0.497562 0.448572 0.107621
0.514585 0.456249 0.107384
0.531608 0.463926 0.107146
0.548631 0.471602 0.106908
0.565653 0.479279 0.106670
0.582676 0.486956 0.106432
0.595698 0.494424 0.105292
0.607920 0.501851 0.103972
0.620142 0.509277 0.102652
0.632363 0.516704 0.101331
0.644585 0.524130 0.100011
0.651502 0.525376 0.098245
0.655766 0.523531 0.096257
0.660031 0.521686 0.094269
0.664295 0.519842 0.092281
0.668560 0.517997 0.090293
0.682181 0.523744 0.088651
0.705159 0.537083 0.087357
0.728138 0.550423 0.086062
0.751116 0.563762 0.084768
0.774094 0.577101 0.083474
0.796525 0.592743 0.083232
0.817861 0.612989 0.085097
0.839197 0.633235 0.086961
0.860533 0.653481 0.088826
0.881869 0.673727 0.090691
0.901725 0.693622 0.093127
0.914180 0.711766 0.098424
0.926635 0.729909 0.103721
0.939090 0.748053 0.109017
0.951545 0.766196 0.114314
0.964000 0.784340 0.119611
0.535090 0.484210 0.110505
0.550732 0.491017 0.110203
0.566373 0.497825 0.109901
0.582015 0.504633 0.109599
0.597656 0.511440 0.109297
0.613298 0.518248 0.108995
0.625632 0.525312 0.107951
0.637305 0.532428 0.106759
0.648978 0.539543 0.105567
0.660650 0.546659 0.104374
0.672323 0.553774 0.103182
0.679545 0.555819 0.101563
0.684541 0.555328 0.099730
0.689538 0.554837 0.097898
0.694534 0.554346 0.096065
0.699530 0.553855 0.094232
0.710700 0.557810 0.092568
0.728043 0.566209 0.091072
0.745386 0.574608 0.089577
0.762729 0.583008 0.088081
0.780072 0.591407 0.086585
0.798646 0.603612 0.086131
0.819680 0.623428 0.087757
0.840714 0.643244 0.089384
0.861748 0.663060 0.091011
0.882783 0.682876 0.092638
0.902369 0.702323 0.094850
0.914714 0.719927 0.099991
0.927059 0.737531 0.105133
0.939404 0.755135 0.110274
0.951749 0.772739 0.115415
0.964095 0.790342 0.120556
0.572618 0.519847 0.113388
0.586878 0.525786 0.113022
0.601138 0.531724 0.112656
0.615399 0.537663 0.112290
0.629659 0.543601 0.111924
0.643919 0.549540 0.111558
0.655566 0.556200 0.110610
0.666690 0.563005 0.109546
0.677813 0.569809 0.108482
0.688937 0.576614 0.107418
0.700061 0.583419 0.106353
0.707588 0.586262 0.104881
0.713316 0.587125 0.103203
0.719044 0.587988 0.101526
0.724773 0.588851 0.099849
0.730501 0.589714 0.098172
0.739219 0.591875 0.096485
0.750927 0.595335 0.094788
0.762635 0.598794 0.093091
0.774342 0.602253 0.091394
0.786050 0.605713 0.089697
0.800766 0.614481 0.089029
0.821499 0.633867 0.090418
0.842231 0.653253 0.091807
0.862964 0.672640 0.093196
0.883696 0.692026 0.094585
0.903012 0.711025 0.096573
0.915248 0.728089 0.101559
0.927483 0.745153 0.106544
0.939718 0.762217 0.111530
0.951954 0.779281 0.116516
0.964189 0.796345 0.121501
0.610146 0.555485 0.116271
0.623025 0.560554 0.115841
0.635904 0.565624 0.115411
0.648783 0.570693 0.114981
0.661661 0.575763 0.114551
0.674540 0.580832 0.114121
0.685499 0.587088 0.113269
0.696074 0.593582 0.112333
0.706649 0.600075 0.111397
0.717225 0.606569 0.110461
0.727800 0.613063 0.109525
0.735631 0.616705 0.108198
0.742091 0.618922 0.106677
0.748551 0.621139 0.105155
0.755011 0.623356 0.103633
0.761471 0.625572 0.102112
0.767738 0.625941 0.100402
0.773810 0.624460 0.098504
0.779883 0.622980 0.096605
0.785956 0.621499 0.094707
0.792029 0.620019 0.092809
0.802887 0.625351 0.091927
0.823318 0.644307 0.093078
0.843748 0.663263 0.094230
0.864179 0.682219 0.095381
0.884609 0.701175 0.096532
0.903656 0.719726 0.098296
0.915781 0.736250 0.103126
0.927907 0.752775 0.107956
0.940032 0.769299 0.112786
0.952158 0.785823 0.117617
0.964284 0.802347 0.122447
0.642822 0.589736 0.119422
0.654530 0.594037 0.118931
0.666237 0.598338 0.118440
0.677945 0.602639 0.117949
0.689653 0.606940 0.117458
0.701361 0.611241 0.116967
0.711665 0.617006 0.116181
0.721688 0.623063 0.115337
0.731711 0.629121 0.114492
0.741734 0.635178 0.113647
0.751758 0.641236 0.112803
0.759710 0.645310 0.111610
0.766628 0.648393 0.110244
0.773545 0.651476 0.108878
0.780462 0.654559 0.107512
0.787380 0.657642 0.106146
0.792088 0.656972 0.104476
0.794587 0.652549 0.102501
0.797086 0.648125 0.100527
0.799585 0.643702 0.098552
0.802084 0.639279 0.096578
0.810132 0.642100 0.095529
0.829279 0.659406 0.096329
0.848425 0.676712 0.097129
0.867572 0.694019 0.097930
0.886719 0.711325 0.098730
0.904664 0.728408 0.100170
0.916600 0.744371 0.104808
0.928537 0.760334 0.109446
0.940474 0.776298 0.114084
0.952410 0.792261 0.118722
0.964347 0.808224 0.123361
0.665792 0.621214 0.123108
0.676750 0.624948 0.122563
0.687708 0.628682 0.122017
0.698666 0.632416 0.121471
0.709623 0.636150 0.120925
0.720581 0.639883 0.120379
0.730295 0.644982 0.119600
0.739760 0.650353 0.118773
0.749225 0.655725 0.117947
0.758690 0.661096 0.117121
0.768155 0.666467 0.116294
0.775861 0.670240 0.115212
0.782687 0.673213 0.114001
0.789513 0.676186 0.112791
0.796339 0.679159 0.111580
0.803165 0.682132 0.110369
0.808102 0.681933 0.108864
0.811149 0.678562 0.107063
0.814197 0.675191 0.105263
0.817245 0.671820 0.103462
0.820293 0.668449 0.101661
0.827624 0.670608 0.100536
0.843524 0.683825 0.100760
0.859423 0.697042 0.100984
0.875322 0.710260 0.101208
0.891221 0.723477 0.101432
0.906402 0.737051 0.102348
0.917991 0.752411 0.106720
0.929580 0.767770 0.111093
0.941169 0.783130 0.115466
0.952758 0.798489 0.119839
0.964347 0.813849 0.124211
0.688763 0.652692 0.126795
0.698970 0.655859 0.126194
0.709178 0.659026 0.125594
0.719386 0.662192 0.124993
0.729593 0.665359 0.124392
0.739801 0.668526 0.123791
0.748925 0.672958 0.123018
0.757832 0.677643 0.122210
0.766739 0.682329 0.121402
0.775646 0.687014 0.120594
0.784553 0.691699 0.119786
0.792012 0.695170 0.118813
0.798746 0.698033 0.117758
0.805481 0.700896 0.116703
0.812215 0.703760 0.115648
0.818950 0.706623 0.114593
0.824115 0.706895 0.113252
0.827712 0.704576 0.111625
0.831308 0.702257 0.109998
0.834905 0.699938 0.108371
0.838502 0.697619 0.106744
0.845117 0.699116 0.105543
0.857768 0.708244 0.105190
0.870420 0.717372 0.104838
0.883072 0.726500 0.104486
0.895723 0.735628 0.104134
0.908140 0.745695 0.104525
0.919381 0.760450 0.108632
0.930623 0.775206 0.112740
0.941864 0.789962 0.116847
0.953105 0.804717 0.120955
0.964347 0.819473 0.125062
0.711733 0.684170 0.130482
0.721191 0.686770 0.129826
0.730648 0.689369 0.129170
0.740106 0.691969 0.128515
0.749563 0.694569 0.127859
0.759021 0.697168 0.127204
0.767555 0.700934 0.126436
0.775904 0.704933 0.125646
0.784253 0.708932 0.124857
0.792602 0.712932 0.124067
0.800951 0.716931 0.123277
0.808163 0.720100 0.122414
0.814805 0.722853 0.121515
0.821448 0.725607 0.120615
0.828091 0.728360 0.119716
0.834734 0.731114 0.118816
0.840129 0.731857 0.117640
0.844274 0.730590 0.116187
0.848420 0.729323 0.114734
0.852565 0.728056 0.113281
0.856711 0.726789 0.111828
0.862609 0.727624 0.110550
0.872013 0.732663 0.109621
0.881418 0.737702 0.108692
0.890822 0.742741 0.107764
0.900226 0.747780 0.106835
0.909878 0.754338 0.106702
0.920772 0.768490 0.110544
0.931666 0.782642 0.114386
0.942559 0.796794 0.118228
0.953453 0.810946 0.122071
0.964347 0.825097 0.125913
0.734704 0.715649 0.134168
0.743411 0.717681 0.133458
0.752119 0.719713 0.132747
0.760826 0.721746 0.132037
0.769533 0.723778 0.131326
0.778241 0.725810 0.130616
0.786185 0.728910 0.129855
0.793976 0.732223 0.129083
0.801767 0.735536 0.128312
0.809558 0.738849 0.127540
0.817349 0.742162 0.126769
0.824313 0.745029 0.126015
0.830865 0.747673 0.125271
0.837416 0.750317 0.124527
0.843968 0.752961 0.123783
0.850519 0.755604 0.123039
0.856142 0.756819 0.122028
0.860837 0.756604 0.120749
0.865531 0.756389 0.119469
0.870225 0.756174 0.118190
0.874920 0.755959 0.116911
0.880102 0.756132 0.115557
0.886258 0.757082 0.114052
0.892415 0.758032 0.112547
0.898572 0.758982 0.111042
0.904728 0.759932 0.109537
0.911616 0.762981 0.108879
0.922162 0.776529 0.112456
0.932708 0.790077 0.116033
0.943255 0.803626 0.119610
0.953801 0.817174 0.123187
0.964347 0.830722 0.126764
0.755256 0.745197 0.138241
0.763306 0.746738 0.137473
0.771357 0.748280 0.136704
0.779407 0.749821 0.135936
0.787457 0.751362 0.135167
0.795507 0.752904 0.134399
0.802927 0.755389 0.133629
0.810221 0.758064 0.132859
0.817515 0.760738 0.132089
0.824809 0.763412 0.131319
0.832103 0.766086 0.130549
0.838835 0.768642 0.129879
0.845286 0.771138 0.129258
0.851737 0.773633 0.128638
0.858188 0.776129 0.128017
0.864639 0.778625 0.127397
0.870438 0.780205 0.126525
0.875587 0.780868 0.125403
0.880736 0.781531 0.124281
0.885885 0.782194 0.123159
0.891034 0.782858 0.122037
0.895625 0.782509 0.120634
0.899103 0.780137 0.118668
0.902581 0.777764 0.116703
0.906059 0.775392 0.114738
0.909536 0.773020 0.112772
0.914107 0.773145 0.111663
0.924139 0.785758 0.114835
0.934171 0.798372 0.118006
0.944203 0.810985 0.121177
0.954236 0.823599 0.124348
0.964268 0.836213 0.127520
0.763717 0.765095 0.144244
0.771575 0.766527 0.143402
0.779433 0.767958 0.142560
0.787291 0.769390 0.141719
0.795149 0.770822 0.140877
0.803007 0.772253 0.140035
0.810235 0.774385 0.139185
0.817337 0.776657 0.138333
0.824439 0.778929 0.137480
0.831541 0.781200 0.136628
0.838643 0.783472 0.135776
0.845213 0.785668 0.135054
0.851517 0.787825 0.134397
0.857822 0.789982 0.133739
0.864126 0.792140 0.133082
0.870431 0.794297 0.132425
0.876148 0.795712 0.131572
0.881279 0.796385 0.130523
0.886409 0.797057 0.129474
0.891540 0.797729 0.128425
0.896670 0.798402 0.127376
0.901305 0.798230 0.126061
