Assets/1__3DArt/KimSe/artstation_asset/LUTs_subway_asset/CUBE/Yellow Line 02.cube
# LUT by SparkleStock. Enhanced with VOXCOLOR algorithms.
LUT_3D_SIZE 32
0.074237 0.066422 0.054701
0.119422 0.092607 0.063492
0.164607 0.118792 0.072283
0.209792 0.144976 0.081074
0.254977 0.171161 0.089866
0.300161 0.197345 0.098657
0.345465 0.226641 0.107803
0.390791 0.256560 0.117019
0.436118 0.286478 0.126236
0.481445 0.316397 0.135452
0.526771 0.346315 0.144669
0.562519 0.372138 0.151963
0.593477 0.395912 0.158297
0.624436 0.419686 0.164630
0.655394 0.443460 0.170964
0.686352 0.467234 0.177297
0.710056 0.486423 0.182213
0.726504 0.501028 0.185710
0.742952 0.515633 0.189208
0.759400 0.530238 0.192706
0.775848 0.544842 0.196203
0.789523 0.557147 0.199307
0.797653 0.564851 0.201623
0.805782 0.572555 0.203939
0.813912 0.580259 0.206255
0.822041 0.587963 0.208571
0.829706 0.595266 0.210902
0.835047 0.600559 0.213313
0.840388 0.605853 0.215723
0.845728 0.611147 0.218134
0.851069 0.616440 0.220544
0.856410 0.621734 0.222955
0.083832 0.079467 0.056544
0.124141 0.102194 0.064466
0.164450 0.124921 0.072388
0.204759 0.147647 0.080311
0.245068 0.170374 0.088233
0.285377 0.193101 0.096155
0.330142 0.221378 0.105163
0.375798 0.250766 0.114389
0.421454 0.280154 0.123615
0.467110 0.309542 0.132841
0.512766 0.338930 0.142066
0.549252 0.364886 0.149461
0.581152 0.389127 0.155941
0.613053 0.413367 0.162421
0.644953 0.437608 0.168901
0.676854 0.461849 0.175381
0.701481 0.481729 0.180456
0.718835 0.497248 0.184128
0.736188 0.512768 0.187799
0.753542 0.528287 0.191471
0.770896 0.543807 0.195142
0.785385 0.557014 0.198422
0.794146 0.565596 0.200921
0.802907 0.574179 0.203420
0.811667 0.582761 0.205919
0.820428 0.591343 0.208418
0.828677 0.599455 0.210937
0.834365 0.605216 0.213558
0.840054 0.610976 0.216179
0.845742 0.616736 0.218800
0.851431 0.622496 0.221421
0.857119 0.628256 0.224042
0.093426 0.092513 0.058387
0.128859 0.111781 0.065441
0.164293 0.131050 0.072494
0.199726 0.150319 0.079547
0.235159 0.169587 0.086600
0.270592 0.188856 0.093653
0.314819 0.216115 0.102524
0.360804 0.244972 0.111759
0.406790 0.273830 0.120994
0.452775 0.302687 0.130229
0.498760 0.331544 0.139464
0.535984 0.357635 0.146960
0.568827 0.382342 0.153586
0.601670 0.407049 0.160212
0.634512 0.431756 0.166838
0.667355 0.456464 0.173464
0.692906 0.477034 0.178700
0.711165 0.493469 0.182545
0.729425 0.509903 0.186390
0.747684 0.526337 0.190236
0.765944 0.542772 0.194081
0.781247 0.556882 0.197538
0.790639 0.566342 0.200220
0.800031 0.575803 0.202902
0.809423 0.585263 0.205584
0.818815 0.594724 0.208266
0.827647 0.603645 0.210972
0.833684 0.609872 0.213804
0.839720 0.616099 0.216635
0.845756 0.622325 0.219466
0.851792 0.628552 0.222298
0.857828 0.634779 0.225129
0.103021 0.105558 0.060231
0.133578 0.121368 0.066415
0.164136 0.137179 0.072599
0.194693 0.152990 0.078783
0.225250 0.168801 0.084967
0.255808 0.184611 0.091151
0.299496 0.210852 0.099885
0.345811 0.239179 0.109129
0.392125 0.267505 0.118373
0.438440 0.295832 0.127617
0.484755 0.324159 0.136861
0.522716 0.350384 0.144458
0.556501 0.375557 0.151230
0.590286 0.400731 0.158003
0.624071 0.425905 0.164775
0.657856 0.451079 0.171548
0.684331 0.472340 0.176944
0.703496 0.489689 0.180963
0.722661 0.507038 0.184982
0.741826 0.524387 0.189001
0.760991 0.541737 0.193020
0.777109 0.556749 0.196654
0.787132 0.567088 0.199519
0.797155 0.577426 0.202384
0.807179 0.587765 0.205248
0.817202 0.598104 0.208113
0.826618 0.607835 0.211008
0.833002 0.614528 0.214049
0.839386 0.621222 0.217091
0.845770 0.627915 0.220133
0.852153 0.634608 0.223174
0.858537 0.641301 0.226216
0.112616 0.118603 0.062074
0.138297 0.130955 0.067389
0.163979 0.143308 0.072704
0.189660 0.155661 0.078019
0.215341 0.168014 0.083334
0.241023 0.180367 0.088649
0.284173 0.205589 0.097246
0.330817 0.233385 0.106499
0.377461 0.261181 0.115752
0.424105 0.288977 0.125005
0.470749 0.316773 0.134259
0.509449 0.343132 0.141956
0.544176 0.368773 0.148874
0.578903 0.394413 0.155793
0.613630 0.420053 0.162712
0.648358 0.445693 0.169631
0.675757 0.467646 0.175187
0.695827 0.485909 0.179380
0.715898 0.504173 0.183573
0.735969 0.522437 0.187766
0.756039 0.540701 0.191958
0.772971 0.556616 0.195770
0.783626 0.567833 0.198817
0.794280 0.579050 0.201865
0.804934 0.590267 0.204913
0.815589 0.601484 0.207961
0.825589 0.612025 0.211043
0.832321 0.619185 0.214295
0.839052 0.626344 0.217547
0.845783 0.633504 0.220799
0.852515 0.640664 0.224051
0.859246 0.647824 0.227303
0.122210 0.131648 0.063917
0.143016 0.140542 0.068363
0.163822 0.149437 0.072809
0.184627 0.158332 0.077255
0.205433 0.167227 0.081701
0.226238 0.176122 0.086147
0.268850 0.200326 0.094607
0.315824 0.227591 0.103869
0.362797 0.254857 0.113131
0.409770 0.282122 0.122394
0.456744 0.309388 0.131656
0.496181 0.335881 0.139454
0.531851 0.361988 0.146519
0.567520 0.388095 0.153584
0.603190 0.414201 0.160649
0.638859 0.440308 0.167715
0.667182 0.462951 0.173431
0.688158 0.482130 0.177797
0.709135 0.501309 0.182164
0.730111 0.520487 0.186531
0.751087 0.539666 0.190897
0.768833 0.556484 0.194885
0.780119 0.568579 0.198116
0.791404 0.580674 0.201347
0.802690 0.592769 0.204578
0.813976 0.604864 0.207808
0.824560 0.616215 0.211078
0.831639 0.623841 0.214540
0.838718 0.631467 0.218003
0.845797 0.639094 0.221465
0.852876 0.646720 0.224928
0.859955 0.654346 0.228390
0.143818 0.151664 0.068675
0.164230 0.160509 0.073060
0.184643 0.169353 0.077445
0.205055 0.178198 0.081830
0.225467 0.187042 0.086215
0.245879 0.195887 0.090600
0.283586 0.216413 0.098123
0.324752 0.239275 0.106274
0.365918 0.262138 0.114425
0.407084 0.285000 0.122576
0.448250 0.307862 0.130727
0.486100 0.332889 0.138170
0.522292 0.358997 0.145260
0.558485 0.385105 0.152349
0.594677 0.411214 0.159439
0.630870 0.437322 0.166529
0.659835 0.460301 0.172313
0.681572 0.480151 0.176793
0.703309 0.500000 0.181272
0.725046 0.519850 0.185752
0.746783 0.539699 0.190231
0.765224 0.557203 0.194345
0.777072 0.570017 0.197729
0.788920 0.582830 0.201112
0.800768 0.595643 0.204495
0.812617 0.608457 0.207878
0.823720 0.620477 0.211307
0.831101 0.628532 0.214965
0.838482 0.636586 0.218622
0.845863 0.644641 0.222280
0.853244 0.652696 0.225938
0.860625 0.660751 0.229595
0.167829 0.173075 0.074016
0.188744 0.182551 0.078502
0.209659 0.192027 0.082987
0.230575 0.201502 0.087473
0.251490 0.210978 0.091959
0.272405 0.220454 0.096444
0.304334 0.236770 0.102871
0.338465 0.254455 0.109686
0.372596 0.272139 0.116502
0.406727 0.289824 0.123317
0.440858 0.307509 0.130132
0.476656 0.330748 0.137130
0.513288 0.356765 0.144220
0.549919 0.382782 0.151310
0.586551 0.408799 0.158399
0.623183 0.434815 0.165489
0.652733 0.458060 0.171324
0.675202 0.478531 0.175904
0.697671 0.499003 0.180484
0.720140 0.519475 0.185064
0.742609 0.539946 0.189644
0.761720 0.558094 0.193874
0.774117 0.571593 0.197404
0.786514 0.585093 0.200933
0.798911 0.598592 0.204463
0.811308 0.612091 0.207993
0.822918 0.624753 0.211575
0.830592 0.633229 0.215425
0.838265 0.641705 0.219275
0.845939 0.650180 0.223125
0.853613 0.658656 0.226975
0.861286 0.667131 0.230824
0.191839 0.194486 0.079357
0.213257 0.204593 0.083943
0.234676 0.214700 0.088530
0.256094 0.224807 0.093116
0.277513 0.234914 0.097702
0.298931 0.245021 0.102288
0.325081 0.257128 0.107619
0.352178 0.269634 0.113099
0.379274 0.282141 0.118578
0.406370 0.294648 0.124058
0.433467 0.307155 0.129537
0.467212 0.328607 0.136090
0.504283 0.354533 0.143180
0.541354 0.380458 0.150270
0.578424 0.406384 0.157359
0.615495 0.432309 0.164449
0.645631 0.455818 0.170334
0.668832 0.476912 0.175015
0.692032 0.498006 0.179696
0.715233 0.519100 0.184377
0.738434 0.540193 0.189057
0.758217 0.558984 0.193403
0.771163 0.573170 0.197079
0.784108 0.587355 0.200755
0.797054 0.601541 0.204431
0.810000 0.615726 0.208107
0.822116 0.629030 0.211844
0.830083 0.637927 0.215886
0.838049 0.646823 0.219928
0.846015 0.655719 0.223969
0.853982 0.664616 0.228011
0.861948 0.673512 0.232053
0.215849 0.215897 0.084698
0.237771 0.226635 0.089385
0.259693 0.237373 0.094072
0.281614 0.248111 0.098759
0.303536 0.258849 0.103445
0.325457 0.269588 0.108132
0.345829 0.277485 0.112367
0.365890 0.284814 0.116511
0.385952 0.292143 0.120655
0.406014 0.299472 0.124799
0.426075 0.306801 0.128943
0.457769 0.326467 0.135051
0.495278 0.352301 0.142140
0.532788 0.378135 0.149230
0.570298 0.403968 0.156320
0.607808 0.429802 0.163409
0.638529 0.453577 0.169345
0.662462 0.475293 0.174126
0.686394 0.497009 0.178908
0.710327 0.518725 0.183689
0.734260 0.540440 0.188470
0.754713 0.559875 0.192932
0.768208 0.574746 0.196754
0.781703 0.589618 0.200577
0.795197 0.604489 0.204399
0.808692 0.619361 0.208221
0.821314 0.633307 0.212112
0.829573 0.642624 0.216346
0.837832 0.651941 0.220580
0.846092 0.661258 0.224814
0.854351 0.670576 0.229048
0.862610 0.679893 0.233282
0.239860 0.237307 0.090039
0.262285 0.248677 0.094826
0.284709 0.260046 0.099614
0.307134 0.271416 0.104401
0.329559 0.282785 0.109189
0.351984 0.294155 0.113976
0.366577 0.297842 0.117114
0.379603 0.299994 0.119923
0.392630 0.302145 0.122731
0.405657 0.304296 0.125540
0.418683 0.306447 0.128348
0.448325 0.324326 0.134011
0.486274 0.350069 0.141100
0.524223 0.375811 0.148190
0.562172 0.401553 0.155280
0.600120 0.427296 0.162370
0.631427 0.451336 0.168355
0.656092 0.473674 0.173237
0.680756 0.496012 0.178119
0.705421 0.518349 0.183001
0.730085 0.540687 0.187883
0.751209 0.560765 0.192461
0.765253 0.576323 0.196429
0.779297 0.591880 0.200398
0.793340 0.607438 0.204367
0.807384 0.622996 0.208336
0.820512 0.637583 0.212381
0.829064 0.647321 0.216807
0.837616 0.657060 0.221233
0.846168 0.666798 0.225659
0.854720 0.676536 0.230085
0.863271 0.686274 0.234511
0.269290 0.263728 0.096924
0.291077 0.274863 0.101537
0.312865 0.285998 0.106151
0.334652 0.297132 0.110765
0.356440 0.308267 0.115378
0.378227 0.319401 0.119992
0.391065 0.322272 0.122756
0.402112 0.323491 0.125149
0.413160 0.324709 0.127543
0.424208 0.325927 0.129937
0.435256 0.327145 0.132331
0.461452 0.342066 0.137339
0.495224 0.363838 0.143654
0.528995 0.385610 0.149969
0.562766 0.407383 0.156284
0.596537 0.429155 0.162599
0.625987 0.451338 0.168205
0.651115 0.473932 0.173103
0.676243 0.496526 0.178000
0.701371 0.519120 0.182897
0.726499 0.541714 0.187794
0.748089 0.562159 0.192415
0.762602 0.578305 0.196481
0.777115 0.594451 0.200547
0.791629 0.610597 0.204613
0.806142 0.626743 0.208680
0.819703 0.641888 0.212832
0.828505 0.652022 0.217413
0.837307 0.662156 0.221995
0.846109 0.672291 0.226577
0.854911 0.682425 0.231158
0.863713 0.692560 0.235740
0.301430 0.292654 0.104581
0.322010 0.303121 0.108883
0.342590 0.313588 0.113186
0.363169 0.324055 0.117489
0.383749 0.334522 0.121791
0.404329 0.344988 0.126094
0.417423 0.348739 0.128844
0.429020 0.351146 0.131283
0.440616 0.353554 0.133723
0.452213 0.355961 0.136162
0.463809 0.358369 0.138602
0.485865 0.369746 0.142850
0.513151 0.385609 0.148004
0.540436 0.401472 0.153157
0.567721 0.417334 0.158310
0.595007 0.433197 0.163464
0.621378 0.452462 0.168475
0.646835 0.475129 0.173345
0.672293 0.497796 0.178215
0.697750 0.520463 0.183085
0.723207 0.543130 0.187954
0.745160 0.563804 0.192581
0.760103 0.580490 0.196720
0.775046 0.597176 0.200860
0.789990 0.613861 0.204999
0.804933 0.630547 0.209139
0.818891 0.646205 0.213375
0.827921 0.656724 0.218093
0.836952 0.667243 0.222812
0.845982 0.677761 0.227531
0.855013 0.688280 0.232250
0.864043 0.698799 0.236969
0.333570 0.321580 0.112238
0.352942 0.331379 0.116229
0.372314 0.341178 0.120221
0.391687 0.350977 0.124212
0.411059 0.360776 0.128204
0.430432 0.370575 0.132195
0.443781 0.375206 0.134932
0.455927 0.378802 0.137417
0.468072 0.382399 0.139902
0.480218 0.385996 0.142387
0.492363 0.389592 0.144872
0.510278 0.397427 0.148362
0.531078 0.407380 0.152354
0.551877 0.417333 0.156345
0.572677 0.427286 0.160337
0.593476 0.437239 0.164328
0.616769 0.453585 0.168745
0.642556 0.476326 0.173587
0.668342 0.499066 0.178430
0.694129 0.521806 0.183272
0.719916 0.544547 0.188114
0.742231 0.565449 0.192747
0.757604 0.582674 0.196960
0.772977 0.599900 0.201172
0.788351 0.617126 0.205385
0.803724 0.634351 0.209598
0.818078 0.650523 0.213917
0.827337 0.661426 0.218773
0.836596 0.672329 0.223629
0.845856 0.683232 0.228486
0.855115 0.694135 0.233342
0.864374 0.705038 0.238198
0.365710 0.350506 0.119894
0.383874 0.359637 0.123575
0.402039 0.368769 0.127256
0.420204 0.377900 0.130936
0.438369 0.387031 0.134617
0.456534 0.396162 0.138297
0.470140 0.401672 0.141020
0.482834 0.406458 0.143551
0.495529 0.411244 0.146082
0.508223 0.416030 0.148612
0.520917 0.420816 0.151143
0.534691 0.425107 0.153874
0.549005 0.429150 0.156703
0.563318 0.433194 0.159533
0.577632 0.437237 0.162363
0.591945 0.441281 0.165193
0.612160 0.454709 0.169015
0.638276 0.477523 0.173830
0.664392 0.500336 0.178645
0.690508 0.523150 0.183460
0.716624 0.545963 0.188275
0.739302 0.567094 0.192913
0.755105 0.584859 0.197199
0.770908 0.602625 0.201485
0.786712 0.620390 0.205771
0.802515 0.638155 0.210056
0.817265 0.654841 0.214460
0.826753 0.666128 0.219453
0.836241 0.677415 0.224447
0.845729 0.688702 0.229440
0.855217 0.699989 0.234433
0.864705 0.711277 0.239427
0.397849 0.379432 0.127551
0.414807 0.387895 0.130921
0.431764 0.396359 0.134290
0.448721 0.404822 0.137660
0.465679 0.413286 0.141029
0.482636 0.421749 0.144399
0.496498 0.428139 0.147108
0.509741 0.434114 0.149684
0.522985 0.440089 0.152261
0.536228 0.446064 0.154838
0.549471 0.452040 0.157414
0.559104 0.452787 0.159385
0.566932 0.450921 0.161053
0.574759 0.449055 0.162721
0.582587 0.447189 0.164389
0.590414 0.445322 0.166057
0.607551 0.455833 0.169285
0.633996 0.478719 0.174072
0.660441 0.501606 0.178860
0.686887 0.524493 0.183647
0.713332 0.547380 0.188435
0.736373 0.568739 0.193079
0.752606 0.587044 0.197438
0.768839 0.605349 0.201797
0.785073 0.623654 0.206156
0.801306 0.641959 0.210515
0.816453 0.659159 0.215003
0.826169 0.670830 0.220133
0.835886 0.682502 0.225264
0.845603 0.694173 0.230394
0.855319 0.705844 0.235525
0.865036 0.717515 0.240655
0.428713 0.409634 0.135326
0.444436 0.417329 0.138376
0.460158 0.425024 0.141425
0.475880 0.432719 0.144474
0.491603 0.440414 0.147524
0.507325 0.448109 0.150573
0.520924 0.454740 0.153175
0.534099 0.461159 0.155688
0.547273 0.467578 0.158200
0.560448 0.473997 0.160713
0.573623 0.480416 0.163226
0.581266 0.479790 0.164812
0.586143 0.475641 0.165936
0.591020 0.471492 0.167060
0.595898 0.467344 0.168183
0.600775 0.463195 0.169307
0.615364 0.471213 0.172048
0.639664 0.491396 0.176405
0.663964 0.511580 0.180763
0.688264 0.531763 0.185120
0.712564 0.551947 0.189478
0.734267 0.571603 0.193836
0.750774 0.590206 0.198195
0.767282 0.608808 0.202554
0.783790 0.627410 0.206913
0.800297 0.646013 0.211272
0.815702 0.663515 0.215774
0.825592 0.675516 0.220991
0.835483 0.687516 0.226208
0.845373 0.699517 0.231426
0.855264 0.711517 0.236643
0.865154 0.723518 0.241861
0.458301 0.441112 0.143220
0.472761 0.447938 0.145940
0.487221 0.454764 0.148660
0.501681 0.461590 0.151380
0.516140 0.468416 0.154100
0.530600 0.475242 0.156820
0.543417 0.481477 0.159222
0.555906 0.487594 0.161561
0.568394 0.493711 0.163900
0.580883 0.499828 0.166238
0.593372 0.505945 0.168577
0.601176 0.506115 0.170155
0.606639 0.503311 0.171352
0.612102 0.500507 0.172548
0.617565 0.497703 0.173745
0.623028 0.494899 0.174942
0.635599 0.500849 0.177303
0.655280 0.515553 0.180828
0.674960 0.530257 0.184353
0.694640 0.544961 0.187878
0.714321 0.559665 0.191403
0.732983 0.575686 0.195182
0.749610 0.594343 0.199468
0.766236 0.613001 0.203753
0.782863 0.631658 0.208039
0.799489 0.650315 0.212325
0.815013 0.667909 0.216772
0.825022 0.680184 0.222026
0.835031 0.692459 0.227280
0.845041 0.704734 0.232534
0.855050 0.717009 0.237788
0.865060 0.729284 0.243042
0.487888 0.472590 0.151113
0.501086 0.478547 0.153503
0.514283 0.484504 0.155894
0.527481 0.490461 0.158285
0.540678 0.496418 0.160675
0.553876 0.502375 0.163066
0.565911 0.508213 0.165269
0.577713 0.514029 0.167434
0.589516 0.519844 0.169599
0.601318 0.525659 0.171764
0.613120 0.531474 0.173929
0.621087 0.532439 0.175497
0.627135 0.530980 0.176767
0.633184 0.529521 0.178037
0.639232 0.528062 0.179307
0.645280 0.526603 0.180577
0.655835 0.530486 0.182559
0.670895 0.539710 0.185251
0.685956 0.548934 0.187944
0.701017 0.558158 0.190636
0.716077 0.567382 0.193329
0.731699 0.579769 0.196528
0.748445 0.598481 0.200741
0.765190 0.617194 0.204953
0.781936 0.635906 0.209166
0.798681 0.654618 0.213379
0.814323 0.672303 0.217771
0.824452 0.684853 0.223062
0.834580 0.697402 0.228352
0.844708 0.709952 0.233643
0.854837 0.722501 0.238933
0.864965 0.735051 0.244224
0.517476 0.504069 0.159006
0.529411 0.509156 0.161067
0.541346 0.514244 0.163129
0.553281 0.519332 0.165190
0.565216 0.524420 0.167251
0.577151 0.529508 0.169313
0.588404 0.534950 0.171315
0.599520 0.540463 0.173307
0.610637 0.545976 0.175298
0.621753 0.551490 0.177289
0.632869 0.557003 0.179280
0.640997 0.558764 0.180840
0.647631 0.558650 0.182183
0.654265 0.558536 0.183526
0.660899 0.558421 0.184869
0.667533 0.558307 0.186212
0.676070 0.560122 0.187814
0.686511 0.563866 0.189674
0.696952 0.567611 0.191534
0.707393 0.571356 0.193394
0.717834 0.575100 0.195254
0.730416 0.583852 0.197874
0.747280 0.602619 0.202014
0.764144 0.621386 0.206153
0.781009 0.640154 0.210293
0.797873 0.658921 0.214432
0.813634 0.676697 0.218770
0.823882 0.689521 0.224097
0.834129 0.702345 0.229424
0.844376 0.715169 0.234751
0.854623 0.727993 0.240078
0.864871 0.740817 0.245405
0.547064 0.535547 0.166899
0.557736 0.539766 0.168631
0.568409 0.543984 0.170363
0.579082 0.548203 0.172095
0.589754 0.552422 0.173827
0.600427 0.556641 0.175559
0.610898 0.561686 0.177362
0.621328 0.566898 0.179180
0.631758 0.572109 0.180997
0.642188 0.577320 0.182815
0.652618 0.582532 0.184632
0.660908 0.585089 0.186182
0.668127 0.586319 0.187598
0.675347 0.587550 0.189015
0.682566 0.588780 0.190431
0.689785 0.590011 0.191848
0.696305 0.589758 0.193070
0.702127 0.588023 0.194097
0.707948 0.586288 0.195125
0.713769 0.584553 0.196153
0.719590 0.582818 0.197180
0.729132 0.587935 0.199221
0.746115 0.606757 0.203287
0.763098 0.625579 0.207353
0.780082 0.644401 0.211419
0.797065 0.663223 0.215486
0.812945 0.681091 0.219768
0.823311 0.694190 0.225132
0.833678 0.707288 0.230496
0.844044 0.720386 0.235860
0.854410 0.733485 0.241223
0.864776 0.746583 0.246587
0.573122 0.565796 0.174430
0.582761 0.569274 0.175887
0.592400 0.572752 0.177345
0.602039 0.576229 0.178803
0.611678 0.579707 0.180260
0.621317 0.583185 0.181718
0.631059 0.587777 0.183338
0.640821 0.592592 0.184991
0.650584 0.597407 0.186643
0.660346 0.602222 0.188296
0.670108 0.607037 0.189949
0.678373 0.610049 0.191462
0.685888 0.612161 0.192906
0.693403 0.614273 0.194350
0.700918 0.616384 0.195794
0.708433 0.618496 0.197238
0.713639 0.617035 0.198213
0.716536 0.612000 0.198719
0.719432 0.606966 0.199225
0.722329 0.601931 0.199731
0.725226 0.596897 0.200238
0.732554 0.599359 0.201838
0.748745 0.616815 0.205627
0.764935 0.634271 0.209416
0.781125 0.651727 0.213204
0.797316 0.669183 0.216993
0.812545 0.685940 0.221041
0.822969 0.699203 0.226387
0.833393 0.712466 0.231732
0.843818 0.725729 0.237078
0.854242 0.738992 0.242423
0.864666 0.752255 0.247769
0.592123 0.593588 0.181236
0.601185 0.596581 0.182529
0.610248 0.599574 0.183822
0.619310 0.602567 0.185115
0.628373 0.605559 0.186408
0.637436 0.608552 0.187701
0.646555 0.612576 0.189171
0.655687 0.616805 0.190678
0.664818 0.621035 0.192184
0.673949 0.625264 0.193690
0.683080 0.629493 0.195197
0.690945 0.632280 0.196619
0.698176 0.634346 0.197999
0.705408 0.636412 0.199378
0.712639 0.638478 0.200758
0.719871 0.640544 0.202138
0.725168 0.639590 0.203131
0.728532 0.635617 0.203738
0.731895 0.631644 0.204345
0.735258 0.627671 0.204952
0.738622 0.623697 0.205559
0.745389 0.625464 0.206997
0.758963 0.638712 0.210100
0.772537 0.651960 0.213203
0.786111 0.665208 0.216306
0.799685 0.678456 0.219408
0.812724 0.691697 0.222863
0.823084 0.704905 0.228081
0.833444 0.718113 0.233298
0.843804 0.731321 0.238516
0.854164 0.744529 0.243733
0.864524 0.757738 0.248950
0.611123 0.621379 0.188042
0.619609 0.623887 0.189170
0.628095 0.626395 0.190299
0.636582 0.628904 0.191427
0.645068 0.631412 0.192555
0.653554 0.633920 0.193683
0.662052 0.637374 0.195005
0.670552 0.641018 0.196365
0.679052 0.644662 0.197725
0.687552 0.648306 0.199085
0.696052 0.651950 0.200445
0.703517 0.654512 0.201775
0.710465 0.656532 0.203091
0.717413 0.658552 0.204407
0.724361 0.660572 0.205723
0.731309 0.662592 0.207038
0.736698 0.662146 0.208050
0.740528 0.659234 0.208757
0.744358 0.656322 0.209465
0.748188 0.653410 0.210172
0.752018 0.650498 0.210880
0.758223 0.651570 0.212157
0.769181 0.660609 0.214573
0.780139 0.669649 0.216990
0.791097 0.678689 0.219407
0.802054 0.687729 0.221823
0.812902 0.697454 0.224685
0.823198 0.710607 0.229775
0.833494 0.723760 0.234864
0.843790 0.736914 0.239953
0.854086 0.750067 0.245043
0.864382 0.763220 0.250132
0.630123 0.649171 0.194848
0.638033 0.651194 0.195812
0.645943 0.653217 0.196775
0.653853 0.655241 0.197739
0.661763 0.657264 0.198703
0.669673 0.659287 0.199666
0.677549 0.662173 0.200838
0.685417 0.665231 0.202052
0.693286 0.668290 0.203265
0.701155 0.671348 0.204479
0.709024 0.674407 0.205693
0.716090 0.676743 0.206932
0.722754 0.678717 0.208183
0.729418 0.680692 0.209435
0.736083 0.682666 0.210687
0.742747 0.684640 0.211939
0.748227 0.684702 0.212969
0.752524 0.682851 0.213777
0.756820 0.681000 0.214585
0.761117 0.679149 0.215393
0.765413 0.677298 0.216201
0.771058 0.677675 0.217316
0.779400 0.682507 0.219047
0.787741 0.687338 0.220777
0.796082 0.692170 0.222508
0.804424 0.697002 0.224238
0.813080 0.703211 0.226507
0.823312 0.716309 0.231469
0.833544 0.729408 0.236430
0.843776 0.742506 0.241391
0.854008 0.755605 0.246352
0.864240 0.768703 0.251314
0.649124 0.676962 0.201654
0.656457 0.678501 0.202453
0.663791 0.680039 0.203252
0.671125 0.681578 0.204051
0.678458 0.683116 0.204850
0.685792 0.684654 0.205649
0.693045 0.686972 0.206671
0.700283 0.689445 0.207739
0.707521 0.691918 0.208806
0.714758 0.694391 0.209873
0.721996 0.696864 0.210940
0.728662 0.698974 0.212088
0.735043 0.700902 0.213276
0.741423 0.702831 0.214463
0.747804 0.704760 0.215651
0.754185 0.706689 0.216839
0.759757 0.707258 0.217887
0.764520 0.706468 0.218796
0.769283 0.705678 0.219704
0.774046 0.704889 0.220613
0.778809 0.704099 0.221522
0.783893 0.703780 0.222476
0.789618 0.704404 0.223520
0.795343 0.705027 0.224565
0.801068 0.705651 0.225609
0.806793 0.706275 0.226653
0.813259 0.708968 0.228329
0.823427 0.722012 0.233162
0.833595 0.735055 0.237996
0.843763 0.748099 0.242829
0.853931 0.761142 0.247662
0.864099 0.774186 0.252495
0.666210 0.703391 0.208334
0.673072 0.704513 0.209002
0.679935 0.705636 0.209670
0.686797 0.706758 0.210338
0.693660 0.707880 0.211006
0.700522 0.709002 0.211673
0.707234 0.710799 0.212561
0.713915 0.712731 0.213493
0.720596 0.714662 0.214424
0.727277 0.716594 0.215356
0.733958 0.718526 0.216287
0.740260 0.720397 0.217344
0.746372 0.722237 0.218463
0.752485 0.724077 0.219582
0.758597 0.725917 0.220701
0.764709 0.727758 0.221820
0.770335 0.728727 0.222872
0.775473 0.728826 0.223857
0.780611 0.728926 0.224842
0.785749 0.729025 0.225827
0.790887 0.729124 0.226812
0.795502 0.728257 0.227631
0.799069 0.725457 0.228117
0.802637 0.722658 0.228603
0.806205 0.719859 0.229090
0.809773 0.717060 0.229576
0.814399 0.716820 0.230748
0.824317 0.729379 0.235350
0.834235 0.741937 0.239951
0.844152 0.754496 0.244553
0.854070 0.767055 0.249154
0.863988 0.779613 0.253756
0.673725 0.723006 0.214384
0.680642 0.724055 0.215089
0.687560 0.725104 0.215793
0.694477 0.726153 0.216497
0.701394 0.727202 0.217202
0.708312 0.728251 0.217906
0.714880 0.729769 0.218731
0.721378 0.731380 0.219580
0.727876 0.732992 0.220430
0.734374 0.734603 0.221279
0.740872 0.736215 0.222128
0.746985 0.737778 0.223096
0.752905 0.739316 0.224124
0.758826 0.740854 0.225152
0.764746 0.742393 0.226179
0.770666 0.743931 0.227207
0.776154 0.744764 0.228190
0.781210 0.744890 0.229129
0.786266 0.745017 0.230069
0.791322 0.745143 0.231008
0.796377 0.745270 0.231947
0.800983 0.744589 0.232763
