Assets/1__3DArt/KimSe/artstation_asset/LUTs_subway_asset/CUBE/Yellow Line 04_S.cube
# LUT by SparkleStock. Enhanced with VOXCOLOR algorithms.
LUT_3D_SIZE 8
DOMAIN_MIN 0.000000 0.000000 0.000000
DOMAIN_MAX 0.903226 0.903226 0.903226
0.011722 0.027350 0.042979
0.238592 0.151751 0.083249
0.462783 0.279231 0.118027
0.653338 0.394352 0.146134
0.789389 0.485832 0.167167
0.862744 0.545386 0.181913
0.903486 0.585246 0.195084
0.928898 0.613384 0.208555
0.054827 0.088416 0.057537
0.178361 0.148122 0.073070
0.369407 0.242737 0.095969
0.564255 0.344380 0.119623
0.717376 0.433061 0.140034
0.813564 0.503006 0.160050
0.876408 0.563748 0.184467
0.919811 0.618830 0.212360
0.150427 0.173989 0.081201
0.250457 0.221150 0.092422
0.365400 0.271671 0.099116
0.506146 0.337502 0.109420
0.667330 0.421324 0.127926
0.778886 0.494611 0.150204
0.856972 0.564778 0.180959
0.912863 0.633006 0.217764
0.285131 0.282177 0.112868
0.381539 0.329424 0.125626
0.441798 0.354526 0.124172
0.518529 0.385249 0.122416
0.638960 0.439181 0.130369
0.757994 0.511139 0.151903
0.844847 0.582924 0.184751
0.908040 0.654371 0.225483
0.442357 0.408634 0.150490
0.516754 0.443201 0.161090
0.575363 0.473496 0.164695
0.613194 0.486078 0.159223
0.642482 0.485092 0.148837
0.751873 0.545469 0.164791
0.839742 0.612854 0.195657
0.905348 0.681040 0.235880
0.585852 0.540218 0.188113
0.636831 0.559417 0.195785
0.681766 0.580875 0.200507
0.717987 0.597068 0.201170
0.745445 0.602943 0.197499
0.772578 0.597308 0.191351
0.842956 0.648446 0.213532
0.905372 0.709624 0.248785
0.684761 0.654788 0.218803
0.720615 0.663862 0.225012
0.754210 0.675507 0.229980
0.784633 0.686539 0.233476
0.810917 0.693573 0.235086
0.830195 0.689011 0.232939
0.866514 0.701642 0.240215
0.907958 0.736760 0.262965
0.749458 0.745882 0.244728
0.776524 0.749846 0.251193
0.802463 0.754100 0.256426
0.827248 0.758559 0.260982
0.850706 0.762797 0.265179
0.871618 0.764638 0.268527
0.890477 0.760910 0.270727
0.915747 0.773153 0.282594
0.014179 0.039828 0.074552
0.118979 0.090459 0.092573
0.307359 0.179110 0.122626
0.514758 0.281923 0.153709
0.691756 0.380539 0.178291
0.806825 0.464390 0.195818
0.877451 0.535743 0.211526
0.922452 0.595307 0.229150
0.028889 0.096942 0.119847
0.110355 0.138177 0.134436
0.280174 0.211375 0.156895
0.475360 0.295819 0.180192
0.647756 0.376267 0.199818
0.768548 0.447506 0.217289
0.852285 0.518532 0.238067
0.912577 0.592845 0.264014
0.139743 0.213709 0.173418
0.206509 0.235251 0.167916
0.308543 0.273164 0.172134
0.448370 0.327827 0.183616
0.615024 0.395823 0.199892
0.741377 0.459039 0.217751
0.835259 0.527980 0.242746
0.906375 0.605859 0.275373
0.298402 0.349635 0.219649
0.354115 0.355492 0.197950
0.401484 0.368870 0.189649
0.477580 0.395591 0.190563
0.599488 0.438613 0.198038
0.726898 0.495344 0.215220
0.825998 0.559056 0.242096
0.903011 0.631964 0.278177
0.464739 0.476091 0.249148
0.509986 0.478802 0.227910
0.549359 0.493471 0.221601
0.580516 0.503790 0.217266
0.614762 0.507061 0.209952
0.727458 0.551885 0.222686
0.824109 0.606149 0.247911
0.901848 0.668393 0.283315
0.604282 0.589233 0.266865
0.642314 0.595726 0.257318
0.673143 0.607063 0.255505
0.698865 0.617716 0.254689
0.722640 0.623556 0.250563
0.753758 0.621972 0.244708
0.830576 0.660990 0.262968
0.903100 0.711236 0.293779
0.695458 0.684262 0.279235
0.728715 0.694116 0.284636
0.755302 0.702102 0.288647
0.778248 0.709062 0.290880
0.799610 0.714637 0.290940
0.818643 0.713050 0.287594
0.857375 0.724021 0.291754
0.906221 0.752462 0.311011
0.753965 0.762336 0.291834
0.782764 0.772802 0.312482
0.806947 0.778116 0.322688
0.828605 0.781381 0.327585
0.849215 0.784599 0.330804
0.868598 0.786781 0.332178
0.887596 0.785683 0.331558
0.916251 0.796341 0.340058
0.016101 0.051770 0.106125
0.075966 0.074976 0.112888
0.230911 0.139488 0.138335
0.429166 0.227549 0.169811
0.625532 0.324449 0.197696
0.767905 0.419119 0.216760
0.858755 0.507537 0.232897
0.916827 0.585257 0.251607
0.021285 0.105347 0.161110
0.084762 0.142108 0.180126
0.228045 0.197327 0.203983
0.409915 0.264776 0.228072
0.593813 0.338825 0.248964
0.735794 0.413692 0.264733
0.836077 0.494045 0.281450
0.907912 0.580190 0.303118
0.077401 0.195928 0.226260
0.134974 0.229275 0.236308
0.245704 0.270440 0.250604
0.397082 0.320025 0.266161
0.570227 0.377017 0.280897
0.711910 0.434891 0.294651
0.819528 0.503503 0.313195
0.902159 0.586102 0.339122
0.203071 0.330206 0.296109
0.257034 0.350332 0.286299
0.334795 0.374962 0.286078
0.437524 0.403983 0.290151
0.563150 0.438074 0.295654
0.700411 0.482816 0.307759
0.810698 0.538450 0.327531
0.899324 0.609651 0.356483
0.393254 0.497887 0.360317
0.451035 0.503009 0.330883
0.508204 0.512115 0.316395
0.551515 0.518310 0.307869
0.587462 0.522214 0.301233
0.705199 0.554702 0.309713
0.810392 0.597527 0.328564
0.899083 0.653290 0.357593
0.558912 0.620476 0.380003
0.611636 0.625735 0.353681
0.654638 0.631503 0.343091
0.684148 0.636594 0.338465
0.702510 0.639949 0.332864
0.735817 0.639854 0.325466
0.818848 0.668340 0.339269
0.901152 0.709028 0.365094
0.669743 0.711067 0.381327
0.714731 0.718871 0.368052
0.749771 0.725521 0.370380
0.774278 0.730556 0.374926
0.790026 0.733513 0.373038
0.807566 0.733115 0.367325
0.848399 0.741835 0.367668
0.904633 0.764269 0.383307
0.741106 0.781702 0.379283
0.777802 0.790194 0.382865
0.807580 0.798117 0.402262
0.830544 0.803445 0.418490
0.847938 0.805484 0.420658
0.865212 0.807611 0.419289
0.884174 0.808124 0.414994
0.916678 0.817072 0.419861
0.017567 0.063413 0.139037
0.065234 0.078825 0.139250
0.192715 0.128778 0.158294
0.376858 0.207311 0.188092
0.586818 0.305696 0.220437
0.744279 0.402341 0.241197
0.847025 0.496812 0.257159
0.912642 0.581960 0.275413
0.021543 0.115392 0.197120
0.076977 0.152669 0.219652
0.196322 0.195538 0.241213
0.365652 0.253680 0.264919
0.562184 0.329981 0.290732
0.717195 0.406286 0.306336
0.827606 0.490642 0.319680
0.905553 0.580146 0.336649
0.028388 0.176849 0.266302
0.083492 0.226419 0.294046
0.199928 0.273110 0.317435
0.360686 0.322568 0.337649
0.543669 0.377512 0.355079
0.695346 0.432125 0.366567
0.811537 0.499188 0.379309
0.900288 0.580629 0.397677
0.093581 0.283679 0.348006
0.150575 0.330736 0.363507
0.256872 0.373861 0.378582
0.391837 0.412147 0.390743
0.538306 0.446275 0.399004
0.683324 0.482850 0.406785
0.801412 0.531464 0.419257
0.897253 0.597848 0.439404
0.245297 0.448519 0.436230
0.311480 0.478350 0.426152
0.395651 0.502267 0.420815
0.480543 0.520592 0.418519
0.562163 0.535631 0.418203
0.686396 0.558608 0.421082
0.799293 0.591599 0.432294
0.896718 0.640435 0.452919
0.442436 0.613018 0.492143
0.514479 0.629104 0.465156
0.584529 0.640739 0.451363
0.643377 0.649199 0.444954
0.686353 0.654857 0.440464
0.719960 0.654051 0.430269
0.808492 0.673565 0.438153
0.899176 0.705836 0.457258
0.591009 0.720373 0.501365
0.654334 0.730820 0.474795
0.710814 0.740300 0.470895
0.754797 0.747467 0.475084
0.783271 0.751262 0.476146
0.798048 0.750243 0.467514
0.840273 0.756180 0.463503
0.902798 0.773188 0.474482
0.694133 0.795586 0.493862
0.745123 0.802716 0.476393
0.789526 0.812645 0.492061
0.824178 0.821055 0.514767
0.847693 0.825305 0.526037
0.862229 0.826627 0.521987
0.880637 0.827675 0.514096
0.916477 0.834834 0.515076
0.018654 0.074969 0.174485
0.055892 0.083501 0.168423
0.163134 0.123867 0.178625
0.339114 0.200311 0.204579
0.563178 0.307620 0.241443
0.732678 0.405857 0.265953
0.841654 0.499556 0.282495
0.910346 0.584065 0.300059
0.022282 0.128083 0.238679
0.069937 0.164698 0.259993
0.172043 0.200997 0.272842
0.335687 0.259175 0.292658
0.547366 0.346793 0.325142
0.711951 0.424788 0.343859
0.826363 0.506607 0.355705
0.905290 0.591192 0.369144
0.028054 0.189754 0.312183
0.076381 0.239955 0.341327
0.181744 0.285928 0.364465
0.339781 0.337681 0.386893
0.533751 0.399185 0.410345
0.693200 0.455217 0.423687
0.812068 0.518893 0.432741
0.900762 0.593162 0.444407
0.035348 0.256114 0.385932
0.080526 0.313884 0.416128
0.186755 0.370495 0.445845
0.341785 0.422225 0.470640
0.525556 0.466553 0.487389
0.678622 0.502222 0.494109
0.800049 0.545785 0.500568
0.897116 0.604249 0.511630
0.066978 0.341987 0.460050
0.113371 0.403347 0.488643
0.212948 0.460351 0.512152
0.360629 0.510835 0.531686
0.538833 0.551530 0.546232
0.673895 0.570019 0.544305
0.792776 0.595178 0.547463
0.894990 0.636289 0.558170
0.262690 0.553013 0.571911
0.338994 0.590571 0.567888
0.436562 0.622246 0.562858
0.548162 0.647991 0.561417
0.658154 0.666341 0.563705
0.705212 0.667294 0.552855
0.800411 0.680064 0.553530
0.897003 0.704843 0.563661
0.450255 0.697685 0.613481
0.529333 0.720256 0.594248
0.614163 0.738641 0.581903
0.697124 0.753927 0.581602
0.767274 0.765564 0.591476
0.789293 0.765160 0.582326
0.833670 0.768332 0.574026
0.900442 0.780432 0.578766
0.598809 0.794708 0.618611
0.668556 0.807424 0.595425
0.736212 0.818976 0.590047
0.796195 0.830732 0.605565
0.842464 0.842023 0.635342
0.859505 0.843358 0.632042
0.877461 0.844104 0.621794
0.915268 0.849375 0.618736
0.019410 0.086691 0.214565
0.049037 0.089368 0.202356
0.137678 0.120354 0.204752
0.290959 0.185723 0.221545
0.502216 0.286940 0.251018
0.723969 0.416353 0.287091
0.842142 0.511223 0.306902
0.910468 0.590188 0.324886
0.023331 0.142732 0.285639
0.064734 0.178025 0.303185
0.149599 0.206909 0.306032
0.292848 0.256004 0.313553
0.494808 0.340999 0.337413
0.710966 0.453344 0.370526
0.831818 0.535163 0.385547
0.907451 0.610077 0.398358
0.029396 0.207226 0.365504
0.072029 0.256625 0.391173
0.165369 0.299899 0.408952
0.307516 0.346957 0.422485
0.491865 0.406970 0.436513
0.697953 0.495869 0.463793
0.820530 0.558869 0.474843
0.903843 0.621606 0.484061
0.036433 0.276246 0.444424
0.076191 0.331703 0.470484
0.174947 0.388478 0.499767
0.319966 0.440071 0.522702
0.497473 0.485847 0.535647
0.687093 0.547017 0.553879
0.809533 0.588928 0.560646
0.900108 0.635451 0.567117
0.046786 0.348452 0.515194
0.084741 0.408844 0.543079
0.177760 0.467809 0.570475
0.324280 0.523840 0.597405
0.511372 0.574300 0.621630
0.680354 0.608771 0.629515
0.800387 0.631152 0.631117
0.896765 0.661158 0.634966
0.079444 0.432723 0.573631
0.120794 0.494356 0.601875
0.209449 0.551591 0.625680
0.344949 0.604422 0.647188
0.517514 0.651376 0.666479
0.681325 0.682589 0.674845
0.797431 0.695339 0.671471
0.895019 0.713456 0.671653
0.248006 0.611767 0.662404
0.317834 0.655410 0.670075
0.414518 0.693771 0.675382
0.533859 0.727992 0.682256
0.665825 0.757952 0.692364
0.772510 0.777345 0.700220
0.830054 0.780705 0.690525
0.897458 0.788535 0.687653
0.429279 0.755963 0.711475
0.511193 0.782735 0.702836
0.603669 0.805350 0.698856
0.700613 0.825476 0.703420
0.793096 0.843742 0.717752
0.853174 0.856583 0.735519
0.875753 0.857583 0.727355
0.912874 0.860550 0.720603
0.020166 0.099043 0.259057
0.044378 0.096597 0.240212
0.117305 0.118849 0.235696
0.248873 0.172685 0.244996
0.439378 0.261970 0.266910
0.664352 0.389505 0.299543
0.822072 0.507988 0.327034
0.911088 0.596520 0.349572
0.024868 0.158011 0.336278
0.061838 0.192337 0.349946
0.131970 0.213805 0.343595
0.254685 0.252290 0.339733
0.437294 0.327477 0.353054
0.657692 0.440928 0.381500
0.816641 0.547125 0.405633
0.910343 0.629226 0.424030
0.031540 0.225675 0.421599
0.070254 0.274381 0.443526
0.153470 0.314302 0.454941
0.278996 0.354557 0.458586
0.444344 0.406056 0.460221
0.653378 0.497532 0.481526
0.810219 0.585357 0.501012
0.908065 0.654248 0.515181
0.038922 0.298299 0.505021
0.075049 0.351442 0.526142
0.167748 0.407290 0.552006
0.301879 0.456372 0.569555
0.465075 0.497586 0.573756
0.653960 0.560933 0.585159
0.804105 0.626292 0.598708
0.904712 0.678047 0.608595
0.045895 0.371916 0.578053
0.079883 0.428472 0.600095
0.167974 0.485539 0.624696
0.310179 0.542247 0.651584
0.494396 0.595644 0.676936
0.660705 0.631437 0.679444
0.799747 0.673129 0.686271
0.900815 0.706592 0.691720
0.051012 0.438965 0.629660
0.083975 0.498859 0.655668
0.168179 0.556585 0.680620
0.305044 0.612440 0.705623
0.486643 0.665211 0.730069
0.672070 0.705981 0.745864
0.800657 0.731135 0.747913
0.897455 0.749322 0.748026
0.111550 0.541142 0.684260
0.155950 0.596284 0.706113
0.242225 0.647032 0.725006
0.371162 0.694856 0.743592
0.535796 0.739882 0.763070
0.701179 0.776248 0.779860
0.809485 0.795463 0.780788
0.896514 0.807691 0.779071
0.237402 0.669944 0.739277
0.301175 0.713412 0.750819
0.393343 0.751764 0.761030
0.512051 0.787054 0.773339
0.649767 0.820214 0.789715
0.775029 0.847827 0.808601
0.851368 0.862779 0.812487
0.910521 0.871014 0.809912
0.021742 0.111623 0.306786
0.041690 0.104994 0.281129
0.101486 0.119489 0.270082
0.213447 0.162243 0.272738
0.381911 0.238160 0.287871
0.595461 0.354510 0.315016
0.779164 0.483932 0.345546
0.894964 0.587495 0.371840
0.027163 0.173360 0.389295
0.061145 0.206722 0.399781
0.119334 0.221503 0.385350
0.223411 0.249390 0.371384
0.384641 0.312206 0.374873
0.593933 0.416129 0.395422
0.777500 0.534201 0.422378
0.895959 0.630036 0.445372
0.034404 0.243598 0.478560
0.070742 0.291795 0.497642
0.146181 0.328327 0.503329
0.256704 0.361145 0.497986
0.401300 0.401634 0.488001
0.598356 0.485140 0.499563
0.776654 0.585643 0.520500
0.895632 0.668275 0.538429
0.042169 0.319177 0.564597
0.076240 0.370765 0.581724
0.164738 0.425254 0.604067
0.289298 0.470701 0.615977
0.436889 0.505017 0.611093
0.611935 0.561712 0.611950
0.778285 0.639551 0.625300
0.894624 0.705060 0.637392
0.049325 0.396538 0.639062
0.081500 0.449896 0.655707
0.166401 0.504493 0.676503
0.304825 0.560169 0.701172
0.483914 0.613456 0.724614
0.635905 0.644473 0.718251
0.784029 0.696890 0.723861
0.893615 0.743001 0.730042
0.054399 0.468350 0.691413
0.085488 0.522737 0.710126
0.167353 0.576327 0.730729
0.301894 0.629892 0.753991
0.481683 0.682595 0.778902
0.666904 0.726289 0.796916
0.797596 0.758813 0.799212
0.893949 0.785920 0.799392
0.057293 0.527649 0.722957
0.087823 0.583624 0.745973
0.166929 0.636492 0.767899
0.297606 0.688028 0.790669
0.474429 0.738606 0.814823
0.664897 0.783017 0.835987
0.800484 0.812720 0.843470
0.896005 0.833806 0.844089
0.111571 0.616093 0.762388
0.154170 0.667455 0.783374
0.238041 0.714065 0.801885
0.365036 0.758372 0.820760
0.529577 0.801490 0.841416
0.700883 0.839656 0.860973
0.823440 0.866631 0.873081
0.904089 0.883656 0.875355
