Assets/1__3DArt/KimSe/artstation_asset/LUTs_subway_asset/CUBE/Yellow Line 04_S.cube
# LUT by SparkleStock. Enhanced with VOXCOLOR algorithms.
LUT_3D_SIZE 5
DOMAIN_MIN 0.000000 0.000000 0.000000
DOMAIN_MAX 0.903226 0.903226 0.903226
0.011722 0.027350 0.042979
0.407011 0.247044 0.109898
0.725842 0.442373 0.157100
0.877821 0.558305 0.185443
0.928898 0.613384 0.208555
0.121123 0.150073 0.074347
0.318414 0.240198 0.092835
0.601219 0.378272 0.119641
0.809834 0.511087 0.157699
0.914380 0.628564 0.216249
0.364725 0.345039 0.131679
0.498042 0.408940 0.145499
0.595741 0.442540 0.137312
0.779796 0.544605 0.163593
0.906500 0.667569 0.230502
0.617267 0.571413 0.196825
0.694966 0.601320 0.207821
0.754836 0.627777 0.210119
0.789982 0.616424 0.200073
0.905635 0.716625 0.252138
0.749458 0.745882 0.244728
0.796094 0.753007 0.255244
0.839159 0.760849 0.263141
0.876641 0.764542 0.269249
0.915747 0.773153 0.282594
0.015676 0.048840 0.098232
0.190844 0.121404 0.124750
0.546033 0.284636 0.179041
0.805119 0.449325 0.215246
0.918148 0.586944 0.245801
0.071704 0.175529 0.200099
0.216468 0.239045 0.219389
0.501737 0.338783 0.248658
0.754495 0.448463 0.275828
0.904077 0.586841 0.317726
0.331341 0.423128 0.308117
0.424068 0.437625 0.274504
0.535175 0.465368 0.269452
0.736889 0.530688 0.286284
0.899738 0.635515 0.334815
0.610537 0.641113 0.351054
0.682783 0.651043 0.325421
0.723980 0.661731 0.321023
0.761927 0.659410 0.309227
0.902232 0.723046 0.347618
0.746109 0.776561 0.353268
0.801578 0.792035 0.376255
0.839144 0.799194 0.394698
0.870674 0.802887 0.394677
0.916579 0.812142 0.397611
0.018134 0.069180 0.156430
0.140599 0.111514 0.162609
0.472363 0.256927 0.214984
0.772928 0.427295 0.258751
0.911322 0.582726 0.287723
0.026296 0.166708 0.269871
0.155526 0.247778 0.315892
0.450503 0.343076 0.355006
0.733241 0.449657 0.381858
0.901446 0.585775 0.404134
0.093724 0.321161 0.404894
0.215417 0.409117 0.437694
0.457653 0.480524 0.462810
0.710265 0.532425 0.472097
0.896009 0.615544 0.494151
0.401230 0.629965 0.553790
0.543532 0.665787 0.521318
0.680768 0.687191 0.511318
0.737230 0.685471 0.494084
0.898805 0.722117 0.512356
0.651772 0.797852 0.558514
0.755055 0.814642 0.536790
0.833075 0.831367 0.573142
0.864840 0.835405 0.575777
0.915957 0.842345 0.567034
0.019599 0.089685 0.225027
0.104954 0.109678 0.210157
0.381540 0.229301 0.239535
0.763539 0.445069 0.299233
0.910549 0.591740 0.331079
0.028050 0.194512 0.357880
0.130662 0.270952 0.392401
0.385050 0.354008 0.407417
0.742181 0.512398 0.452288
0.905650 0.626462 0.469769
0.040355 0.317103 0.495987
0.142517 0.417833 0.542696
0.408352 0.511587 0.586116
0.721672 0.596061 0.611085
0.899147 0.655207 0.617964
0.065422 0.442486 0.596197
0.163970 0.551775 0.648305
0.416748 0.647604 0.688590
0.723373 0.713432 0.712133
0.894789 0.733003 0.703752
0.384662 0.741549 0.728185
0.537246 0.791970 0.721767
0.721595 0.831586 0.730570
0.858232 0.860341 0.760840
0.912279 0.863272 0.744814
0.021742 0.111623 0.306786
0.082435 0.113691 0.271340
0.294458 0.197314 0.279446
0.645864 0.384905 0.322141
0.894964 0.587495 0.371840
0.032406 0.225163 0.455548
0.117928 0.295778 0.476212
0.317182 0.351154 0.458781
0.644792 0.491095 0.475462
0.895850 0.659158 0.513155
0.045896 0.358254 0.603409
0.138438 0.451531 0.635727
0.381581 0.539736 0.667643
0.663061 0.615800 0.667239
0.894023 0.723675 0.685381
0.055449 0.485051 0.702420
0.141996 0.579914 0.737274
0.390029 0.672847 0.778329
0.712819 0.754010 0.816153
0.894205 0.797147 0.814264
0.111571 0.616093 0.762388
0.212825 0.702902 0.797512
0.446823 0.780285 0.831167
0.738835 0.848078 0.865118
0.904089 0.883656 0.875355
