Assets/1__3DArt/KimSe/artstation_asset/LUTs_subway_asset/CUBE/Yellow Line 03_S.cube
# LUT by SparkleStock. Enhanced with VOXCOLOR algorithms.
LUT_3D_SIZE 8
DOMAIN_MIN 0.000000 0.000000 0.000000
DOMAIN_MAX 0.903226 0.903226 0.903226
0.019536 0.023443 0.031258
0.231848 0.129505 0.048840
0.458490 0.258466 0.077136
0.657316 0.387325 0.111891
0.799110 0.497877 0.148970
0.872086 0.573689 0.182244
0.911347 0.623349 0.209689
0.936287 0.659073 0.233715
0.054134 0.067683 0.038631
0.168380 0.120028 0.043040
0.361235 0.215593 0.058578
0.563049 0.327900 0.084099
0.723102 0.435964 0.117830
0.820229 0.524656 0.156081
0.881934 0.598417 0.195089
0.924852 0.662549 0.233423
0.143235 0.145268 0.053637
0.239661 0.192416 0.058041
0.355820 0.243107 0.060841
0.501778 0.316589 0.073682
0.670228 0.418666 0.103028
0.783730 0.511841 0.143042
0.860965 0.596554 0.188584
0.916191 0.674488 0.235722
0.276285 0.256040 0.078955
0.373357 0.307055 0.086640
0.434531 0.333603 0.085464
0.514276 0.368902 0.087758
0.640102 0.434330 0.103334
0.761655 0.526151 0.142140
0.847774 0.612702 0.190043
0.910094 0.693700 0.241192
0.438048 0.395943 0.116342
0.514739 0.434883 0.124044
0.574180 0.470259 0.130209
0.612598 0.484764 0.128420
0.643128 0.483354 0.121792
0.754855 0.560703 0.153041
0.841853 0.641839 0.199151
0.906439 0.718687 0.250136
0.590051 0.549080 0.167955
0.642005 0.571334 0.173754
0.686560 0.596867 0.180712
0.721892 0.616116 0.185277
0.748617 0.622903 0.185181
0.775597 0.617262 0.180571
0.844689 0.678467 0.216435
0.905926 0.746967 0.262772
0.693214 0.681736 0.226500
0.728970 0.692305 0.230031
0.761560 0.706170 0.235083
0.790401 0.719126 0.240056
0.814891 0.726928 0.243184
0.832869 0.720872 0.240281
0.867914 0.736268 0.250307
0.908331 0.774484 0.278524
0.756910 0.782646 0.285202
0.783885 0.787287 0.287026
0.808950 0.792697 0.289368
0.832258 0.798228 0.292101
0.853924 0.802964 0.294856
0.873610 0.804049 0.296021
0.891716 0.799539 0.294334
0.916232 0.812667 0.305338
0.020292 0.028359 0.044114
0.113461 0.068994 0.055988
0.298303 0.150362 0.076294
0.509558 0.255253 0.103829
0.695335 0.368256 0.137029
0.813832 0.471878 0.173084
0.884465 0.560691 0.208189
0.929067 0.635142 0.241644
0.029568 0.066158 0.079736
0.107166 0.111321 0.100420
0.274094 0.185110 0.120320
0.470831 0.275149 0.143324
0.649838 0.370452 0.171717
0.773109 0.458852 0.204250
0.856439 0.543758 0.239303
0.916295 0.629307 0.276852
0.143424 0.185098 0.133774
0.203905 0.210188 0.132369
0.302473 0.249391 0.137894
0.443330 0.309523 0.152218
0.615277 0.390548 0.175911
0.744134 0.469695 0.206925
0.837691 0.551445 0.243987
0.908351 0.639423 0.286071
0.307516 0.333792 0.184389
0.353043 0.339008 0.161572
0.396458 0.352823 0.155938
0.473159 0.382832 0.161289
0.598380 0.433520 0.174431
0.728507 0.504959 0.203813
0.827434 0.580838 0.242103
0.903943 0.663164 0.286647
0.477640 0.475634 0.219122
0.512885 0.476707 0.195531
0.548643 0.492755 0.191558
0.579157 0.503845 0.191112
0.613556 0.506952 0.188064
0.728603 0.563196 0.211390
0.824971 0.627850 0.247724
0.902099 0.697918 0.291102
0.619690 0.605353 0.250536
0.649916 0.611157 0.239320
0.677501 0.623688 0.238860
0.701804 0.635622 0.240982
0.724266 0.641643 0.240017
0.755359 0.639260 0.235530
0.831310 0.684833 0.263620
0.903022 0.740612 0.302530
0.710217 0.712150 0.286931
0.737729 0.722020 0.290557
0.761590 0.730836 0.293944
0.782847 0.738659 0.296474
0.802333 0.744414 0.297235
0.820213 0.741143 0.293057
0.857984 0.753042 0.298964
0.906068 0.782973 0.322168
0.765339 0.794880 0.327137
0.790047 0.805522 0.344706
0.812277 0.811589 0.351935
0.832540 0.815710 0.354238
0.851366 0.819419 0.355286
0.869424 0.820859 0.354100
0.887742 0.818383 0.350090
0.915838 0.828646 0.357801
0.021048 0.032203 0.058041
0.071484 0.050231 0.065036
0.220509 0.106774 0.084205
0.419492 0.192450 0.110955
0.623657 0.298042 0.141961
0.772330 0.412990 0.177583
0.864692 0.523089 0.215493
0.923094 0.620032 0.253473
0.022006 0.068124 0.106257
0.084704 0.111761 0.135457
0.223763 0.169791 0.162701
0.404244 0.241492 0.188500
0.592634 0.325077 0.213812
0.738583 0.415963 0.241988
0.839423 0.512007 0.273541
0.911218 0.611926 0.308427
0.079213 0.156385 0.173757
0.139005 0.199090 0.194886
0.245944 0.246821 0.216851
0.394456 0.303062 0.237808
0.569580 0.369052 0.257440
0.713791 0.440182 0.281070
0.821213 0.520833 0.310530
0.903355 0.613766 0.346164
0.216357 0.304743 0.254793
0.267408 0.330577 0.250972
0.338742 0.360081 0.257072
0.436837 0.393766 0.266798
0.562600 0.433473 0.277331
0.701636 0.489140 0.298015
0.811425 0.554480 0.326807
0.899293 0.633862 0.363459
0.426813 0.499197 0.336819
0.470067 0.504109 0.306017
0.515486 0.513363 0.292286
0.551993 0.519201 0.286603
0.586803 0.522938 0.284865
0.705815 0.562980 0.300764
0.810646 0.613432 0.327792
0.898600 0.675731 0.363280
0.594057 0.638570 0.370948
0.632102 0.643302 0.342156
0.664173 0.648313 0.330711
0.687370 0.652782 0.327281
0.703900 0.655704 0.324634
0.736620 0.654257 0.318918
0.818870 0.686612 0.339731
0.900427 0.731245 0.371636
0.698454 0.737462 0.391516
0.731846 0.745717 0.375922
0.758610 0.751833 0.376538
0.778244 0.756377 0.380430
0.792064 0.759214 0.378875
0.808309 0.756876 0.372499
0.848271 0.765261 0.373907
0.903782 0.787986 0.392484
0.761525 0.809416 0.410728
0.789692 0.819030 0.411847
0.813742 0.826569 0.428431
0.833367 0.831724 0.442095
0.849186 0.834532 0.442189
0.865106 0.835915 0.438307
0.883374 0.834811 0.431102
0.915324 0.842647 0.435284
0.021411 0.035527 0.074300
0.061613 0.048639 0.076575
0.182813 0.093209 0.093917
0.365843 0.168994 0.121517
0.581502 0.272172 0.155071
0.746470 0.388120 0.190584
0.851977 0.506120 0.229013
0.918830 0.612676 0.268664
0.021722 0.073034 0.131042
0.078284 0.116779 0.162689
0.193778 0.164514 0.191067
0.360467 0.227804 0.219383
0.559241 0.311613 0.249035
0.718690 0.402735 0.275440
0.830343 0.504145 0.304207
0.908684 0.609135 0.335843
0.027316 0.128114 0.204545
0.092496 0.190145 0.245649
0.206675 0.247141 0.279957
0.362178 0.305389 0.308180
0.543341 0.368666 0.331289
0.696873 0.434544 0.350803
0.812831 0.513321 0.374000
0.901092 0.605218 0.402504
0.104415 0.245117 0.300018
0.171436 0.304841 0.327222
0.273648 0.357538 0.351624
0.399871 0.403001 0.371167
0.540112 0.443079 0.385507
0.685154 0.487990 0.399756
0.802077 0.544506 0.419693
0.896748 0.617812 0.447143
0.283872 0.438232 0.411666
0.347343 0.474619 0.405363
0.421259 0.501841 0.402692
0.493611 0.521313 0.403589
0.565143 0.537005 0.407970
0.688408 0.565207 0.416421
0.799961 0.603622 0.433715
0.895915 0.657367 0.460019
0.500417 0.628199 0.488863
0.557754 0.646011 0.460330
0.611196 0.656997 0.445002
0.655645 0.664022 0.438396
0.689494 0.668469 0.435632
0.721568 0.666136 0.427576
0.808698 0.687548 0.440443
0.898143 0.722318 0.464257
0.642894 0.744296 0.514475
0.690576 0.755892 0.485413
0.731912 0.764310 0.479294
0.764060 0.769946 0.482127
0.785783 0.772717 0.482892
0.798967 0.769855 0.474037
0.840017 0.774718 0.470582
0.901532 0.791179 0.483744
0.732894 0.819232 0.522279
0.770471 0.828030 0.502755
0.803154 0.836972 0.516062
0.829418 0.844107 0.536592
0.848654 0.848197 0.546107
0.861877 0.849253 0.540207
0.879480 0.848827 0.529879
0.914635 0.854582 0.530201
0.021080 0.038836 0.094009
0.052848 0.047209 0.091198
0.154300 0.084629 0.101899
0.328475 0.159576 0.128148
0.556883 0.271003 0.168218
0.733433 0.387244 0.207188
0.845947 0.505034 0.246270
0.916554 0.611804 0.286577
0.021812 0.080422 0.162936
0.072178 0.123268 0.192684
0.171265 0.164672 0.211528
0.332004 0.229584 0.237358
0.544622 0.327402 0.277723
0.712805 0.419383 0.307359
0.828536 0.518565 0.334947
0.908060 0.618947 0.364051
0.029939 0.140697 0.247030
0.088904 0.201483 0.287586
0.193609 0.256891 0.319818
0.346059 0.318599 0.351170
0.534841 0.391326 0.384411
0.694631 0.457767 0.405917
0.813079 0.533048 0.425315
0.901368 0.617763 0.447252
0.043905 0.212628 0.334257
0.108158 0.284160 0.377555
0.217179 0.351805 0.417521
0.362815 0.412776 0.451136
0.531310 0.465288 0.476082
0.681645 0.508299 0.489154
0.801098 0.558966 0.502268
0.896687 0.623678 0.520140
0.090511 0.311604 0.424789
0.160696 0.387847 0.466216
0.265239 0.454811 0.498794
0.398638 0.510865 0.524036
0.549592 0.554080 0.542006
0.679287 0.576902 0.545247
0.794803 0.605872 0.553078
0.894383 0.650159 0.568914
0.338232 0.561069 0.568967
0.410925 0.603582 0.567499
0.494413 0.637197 0.563423
0.583934 0.662436 0.561759
0.669341 0.678682 0.563506
0.710393 0.678137 0.554957
0.802113 0.691464 0.559183
0.896276 0.717428 0.573086
0.532346 0.719223 0.627775
0.596612 0.743090 0.607448
0.661581 0.761038 0.593646
0.723252 0.774421 0.591766
0.774992 0.783282 0.600321
0.792387 0.781337 0.591428
0.834392 0.783141 0.583300
0.899464 0.794169 0.589579
0.667700 0.816483 0.644326
0.719771 0.829880 0.619712
0.768621 0.840753 0.612673
0.811777 0.850489 0.626459
0.845969 0.859097 0.654662
0.860201 0.860792 0.650622
0.876920 0.860533 0.638495
0.913802 0.864455 0.634729
0.019757 0.042806 0.119343
0.045523 0.047081 0.110677
0.129570 0.077085 0.115420
0.280972 0.142335 0.134875
0.495220 0.247908 0.169565
0.724462 0.394153 0.220831
0.846246 0.514017 0.264280
0.916487 0.615926 0.306337
0.021806 0.090394 0.202760
0.067417 0.132087 0.228354
0.150185 0.165651 0.235875
0.290635 0.220988 0.248339
0.492888 0.316493 0.280421
0.712404 0.446978 0.328471
0.834062 0.547289 0.360973
0.909910 0.638013 0.390709
0.033635 0.158328 0.299479
0.087887 0.217216 0.335252
0.181954 0.268626 0.360012
0.319067 0.324314 0.380107
0.497157 0.395158 0.402623
0.700900 0.500014 0.443364
0.821797 0.575586 0.466606
0.904102 0.648258 0.486955
0.053199 0.238785 0.396975
0.111437 0.305491 0.433715
0.214136 0.371502 0.471056
0.350776 0.430901 0.500539
0.512041 0.484197 0.520086
0.692457 0.556756 0.549523
0.810908 0.606127 0.564216
0.899460 0.658060 0.577496
0.082058 0.327204 0.485971
0.144359 0.399429 0.524168
0.244411 0.466489 0.558824
0.378793 0.527260 0.590386
0.538280 0.580298 0.617985
0.689402 0.620004 0.633880
0.803003 0.645651 0.640228
0.896337 0.677872 0.648142
0.139647 0.430741 0.561503
0.206948 0.502664 0.597712
0.302325 0.565388 0.626829
0.424606 0.619614 0.651107
0.566605 0.664848 0.671167
0.696281 0.693311 0.680484
0.802197 0.705997 0.679751
0.895514 0.724309 0.683343
0.350008 0.631292 0.671563
0.421479 0.677676 0.681095
0.506091 0.716235 0.687357
0.601875 0.748563 0.694269
0.702779 0.775146 0.703662
0.783074 0.791011 0.710860
0.833761 0.793014 0.701396
0.898223 0.799525 0.699827
0.540348 0.781342 0.733933
0.607306 0.806779 0.724254
0.677066 0.827265 0.719199
0.747323 0.844514 0.722612
0.813570 0.859402 0.735753
0.858181 0.869487 0.752672
0.877445 0.869949 0.743802
0.913177 0.872139 0.736664
0.017173 0.048037 0.152239
0.039134 0.048701 0.136255
0.108834 0.071432 0.134698
0.239050 0.126223 0.148193
0.432001 0.220177 0.177230
0.663683 0.363130 0.225788
0.825799 0.507063 0.278523
0.916836 0.619724 0.326742
0.021759 0.102357 0.249781
0.064528 0.143198 0.271455
0.133418 0.168807 0.268010
0.253465 0.212698 0.267359
0.435927 0.297600 0.288311
0.659356 0.428947 0.331746
0.819105 0.557167 0.376679
0.912633 0.657286 0.414644
0.038078 0.178511 0.357634
0.089648 0.236012 0.388955
0.174686 0.282603 0.405501
0.295351 0.329545 0.413111
0.453398 0.389983 0.420560
0.659049 0.497420 0.454832
0.812575 0.602196 0.490637
0.908148 0.683255 0.518926
0.063800 0.268083 0.463297
0.118533 0.330814 0.493361
0.215933 0.393910 0.525726
0.342004 0.448582 0.547603
0.488066 0.495192 0.555399
0.665261 0.569390 0.576716
0.807655 0.645881 0.602389
0.903994 0.704674 0.621850
0.095921 0.362610 0.556183
0.152894 0.428008 0.586217
0.247572 0.490735 0.616145
0.378000 0.550404 0.646149
0.534934 0.605170 0.673600
0.679195 0.644806 0.681983
0.805766 0.691803 0.697225
0.900661 0.728184 0.708789
0.128043 0.448412 0.622714
0.187599 0.515679 0.655123
0.279504 0.576845 0.683980
0.403520 0.632817 0.710719
0.553325 0.683209 0.735371
0.699523 0.720800 0.751833
0.809982 0.746092 0.759037
0.898686 0.764149 0.763233
0.222208 0.567985 0.691714
0.285279 0.626019 0.716114
0.371982 0.676548 0.736233
0.482724 0.721570 0.754813
0.612788 0.761851 0.773340
0.737880 0.792625 0.789291
0.823232 0.808557 0.791781
0.899151 0.818151 0.791922
0.372130 0.702845 0.756679
0.438181 0.744568 0.767674
0.517852 0.779853 0.777263
0.610997 0.810936 0.788698
0.713628 0.839038 0.803930
0.805559 0.861460 0.821962
0.862892 0.872964 0.825966
0.913113 0.879067 0.823832
0.014132 0.053929 0.192690
0.033520 0.051953 0.167746
0.091233 0.068254 0.159093
0.202126 0.112830 0.166682
0.372432 0.193568 0.190467
0.592142 0.324109 0.234188
0.781379 0.478197 0.290798
0.899745 0.606866 0.344696
0.021658 0.115208 0.302697
0.063251 0.156066 0.321055
0.120903 0.174279 0.307540
0.222183 0.206286 0.294740
0.382619 0.277691 0.304854
0.594397 0.398318 0.339756
0.779574 0.539637 0.388667
0.897955 0.655950 0.433741
0.042670 0.199210 0.418904
0.093566 0.256307 0.447209
0.171601 0.298267 0.456377
0.277014 0.335551 0.452403
0.413180 0.382318 0.445343
0.605835 0.480217 0.468247
0.780343 0.599490 0.506902
0.896054 0.697034 0.541829
0.074562 0.297104 0.529226
0.128011 0.357160 0.554355
0.221604 0.417377 0.581998
0.337776 0.466123 0.596188
0.467058 0.502814 0.591890
0.628818 0.568193 0.600161
0.785206 0.658635 0.627056
0.894936 0.733406 0.651700
0.113881 0.399942 0.623700
0.167788 0.459511 0.646793
0.258300 0.517474 0.671325
0.384298 0.574190 0.697762
0.535562 0.627140 0.722072
0.663657 0.659458 0.718638
0.795434 0.717805 0.733802
0.895277 0.768105 0.748820
0.152992 0.492934 0.689907
0.206757 0.550723 0.712981
0.293529 0.604776 0.735702
0.413340 0.656411 0.759351
0.560157 0.705485 0.783655
0.705419 0.745230 0.802020
0.813479 0.777685 0.810065
0.897715 0.805006 0.816048
0.184403 0.566131 0.730555
0.238644 0.622608 0.755511
0.321942 0.673313 0.777989
0.435703 0.720423 0.800093
0.575877 0.764862 0.822760
0.719673 0.802560 0.843042
0.823252 0.827969 0.852844
0.901697 0.846277 0.857041
0.267083 0.660855 0.776594
0.324230 0.708725 0.796855
0.403984 0.750503 0.814471
0.507891 0.788787 0.832065
0.632649 0.824983 0.851090
0.757896 0.856206 0.869666
0.847862 0.877600 0.882633
0.911094 0.891088 0.887020
