Assets/1__3DArt/KimSe/artstation_asset/LUTs_subway_asset/CUBE/Yellow Line 04.cube
# LUT by SparkleStock. Enhanced with VOXCOLOR algorithms.
LUT_3D_SIZE 5
DOMAIN_MIN 0.000000 0.000000 0.000000
DOMAIN_MAX 0.903226 0.903226 0.903226
0.011722 0.027350 0.042979
0.409532 0.251755 0.110418
0.732979 0.455812 0.159605
0.884619 0.572421 0.188523
0.930458 0.617070 0.209547
0.121383 0.150073 0.074678
0.342844 0.246924 0.109092
0.652378 0.420675 0.154893
0.853882 0.574606 0.195048
0.926139 0.655952 0.231226
0.366844 0.344693 0.132861
0.519447 0.409877 0.157966
0.641167 0.448798 0.169457
0.827720 0.584076 0.204103
0.920592 0.692009 0.248967
0.623955 0.570420 0.199787
0.707391 0.601652 0.213877
0.779133 0.628716 0.224869
0.817967 0.614374 0.222474
0.915681 0.724647 0.264615
0.754138 0.745173 0.246713
0.800741 0.752348 0.257289
0.844666 0.760483 0.266357
0.882514 0.764062 0.273947
0.918821 0.772591 0.286248
0.015676 0.048840 0.098232
0.193244 0.131638 0.119350
0.563461 0.321765 0.172559
0.825336 0.495200 0.213130
0.923747 0.603071 0.245856
0.071816 0.175474 0.200099
0.217540 0.256303 0.226719
0.547773 0.418269 0.272688
0.813449 0.576078 0.313597
0.918098 0.672942 0.347981
0.333154 0.423301 0.308571
0.450760 0.447047 0.283455
0.599109 0.497993 0.297975
0.808658 0.621266 0.338782
0.914113 0.717441 0.387840
0.615689 0.640929 0.352290
0.706838 0.655386 0.330283
0.777473 0.672118 0.337250
0.821586 0.671511 0.339058
0.913969 0.757538 0.396108
0.749896 0.776236 0.354119
0.808263 0.792220 0.377789
0.852715 0.799687 0.400067
0.888520 0.801612 0.407509
0.921958 0.809641 0.421501
0.018134 0.069180 0.156430
0.140170 0.114788 0.158977
0.477667 0.275044 0.203302
0.789022 0.464273 0.249361
0.916957 0.597976 0.285582
0.026296 0.166478 0.269355
0.145033 0.256922 0.312981
0.463260 0.394628 0.346049
0.777919 0.558482 0.384726
0.913157 0.673776 0.415962
0.094127 0.320815 0.404721
0.210814 0.414282 0.443568
0.470228 0.514089 0.485357
0.764453 0.642068 0.523924
0.905439 0.737179 0.555307
0.405377 0.629787 0.554876
0.556954 0.669313 0.525264
0.722575 0.701622 0.527113
0.795513 0.710579 0.530650
0.907394 0.784955 0.583046
0.655541 0.797710 0.559466
0.760699 0.815125 0.537859
0.846664 0.833338 0.577660
0.888296 0.835494 0.593125
0.921642 0.840867 0.606496
0.019599 0.089685 0.225027
0.104644 0.110008 0.209523
0.381731 0.232187 0.236359
0.766416 0.454422 0.291665
0.913362 0.598587 0.328884
0.028050 0.194181 0.357274
0.126260 0.273959 0.389392
0.383741 0.369842 0.396527
0.759595 0.554830 0.434380
0.913018 0.677387 0.463445
0.040355 0.316105 0.494566
0.137537 0.419375 0.542361
0.404725 0.525774 0.588500
0.744572 0.650482 0.609770
0.905416 0.746884 0.630056
0.065643 0.441260 0.595478
0.160324 0.551722 0.649895
0.414165 0.654590 0.698729
0.743230 0.742396 0.741612
0.897960 0.811555 0.756808
0.386652 0.740937 0.728546
0.539702 0.791971 0.722395
0.727548 0.833068 0.733019
0.874439 0.865120 0.769626
0.916435 0.869945 0.776027
0.021742 0.111623 0.306786
0.082435 0.113741 0.271340
0.294458 0.197556 0.279245
0.645891 0.385385 0.321537
0.895211 0.588236 0.371182
0.032406 0.224935 0.454129
0.116927 0.296580 0.474041
0.316291 0.354084 0.455202
0.646324 0.498360 0.470293
0.897920 0.670788 0.508791
0.045896 0.357594 0.600953
0.137290 0.451912 0.633375
0.380754 0.543348 0.665180
0.666072 0.627326 0.662854
0.896688 0.749041 0.680847
0.055449 0.483763 0.700229
0.140967 0.579362 0.735792
0.389335 0.674651 0.777904
0.717345 0.761171 0.818168
0.896431 0.823556 0.817466
0.111571 0.615114 0.761701
0.212374 0.702256 0.797188
0.446427 0.780404 0.831561
0.740915 0.850192 0.867221
0.904813 0.891222 0.882727
