Assets/1__3DArt/KimSe/artstation_asset/LUTs_subway_asset/CUBE/Yellow Line 02_S.cube
# LUT by SparkleStock. Enhanced with VOXCOLOR algorithms.
LUT_3D_SIZE 5
DOMAIN_MIN 0.000000 0.000000 0.000000
DOMAIN_MAX 0.903226 0.903226 0.903226
0.074237 0.066422 0.054701
0.388948 0.252527 0.115680
0.650416 0.431833 0.167135
0.784844 0.544905 0.195313
0.839395 0.602592 0.214731
0.167482 0.173075 0.073930
0.322935 0.250259 0.093058
0.556287 0.373071 0.121544
0.738632 0.501745 0.155541
0.834342 0.617005 0.204214
0.363346 0.351026 0.119130
0.467941 0.407190 0.131818
0.550859 0.436421 0.129921
0.714220 0.535075 0.151918
0.831816 0.656356 0.206309
0.566434 0.567049 0.172185
0.630733 0.593285 0.179656
0.684208 0.617882 0.182067
0.717381 0.605340 0.179481
0.830351 0.707208 0.219460
0.676561 0.743613 0.218733
0.724729 0.750830 0.223816
0.766884 0.759477 0.228826
0.802735 0.761959 0.233595
0.841813 0.769215 0.244225
0.076695 0.069101 0.085084
0.219091 0.133670 0.115989
0.505469 0.274708 0.176438
0.723150 0.430667 0.217929
0.829628 0.572300 0.242339
0.131171 0.182105 0.175631
0.253267 0.249298 0.207723
0.492365 0.340502 0.244933
0.711291 0.445115 0.272522
0.843517 0.581274 0.305253
0.350765 0.423775 0.279838
0.422832 0.440220 0.253240
0.521091 0.467353 0.258497
0.703564 0.530533 0.277523
0.851824 0.633303 0.318029
0.574138 0.636213 0.319094
0.634545 0.647242 0.291480
0.675163 0.658525 0.292027
0.717731 0.656235 0.288824
0.854562 0.720436 0.324489
0.685735 0.770963 0.321567
0.740772 0.790643 0.338855
0.780531 0.799888 0.357388
0.814093 0.803871 0.358556
0.863121 0.811598 0.363120
0.077687 0.074946 0.120296
0.181085 0.115085 0.134925
0.444966 0.244908 0.196346
0.695034 0.404371 0.248585
0.823529 0.564878 0.273439
0.095950 0.160263 0.228325
0.210506 0.246785 0.288584
0.452733 0.342494 0.342500
0.693963 0.444502 0.374681
0.844574 0.580367 0.390439
0.165400 0.309082 0.365361
0.270314 0.405003 0.411995
0.472908 0.485569 0.455352
0.696302 0.538163 0.472924
0.866351 0.620681 0.491661
0.420870 0.623797 0.524309
0.534479 0.663774 0.492460
0.656115 0.690034 0.491039
0.716797 0.690409 0.486394
0.874606 0.728191 0.508388
0.617991 0.794396 0.532192
0.711481 0.814746 0.505536
0.789739 0.835004 0.547322
0.826704 0.840942 0.556226
0.883107 0.847460 0.552351
0.078530 0.082737 0.164717
0.154871 0.103366 0.160736
0.376443 0.214788 0.203210
0.684379 0.417511 0.274046
0.821886 0.570869 0.305845
0.103117 0.177285 0.301357
0.197030 0.258020 0.348557
0.403364 0.344505 0.378079
0.694263 0.501465 0.434743
0.844205 0.619080 0.450231
0.129865 0.294187 0.448461
0.220944 0.402542 0.507927
0.443164 0.506305 0.568401
0.703584 0.598944 0.609161
0.867535 0.660983 0.617220
0.158668 0.419316 0.557014
0.242985 0.538513 0.620660
0.454044 0.646334 0.676420
0.717305 0.722148 0.717290
0.880509 0.743331 0.714251
0.408515 0.735335 0.707762
0.535919 0.791482 0.701772
0.700919 0.836501 0.716642
0.832350 0.870133 0.758841
0.891628 0.874119 0.749927
0.082839 0.092717 0.222230
0.139354 0.097408 0.199446
0.313110 0.178248 0.223838
0.596355 0.357407 0.282466
0.810909 0.562058 0.338048
0.113798 0.199550 0.388015
0.194776 0.273566 0.419795
0.355547 0.332477 0.414522
0.618387 0.474103 0.445115
0.833783 0.648952 0.489097
0.144397 0.328061 0.553121
0.227107 0.428971 0.595371
0.431307 0.525547 0.640502
0.659123 0.608014 0.653509
0.857332 0.726668 0.682706
0.160384 0.453385 0.663354
0.231550 0.559886 0.706800
0.438568 0.664304 0.759882
0.715609 0.754481 0.813250
0.873739 0.806133 0.823054
0.198955 0.593660 0.732264
0.279336 0.690875 0.773375
0.473494 0.779080 0.817245
0.729561 0.854919 0.864257
0.884497 0.894656 0.886057
