Assets/1__3DArt/KimSe/artstation_asset/LUTs_subway_asset/CUBE/Yellow Line 05.cube
# LUT by SparkleStock. Enhanced with VOXCOLOR algorithms.
LUT_3D_SIZE 8
DOMAIN_MIN 0.000000 0.000000 0.000000
DOMAIN_MAX 0.903226 0.903226 0.903226
0.046886 0.070330 0.082051
0.252015 0.163346 0.088857
0.472275 0.281405 0.091780
0.668597 0.403238 0.091843
0.813014 0.511119 0.090307
0.889771 0.585419 0.089929
0.929347 0.629469 0.093174
0.953192 0.657639 0.099397
0.083186 0.115136 0.084509
0.198737 0.156193 0.089266
0.397329 0.250906 0.093042
0.606531 0.369652 0.093996
0.772592 0.487395 0.091710
0.867792 0.579113 0.090453
0.918980 0.640581 0.093918
0.949740 0.682284 0.101532
0.171444 0.186727 0.089109
0.273621 0.224447 0.093061
0.398672 0.270560 0.096512
0.556146 0.350547 0.097388
0.736049 0.470985 0.094948
0.847514 0.576492 0.092503
0.909433 0.652181 0.095531
0.946487 0.704699 0.103809
0.302919 0.286597 0.096089
0.406510 0.330574 0.099138
0.477223 0.349120 0.101384
0.568701 0.384862 0.101835
0.706199 0.464168 0.099967
0.829678 0.577273 0.096204
0.900846 0.664018 0.098321
0.943565 0.725448 0.106623
0.463902 0.412935 0.105495
0.545081 0.447837 0.106769
0.615594 0.479884 0.107305
0.663852 0.489337 0.107293
0.698986 0.483939 0.106383
0.817324 0.584493 0.101577
0.893597 0.676464 0.102468
0.941141 0.745081 0.110231
0.617606 0.555485 0.117216
0.672146 0.576190 0.116588
0.723900 0.601193 0.115739
0.767498 0.619842 0.114495
0.800309 0.625330 0.112542
0.826290 0.618304 0.108615
0.889609 0.692833 0.108067
0.939763 0.764255 0.114719
0.721210 0.684170 0.131931
0.759113 0.694703 0.129644
0.795889 0.709516 0.127482
0.829542 0.723792 0.125464
0.857910 0.732559 0.123367
0.875328 0.725289 0.119830
0.906320 0.744665 0.115729
0.939889 0.785670 0.119691
0.778132 0.784994 0.151239
0.808138 0.790281 0.147580
0.836700 0.797275 0.144020
0.863507 0.804888 0.140948
0.888138 0.811773 0.138422
0.908916 0.814389 0.135336
0.925034 0.809418 0.129994
0.946057 0.823209 0.128875
0.051046 0.072409 0.095663
0.137470 0.110684 0.103055
0.317614 0.189554 0.110917
0.527889 0.293297 0.116555
0.716765 0.406649 0.118458
0.838750 0.507295 0.117934
0.907453 0.584766 0.120057
0.947691 0.642697 0.127183
0.062170 0.110190 0.127395
0.128027 0.151464 0.148035
0.301974 0.235538 0.162899
0.514308 0.343675 0.171381
0.708312 0.458475 0.173894
0.834009 0.556821 0.173851
0.904597 0.630199 0.177082
0.946156 0.684703 0.185348
0.170560 0.218921 0.169978
0.233298 0.244875 0.168911
0.346083 0.290286 0.173750
0.506997 0.368728 0.180023
0.697656 0.480608 0.184545
0.826812 0.581374 0.186599
0.900466 0.657548 0.192942
0.944245 0.713865 0.204823
0.329722 0.354542 0.201266
0.391080 0.365289 0.176567
0.453916 0.380176 0.170201
0.549964 0.419691 0.172525
0.690207 0.495131 0.176500
0.820310 0.597405 0.180844
0.896592 0.677866 0.190608
0.942457 0.737297 0.206752
0.500311 0.485801 0.208769
0.552485 0.493012 0.179986
0.611245 0.512842 0.171287
0.659987 0.524547 0.170486
0.701674 0.529589 0.169936
0.818733 0.618548 0.174781
0.894210 0.699033 0.186798
0.941209 0.760034 0.206432
0.645818 0.609324 0.204244
0.687559 0.619674 0.186023
0.731643 0.635912 0.179977
0.771986 0.650533 0.178463
0.805231 0.658360 0.176232
0.834917 0.658209 0.173683
0.894589 0.722063 0.184866
0.941006 0.782230 0.206199
0.737445 0.715078 0.201614
0.771764 0.727872 0.200054
0.805257 0.739472 0.198841
0.836440 0.749926 0.197442
0.863656 0.757839 0.195410
0.882401 0.754384 0.192156
0.912198 0.772193 0.192772
0.942634 0.806065 0.208405
0.785835 0.798770 0.206053
0.815656 0.811546 0.223103
0.843790 0.819768 0.227550
0.869951 0.826061 0.226450
0.893824 0.831856 0.224718
0.914224 0.834666 0.222072
0.930204 0.831639 0.217534
0.949275 0.842832 0.222449
0.053062 0.075025 0.110213
0.098022 0.092668 0.116013
0.239427 0.148024 0.128768
0.435654 0.234379 0.140981
0.645130 0.343054 0.147685
0.799280 0.456361 0.149192
0.890181 0.553740 0.151506
0.943301 0.630538 0.159552
0.056325 0.109927 0.151727
0.105501 0.150772 0.179652
0.244079 0.219002 0.200498
0.437048 0.310554 0.214455
0.646624 0.418563 0.222035
0.800189 0.523740 0.223938
0.890005 0.610604 0.227003
0.942479 0.678825 0.235343
0.111392 0.188858 0.206485
0.162423 0.229447 0.227224
0.273179 0.287155 0.250398
0.440195 0.369029 0.269606
0.644287 0.474124 0.280953
0.797577 0.574002 0.285941
0.887661 0.654394 0.292293
0.940598 0.716961 0.303230
0.242317 0.322983 0.268839
0.296550 0.350699 0.265170
0.380083 0.388493 0.277250
0.499144 0.442406 0.292197
0.650522 0.516148 0.302045
0.798186 0.611384 0.311653
0.886644 0.688048 0.323682
0.939263 0.747083 0.340487
0.445047 0.502670 0.326654
0.504000 0.515362 0.295091
0.574808 0.535192 0.283843
0.634564 0.549424 0.281608
0.682915 0.561547 0.282005
0.807584 0.642581 0.294461
0.889087 0.715241 0.313318
0.939448 0.771819 0.338957
0.616054 0.638060 0.331697
0.667612 0.649638 0.298359
0.720464 0.662802 0.286396
0.765513 0.674487 0.283928
0.798942 0.682717 0.282458
0.832716 0.687654 0.281175
0.894011 0.743787 0.301728
0.940655 0.796435 0.334194
0.723436 0.738647 0.320691
0.765432 0.751518 0.299939
0.804911 0.762587 0.299786
0.838605 0.771610 0.304402
0.864701 0.777774 0.303574
0.884136 0.776710 0.301011
0.914360 0.793154 0.305733
0.943919 0.822194 0.332090
0.781524 0.813437 0.309907
0.815773 0.826099 0.308964
0.847255 0.836392 0.327262
0.874827 0.843878 0.342833
0.898032 0.848491 0.343240
0.917814 0.850943 0.341855
0.933624 0.849008 0.338455
0.951682 0.858320 0.349688
0.054118 0.078097 0.125779
0.090027 0.089764 0.128968
0.201257 0.131479 0.143839
0.377939 0.205689 0.162122
0.596484 0.309869 0.177068
0.770589 0.426664 0.182356
0.877308 0.534088 0.186154
0.940020 0.621475 0.195363
0.056954 0.112926 0.170939
0.103038 0.152884 0.200928
0.210985 0.206109 0.222412
0.381929 0.283542 0.239911
0.599150 0.387840 0.255254
0.772574 0.496486 0.260211
0.878004 0.593164 0.263923
0.939573 0.671612 0.272434
0.063444 0.158961 0.228619
0.113268 0.214395 0.268772
0.221466 0.280101 0.306308
0.388197 0.362640 0.335699
0.597967 0.462762 0.353714
0.770955 0.562432 0.361350
0.876058 0.647593 0.367124
0.937457 0.716176 0.376165
0.134850 0.261048 0.305574
0.190190 0.315677 0.333788
0.293847 0.378524 0.369941
0.436696 0.448712 0.401179
0.606135 0.526373 0.420070
0.772601 0.617547 0.432749
0.875157 0.693051 0.443795
0.935664 0.753176 0.457317
0.301642 0.436309 0.397259
0.367469 0.474967 0.393221
0.457391 0.513874 0.399882
0.551353 0.548934 0.412526
0.643920 0.584310 0.427574
0.784346 0.660589 0.443983
0.878198 0.728217 0.463128
0.935689 0.782365 0.486333
0.514704 0.619707 0.453666
0.582467 0.644059 0.424688
0.655516 0.665710 0.414039
0.724447 0.684881 0.414585
0.781852 0.701053 0.419527
0.820251 0.709640 0.419478
0.887930 0.760513 0.443721
0.938540 0.808515 0.479234
0.660839 0.739406 0.457603
0.717833 0.756848 0.425020
0.773238 0.772291 0.421122
0.822324 0.785039 0.428964
0.860809 0.793928 0.435572
0.880606 0.794160 0.434239
0.912764 0.809547 0.441246
0.943505 0.835596 0.473095
0.748992 0.819996 0.443651
0.794085 0.832950 0.420222
0.835726 0.845736 0.437084
0.871679 0.856113 0.463387
0.900297 0.862558 0.477702
0.919371 0.864420 0.478172
0.934971 0.863069 0.476232
0.952804 0.871152 0.491793
0.055063 0.081618 0.142652
0.083105 0.088290 0.142951
0.175621 0.121292 0.155955
0.339710 0.189585 0.178273
0.562032 0.294045 0.204247
0.750718 0.412047 0.215792
0.868482 0.523484 0.222555
0.937785 0.615614 0.233355
0.058027 0.118057 0.194216
0.101045 0.156888 0.223751
0.191498 0.199466 0.241178
0.348350 0.268835 0.259877
0.566466 0.374246 0.285225
0.754132 0.484524 0.295787
0.870349 0.585014 0.301670
0.937992 0.667749 0.310921
0.065073 0.165780 0.257094
0.112440 0.221054 0.297524
0.211505 0.281216 0.333718
0.366513 0.356899 0.364189
0.567824 0.452264 0.387488
0.753642 0.553038 0.399577
0.869037 0.641594 0.406269
0.936102 0.713947 0.414821
0.074532 0.221758 0.324130
0.122831 0.286541 0.368471
0.228520 0.360229 0.418619
0.382486 0.440641 0.462734
0.570057 0.526070 0.492909
0.751356 0.616660 0.508049
0.865924 0.693325 0.517186
0.933178 0.755392 0.526514
0.112417 0.304606 0.398589
0.165495 0.374300 0.441926
0.268359 0.447161 0.486148
0.415363 0.522851 0.532447
0.593115 0.600253 0.577164
0.754419 0.674724 0.594021
0.864179 0.739503 0.607426
0.930886 0.792263 0.620683
0.342111 0.540185 0.529918
0.417493 0.587130 0.532267
0.513939 0.630792 0.536467
0.626464 0.672254 0.548491
0.740965 0.709535 0.568212
0.796743 0.725845 0.572633
0.876844 0.774348 0.593837
0.934689 0.819746 0.622091
0.536681 0.702351 0.578803
0.609954 0.733107 0.559219
0.688815 0.759685 0.549121
0.768878 0.783459 0.555120
0.841237 0.803476 0.575659
0.870452 0.807838 0.578487
0.907446 0.823131 0.585693
0.941227 0.847576 0.615007
0.673159 0.808750 0.584328
0.735309 0.828063 0.557772
0.795308 0.844653 0.552321
0.850019 0.859720 0.572058
0.895333 0.872789 0.610180
0.918026 0.875832 0.615308
0.934072 0.875111 0.615491
0.952314 0.882544 0.631728
0.056009 0.085966 0.162503
0.078488 0.088540 0.159143
0.154141 0.113815 0.169421
0.295190 0.171241 0.190556
0.500972 0.266662 0.218817
0.733568 0.404570 0.245584
0.863530 0.519935 0.258299
0.936468 0.613034 0.271374
0.059997 0.125040 0.221240
0.100173 0.162945 0.249155
0.175359 0.196154 0.261481
0.308934 0.251548 0.275607
0.508485 0.346164 0.301300
0.738928 0.478955 0.327425
0.866870 0.583618 0.338467
0.937746 0.666912 0.349157
0.068586 0.176746 0.291808
0.113743 0.231297 0.330250
0.204157 0.285720 0.362473
0.340722 0.349111 0.387710
0.521423 0.430620 0.407579
0.741419 0.550574 0.433242
0.866824 0.642558 0.443711
0.936634 0.715146 0.452626
0.079985 0.237139 0.365894
0.125233 0.299896 0.406557
0.227230 0.371090 0.454173
0.370434 0.443837 0.494710
0.542630 0.517697 0.520917
0.742943 0.618192 0.544277
0.864550 0.696433 0.555127
0.934041 0.758331 0.563543
0.096335 0.305185 0.437279
0.142736 0.374525 0.480026
0.242135 0.447839 0.525868
0.389238 0.524502 0.574800
0.571417 0.603314 0.622386
0.745459 0.680367 0.642761
0.861616 0.744971 0.655159
0.930987 0.796986 0.664897
0.138385 0.392640 0.503035
0.189980 0.464501 0.544568
0.286559 0.534527 0.584625
0.424858 0.604179 0.625712
0.594127 0.673025 0.667595
0.752844 0.732485 0.698990
0.862212 0.786630 0.716203
0.929549 0.830641 0.729966
0.335712 0.594521 0.614541
0.407937 0.646944 0.629250
0.502953 0.694738 0.643307
0.616950 0.739763 0.661096
0.741288 0.782267 0.684548
0.843999 0.815577 0.708439
0.897925 0.835324 0.716602
0.936661 0.859113 0.734668
0.522303 0.755923 0.678516
0.600732 0.789425 0.672182
0.684971 0.818257 0.671665
0.771085 0.844081 0.681295
0.852862 0.867428 0.702580
0.909366 0.884084 0.729507
0.930720 0.885844 0.734613
0.949855 0.893196 0.746653
0.057111 0.091418 0.185348
0.075493 0.090625 0.177719
0.137043 0.109250 0.184574
0.256718 0.156519 0.203692
0.439617 0.239517 0.232121
0.669652 0.370254 0.263987
0.838930 0.506683 0.287472
0.934347 0.612065 0.306796
0.062490 0.133248 0.251256
0.100438 0.170865 0.277508
0.162868 0.196155 0.284470
0.275424 0.238813 0.293134
0.451153 0.319356 0.316311
0.676674 0.445126 0.346553
0.844042 0.571713 0.368453
0.937481 0.667544 0.385111
0.073161 0.189058 0.329342
0.116742 0.243496 0.365784
0.199601 0.293078 0.393529
0.319261 0.345273 0.412632
0.475590 0.410499 0.426560
0.686457 0.521724 0.453832
0.847467 0.633672 0.474291
0.937951 0.717651 0.488449
0.087261 0.254801 0.410742
0.130549 0.315986 0.447526
0.228969 0.384712 0.491497
0.361670 0.450024 0.527035
0.515164 0.510227 0.546814
0.700719 0.598583 0.567933
0.850324 0.691986 0.586400
0.936588 0.762743 0.598594
0.102798 0.325992 0.487302
0.145666 0.392137 0.524584
0.241535 0.462401 0.566608
0.385228 0.536100 0.612915
0.562472 0.610584 0.658162
0.719756 0.673509 0.673162
0.853737 0.746176 0.689107
0.934198 0.803178 0.699998
0.116135 0.394370 0.546642
0.159552 0.464604 0.586412
0.252677 0.534726 0.627370
0.392239 0.605737 0.670363
0.567643 0.676827 0.714243
0.739459 0.739308 0.749177
0.859794 0.794852 0.764844
0.931824 0.838491 0.774484
0.192477 0.507141 0.615872
0.244905 0.572064 0.648289
0.336484 0.633230 0.679343
0.464979 0.692757 0.711597
0.621914 0.751083 0.746076
0.774162 0.801887 0.778863
0.872914 0.838181 0.794458
0.933545 0.868811 0.807652
0.330103 0.652031 0.688923
0.397942 0.702640 0.707281
0.488997 0.748303 0.725361
0.600750 0.791196 0.746553
0.726099 0.832148 0.772698
0.837445 0.866681 0.801905
0.904814 0.887233 0.817102
0.945672 0.903037 0.828422
0.058041 0.097192 0.210635
0.073568 0.094130 0.198376
0.123473 0.107273 0.201488
0.224044 0.145447 0.218100
0.383635 0.216009 0.245668
0.598564 0.333365 0.279656
0.792020 0.476844 0.311016
0.914614 0.597944 0.337368
0.065201 0.142120 0.283318
0.101564 0.179669 0.307845
0.153653 0.198596 0.309523
0.247888 0.230252 0.312515
0.400101 0.296938 0.332099
0.608584 0.408926 0.362725
0.798834 0.543227 0.392069
0.919460 0.654795 0.415879
0.078097 0.201758 0.367873
0.120886 0.256439 0.402748
0.197505 0.302091 0.426171
0.302315 0.344625 0.439083
0.435424 0.394633 0.446417
0.626861 0.491066 0.471494
0.806805 0.609370 0.498023
0.922244 0.707461 0.518736
0.095005 0.272418 0.455306
0.137551 0.332777 0.489117
0.232930 0.399380 0.529606
0.356082 0.458127 0.560000
0.491658 0.505764 0.572843
0.655235 0.577821 0.588716
0.817304 0.674388 0.610845
0.924032 0.756136 0.628107
0.113911 0.349737 0.537313
0.155175 0.413029 0.569484
0.248239 0.480114 0.607194
0.387986 0.550389 0.649853
0.558219 0.619681 0.691401
0.693373 0.666131 0.699036
0.831443 0.737396 0.715324
0.925694 0.800922 0.728789
0.130640 0.425007 0.601038
0.170544 0.489522 0.632675
0.260482 0.554886 0.668103
0.396739 0.621824 0.707405
0.568217 0.689087 0.748770
0.734221 0.746638 0.781915
0.850965 0.796377 0.794590
0.927937 0.840709 0.803075
0.141707 0.488999 0.643178
0.180767 0.554399 0.676596
0.267325 0.617548 0.711193
0.399416 0.680408 0.748113
0.568206 0.743209 0.787068
0.739357 0.799368 0.822281
0.857950 0.841382 0.841108
0.931509 0.875723 0.851838
0.206247 0.588821 0.697410
0.255274 0.646881 0.725935
0.342544 0.701049 0.754178
0.466675 0.753706 0.784229
0.620094 0.805668 0.816682
0.771598 0.851854 0.847109
0.876638 0.885305 0.868533
0.939026 0.908889 0.880059
