Assets/1__3DArt/KimSe/artstation_asset/LUTs_subway_asset/CUBE/Yellow Line 04.cube
# LUT by SparkleStock. Enhanced with VOXCOLOR algorithms.
LUT_3D_SIZE 32
0.011722 0.027350 0.042979
0.068675 0.058876 0.053047
0.125629 0.090401 0.063114
0.182583 0.121927 0.073181
0.239537 0.153452 0.083249
0.296491 0.184978 0.093316
0.353051 0.218197 0.102005
0.409532 0.251755 0.110418
0.466013 0.285313 0.118831
0.522494 0.318870 0.127244
0.578975 0.352428 0.135657
0.622380 0.380377 0.142306
0.659246 0.405522 0.148072
0.696112 0.430667 0.153838
0.732979 0.455812 0.159605
0.769845 0.480956 0.165371
0.797353 0.500926 0.170121
0.815503 0.515719 0.173855
0.833652 0.530513 0.177589
0.851802 0.545307 0.181323
0.869952 0.560101 0.185057
0.884619 0.572421 0.188523
0.892323 0.579794 0.191453
0.900028 0.587168 0.194383
0.907732 0.594541 0.197314
0.915436 0.601914 0.200244
0.922518 0.608752 0.203214
0.926488 0.612911 0.206381
0.930458 0.617070 0.209547
0.934428 0.621230 0.212714
0.938399 0.625389 0.215881
0.942369 0.629548 0.219048
0.022498 0.042617 0.046666
0.073496 0.069998 0.055581
0.124495 0.097380 0.064495
0.175493 0.124761 0.073410
0.226492 0.152143 0.082325
0.277490 0.179524 0.091239
0.333568 0.211763 0.099835
0.390662 0.244973 0.108367
0.447757 0.278183 0.116899
0.504851 0.311393 0.125431
0.561945 0.344604 0.133963
0.606413 0.372821 0.140786
0.644570 0.398542 0.146753
0.682726 0.424263 0.152721
0.720882 0.449984 0.158688
0.759038 0.475705 0.164656
0.787717 0.496420 0.169639
0.806919 0.512129 0.173638
0.826121 0.527837 0.177638
0.845322 0.543546 0.181637
0.864524 0.559255 0.185636
0.880112 0.572474 0.189392
0.888475 0.580717 0.192661
0.896838 0.588959 0.195929
0.905201 0.597201 0.199198
0.913564 0.605444 0.202467
0.921252 0.613109 0.205777
0.925570 0.617891 0.209291
0.929888 0.622672 0.212806
0.934206 0.627453 0.216320
0.938524 0.632235 0.219834
0.942841 0.637016 0.223349
0.033274 0.057883 0.050353
0.078317 0.081121 0.058115
0.123361 0.104358 0.065877
0.168404 0.127596 0.073639
0.213447 0.150833 0.081401
0.258490 0.174070 0.089163
0.314086 0.205329 0.097666
0.371793 0.238191 0.106317
0.429500 0.271054 0.114967
0.487207 0.303916 0.123618
0.544914 0.336779 0.132269
0.590447 0.365265 0.139266
0.629893 0.391562 0.145434
0.669339 0.417860 0.151603
0.708785 0.444157 0.157772
0.748232 0.470454 0.163941
0.778081 0.491915 0.169157
0.798335 0.508538 0.173422
0.818589 0.525162 0.177686
0.838842 0.541785 0.181951
0.859096 0.558408 0.186215
0.875606 0.572528 0.190261
0.884627 0.581639 0.193868
0.893648 0.590751 0.197475
0.902670 0.599862 0.201083
0.911691 0.608973 0.204690
0.919987 0.617467 0.208340
0.924652 0.622870 0.212202
0.929318 0.628274 0.216064
0.933983 0.633677 0.219926
0.938649 0.639080 0.223788
0.943314 0.644484 0.227650
0.044051 0.073150 0.054039
0.083138 0.092243 0.060649
0.122226 0.111337 0.067258
0.161314 0.130430 0.073867
0.200402 0.149523 0.080477
0.239490 0.168617 0.087086
0.294604 0.198895 0.095496
0.352924 0.231410 0.104266
0.411244 0.263925 0.113036
0.469564 0.296440 0.121806
0.527884 0.328955 0.130575
0.574481 0.357709 0.137745
0.615217 0.384582 0.144115
0.655953 0.411456 0.150486
0.696689 0.438330 0.156856
0.737425 0.465203 0.163226
0.768446 0.487409 0.168676
0.789751 0.504948 0.173205
0.811057 0.522486 0.177735
0.832363 0.540024 0.182265
0.853668 0.557562 0.186795
0.871099 0.572581 0.191130
0.880779 0.582562 0.195076
0.890459 0.592542 0.199021
0.900139 0.602523 0.202967
0.909819 0.612503 0.206913
0.918721 0.621824 0.210903
0.923734 0.627850 0.215112
0.928747 0.633875 0.219322
0.933760 0.639901 0.223532
0.938774 0.645926 0.227741
0.943787 0.651952 0.231951
0.054827 0.088416 0.057726
0.087959 0.103366 0.063183
0.121092 0.118315 0.068639
0.154224 0.133264 0.074096
0.187357 0.148214 0.079553
0.220489 0.163163 0.085010
0.275122 0.192461 0.093326
0.334055 0.224628 0.102215
0.392988 0.256795 0.111104
0.451920 0.288963 0.119993
0.510853 0.321130 0.128882
0.558515 0.350152 0.136225
0.600540 0.377602 0.142797
0.642566 0.405052 0.149368
0.684592 0.432503 0.155939
0.726618 0.459953 0.162511
0.758810 0.482904 0.168194
0.781167 0.501357 0.172989
0.803525 0.519810 0.177784
0.825883 0.538263 0.182579
0.848240 0.556716 0.187374
0.866592 0.572635 0.191999
0.876930 0.583484 0.196283
0.887269 0.594334 0.200567
0.897608 0.605183 0.204852
0.907947 0.616033 0.209136
0.917456 0.626182 0.213466
0.922816 0.632829 0.218023
0.928177 0.639477 0.222580
0.933538 0.646124 0.227137
0.938899 0.652772 0.231695
0.944259 0.659419 0.236252
0.065603 0.103683 0.061412
0.092780 0.114488 0.065717
0.119957 0.125293 0.070021
0.147135 0.136099 0.074325
0.174312 0.146904 0.078629
0.201489 0.157709 0.082933
0.255640 0.186026 0.091157
0.315186 0.217846 0.100165
0.374731 0.249666 0.109172
0.434277 0.281486 0.118180
0.493823 0.313305 0.127188
0.542548 0.342596 0.134705
0.585864 0.370623 0.141478
0.629180 0.398649 0.148250
0.672495 0.426675 0.155023
0.715811 0.454702 0.161795
0.749174 0.478399 0.167712
0.772584 0.497766 0.172772
0.795993 0.517134 0.177833
0.819403 0.536502 0.182893
0.842813 0.555870 0.187953
0.862085 0.572688 0.192868
0.873082 0.584407 0.197491
0.884080 0.596125 0.202113
0.895077 0.607844 0.206736
0.906074 0.619562 0.211359
0.916190 0.630539 0.216029
0.921899 0.637809 0.220934
0.927607 0.645078 0.225838
0.933315 0.652348 0.230743
0.939024 0.659618 0.235648
0.944732 0.666887 0.240553
0.091937 0.126157 0.067777
0.118663 0.136798 0.072057
0.145389 0.147438 0.076337
0.172115 0.158079 0.080617
0.198841 0.168719 0.084896
0.225567 0.179360 0.089176
0.273667 0.203549 0.096320
0.326042 0.230447 0.104036
0.378417 0.257345 0.111752
0.430793 0.284243 0.119469
0.483168 0.311141 0.127185
0.530013 0.338891 0.134325
0.574092 0.367067 0.141177
0.618172 0.395243 0.148029
0.662251 0.423418 0.154880
0.706331 0.451594 0.161732
0.740537 0.475720 0.167787
0.764869 0.495797 0.173044
0.789201 0.515874 0.178301
0.813533 0.535951 0.183558
0.837865 0.556027 0.188815
0.857946 0.573565 0.193938
0.869526 0.586023 0.198792
0.881106 0.598481 0.203647
0.892686 0.610939 0.208501
0.904266 0.623397 0.213356
0.914913 0.635067 0.218261
0.920901 0.642799 0.223422
0.926888 0.650530 0.228583
0.932875 0.658262 0.233744
0.938863 0.665993 0.238905
0.944850 0.673725 0.244066
0.121383 0.150073 0.074678
0.148759 0.161345 0.079159
0.176134 0.172617 0.083640
0.203509 0.183888 0.088121
0.230885 0.195160 0.092602
0.258260 0.206432 0.097083
0.299196 0.225862 0.102949
0.342844 0.246924 0.109092
0.386492 0.267986 0.115235
0.430140 0.289047 0.121377
0.473788 0.310109 0.127520
0.518163 0.335956 0.134172
0.562901 0.364196 0.141079
0.607639 0.392436 0.147986
0.652378 0.420675 0.154893
0.697116 0.448915 0.161799
0.732099 0.473407 0.167973
0.757328 0.494152 0.173413
0.782556 0.514897 0.178853
0.807785 0.535641 0.184293
0.833014 0.556386 0.189733
0.853882 0.574606 0.195048
0.866029 0.587778 0.200113
0.878176 0.600949 0.205178
0.890323 0.614121 0.210242
0.902470 0.627292 0.215307
0.913634 0.639629 0.220428
0.919887 0.647790 0.225827
0.926139 0.655952 0.231226
0.932392 0.664113 0.236624
0.938645 0.672275 0.242023
0.944897 0.680436 0.247422
0.150829 0.173989 0.081579
0.178854 0.185892 0.086261
0.206879 0.197795 0.090943
0.234904 0.209698 0.095625
0.262928 0.221601 0.100308
0.290953 0.233504 0.104990
0.324725 0.248176 0.109578
0.359646 0.263401 0.114147
0.394567 0.278626 0.118717
0.429487 0.293851 0.123286
0.464408 0.309077 0.127856
0.506313 0.333021 0.134020
0.551710 0.361325 0.140982
0.597107 0.389629 0.147943
0.642504 0.417933 0.154905
0.687901 0.446236 0.161866
0.723662 0.471095 0.168159
0.749787 0.492507 0.173782
0.775912 0.513919 0.179405
0.802037 0.535332 0.185028
0.828162 0.556744 0.190651
0.849817 0.575647 0.196158
0.862531 0.589532 0.201433
0.875245 0.603418 0.206708
0.887959 0.617303 0.211984
0.900674 0.631188 0.217259
0.912355 0.644191 0.222594
0.918873 0.652782 0.228231
0.925391 0.661374 0.233868
0.931909 0.669965 0.239505
0.938427 0.678556 0.245141
0.944945 0.687148 0.250778
0.180275 0.197905 0.088479
0.208949 0.210439 0.093363
0.237624 0.222973 0.098246
0.266298 0.235507 0.103130
0.294972 0.248042 0.108013
0.323647 0.260576 0.112897
0.350254 0.270489 0.116207
0.376448 0.279878 0.119203
0.402641 0.289267 0.122199
0.428835 0.298656 0.125195
0.455029 0.308045 0.128191
0.494464 0.330086 0.133867
0.540519 0.358454 0.140884
0.586575 0.386822 0.147900
0.632630 0.415190 0.154917
0.678686 0.443558 0.161933
0.715224 0.468782 0.168345
0.742246 0.490862 0.174151
0.769267 0.512942 0.179957
0.796289 0.535022 0.185762
0.823311 0.557102 0.191568
0.845752 0.576689 0.197268
0.859033 0.591287 0.202753
0.872315 0.605886 0.208239
0.885596 0.620485 0.213725
0.898877 0.635083 0.219211
0.911076 0.648752 0.224761
0.917859 0.657774 0.230636
0.924642 0.666795 0.236510
0.931425 0.675817 0.242385
0.938209 0.684838 0.248259
0.944992 0.693860 0.254134
0.209721 0.221820 0.095380
0.239045 0.234986 0.100465
0.268368 0.248151 0.105549
0.297692 0.261317 0.110634
0.327016 0.274482 0.115719
0.356340 0.287648 0.120804
0.375783 0.292802 0.122837
0.393249 0.296355 0.124259
0.410716 0.299907 0.125682
0.428182 0.303460 0.127104
0.445649 0.307012 0.128527
0.482614 0.327151 0.133715
0.529328 0.355583 0.140786
0.576042 0.384015 0.147858
0.622756 0.412447 0.154929
0.669471 0.440879 0.162001
0.706787 0.466469 0.168531
0.734705 0.489217 0.174520
0.762623 0.511965 0.180508
0.790541 0.534713 0.186497
0.818459 0.557461 0.192486
0.841687 0.577730 0.198378
0.855536 0.593042 0.204074
0.869384 0.608354 0.209770
0.883233 0.623667 0.215466
0.897081 0.638979 0.221162
0.909797 0.653314 0.226928
0.916845 0.662766 0.233040
0.923894 0.672217 0.239152
0.930942 0.681668 0.245265
0.937991 0.691120 0.251377
0.945039 0.700571 0.257489
0.246319 0.250683 0.104077
0.274798 0.263547 0.109039
0.303278 0.276411 0.114002
0.331757 0.289274 0.118965
0.360236 0.302138 0.123928
0.388715 0.315001 0.128890
0.405878 0.319120 0.130649
0.420777 0.321489 0.131766
0.435676 0.323858 0.132884
0.450575 0.326228 0.134002
0.465474 0.328597 0.135119
0.498253 0.345554 0.139507
0.539972 0.369806 0.145529
0.581692 0.394057 0.151552
0.623411 0.418308 0.157574
0.665130 0.442559 0.163596
0.700242 0.466219 0.169623
0.728745 0.489287 0.175655
0.757249 0.512355 0.181687
0.785753 0.535424 0.187718
0.814256 0.558492 0.193750
0.838039 0.579168 0.199721
0.852382 0.595059 0.205573
0.866724 0.610951 0.211425
0.881067 0.626842 0.217276
0.895409 0.642734 0.223128
0.908571 0.657617 0.229054
0.915830 0.667455 0.235356
0.923089 0.677294 0.241657
0.930348 0.687133 0.247959
0.937607 0.696971 0.254260
0.944866 0.706810 0.260562
0.286494 0.282020 0.113671
0.313382 0.294115 0.118350
0.340269 0.306210 0.123030
0.367156 0.318305 0.127709
0.394044 0.330400 0.132388
0.420931 0.342496 0.137067
0.438255 0.347439 0.139053
0.453667 0.350952 0.140500
0.469078 0.354464 0.141947
0.484489 0.357977 0.143394
0.499901 0.361490 0.144840
0.527636 0.374627 0.148270
0.561534 0.392575 0.152692
0.595432 0.410523 0.157114
0.629330 0.428472 0.161535
0.663228 0.446420 0.165957
0.694643 0.467001 0.171169
0.723577 0.490216 0.177174
0.752510 0.513430 0.183178
0.781444 0.536645 0.189182
0.810377 0.559859 0.195186
0.834600 0.580804 0.201182
0.849400 0.597208 0.207162
0.864200 0.613611 0.213141
0.878999 0.630015 0.219121
0.893799 0.646419 0.225101
0.907373 0.661790 0.231162
0.914815 0.671994 0.237628
0.922257 0.682199 0.244094
0.929699 0.692403 0.250560
0.937140 0.702608 0.257026
0.944582 0.712813 0.263492
0.326669 0.313356 0.123266
0.351965 0.324683 0.127662
0.377260 0.336010 0.132057
0.402556 0.347336 0.136453
0.427852 0.358663 0.140848
0.453147 0.369990 0.145244
0.470633 0.375758 0.147457
0.486557 0.380414 0.149233
0.502480 0.385070 0.151009
0.518404 0.389727 0.152785
0.534327 0.394383 0.154562
0.557019 0.403699 0.157034
0.583096 0.415344 0.159855
0.609172 0.426990 0.162675
0.635248 0.438635 0.165496
0.661325 0.450280 0.168317
0.689045 0.467783 0.172715
0.718408 0.491144 0.178692
0.747772 0.514505 0.184669
0.777135 0.537866 0.190645
0.806499 0.561227 0.196622
0.831160 0.582440 0.202642
0.846417 0.599356 0.208750
0.861675 0.616272 0.214858
0.876932 0.633188 0.220966
0.892189 0.650104 0.227074
0.906175 0.665963 0.233269
0.913799 0.676533 0.239899
0.921424 0.687104 0.246530
0.929049 0.697674 0.253161
0.936674 0.708245 0.259792
0.944299 0.718815 0.266422
0.366844 0.344693 0.132861
0.390548 0.355251 0.136973
0.414252 0.365809 0.141085
0.437956 0.376367 0.145197
0.461660 0.386926 0.149309
0.485364 0.397484 0.153421
0.503011 0.404077 0.155861
0.519447 0.409877 0.157966
0.535883 0.415677 0.160072
0.552318 0.421476 0.162177
0.568754 0.427276 0.164283
0.586403 0.432771 0.165798
0.604658 0.438114 0.167018
0.622912 0.443456 0.168237
0.641167 0.448798 0.169457
0.659422 0.454141 0.170677
0.683446 0.468566 0.174261
0.713240 0.492073 0.180211
0.743033 0.515580 0.186160
0.772826 0.539087 0.192109
0.802620 0.562595 0.198058
0.827720 0.584076 0.204103
0.843435 0.601504 0.210339
0.859150 0.618933 0.216575
0.874865 0.636361 0.222811
0.890579 0.653789 0.229047
0.904976 0.670136 0.235376
0.912784 0.681072 0.242171
0.920592 0.692009 0.248967
0.928400 0.702945 0.255762
0.936207 0.713881 0.262557
0.944015 0.724818 0.269353
0.407019 0.376029 0.142455
0.429131 0.385819 0.146284
0.451243 0.395609 0.150112
0.473355 0.405399 0.153941
0.495468 0.415188 0.157769
0.517580 0.424978 0.161598
0.535389 0.432396 0.164265
0.552337 0.439339 0.166700
0.569285 0.446283 0.169134
0.586233 0.453226 0.171569
0.603181 0.460169 0.174004
0.615786 0.461843 0.174562
0.626219 0.460883 0.174181
0.636653 0.459922 0.173799
0.647086 0.458962 0.173418
0.657519 0.458001 0.173037
0.677848 0.469348 0.175807
0.708071 0.493001 0.181729
0.738294 0.516655 0.187651
0.768518 0.540309 0.193573
0.798741 0.563962 0.199495
0.824281 0.585712 0.205564
0.840453 0.603652 0.211928
0.856625 0.621593 0.218292
0.872797 0.639534 0.224656
0.888969 0.657474 0.231020
0.903778 0.674309 0.237483
0.911768 0.685611 0.244443
0.919759 0.696913 0.251403
0.927750 0.708216 0.258363
0.935741 0.719518 0.265323
0.943732 0.730820 0.272283
0.445421 0.408098 0.152097
0.465869 0.417014 0.155624
0.486316 0.425930 0.159150
0.506763 0.434847 0.162677
0.527210 0.443763 0.166204
0.547658 0.452679 0.169730
0.564979 0.460271 0.172446
0.581676 0.467599 0.175000
0.598372 0.474927 0.177554
0.615069 0.482254 0.180107
0.631766 0.489582 0.182661
0.641847 0.489713 0.182871
0.648621 0.486246 0.181909
0.655395 0.482779 0.180947
0.662169 0.479311 0.179985
0.668943 0.475844 0.179023
0.686258 0.484586 0.181148
0.714112 0.505536 0.186361
0.741966 0.526487 0.191574
0.769820 0.547437 0.196787
0.797674 0.568388 0.202000
0.821733 0.588429 0.207598
0.838202 0.606654 0.213966
0.854672 0.624878 0.220335
0.871141 0.643102 0.226703
0.887611 0.661327 0.233072
0.902694 0.678447 0.239558
0.910845 0.690052 0.246632
0.918995 0.701656 0.253707
0.927146 0.713260 0.260781
0.935297 0.724864 0.267856
0.943448 0.736469 0.274930
0.482051 0.440900 0.161787
0.500760 0.448837 0.164993
0.519470 0.456774 0.168199
0.538179 0.464712 0.171406
0.556888 0.472649 0.174612
0.575597 0.480587 0.177818
0.591783 0.487703 0.180405
0.607464 0.494656 0.182867
0.623145 0.501608 0.185329
0.638826 0.508561 0.187792
0.654507 0.515513 0.190254
0.664586 0.516379 0.190726
0.671863 0.514202 0.190203
0.679140 0.512025 0.189680
0.686418 0.509847 0.189157
0.693695 0.507670 0.188634
0.708676 0.514280 0.190284
0.731362 0.529678 0.194106
0.754047 0.545076 0.197929
0.776733 0.560473 0.201751
0.799418 0.575871 0.205573
0.820077 0.592229 0.210205
0.836684 0.610508 0.216454
0.853291 0.628787 0.222704
0.869897 0.647066 0.228954
0.886504 0.665346 0.235203
0.901724 0.682552 0.241601
0.910012 0.694394 0.248739
0.918300 0.706236 0.255878
0.926588 0.718078 0.263016
0.934876 0.729920 0.270155
0.943164 0.741762 0.277293
0.518681 0.473701 0.171476
0.535652 0.480660 0.174362
0.552623 0.487618 0.177248
0.569594 0.494577 0.180134
0.586565 0.501535 0.183021
0.603536 0.508494 0.185907
0.618586 0.515135 0.188364
0.633252 0.521712 0.190734
0.647918 0.528290 0.193105
0.662584 0.534867 0.195476
0.677249 0.541445 0.197847
0.687325 0.543045 0.198581
0.695105 0.542158 0.198497
0.702886 0.541271 0.198414
0.710666 0.540383 0.198330
0.718446 0.539496 0.198246
0.731095 0.543975 0.199420
0.748612 0.553819 0.201852
0.766129 0.563664 0.204284
0.783645 0.573509 0.206715
0.801162 0.583354 0.209147
0.818421 0.596028 0.212812
0.835165 0.614362 0.218943
0.851909 0.632696 0.225073
0.868653 0.651030 0.231204
0.885397 0.669365 0.237335
0.900754 0.686656 0.243644
0.909180 0.698736 0.250847
0.917605 0.710816 0.258049
0.926030 0.722896 0.265252
0.934455 0.734976 0.272454
0.942881 0.747056 0.279657
0.555311 0.506503 0.181165
0.570544 0.512483 0.183731
0.585777 0.518462 0.186297
0.601010 0.524442 0.188863
0.616243 0.530422 0.191429
0.631476 0.536401 0.193995
0.645390 0.542567 0.196322
0.659040 0.548769 0.198602
0.672691 0.554971 0.200881
0.686341 0.561174 0.203160
0.699991 0.567376 0.205440
0.710064 0.569712 0.206436
0.718347 0.570114 0.206792
0.726631 0.570517 0.207147
0.734914 0.570919 0.207502
0.743198 0.571322 0.207857
0.753514 0.573669 0.208556
0.765862 0.577961 0.209597
0.778210 0.582253 0.210638
0.790558 0.586545 0.211680
0.802907 0.590837 0.212721
0.816766 0.599828 0.215419
0.833647 0.618217 0.221431
0.850528 0.636606 0.227443
0.867409 0.654995 0.233454
0.884290 0.673384 0.239466
0.899785 0.690761 0.245687
0.908347 0.703078 0.252954
0.916910 0.715396 0.260220
0.925472 0.727714 0.267487
0.934035 0.740032 0.274753
0.942597 0.752349 0.282020
0.591941 0.539304 0.190854
0.605436 0.544305 0.193100
0.618931 0.549306 0.195346
0.632426 0.554307 0.197592
0.645921 0.559308 0.199838
0.659415 0.564309 0.202083
0.672194 0.569998 0.204281
0.684828 0.575826 0.206469
0.697463 0.581653 0.208657
0.710098 0.587480 0.210845
0.722733 0.593307 0.213033
0.732802 0.596378 0.214291
0.741589 0.598071 0.215086
0.750376 0.599763 0.215880
0.759162 0.601455 0.216674
0.767949 0.603148 0.217469
0.775932 0.603363 0.217691
0.783112 0.602103 0.217342
0.790291 0.600842 0.216993
0.797471 0.599581 0.216644
0.804651 0.598320 0.216295
0.815110 0.603627 0.218026
0.832128 0.622071 0.223919
0.849147 0.640515 0.229812
0.866165 0.658959 0.235705
0.883183 0.677403 0.241598
0.898815 0.694865 0.247730
0.907515 0.707421 0.255061
0.916214 0.719976 0.262391
0.924914 0.732532 0.269722
0.933614 0.745087 0.277052
0.942314 0.757643 0.284383
0.623955 0.570420 0.199787
0.635968 0.574567 0.201777
0.647981 0.578714 0.203767
0.659994 0.582862 0.205756
0.672007 0.587009 0.207746
0.684019 0.591156 0.209736
0.695735 0.596304 0.211799
0.707391 0.601652 0.213877
0.719047 0.607001 0.215955
0.730703 0.612350 0.218033
0.742359 0.617698 0.220112
0.752224 0.621160 0.221543
0.761194 0.623679 0.222652
0.770163 0.626198 0.223760
0.779133 0.628716 0.224869
0.788103 0.631235 0.225977
0.794518 0.630188 0.225963
0.798380 0.625576 0.224827
0.802242 0.620964 0.223691
0.806104 0.616352 0.222556
0.809966 0.611740 0.221420
0.817967 0.614374 0.222474
0.834244 0.631501 0.227910
0.850521 0.648627 0.233345
0.866799 0.665754 0.238781
0.883076 0.682880 0.244216
0.898105 0.699267 0.249966
0.906893 0.711957 0.257291
0.915681 0.724647 0.264615
0.924469 0.737337 0.271940
0.933258 0.750026 0.279264
0.942046 0.762716 0.286589
0.646737 0.598165 0.207208
0.657780 0.601708 0.209069
0.668823 0.605251 0.210931
0.679866 0.608795 0.212793
0.690909 0.612338 0.214654
0.701952 0.615881 0.216516
0.712752 0.620357 0.218436
0.723502 0.625019 0.220368
0.734252 0.629682 0.222299
0.745003 0.634344 0.224231
0.755753 0.639007 0.226163
0.765012 0.642173 0.227589
0.773524 0.644591 0.228761
0.782036 0.647009 0.229933
0.790548 0.649427 0.231106
0.799060 0.651845 0.232278
0.805439 0.651274 0.232507
0.809686 0.647714 0.231792
0.813932 0.644154 0.231077
0.818178 0.640594 0.230362
0.822424 0.637034 0.229647
0.829848 0.639016 0.230604
0.843628 0.652080 0.234905
0.857408 0.665145 0.239206
0.871188 0.678210 0.243507
0.884968 0.691275 0.247808
0.897914 0.704265 0.252589
0.906693 0.716882 0.259767
0.915472 0.729498 0.266945
0.924251 0.742115 0.274123
0.933030 0.754731 0.281301
0.941809 0.767348 0.288479
0.669518 0.625909 0.214628
0.679592 0.628848 0.216362
0.689665 0.631788 0.218095
0.699739 0.634728 0.219829
0.709812 0.637667 0.221563
0.719886 0.640607 0.223296
0.729768 0.644410 0.225073
0.739613 0.648386 0.226858
0.749458 0.652363 0.228644
0.759303 0.656339 0.230429
0.769147 0.660315 0.232214
0.777799 0.663186 0.233634
0.785854 0.665503 0.234870
0.793908 0.667821 0.236107
0.801963 0.670138 0.237343
0.810018 0.672456 0.238580
0.816361 0.672361 0.239051
0.820991 0.669852 0.238757
0.825621 0.667344 0.238462
0.830252 0.664836 0.238168
0.834882 0.662328 0.237874
0.841730 0.663657 0.238733
0.853013 0.672660 0.241900
0.864295 0.681664 0.245067
0.875578 0.690667 0.248233
0.886860 0.699670 0.251400
0.897724 0.709263 0.255211
0.906494 0.721806 0.262243
0.915264 0.734350 0.269275
0.924033 0.746893 0.276306
0.932803 0.759437 0.283338
0.941573 0.771980 0.290370
0.692300 0.653653 0.222049
0.701404 0.655989 0.223654
0.710507 0.658325 0.225260
0.719611 0.660661 0.226865
0.728715 0.662996 0.228471
0.737819 0.665332 0.230076
0.746785 0.668463 0.231710
0.755724 0.671753 0.233349
0.764663 0.675044 0.234988
0.773602 0.678334 0.236627
0.782542 0.681624 0.238266
0.790586 0.684199 0.239679
0.798184 0.686416 0.240980
0.805781 0.688632 0.242280
0.813378 0.690849 0.243581
0.820976 0.693066 0.244881
0.827282 0.693447 0.245595
0.832296 0.691991 0.245721
0.837311 0.690535 0.245848
0.842326 0.689078 0.245974
0.847340 0.687622 0.246101
0.853612 0.688299 0.246863
0.862397 0.693240 0.248895
0.871182 0.698182 0.250928
0.879967 0.703123 0.252960
0.888752 0.708065 0.254992
0.897533 0.714261 0.257834
0.906294 0.726731 0.264719
0.915055 0.739201 0.271604
0.923815 0.751671 0.278490
0.932576 0.764142 0.285375
0.941337 0.776612 0.292260
0.715081 0.681397 0.229469
0.723215 0.683129 0.230947
0.731349 0.684861 0.232424
0.739484 0.686594 0.233902
0.747618 0.688326 0.235379
0.755752 0.690058 0.236856
0.763802 0.692516 0.238347
0.771835 0.695120 0.239839
0.779869 0.697725 0.241332
0.787902 0.700329 0.242824
0.795936 0.702933 0.244317
0.803374 0.705212 0.245724
0.810514 0.707328 0.247089
0.817654 0.709444 0.248454
0.824794 0.711560 0.249818
0.831934 0.713677 0.251183
0.838203 0.714533 0.252139
0.843602 0.714129 0.252686
0.849001 0.713725 0.253233
0.854399 0.713321 0.253781
0.859798 0.712917 0.254328
0.865493 0.712940 0.254992
0.871781 0.713820 0.255890
0.878069 0.714700 0.256788
0.884357 0.715580 0.257686
0.890644 0.716459 0.258584
0.897343 0.719259 0.260456
0.906094 0.731656 0.267195
0.914846 0.744053 0.273934
0.923597 0.756450 0.280673
0.932349 0.768847 0.287412
0.941100 0.781244 0.294151
0.735610 0.707645 0.236504
0.742889 0.708856 0.237891
0.750167 0.710066 0.239279
0.757446 0.711277 0.240666
0.764725 0.712487 0.242054
0.772004 0.713698 0.243441
0.779233 0.715535 0.244810
0.786452 0.717497 0.246174
0.793671 0.719459 0.247539
0.800891 0.721422 0.248903
0.808110 0.723384 0.250268
0.814987 0.725350 0.251662
0.821692 0.727319 0.253071
0.828398 0.729287 0.254480
0.835103 0.731255 0.255888
0.841809 0.733224 0.257297
0.848004 0.734443 0.258457
0.853689 0.734912 0.259367
0.859375 0.735382 0.260277
0.865060 0.735851 0.261187
0.870746 0.736321 0.262098
0.875942 0.735828 0.262704
0.880161 0.733410 0.262702
0.884380 0.730992 0.262701
0.888599 0.728574 0.262699
0.892817 0.726155 0.262698
0.897768 0.726128 0.263772
0.906380 0.738054 0.270222
0.914991 0.749980 0.276673
0.923602 0.761906 0.283124
0.932213 0.773832 0.289575
0.940825 0.785758 0.296026
0.744874 0.726409 0.241609
0.751869 0.727510 0.243097
0.758864 0.728611 0.244585
0.765859 0.729711 0.246073
0.772854 0.730812 0.247561
0.779850 0.731913 0.249049
0.786734 0.733381 0.250404
0.793597 0.734923 0.251732
0.800459 0.736464 0.253060
0.807322 0.738005 0.254388
0.814184 0.739547 0.255716
0.820729 0.741117 0.257061
0.827114 0.742701 0.258415
0.833499 0.744285 0.259769
0.839884 0.745869 0.261122
0.846270 0.747453 0.262476
0.852204 0.748471 0.263645
0.857689 0.748922 0.264628
0.863173 0.749374 0.265612
0.868657 0.749825 0.266595
0.874141 0.750276 0.267579
0.879228 0.749945 0.268325
