Assets/1__3DArt/KimSe/artstation_asset/LUTs_subway_asset/CUBE/Yellow Line 03.cube
# LUT by SparkleStock. Enhanced with VOXCOLOR algorithms.
LUT_3D_SIZE 32
0.019536 0.023443 0.031258
0.072898 0.050384 0.035748
0.126259 0.077325 0.040238
0.179621 0.104266 0.044728
0.232983 0.131206 0.049218
0.286344 0.158147 0.053708
0.344354 0.192572 0.061586
0.403293 0.228493 0.070141
0.462232 0.264414 0.078695
0.521171 0.300335 0.087250
0.580109 0.336256 0.095805
0.625405 0.368333 0.105179
0.663878 0.398488 0.114963
0.702351 0.428642 0.124747
0.740825 0.458797 0.134531
0.779298 0.488952 0.144314
0.807539 0.513482 0.153413
0.825546 0.532388 0.161826
0.843554 0.551294 0.170239
0.861562 0.570200 0.178652
0.879570 0.589106 0.187065
0.894017 0.604876 0.194706
0.901343 0.614376 0.200803
0.908669 0.623876 0.206901
0.915995 0.633377 0.212998
0.923321 0.642877 0.219095
0.930096 0.651747 0.225019
0.934113 0.657466 0.230076
0.938131 0.663185 0.235133
0.942148 0.668904 0.240191
0.946166 0.674623 0.245248
0.950183 0.680342 0.250305
0.028233 0.034503 0.033101
0.075950 0.057858 0.036942
0.123667 0.081213 0.040782
0.171385 0.104568 0.044623
0.219102 0.127922 0.048463
0.266820 0.151277 0.052304
0.324323 0.184585 0.059745
0.383783 0.219884 0.067907
0.443244 0.255183 0.076069
0.502704 0.290482 0.084230
0.562164 0.325781 0.092392
0.608554 0.358133 0.101696
0.648409 0.389010 0.111571
0.688264 0.419888 0.121446
0.728118 0.450765 0.131321
0.767973 0.481643 0.141197
0.797462 0.507129 0.150542
0.816586 0.527224 0.159358
0.835710 0.547319 0.168173
0.854834 0.567414 0.176989
0.873958 0.587509 0.185804
0.889350 0.604420 0.193875
0.897280 0.614963 0.200457
0.905210 0.625506 0.207039
0.913139 0.636049 0.213621
0.921069 0.646592 0.220203
0.928399 0.656411 0.226583
0.932727 0.662605 0.231951
0.937056 0.668800 0.237320
0.941384 0.674995 0.242688
0.945713 0.681190 0.248056
0.950041 0.687384 0.253425
0.036929 0.045563 0.034944
0.079002 0.065332 0.038135
0.121076 0.085101 0.041327
0.163149 0.104869 0.044518
0.205222 0.124638 0.047709
0.247295 0.144407 0.050900
0.304292 0.176599 0.057905
0.364274 0.211276 0.065673
0.424255 0.245953 0.073442
0.484237 0.280630 0.081210
0.544219 0.315307 0.088978
0.591704 0.347933 0.098212
0.632940 0.379533 0.108178
0.674176 0.411133 0.118145
0.715412 0.442733 0.128112
0.756648 0.474333 0.138079
0.787386 0.500776 0.147671
0.807626 0.522060 0.156889
0.827866 0.543344 0.166107
0.848105 0.564629 0.175325
0.868345 0.585913 0.184543
0.884683 0.603964 0.193044
0.893217 0.615550 0.200111
0.901750 0.627136 0.207178
0.910284 0.638722 0.214245
0.918817 0.650308 0.221312
0.926702 0.661075 0.228147
0.931341 0.667745 0.233827
0.935981 0.674416 0.239506
0.940620 0.681086 0.245185
0.945260 0.687756 0.250865
0.949900 0.694427 0.256544
0.045626 0.056623 0.036788
0.082055 0.072806 0.039329
0.118484 0.088989 0.041871
0.154912 0.105171 0.044412
0.191341 0.121354 0.046954
0.227770 0.137537 0.049496
0.284261 0.168613 0.056065
0.344764 0.202668 0.063440
0.405267 0.236723 0.070815
0.465770 0.270778 0.078189
0.526274 0.304833 0.085564
0.574853 0.337733 0.094728
0.617470 0.370056 0.104786
0.660088 0.402378 0.114844
0.702705 0.434701 0.124902
0.745323 0.467024 0.134961
0.777309 0.494422 0.144800
0.798665 0.516896 0.154421
0.820021 0.539369 0.164041
0.841377 0.561843 0.173662
0.862733 0.584317 0.183283
0.880016 0.603509 0.192214
0.889153 0.616137 0.199765
0.898291 0.628766 0.207317
0.907428 0.641395 0.214869
0.916565 0.654024 0.222420
0.925005 0.665739 0.229712
0.929955 0.672885 0.235702
0.934906 0.680031 0.241692
0.939857 0.687177 0.247683
0.944807 0.694323 0.253673
0.949758 0.701469 0.259664
0.054323 0.067683 0.038631
0.085107 0.080280 0.040523
0.115892 0.092876 0.042415
0.146676 0.105473 0.044307
0.177461 0.118070 0.046199
0.208245 0.130667 0.048091
0.264230 0.160627 0.054225
0.325254 0.194060 0.061206
0.386279 0.227492 0.068188
0.447304 0.260925 0.075169
0.508328 0.294358 0.082150
0.558002 0.327533 0.091244
0.602001 0.360578 0.101394
0.646000 0.393624 0.111543
0.689999 0.426669 0.121693
0.733997 0.459715 0.131843
0.767233 0.488069 0.141929
0.789705 0.511732 0.151952
0.812177 0.535395 0.161975
0.834649 0.559057 0.171999
0.857121 0.582720 0.182022
0.875349 0.603053 0.191383
0.885090 0.616724 0.199419
0.894831 0.630396 0.207456
0.904572 0.644068 0.215492
0.914313 0.657739 0.223529
0.923308 0.670403 0.231276
0.928570 0.678024 0.237577
0.933831 0.685646 0.243879
0.939093 0.693268 0.250180
0.944354 0.700890 0.256482
0.949616 0.708512 0.262783
0.063019 0.078743 0.040474
0.088160 0.087754 0.041717
0.113300 0.096764 0.042959
0.138440 0.105775 0.044202
0.163580 0.114786 0.045445
0.188720 0.123797 0.046687
0.244199 0.152641 0.052384
0.305745 0.185451 0.058972
0.367291 0.218262 0.065561
0.428837 0.251073 0.072149
0.490383 0.283884 0.078737
0.541152 0.317333 0.087760
0.586532 0.351101 0.098001
0.631912 0.384869 0.108242
0.677292 0.418637 0.118484
0.722672 0.452406 0.128725
0.757156 0.481716 0.139058
0.780744 0.506568 0.149484
0.804332 0.531420 0.159909
0.827920 0.556272 0.170335
0.851508 0.581124 0.180761
0.870682 0.602597 0.190552
0.881027 0.617311 0.199073
0.891372 0.632026 0.207594
0.901717 0.646740 0.216116
0.912061 0.661455 0.224637
0.921611 0.675067 0.232840
0.927184 0.683164 0.239453
0.932756 0.691262 0.246065
0.938329 0.699359 0.252678
0.943902 0.707456 0.259290
0.949474 0.715554 0.265903
0.087825 0.099610 0.044563
0.112894 0.108953 0.046002
0.137962 0.118296 0.047441
0.163031 0.127639 0.048880
0.188099 0.136983 0.050320
0.213168 0.146326 0.051759
0.262443 0.170755 0.056469
0.316559 0.198202 0.061832
0.370676 0.225649 0.067196
0.424792 0.253096 0.072560
0.478909 0.280543 0.077924
0.527781 0.312265 0.086468
0.574032 0.346123 0.096602
0.620283 0.379981 0.106737
0.666533 0.413839 0.116871
0.712784 0.447697 0.127006
0.748185 0.477495 0.137415
0.772737 0.503231 0.148098
0.797288 0.528967 0.158781
0.821840 0.554704 0.169465
0.846392 0.580440 0.180148
0.866391 0.602784 0.190237
0.877286 0.618343 0.199136
0.888182 0.633902 0.208035
0.899077 0.649461 0.216935
0.909972 0.665021 0.225834
0.920021 0.679400 0.234392
0.925836 0.687882 0.241239
0.931651 0.696364 0.248086
0.937466 0.704845 0.254934
0.943281 0.713327 0.261781
0.949096 0.721809 0.268628
0.115853 0.122439 0.049100
0.141965 0.132898 0.050905
0.168076 0.143357 0.052710
0.194187 0.153816 0.054516
0.220299 0.164276 0.056321
0.246410 0.174735 0.058126
0.288343 0.194090 0.061738
0.333439 0.215225 0.065711
0.378536 0.236360 0.069684
0.423632 0.257495 0.073658
0.468729 0.278630 0.077631
0.515107 0.308223 0.085614
0.562126 0.342044 0.095602
0.609145 0.375866 0.105590
0.656164 0.409687 0.115578
0.703183 0.443509 0.125566
0.739435 0.473700 0.136016
0.764920 0.500259 0.146929
0.790405 0.526819 0.157841
0.815889 0.553379 0.168753
0.841374 0.579938 0.179665
0.862176 0.603099 0.190025
0.873610 0.619464 0.199281
0.885045 0.635828 0.208537
0.896480 0.652192 0.217793
0.907915 0.668556 0.227050
0.918452 0.683668 0.235941
0.924496 0.692515 0.243008
0.930539 0.701363 0.250075
0.936583 0.710211 0.257141
0.942627 0.719058 0.264208
0.948671 0.727906 0.271275
0.143881 0.145268 0.053637
0.171035 0.156843 0.055809
0.198190 0.168418 0.057980
0.225344 0.179993 0.060151
0.252498 0.191569 0.062322
0.279652 0.203144 0.064493
0.314242 0.217425 0.067007
0.350319 0.232248 0.069590
0.386395 0.247071 0.072173
0.422472 0.261894 0.074756
0.458548 0.276716 0.077338
0.502432 0.304181 0.084760
0.550220 0.337966 0.094602
0.598007 0.371751 0.104444
0.645795 0.405536 0.114285
0.693582 0.439321 0.124127
0.730685 0.469905 0.134618
0.757103 0.497288 0.145759
0.783521 0.524671 0.156900
0.809939 0.552054 0.168041
0.836356 0.579437 0.179181
0.857960 0.603415 0.189813
0.869935 0.620584 0.199426
0.881909 0.637753 0.209039
0.893884 0.654923 0.218652
0.905859 0.672092 0.228265
0.916883 0.687935 0.237490
0.923155 0.697149 0.244776
0.929428 0.706362 0.252063
0.935700 0.715576 0.259349
0.941973 0.724789 0.266635
0.948245 0.734003 0.273922
0.171909 0.168096 0.058175
0.200106 0.180788 0.060712
0.228303 0.193479 0.063249
0.256500 0.206170 0.065786
0.284698 0.218862 0.068323
0.312895 0.231553 0.070860
0.340141 0.240760 0.072276
0.367198 0.249271 0.073469
0.394255 0.257782 0.074661
0.421311 0.266292 0.075853
0.448368 0.274803 0.077046
0.489758 0.300139 0.083907
0.538314 0.333887 0.093602
0.586870 0.367636 0.103297
0.635426 0.401384 0.112993
0.683982 0.435133 0.122688
0.721935 0.466110 0.133220
0.749286 0.494316 0.144590
0.776637 0.522522 0.155959
0.803988 0.550729 0.167328
0.831339 0.578935 0.178698
0.853744 0.603731 0.189601
0.866259 0.621705 0.199571
0.878773 0.639679 0.209540
0.891287 0.657653 0.219510
0.903802 0.675628 0.229480
0.915314 0.692203 0.239039
0.921815 0.701782 0.246545
0.928316 0.711362 0.254051
0.934818 0.720941 0.261557
0.941319 0.730521 0.269063
0.947820 0.740100 0.276569
0.199937 0.190925 0.062712
0.229177 0.204733 0.065615
0.258417 0.218540 0.068518
0.287657 0.232347 0.071421
0.316897 0.246155 0.074324
0.346137 0.259962 0.077227
0.366041 0.264095 0.077546
0.384078 0.266294 0.077347
0.402114 0.268492 0.077149
0.420151 0.270691 0.076951
0.438188 0.272890 0.076753
0.477083 0.296097 0.083053
0.526408 0.329809 0.092602
0.575732 0.363521 0.102151
0.625056 0.397232 0.111700
0.674381 0.430944 0.121249
0.713185 0.462315 0.131822
0.741469 0.491345 0.143420
0.769753 0.520374 0.155018
0.798037 0.549404 0.166616
0.826321 0.578433 0.178215
0.849528 0.604046 0.189389
0.862583 0.622825 0.199715
0.875637 0.641605 0.210042
0.888691 0.660384 0.220368
0.901745 0.679163 0.230695
0.913745 0.696470 0.240588
0.920475 0.706416 0.248314
0.927205 0.716361 0.256039
0.933935 0.726306 0.263764
0.940665 0.736252 0.271490
0.947395 0.746197 0.279215
0.236756 0.221505 0.070243
0.265362 0.235227 0.073219
0.293968 0.248949 0.076195
0.322573 0.262671 0.079171
0.351179 0.276393 0.082148
0.379785 0.290115 0.085124
0.397337 0.293416 0.085455
0.412678 0.294633 0.085256
0.428019 0.295849 0.085058
0.443360 0.297066 0.084860
0.458701 0.298283 0.084662
0.493210 0.317756 0.089933
0.537301 0.346357 0.097939
0.581393 0.374958 0.105945
0.625485 0.403559 0.113951
0.669576 0.432160 0.121957
0.706097 0.461147 0.131779
0.735046 0.490518 0.143417
0.763994 0.519889 0.155054
0.792943 0.549260 0.166692
0.821892 0.578631 0.178330
0.845702 0.604693 0.189617
0.859235 0.624137 0.200203
0.872768 0.643581 0.210789
0.886301 0.663025 0.221374
0.899834 0.682469 0.231960
0.912264 0.700387 0.242100
0.919180 0.710674 0.250008
0.926096 0.720961 0.257916
0.933011 0.731248 0.265825
0.939927 0.741535 0.273733
0.946843 0.751822 0.281642
0.277971 0.255961 0.079271
0.305104 0.268997 0.082174
0.332237 0.282033 0.085076
0.359370 0.295069 0.087979
0.386502 0.308105 0.090882
0.413635 0.321141 0.093785
0.431331 0.325730 0.094683
0.447138 0.328630 0.095180
0.462946 0.331530 0.095677
0.478754 0.334430 0.096174
0.494561 0.337329 0.096672
0.523736 0.352265 0.100680
0.559595 0.373219 0.106445
0.595453 0.394172 0.112210
0.631312 0.415125 0.117975
0.667171 0.436079 0.123739
0.699840 0.461291 0.132413
0.729319 0.490763 0.143996
0.758798 0.520235 0.155579
0.788278 0.549707 0.167162
0.817757 0.579178 0.178745
0.842070 0.605506 0.190065
0.856051 0.625544 0.200861
0.870033 0.645583 0.211658
0.884014 0.665622 0.222454
0.897995 0.685660 0.233250
0.910826 0.704129 0.243592
0.917907 0.714745 0.251665
0.924987 0.725361 0.259738
0.932068 0.735977 0.267811
0.939148 0.746594 0.275885
0.946229 0.757210 0.283958
0.319185 0.290417 0.088298
0.344846 0.302767 0.091128
0.370506 0.315117 0.093958
0.396166 0.327466 0.096787
0.421826 0.339816 0.099617
0.447486 0.352166 0.102447
0.465324 0.358044 0.103912
0.481599 0.362627 0.105104
0.497873 0.367210 0.106297
0.514147 0.371793 0.107489
0.530421 0.376376 0.108681
0.554263 0.386774 0.111428
0.581889 0.400080 0.114951
0.609514 0.413386 0.118475
0.637139 0.426692 0.121998
0.664765 0.439997 0.125522
0.693582 0.461436 0.133047
0.723592 0.491009 0.144575
0.753602 0.520581 0.156103
0.783612 0.550153 0.167631
0.813622 0.579726 0.179159
0.838439 0.606318 0.190514
0.852868 0.626952 0.201520
0.867297 0.647585 0.212527
0.881727 0.668218 0.223533
0.896156 0.688852 0.234540
0.909388 0.707870 0.245085
0.916633 0.718816 0.253323
0.923879 0.729761 0.261560
0.931124 0.740707 0.269798
0.938369 0.751652 0.278036
0.945614 0.762598 0.286274
0.360400 0.324873 0.097326
0.384587 0.336537 0.100082
0.408775 0.348200 0.102839
0.432962 0.359864 0.105595
0.457149 0.371528 0.108352
0.481336 0.383191 0.111109
0.499318 0.390357 0.113141
0.516059 0.396624 0.115028
0.532800 0.402890 0.116916
0.549541 0.409156 0.118804
0.566282 0.415423 0.120691
0.584790 0.421284 0.122175
0.604182 0.426942 0.123457
0.623574 0.432600 0.124740
0.642967 0.438258 0.126022
0.662359 0.443916 0.127304
0.687325 0.461581 0.133682
0.717866 0.491254 0.145155
0.748406 0.520927 0.156628
0.778947 0.550600 0.168101
0.809487 0.580273 0.179574
0.834807 0.607131 0.190962
0.849684 0.628359 0.202179
0.864562 0.649587 0.213396
0.879440 0.670815 0.224613
0.894317 0.692043 0.235830
0.907950 0.711612 0.246577
0.915360 0.722887 0.254980
0.922770 0.734161 0.263382
0.930180 0.745436 0.271785
0.937590 0.756711 0.280187
0.945000 0.767986 0.288590
0.401615 0.359329 0.106353
0.424329 0.370306 0.109037
0.447044 0.381284 0.111720
0.469758 0.392262 0.114403
0.492473 0.403239 0.117087
0.515187 0.414217 0.119770
0.533312 0.422671 0.122370
0.550520 0.430621 0.124953
0.567727 0.438570 0.127535
0.584934 0.446520 0.130118
0.602142 0.454469 0.132701
0.615317 0.455793 0.132922
0.626476 0.453803 0.131963
0.637635 0.451813 0.131004
0.648794 0.449824 0.130045
0.659953 0.447834 0.129086
0.681068 0.461726 0.134316
0.712139 0.491500 0.145734
0.743210 0.521273 0.157152
0.774281 0.551047 0.168571
0.805352 0.580820 0.179989
0.831175 0.607944 0.191410
0.846501 0.629766 0.202837
0.861827 0.651589 0.214265
0.877153 0.673411 0.225692
0.892479 0.695234 0.237119
0.906513 0.715353 0.248070
0.914087 0.726957 0.256637
0.921662 0.738562 0.265204
0.929236 0.750166 0.273771
0.936811 0.761770 0.282338
0.944385 0.773374 0.290906
0.441624 0.395652 0.117437
0.462692 0.405751 0.119978
0.483760 0.415850 0.122520
0.504828 0.425950 0.125062
0.525896 0.436049 0.127603
0.546963 0.446149 0.130145
0.564551 0.454998 0.133003
0.581443 0.463597 0.135924
0.598335 0.472196 0.138845
0.615226 0.480795 0.141767
0.632118 0.489394 0.144688
0.642563 0.488955 0.144513
0.649783 0.483997 0.142790
0.657004 0.479039 0.141067
0.664225 0.474080 0.139344
0.671446 0.469122 0.137621
0.689384 0.479815 0.141806
0.718040 0.506158 0.151898
0.746696 0.532501 0.161989
0.775352 0.558844 0.172081
0.804008 0.585187 0.182173
0.828328 0.610124 0.192731
0.843974 0.632248 0.204223
0.859620 0.654373 0.215714
0.875266 0.676497 0.227205
0.890912 0.698622 0.238697
0.905236 0.719041 0.249722
0.912948 0.730938 0.258417
0.920659 0.742835 0.267112
0.928371 0.754732 0.275808
0.936083 0.766629 0.284503
0.943795 0.778526 0.293198
0.480429 0.433841 0.130576
0.499676 0.442870 0.132907
0.518923 0.451900 0.135239
0.538171 0.460929 0.137570
0.557418 0.469958 0.139901
0.576665 0.478987 0.142232
0.593035 0.487337 0.145040
0.608829 0.495552 0.147943
0.624623 0.503767 0.150846
0.640417 0.511982 0.153749
0.656211 0.520197 0.156652
0.666527 0.520770 0.156947
0.674105 0.517523 0.155937
0.681682 0.514275 0.154928
0.689260 0.511028 0.153919
0.696837 0.507780 0.152909
0.712274 0.515847 0.156151
0.735569 0.535228 0.163645
0.758865 0.554610 0.171139
0.782160 0.573992 0.178633
0.805455 0.593373 0.186126
0.826265 0.613672 0.194925
0.842103 0.635805 0.206334
0.857941 0.657939 0.217743
0.873779 0.680073 0.229152
0.889618 0.702206 0.240561
0.904120 0.722676 0.251533
0.911941 0.734829 0.260320
0.919763 0.746982 0.269107
0.927584 0.759135 0.277893
0.935406 0.771289 0.286680
0.943227 0.783442 0.295467
0.519233 0.472031 0.143716
0.536660 0.479990 0.145837
0.554087 0.487949 0.147957
0.571513 0.495907 0.150078
0.588940 0.503866 0.152199
0.606367 0.511825 0.154320
0.621519 0.519677 0.157077
0.636215 0.527508 0.159962
0.650911 0.535338 0.162846
0.665607 0.543169 0.165731
0.680304 0.551000 0.168616
0.690492 0.552585 0.169380
0.698426 0.551048 0.169084
0.706361 0.549512 0.168789
0.714295 0.547975 0.168493
0.722229 0.546438 0.168197
0.735164 0.551879 0.170497
0.753098 0.564299 0.175393
0.771033 0.576719 0.180288
0.788968 0.589139 0.185184
0.806902 0.601559 0.190080
0.824202 0.617220 0.197119
0.840232 0.639362 0.208446
0.856263 0.661505 0.219773
0.872293 0.683648 0.231099
0.888323 0.705791 0.242426
0.903004 0.726311 0.253345
0.910935 0.738720 0.262223
0.918866 0.751129 0.271101
0.926798 0.763539 0.279979
0.934729 0.775948 0.288857
0.942660 0.788357 0.297735
0.558037 0.510221 0.156855
0.573643 0.517109 0.158766
0.589250 0.523998 0.160676
0.604856 0.530886 0.162587
0.620463 0.537775 0.164497
0.636069 0.544663 0.166407
0.650002 0.552017 0.169114
0.663601 0.559463 0.171981
0.677199 0.566909 0.174847
0.690798 0.574356 0.177713
0.704396 0.581802 0.180580
0.714456 0.584400 0.181814
0.722748 0.584574 0.182232
0.731039 0.584748 0.182649
0.739330 0.584922 0.183067
0.747621 0.585096 0.183485
0.758053 0.587912 0.184843
0.770627 0.593370 0.187140
0.783201 0.598828 0.189438
0.795775 0.604287 0.191736
0.808349 0.609745 0.194033
0.822139 0.620768 0.199313
0.838362 0.642920 0.210558
0.854584 0.665071 0.221802
0.870806 0.687223 0.233046
0.887029 0.709375 0.244291
0.901888 0.729946 0.255156
0.909929 0.742611 0.264126
0.917970 0.755277 0.273095
0.926011 0.767942 0.282065
0.934052 0.780607 0.291034
0.942093 0.793273 0.300004
0.596841 0.548411 0.169995
0.610627 0.554229 0.171695
0.624413 0.560047 0.173395
0.638199 0.565865 0.175095
0.651985 0.571683 0.176795
0.665771 0.577501 0.178495
0.678486 0.584356 0.181152
0.690987 0.591418 0.184000
0.703488 0.598481 0.186848
0.715988 0.605543 0.189696
0.728489 0.612605 0.192544
0.738421 0.616216 0.194247
0.747069 0.618100 0.195379
0.755717 0.619985 0.196510
0.764365 0.621869 0.197641
0.773013 0.623753 0.198773
0.780943 0.623944 0.199188
0.788156 0.622441 0.198888
0.795370 0.620937 0.198587
0.802583 0.619434 0.198287
0.809796 0.617931 0.197987
0.820076 0.624316 0.201507
0.836491 0.646477 0.212669
0.852905 0.668638 0.223831
0.869320 0.690799 0.234993
0.885734 0.712960 0.246155
0.900772 0.733581 0.256967
0.908922 0.746502 0.266028
0.917073 0.759424 0.275089
0.925224 0.772345 0.284150
0.933375 0.785267 0.293212
0.941526 0.798188 0.302273
0.630604 0.584537 0.183796
0.642829 0.589419 0.185295
0.655053 0.594301 0.186794
0.667278 0.599183 0.188292
0.679503 0.604064 0.189791
0.691728 0.608946 0.191290
0.703303 0.615201 0.193819
0.714749 0.621729 0.196554
0.726194 0.628258 0.199290
0.737640 0.634786 0.202025
0.749086 0.641315 0.204760
0.758713 0.645475 0.206735
0.767431 0.648452 0.208330
0.776149 0.651428 0.209925
0.784867 0.654404 0.211519
0.793585 0.657380 0.213114
0.799817 0.656003 0.212979
0.803563 0.650273 0.211115
0.807309 0.644544 0.209250
0.811055 0.638814 0.207385
0.814801 0.633084 0.205521
0.822540 0.636117 0.207719
0.838262 0.656674 0.218042
0.853984 0.677231 0.228366
0.869707 0.697788 0.238689
0.885429 0.718345 0.249013
0.899902 0.737653 0.259130
0.908126 0.750718 0.268219
0.916350 0.763783 0.277307
0.924574 0.776848 0.286396
0.932798 0.789913 0.295484
0.941022 0.802978 0.304573
0.654283 0.616535 0.198921
0.665465 0.620749 0.200237
0.676647 0.624963 0.201552
0.687829 0.629177 0.202868
0.699011 0.633391 0.204184
0.710193 0.637606 0.205500
0.720786 0.643055 0.207747
0.731262 0.648751 0.210180
0.741738 0.654447 0.212614
0.752214 0.660143 0.215047
0.762690 0.665839 0.217480
0.771659 0.669625 0.219330
0.779874 0.672454 0.220888
0.788089 0.675284 0.222447
0.796303 0.678114 0.224005
0.804518 0.680944 0.225563
0.810659 0.680116 0.225661
0.814725 0.675630 0.224300
0.818791 0.671145 0.222938
0.822858 0.666659 0.221577
0.826924 0.662173 0.220215
0.834055 0.664425 0.221965
0.847317 0.680152 0.229938
0.860578 0.695879 0.237910
0.873840 0.711606 0.245882
0.887101 0.727333 0.253855
0.899523 0.742603 0.261997
0.907747 0.755585 0.270985
0.915971 0.768568 0.279972
0.924196 0.781550 0.288960
0.932420 0.794533 0.297948
0.940644 0.807515 0.306936
0.677963 0.648533 0.214045
0.688102 0.652079 0.215178
0.698241 0.655626 0.216311
0.708380 0.659172 0.217444
0.718519 0.662718 0.218577
0.728658 0.666265 0.219710
0.738270 0.670909 0.221675
0.747776 0.675772 0.223806
0.757282 0.680636 0.225938
0.766789 0.685500 0.228069
0.776295 0.690363 0.230201
0.784605 0.693774 0.231925
0.792316 0.696457 0.233447
0.800028 0.699140 0.234969
0.807740 0.701824 0.236490
0.815452 0.704507 0.238012
0.821501 0.704228 0.238344
0.825887 0.700987 0.237485
0.830274 0.697745 0.236627
0.834660 0.694504 0.235768
0.839047 0.691263 0.234910
0.845571 0.692734 0.236212
0.856372 0.703631 0.241833
0.867173 0.714527 0.247454
0.877973 0.725424 0.253076
0.888774 0.736321 0.258697
0.899145 0.747552 0.264863
0.907369 0.760452 0.273750
0.915593 0.773352 0.282638
0.923817 0.786252 0.291525
0.932041 0.799152 0.300412
0.940265 0.812052 0.309299
0.701642 0.680531 0.229170
0.710739 0.683410 0.230120
0.719835 0.686288 0.231070
0.728931 0.689167 0.232020
0.738027 0.692045 0.232970
0.747123 0.694924 0.233919
0.755753 0.698763 0.235602
0.764290 0.702794 0.237432
0.772826 0.706825 0.239262
0.781363 0.710856 0.241091
0.789899 0.714888 0.242921
0.797551 0.717923 0.244521
0.804759 0.720460 0.246006
0.811968 0.722997 0.247491
0.819176 0.725534 0.248976
0.826385 0.728071 0.250461
0.832343 0.728341 0.251026
0.837049 0.726344 0.250670
0.841756 0.724346 0.250315
0.846463 0.722349 0.249960
0.851169 0.720352 0.249605
0.857087 0.721042 0.250458
0.865427 0.727109 0.253728
0.873767 0.733176 0.256999
0.882107 0.739242 0.260269
0.890447 0.745309 0.263540
0.898767 0.752501 0.267729
0.906991 0.765318 0.276516
0.915215 0.778136 0.285303
0.923439 0.790954 0.294089
0.931663 0.803772 0.302876
0.939887 0.816590 0.311663
0.725322 0.712529 0.244295
0.733375 0.714740 0.245062
0.741429 0.716951 0.245829
0.749482 0.719161 0.246595
0.757535 0.721372 0.247362
0.765588 0.723583 0.248129
0.773236 0.726617 0.249530
0.780803 0.729816 0.251058
0.788370 0.733014 0.252586
0.795937 0.736213 0.254113
0.803504 0.739412 0.255641
0.810497 0.742072 0.257116
0.817202 0.744463 0.258564
0.823907 0.746853 0.260013
0.830613 0.749244 0.261461
0.837318 0.751635 0.262910
0.843185 0.752453 0.263708
0.848211 0.751700 0.263856
0.853238 0.750947 0.264004
0.858265 0.750194 0.264151
0.863292 0.749441 0.264299
0.868603 0.749351 0.264704
0.874482 0.750587 0.265624
0.880361 0.751824 0.266543
0.886240 0.753060 0.267463
0.892119 0.754297 0.268382
0.898389 0.757450 0.270596
0.906613 0.770185 0.279282
0.914837 0.782921 0.287968
0.923061 0.795656 0.296654
0.931285 0.808392 0.305340
0.939509 0.821127 0.314026
0.746370 0.742471 0.259207
0.753517 0.744098 0.259809
0.760663 0.745725 0.260411
0.767809 0.747352 0.261013
0.774955 0.748978 0.261616
0.782101 0.750605 0.262218
0.788884 0.752900 0.263346
0.795594 0.755329 0.264580
0.802304 0.757758 0.265813
0.809014 0.760187 0.267047
0.815724 0.762616 0.268280
0.822119 0.764893 0.269609
0.828356 0.767094 0.270986
0.834594 0.769296 0.272363
0.840831 0.771498 0.273739
0.847068 0.773699 0.275116
0.852822 0.774940 0.276082
0.858091 0.775221 0.276637
0.863360 0.775501 0.277192
0.868629 0.775782 0.277747
0.873899 0.776063 0.278302
0.878696 0.775351 0.278336
0.882549 0.772653 0.277328
0.886401 0.769956 0.276320
0.890254 0.767259 0.275313
0.894107 0.764562 0.274305
0.898668 0.764358 0.274850
0.906768 0.776621 0.283159
0.914869 0.788884 0.291469
0.922969 0.801147 0.299778
0.931070 0.813410 0.308087
0.939171 0.825673 0.316397
0.754264 0.762133 0.273055
0.761181 0.763595 0.273584
0.768098 0.765058 0.274113
0.775016 0.766520 0.274642
0.781933 0.767982 0.275171
0.788851 0.769444 0.275701
0.795351 0.771330 0.276603
0.801769 0.773302 0.277580
0.808186 0.775273 0.278558
0.814603 0.777245 0.279535
0.821021 0.779216 0.280512
0.827123 0.781073 0.281591
0.833067 0.782872 0.282721
0.839012 0.784671 0.283851
0.844957 0.786470 0.284981
0.850901 0.788269 0.286110
0.856435 0.789300 0.286916
0.861558 0.789562 0.287398
0.866681 0.789824 0.287880
0.871804 0.790086 0.288362
0.876927 0.790349 0.288843
0.881675 0.789807 0.288893
