Assets/1__3DArt/KimSe/artstation_asset/LUTs_subway_asset/CUBE/Yellow Line 01_S.cube
# LUT by SparkleStock. Enhanced with VOXCOLOR algorithms.
LUT_3D_SIZE 8
DOMAIN_MIN 0.000000 0.000000 0.000000
DOMAIN_MAX 0.903226 0.903226 0.903226
0.085958 0.074237 0.062515
0.251952 0.159691 0.082366
0.425846 0.260546 0.101146
0.578967 0.359786 0.117279
0.691339 0.444035 0.129922
0.753917 0.501319 0.139753
0.790815 0.538280 0.148954
0.816842 0.564008 0.157722
0.117342 0.110536 0.067620
0.207224 0.155886 0.075469
0.357053 0.230943 0.085979
0.514919 0.316741 0.097147
0.642879 0.398319 0.107815
0.724631 0.464971 0.119256
0.777898 0.519960 0.133970
0.815293 0.568064 0.150696
0.189302 0.171208 0.076340
0.264035 0.211703 0.081414
0.355512 0.254574 0.084657
0.471831 0.312511 0.088995
0.607487 0.389124 0.096468
0.702607 0.458405 0.107757
0.767906 0.521053 0.125012
0.813973 0.579316 0.146427
0.294198 0.256489 0.088519
0.368151 0.298533 0.093824
0.417333 0.324006 0.093739
0.482761 0.354833 0.093065
0.585195 0.405189 0.095630
0.687512 0.472921 0.104882
0.760596 0.536440 0.122042
0.812790 0.596426 0.145005
0.421127 0.363780 0.103738
0.478888 0.395560 0.108111
0.526548 0.426022 0.109503
0.559034 0.441552 0.107861
0.585831 0.444655 0.104862
0.680756 0.501793 0.110070
0.755963 0.561213 0.124772
0.811756 0.617816 0.146387
0.543259 0.482319 0.120942
0.582138 0.500633 0.123998
0.617967 0.522088 0.125938
0.647928 0.539472 0.126285
0.671303 0.547734 0.125005
0.693777 0.544715 0.123481
0.755566 0.589962 0.133035
0.811335 0.640796 0.150613
0.631045 0.587467 0.140667
0.658117 0.596341 0.142161
0.684264 0.607888 0.143543
0.708418 0.619116 0.144515
0.729424 0.626759 0.144788
0.744213 0.623228 0.143727
0.773903 0.633851 0.145980
0.812113 0.662464 0.156750
0.689637 0.670070 0.165812
0.710519 0.674034 0.165379
0.730044 0.678378 0.165045
0.748658 0.682932 0.165017
0.766544 0.687146 0.165262
0.782797 0.688451 0.164835
0.796829 0.684038 0.163570
0.819709 0.692995 0.167181
0.086715 0.075749 0.075371
0.163570 0.111439 0.089368
0.307837 0.176317 0.108410
0.471143 0.257395 0.127690
0.615258 0.343291 0.143718
0.710476 0.421945 0.155012
0.770134 0.489790 0.164579
0.810682 0.546243 0.174444
0.100973 0.109268 0.106529
0.162569 0.150859 0.127334
0.295863 0.210021 0.145439
0.453376 0.279272 0.160944
0.597498 0.351788 0.174062
0.699878 0.419187 0.185040
0.769748 0.484718 0.197060
0.819133 0.550997 0.211414
0.193443 0.205726 0.148560
0.240140 0.230758 0.149201
0.320734 0.265588 0.156130
0.436896 0.314158 0.165968
0.578641 0.376057 0.176311
0.687676 0.436135 0.187056
0.766511 0.498525 0.201542
0.823817 0.566072 0.220237
0.323124 0.323952 0.182218
0.357746 0.331260 0.162646
0.394785 0.347939 0.159897
0.460782 0.376152 0.164632
0.566754 0.417013 0.170707
0.678500 0.471218 0.180710
0.763177 0.528319 0.196550
0.826402 0.590563 0.218098
0.456951 0.434920 0.196321
0.483922 0.437007 0.173904
0.514234 0.454257 0.170018
0.542723 0.469398 0.171949
0.576317 0.477870 0.172371
0.677003 0.521509 0.180002
0.761727 0.570173 0.195280
0.827992 0.622839 0.217374
0.570739 0.535749 0.199474
0.594807 0.540914 0.187412
0.618189 0.554062 0.186194
0.640668 0.568244 0.188253
0.663306 0.578135 0.188497
0.693126 0.580088 0.187695
0.762903 0.615957 0.199904
0.827972 0.658973 0.220425
0.647499 0.620137 0.203807
0.670544 0.629667 0.207803
0.690707 0.639022 0.210885
0.709576 0.648129 0.212850
0.728163 0.655975 0.213505
0.745841 0.656717 0.212222
0.780983 0.667242 0.214531
0.826862 0.691742 0.228275
0.698096 0.687555 0.216144
0.719724 0.699909 0.237577
0.738330 0.706847 0.245249
0.755340 0.711560 0.246690
0.771854 0.716050 0.247154
0.788338 0.718937 0.246325
0.805022 0.717817 0.243581
0.832308 0.726299 0.247821
0.088141 0.077931 0.088897
0.131843 0.095685 0.097661
0.249961 0.142757 0.118101
0.404876 0.210269 0.141400
0.562578 0.290490 0.161007
0.679447 0.377658 0.173870
0.755109 0.461888 0.183388
0.806177 0.536037 0.193551
0.096886 0.110742 0.131593
0.147010 0.151027 0.159716
0.259235 0.199175 0.186601
0.404908 0.255433 0.208962
0.556949 0.319340 0.224904
0.676353 0.389077 0.235282
0.759709 0.463831 0.243820
0.818538 0.541875 0.254122
0.147599 0.183741 0.187867
0.192346 0.224035 0.209074
0.279866 0.268172 0.232655
0.403634 0.315850 0.252337
0.550039 0.366823 0.264790
0.672276 0.421686 0.274444
0.763189 0.484567 0.285061
0.830365 0.557312 0.299178
0.256983 0.305839 0.252258
0.294668 0.331115 0.250346
0.354215 0.362941 0.260237
0.439053 0.396317 0.272044
0.548412 0.429548 0.279956
0.669784 0.473015 0.289445
0.765359 0.523737 0.302494
0.839099 0.585476 0.320715
0.420088 0.466660 0.313157
0.455132 0.471399 0.284314
0.494342 0.484180 0.274512
0.529164 0.496368 0.274033
0.565519 0.506368 0.276432
0.672404 0.539308 0.284448
0.766535 0.578802 0.298375
0.843320 0.627053 0.318794
0.553630 0.579533 0.324860
0.585856 0.581502 0.295167
0.614307 0.588895 0.286097
0.637268 0.598560 0.286341
0.656846 0.607655 0.287436
0.691321 0.612403 0.286443
0.769056 0.640320 0.299298
0.844110 0.676538 0.320548
0.641326 0.658575 0.320331
0.670363 0.663611 0.303917
0.694662 0.671914 0.307067
0.713813 0.680686 0.314220
0.728991 0.687709 0.315246
0.747683 0.691055 0.313082
0.787534 0.701208 0.314610
0.841678 0.722366 0.329890
0.697587 0.716163 0.317226
0.722793 0.724677 0.320532
0.745440 0.735980 0.341797
0.764194 0.745334 0.359194
0.779128 0.750255 0.360395
0.795138 0.754486 0.358587
0.813875 0.756200 0.354035
0.846033 0.764760 0.358224
0.090236 0.080862 0.103880
0.124815 0.093846 0.107850
0.221437 0.132468 0.126668
0.364307 0.193980 0.152547
0.530781 0.273849 0.178306
0.659590 0.361371 0.193937
0.745272 0.451271 0.204089
0.803202 0.532695 0.214685
0.098859 0.114978 0.154273
0.144232 0.154506 0.184646
0.236932 0.195409 0.213315
0.370531 0.246602 0.240300
0.529840 0.312045 0.264122
0.659268 0.381956 0.275428
0.751372 0.460768 0.281672
0.816375 0.542818 0.288556
0.110217 0.161841 0.218511
0.158324 0.217734 0.257548
0.250848 0.270924 0.293280
0.379526 0.322219 0.322214
0.530262 0.372537 0.342064
0.660332 0.423662 0.351607
0.759088 0.485681 0.358526
0.832746 0.558384 0.367362
0.172914 0.260569 0.300160
0.220840 0.314301 0.326083
0.304602 0.366975 0.353834
0.412556 0.412283 0.377175
0.534551 0.447890 0.392327
0.662353 0.483484 0.400729
0.765555 0.528405 0.409619
0.846817 0.586675 0.422283
0.310379 0.424428 0.393217
0.358664 0.456301 0.387027
0.420544 0.485696 0.389066
0.485914 0.511439 0.396799
0.554619 0.533758 0.407118
0.667307 0.557912 0.412958
0.769357 0.589052 0.422885
0.854960 0.631849 0.438648
0.479147 0.587396 0.451380
0.527597 0.599963 0.421923
0.575021 0.612587 0.410329
0.617209 0.625449 0.409640
0.652762 0.637554 0.413080
0.689028 0.642270 0.410647
0.773264 0.662812 0.420860
0.857047 0.692473 0.439091
0.596823 0.685104 0.458609
0.638876 0.690853 0.427764
0.677211 0.700833 0.425121
0.708705 0.711756 0.433378
0.731983 0.720800 0.439290
0.749790 0.724511 0.435754
0.792837 0.733295 0.435119
0.854123 0.750989 0.448943
0.675066 0.746351 0.449916
0.709153 0.750613 0.429679
0.741188 0.763389 0.448850
0.767884 0.777020 0.476101
0.787576 0.786285 0.489628
0.802303 0.790971 0.486918
0.822010 0.794433 0.480465
0.858333 0.802782 0.483262
0.092906 0.084454 0.121060
0.120021 0.092882 0.120475
0.200028 0.125640 0.132922
0.334943 0.187937 0.158096
0.510800 0.277329 0.191786
0.648593 0.365089 0.212979
0.740057 0.454267 0.225507
0.801581 0.535241 0.237474
0.102390 0.121790 0.182449
0.142847 0.159964 0.210972
0.220930 0.195886 0.230729
0.347247 0.249687 0.256260
0.514893 0.328645 0.292155
0.650981 0.399388 0.308640
0.747146 0.476161 0.315544
0.814696 0.554412 0.321386
0.113856 0.173273 0.257087
0.157771 0.227501 0.295204
0.242246 0.279122 0.328629
0.366285 0.334277 0.361447
0.519638 0.394660 0.393474
0.654166 0.446481 0.406981
0.755608 0.505723 0.412069
0.831139 0.572795 0.416422
0.126205 0.233850 0.333949
0.169993 0.298179 0.374459
0.259010 0.363775 0.416145
0.382251 0.423724 0.453664
0.525678 0.472894 0.482007
0.657497 0.507069 0.491705
0.763589 0.547491 0.496389
0.847538 0.599195 0.502120
0.160277 0.318591 0.413030
0.206196 0.387426 0.451623
0.291217 0.452766 0.486255
0.407991 0.512372 0.517835
0.544191 0.561709 0.544196
0.662978 0.581271 0.547925
0.769928 0.605003 0.552099
0.860649 0.640765 0.560528
0.345768 0.540454 0.539327
0.404826 0.577716 0.537626
0.477821 0.610657 0.536663
0.559408 0.639993 0.541157
0.639962 0.664170 0.551121
0.685300 0.670143 0.548872
0.775028 0.684051 0.553313
0.864602 0.706790 0.564289
0.502427 0.681688 0.585508
0.559717 0.700042 0.564698
0.619439 0.716920 0.553170
0.677673 0.734154 0.556345
0.728407 0.750968 0.572091
0.751027 0.755400 0.569216
0.796382 0.761786 0.565271
0.862228 0.775222 0.573884
0.618108 0.766817 0.591508
0.666918 0.774838 0.566313
0.713775 0.785693 0.561916
0.756550 0.801015 0.581540
0.792027 0.819156 0.617611
0.808551 0.824708 0.617326
0.828394 0.828626 0.609606
0.867143 0.835817 0.609395
0.095742 0.088046 0.142046
0.117441 0.092815 0.136777
0.183428 0.119426 0.143815
0.299864 0.174428 0.162914
0.463316 0.260729 0.192561
0.640189 0.376006 0.227512
0.739142 0.466232 0.246236
0.801124 0.542249 0.261619
0.106982 0.130651 0.216608
0.143384 0.167772 0.241467
0.207762 0.197344 0.250814
0.316290 0.244097 0.264350
0.472876 0.322838 0.293638
0.646118 0.426651 0.329547
0.747374 0.503981 0.342930
0.813871 0.573978 0.351395
0.119997 0.189167 0.303279
0.160092 0.241576 0.336905
0.235855 0.289811 0.363252
0.346144 0.340511 0.385692
0.487587 0.400643 0.408488
0.652687 0.485788 0.442670
0.756312 0.545151 0.452915
0.829166 0.602319 0.457750
0.133078 0.257806 0.390422
0.172820 0.317597 0.424715
0.257466 0.381402 0.463466
0.373012 0.440003 0.496651
0.508202 0.490517 0.520143
0.659260 0.551604 0.548345
0.764341 0.591141 0.555937
0.844388 0.632490 0.559274
0.148013 0.333435 0.469375
0.188483 0.398653 0.504852
0.270882 0.463905 0.540756
0.389439 0.527405 0.577414
0.532894 0.585412 0.612571
0.665468 0.622268 0.631546
0.770344 0.643642 0.635865
0.857162 0.669558 0.638723
0.182452 0.422982 0.535223
0.226430 0.488582 0.568707
0.305631 0.550100 0.599290
0.416245 0.607948 0.628890
0.549069 0.660525 0.657282
0.671652 0.695691 0.675152
0.773942 0.708280 0.676018
0.863811 0.723292 0.677885
0.343087 0.608638 0.634999
0.402767 0.651025 0.644425
0.479142 0.689217 0.653208
0.569188 0.724737 0.664933
0.666097 0.757517 0.680895
0.744431 0.780377 0.695079
0.797706 0.785852 0.689913
0.863441 0.793776 0.690564
0.499618 0.748643 0.690446
0.563517 0.771164 0.682074
0.630825 0.791824 0.680069
0.699424 0.812419 0.687988
0.764927 0.833429 0.706652
0.809870 0.850458 0.728969
0.832235 0.854578 0.724018
0.870021 0.859045 0.719883
0.099051 0.092268 0.168545
0.116676 0.093622 0.157739
0.171020 0.114329 0.159550
0.270817 0.161316 0.173642
0.417397 0.239158 0.199048
0.594197 0.353532 0.234219
0.723082 0.465177 0.263286
0.801058 0.550044 0.286266
0.112413 0.140753 0.256525
0.145912 0.177537 0.277905
0.198842 0.200605 0.277462
0.290578 0.238360 0.279393
0.430245 0.309605 0.299314
0.603565 0.415990 0.333838
0.733094 0.516892 0.360728
0.813830 0.594600 0.378964
0.127257 0.206996 0.354262
0.164697 0.258509 0.383686
0.233087 0.302918 0.402268
0.329750 0.346699 0.413142
0.453726 0.398961 0.422489
0.616741 0.488067 0.452945
0.744187 0.572237 0.477140
0.827903 0.636650 0.491621
0.141618 0.284582 0.449767
0.178534 0.340851 0.477885
0.259340 0.402240 0.511591
0.366578 0.457020 0.537193
0.488752 0.502274 0.549600
0.633547 0.566276 0.571636
0.755160 0.629441 0.591846
0.841319 0.677153 0.603180
0.153973 0.366728 0.533014
0.191194 0.425685 0.560968
0.270458 0.486892 0.592267
0.386986 0.549322 0.626819
0.528905 0.609045 0.660911
0.653032 0.646907 0.673412
0.765179 0.687461 0.688188
0.852366 0.717650 0.696482
0.162993 0.441296 0.591713
0.201928 0.502657 0.621698
0.279879 0.562872 0.651967
0.393743 0.622360 0.683491
0.534730 0.679553 0.715469
0.671057 0.723185 0.739482
0.774055 0.747620 0.749239
0.858517 0.763139 0.753278
0.224334 0.549442 0.653442
0.271463 0.603161 0.676485
0.348322 0.653670 0.698560
0.453165 0.702487 0.721881
0.579326 0.749539 0.747212
0.700440 0.787853 0.770492
0.784347 0.807204 0.777784
0.859745 0.817727 0.780511
0.342167 0.676613 0.713817
0.401121 0.716144 0.725274
0.476722 0.752390 0.737658
0.567822 0.787341 0.753677
0.669470 0.821691 0.774663
0.760215 0.851256 0.798512
0.817855 0.867122 0.806751
0.868466 0.874927 0.807415
0.102659 0.097333 0.200347
0.117112 0.095876 0.183276
0.161823 0.111002 0.179736
0.246789 0.149889 0.189233
0.375960 0.217871 0.210833
0.542161 0.323598 0.243991
0.689821 0.445130 0.279355
0.788117 0.544036 0.309161
0.118375 0.151819 0.301316
0.149836 0.188965 0.319804
0.193433 0.205859 0.310638
0.270200 0.233974 0.302116
0.392172 0.294951 0.313031
0.554477 0.394275 0.342115
0.701465 0.507295 0.375859
0.801047 0.598821 0.402969
0.134869 0.225480 0.408216
0.170651 0.277096 0.434627
0.233215 0.317838 0.446280
0.317754 0.353742 0.446554
0.423967 0.395058 0.443013
0.574618 0.477809 0.464731
0.715905 0.575423 0.494650
0.814755 0.654180 0.517842
0.150323 0.311357 0.509082
0.185605 0.365542 0.532560
0.263592 0.424692 0.561545
0.363440 0.474624 0.579604
0.472350 0.511716 0.580585
0.602801 0.569306 0.591334
0.732505 0.645634 0.615262
0.828030 0.707756 0.633812
0.163341 0.402085 0.594305
0.198862 0.455956 0.615842
0.275763 0.512991 0.642161
0.389940 0.572919 0.672955
0.528324 0.631288 0.703128
0.637835 0.663181 0.704403
0.750795 0.714677 0.720908
0.839823 0.757895 0.734323
0.172623 0.484429 0.653109
0.209632 0.537044 0.674518
0.285629 0.590737 0.699054
0.397856 0.646179 0.727359
0.537750 0.701987 0.758206
0.673583 0.747573 0.782517
0.771021 0.779180 0.793863
0.848647 0.803779 0.800867
0.179450 0.548304 0.688351
0.218544 0.600497 0.711368
0.293516 0.651581 0.735714
0.403178 0.703128 0.762697
0.541000 0.755029 0.792233
0.680752 0.800383 0.819168
0.779650 0.828931 0.833199
0.854878 0.847580 0.839710
0.236227 0.635937 0.730882
0.284350 0.681308 0.749969
0.360110 0.724505 0.769831
0.463208 0.767585 0.792274
0.588477 0.811061 0.817758
0.712573 0.849682 0.842363
0.800646 0.875753 0.859204
0.862255 0.890909 0.865961
