Assets/1__3DArt/KimSe/artstation_asset/LUTs_subway_asset/CUBE/Yellow Line 05_S.cube
# LUT by SparkleStock. Enhanced with VOXCOLOR algorithms.
LUT_3D_SIZE 5
DOMAIN_MIN 0.000000 0.000000 0.000000
DOMAIN_MAX 0.903226 0.903226 0.903226
0.046886 0.070330 0.082051
0.412887 0.244444 0.090685
0.738430 0.445791 0.088590
0.898673 0.585892 0.087589
0.951633 0.653527 0.098547
0.143771 0.166072 0.087495
0.323401 0.238888 0.083391
0.606884 0.375085 0.074591
0.826228 0.532474 0.073343
0.934185 0.669524 0.096781
0.381291 0.348608 0.100035
0.510396 0.410016 0.096157
0.604680 0.442790 0.082975
0.796472 0.564677 0.076742
0.926759 0.708496 0.100286
0.642822 0.589736 0.119422
0.721688 0.623063 0.115337
0.780462 0.654559 0.107512
0.810132 0.642100 0.095529
0.928537 0.760334 0.109446
0.772177 0.784994 0.150246
0.824453 0.795250 0.143806
0.870065 0.808150 0.138147
0.906984 0.813951 0.131489
0.941294 0.823547 0.125215
0.052779 0.074316 0.106479
0.201448 0.125529 0.127541
0.545725 0.266621 0.148480
0.817961 0.449096 0.149315
0.938118 0.617223 0.153302
0.105475 0.173542 0.186994
0.236600 0.241563 0.216708
0.510287 0.337289 0.232137
0.768397 0.459769 0.234552
0.922355 0.616715 0.248761
0.372335 0.424866 0.278182
0.448150 0.444404 0.244230
0.548674 0.471033 0.242084
0.751313 0.545080 0.245132
0.917314 0.663790 0.269105
0.657634 0.662607 0.293869
0.716153 0.676909 0.257454
0.750770 0.688183 0.252420
0.781931 0.682355 0.245120
0.922057 0.753719 0.270724
0.779351 0.809537 0.278420
0.832194 0.829855 0.295986
0.870786 0.840098 0.308687
0.900832 0.844924 0.302679
0.942613 0.851261 0.300385
0.054591 0.079798 0.134003
0.156449 0.111202 0.148926
0.470210 0.234811 0.194863
0.783106 0.414672 0.214380
0.933037 0.603788 0.218446
0.061685 0.149870 0.226881
0.188251 0.238873 0.295083
0.465143 0.340571 0.347099
0.747611 0.455181 0.360986
0.920338 0.610249 0.360830
0.136314 0.292537 0.353010
0.262756 0.396518 0.408546
0.486972 0.485226 0.456234
0.727527 0.544050 0.465577
0.912370 0.635796 0.475720
0.478346 0.632740 0.516271
0.603867 0.680462 0.485546
0.717328 0.708753 0.482450
0.759722 0.703891 0.474455
0.916148 0.742393 0.492111
0.712240 0.817302 0.516643
0.802032 0.842707 0.489687
0.868646 0.861196 0.531267
0.895073 0.865708 0.537015
0.939989 0.868881 0.532743
0.056261 0.087164 0.167766
0.126166 0.103655 0.169787
0.382692 0.207824 0.211148
0.772207 0.425695 0.265896
0.933245 0.606384 0.283620
0.066391 0.165526 0.282515
0.172262 0.250667 0.342623
0.410475 0.344653 0.384491
0.761007 0.517587 0.436920
0.927072 0.650247 0.441451
0.087098 0.275909 0.415428
0.204366 0.393119 0.490301
0.461256 0.509491 0.565234
0.748068 0.612036 0.610977
0.918872 0.678008 0.612734
0.124806 0.401557 0.524269
0.243903 0.529735 0.600712
0.492856 0.646601 0.667891
0.757570 0.729845 0.712610
0.913866 0.749099 0.706787
0.477888 0.738232 0.693324
0.622617 0.799679 0.693698
0.782330 0.848153 0.711060
0.893587 0.879928 0.751233
0.937543 0.881631 0.741938
0.058041 0.097192 0.210635
0.107458 0.102319 0.199178
0.299887 0.177285 0.231768
0.650121 0.364722 0.288636
0.914367 0.597368 0.338109
0.073482 0.185789 0.347463
0.165883 0.266853 0.396532
0.351047 0.334868 0.412049
0.666823 0.490256 0.453799
0.918965 0.682610 0.494913
0.103158 0.312607 0.500940
0.212047 0.422827 0.562440
0.451052 0.532829 0.626134
0.705339 0.627307 0.653829
0.919932 0.751264 0.684474
0.132813 0.444692 0.617531
0.235654 0.557057 0.675121
0.482927 0.670781 0.742022
0.769924 0.769268 0.803643
0.922578 0.820002 0.815565
0.205598 0.590001 0.698216
0.316781 0.688613 0.747963
0.543020 0.779955 0.800571
0.800930 0.859455 0.851902
0.935467 0.898809 0.872487
