Assets/1__3DArt/KimSe/artstation_asset/LUTs_subway_asset/CUBE/Yellow Line 02_S.cube
# LUT by SparkleStock. Enhanced with VOXCOLOR algorithms.
LUT_3D_SIZE 8
DOMAIN_MIN 0.000000 0.000000 0.000000
DOMAIN_MAX 0.903226 0.903226 0.903226
0.074237 0.066422 0.054701
0.254220 0.169648 0.089299
0.433802 0.281311 0.124566
0.589350 0.386364 0.155225
0.704510 0.473284 0.177841
0.770869 0.532081 0.192020
0.811076 0.572130 0.203679
0.839395 0.602592 0.214731
0.112616 0.118603 0.062074
0.209609 0.168843 0.076473
0.362600 0.249915 0.099732
0.521856 0.340246 0.124256
0.651342 0.423708 0.145079
0.737022 0.492751 0.163356
0.794719 0.552803 0.183992
0.835961 0.607440 0.207297
0.191303 0.194486 0.079223
0.268964 0.235493 0.089908
0.360983 0.278246 0.098697
0.477016 0.336247 0.110666
0.613090 0.413788 0.128387
0.712077 0.485716 0.147549
0.782808 0.554868 0.173084
0.834005 0.621451 0.203716
0.299823 0.292891 0.104100
0.374482 0.334386 0.115541
0.422921 0.356113 0.116420
0.487301 0.383174 0.117623
0.589608 0.432131 0.126573
0.695340 0.502327 0.143954
0.774452 0.573183 0.170656
0.832581 0.642975 0.204260
0.425428 0.410414 0.134231
0.483237 0.440474 0.143074
0.530960 0.467899 0.146332
0.563426 0.478957 0.143966
0.590429 0.477237 0.139381
0.687983 0.535833 0.151840
0.769238 0.602743 0.176136
0.831140 0.670110 0.208878
0.540943 0.536705 0.164859
0.581773 0.553153 0.170335
0.619671 0.572668 0.173751
0.651601 0.587617 0.174764
0.676829 0.592739 0.173582
0.701784 0.586201 0.172283
0.769110 0.638109 0.189285
0.830323 0.699866 0.217136
0.622585 0.650707 0.192178
0.654243 0.658544 0.195630
0.684678 0.669361 0.198818
0.712738 0.679795 0.201450
0.737228 0.686256 0.203245
0.755084 0.680694 0.203556
0.789311 0.692635 0.209930
0.831833 0.728660 0.227995
0.676561 0.743613 0.218733
0.704889 0.747407 0.221696
0.731044 0.752094 0.224501
0.755372 0.757059 0.227338
0.778014 0.761408 0.230279
0.797987 0.762354 0.232975
0.815510 0.756992 0.235137
0.841813 0.769215 0.244225
0.075938 0.067557 0.071716
0.160344 0.112089 0.090067
0.311426 0.187141 0.121114
0.479086 0.276387 0.154761
0.624837 0.366655 0.183360
0.723836 0.448139 0.202370
0.788633 0.520145 0.216663
0.833431 0.582198 0.229990
0.091484 0.115053 0.108656
0.159302 0.157140 0.128565
0.298347 0.221720 0.153869
0.459185 0.295998 0.179426
0.603865 0.370201 0.201487
0.709267 0.439607 0.218362
0.784018 0.510049 0.235872
0.838534 0.583760 0.256338
0.187254 0.225961 0.157134
0.240017 0.248672 0.156959
0.323903 0.282584 0.165553
0.441189 0.331035 0.180160
0.582971 0.393304 0.197905
0.694460 0.454990 0.214088
0.778201 0.522876 0.234723
0.841124 0.598786 0.260995
0.319168 0.356530 0.199123
0.360045 0.361835 0.180526
0.398760 0.373869 0.176553
0.464454 0.397783 0.181594
0.570294 0.436777 0.191582
0.684034 0.492086 0.206890
0.773574 0.554842 0.229088
0.842543 0.625657 0.258552
0.452220 0.476432 0.223784
0.485524 0.478035 0.203198
0.517982 0.491542 0.199163
0.546641 0.501115 0.199126
0.580275 0.504101 0.197138
0.682565 0.547569 0.209083
0.771849 0.601393 0.230149
0.843656 0.662260 0.259471
0.562758 0.584866 0.237286
0.593815 0.591101 0.226138
0.620504 0.601859 0.224712
0.644603 0.612027 0.225911
0.668629 0.617649 0.225116
0.699907 0.615473 0.223869
0.773921 0.654994 0.239908
0.843971 0.705226 0.265963
0.637349 0.678816 0.247846
0.668016 0.689679 0.250217
0.692975 0.697981 0.253217
0.715216 0.704950 0.255718
0.736704 0.710442 0.256893
0.756520 0.708336 0.256218
0.794788 0.718489 0.261109
0.844498 0.747122 0.278334
0.687191 0.757256 0.261283
0.716595 0.769992 0.277906
0.741426 0.776649 0.285918
0.763570 0.780739 0.289679
0.784410 0.784473 0.292287
0.803981 0.786344 0.293741
0.823323 0.783792 0.293835
0.853570 0.793995 0.301445
0.076836 0.069762 0.089669
0.127144 0.092096 0.099652
0.251063 0.147645 0.127529
0.410298 0.223597 0.162445
0.570816 0.309631 0.195355
0.691258 0.400324 0.217432
0.772557 0.489513 0.232770
0.828503 0.570146 0.246648
0.085307 0.114441 0.137513
0.141286 0.154367 0.163346
0.259333 0.206288 0.192923
0.409031 0.266900 0.221661
0.562713 0.333514 0.245966
0.684585 0.405377 0.262566
0.772973 0.485133 0.276578
0.837400 0.571057 0.292452
0.137763 0.199230 0.198437
0.187486 0.236504 0.216342
0.279637 0.278772 0.238563
0.406514 0.325937 0.260214
0.554151 0.377662 0.278009
0.678007 0.433469 0.291818
0.773355 0.501114 0.307120
0.846212 0.582019 0.327134
0.246244 0.330342 0.266560
0.289455 0.353204 0.262649
0.353879 0.380509 0.269970
0.441688 0.409776 0.280838
0.551779 0.440968 0.290580
0.674279 0.484346 0.303030
0.773755 0.539242 0.319957
0.852885 0.608535 0.343522
0.404031 0.496555 0.330616
0.447071 0.502601 0.302600
0.493855 0.512877 0.292354
0.532900 0.519911 0.289891
0.569179 0.523909 0.289576
0.677027 0.555487 0.299739
0.774622 0.598100 0.316830
0.856339 0.652617 0.341565
0.535408 0.616370 0.348455
0.577046 0.622335 0.320448
0.613916 0.628838 0.311335
0.641965 0.634564 0.310271
0.662488 0.638325 0.309442
0.697539 0.638131 0.307621
0.778430 0.667207 0.321924
0.857885 0.707791 0.345595
0.624186 0.706026 0.349029
0.663406 0.715397 0.332265
0.696123 0.723214 0.334426
0.720792 0.729071 0.340662
0.738317 0.732518 0.341299
0.758454 0.732023 0.339185
0.800344 0.740187 0.341995
0.857734 0.762672 0.358161
0.683250 0.776268 0.347680
0.718430 0.787405 0.346756
0.748951 0.797217 0.365263
0.773486 0.803948 0.382061
0.792316 0.807015 0.384821
0.811092 0.809253 0.384488
0.831798 0.808716 0.381919
0.866459 0.817257 0.387658
0.077404 0.072961 0.109425
0.119417 0.088366 0.114103
0.221572 0.133513 0.137244
0.368541 0.202833 0.171629
0.538286 0.289555 0.209312
0.670987 0.381224 0.234402
0.762206 0.476441 0.250446
0.824810 0.565009 0.264310
0.085960 0.117054 0.162441
0.136921 0.156633 0.191496
0.235385 0.199772 0.220603
0.373521 0.254330 0.251026
0.535546 0.323330 0.281455
0.667694 0.395877 0.299246
0.764774 0.479753 0.310724
0.835254 0.569775 0.322325
0.098681 0.172185 0.228909
0.149833 0.225668 0.264823
0.247375 0.276596 0.298224
0.380863 0.327107 0.327111
0.534770 0.378605 0.349767
0.666529 0.430781 0.362916
0.769406 0.497141 0.373590
0.848513 0.577637 0.386889
0.159939 0.276040 0.310864
0.210050 0.327175 0.333762
0.299054 0.375877 0.358740
0.412539 0.417771 0.380387
0.538323 0.451725 0.395448
0.667248 0.487004 0.405441
0.773782 0.535234 0.416663
0.860023 0.600331 0.432771
0.290833 0.441780 0.402107
0.343378 0.474283 0.395465
0.412855 0.502079 0.396754
0.485418 0.524020 0.402896
0.558357 0.541235 0.411026
0.672042 0.563749 0.417504
0.776905 0.596882 0.428868
0.866888 0.644890 0.446920
0.450325 0.607761 0.460867
0.506368 0.625452 0.433102
0.565208 0.639286 0.421721
0.617791 0.649967 0.420182
0.659259 0.657345 0.422206
0.695510 0.656954 0.418834
0.782109 0.677287 0.429395
0.869720 0.709657 0.448451
0.568082 0.715856 0.471321
0.620478 0.728107 0.441534
0.670958 0.739453 0.437924
0.712879 0.748357 0.444921
0.742380 0.753525 0.450364
0.761063 0.752823 0.446606
0.805386 0.758665 0.446507
0.869359 0.775893 0.460028
0.650424 0.791261 0.464784
0.696586 0.800623 0.442829
0.739844 0.812604 0.458308
0.775586 0.822907 0.483222
0.801276 0.828781 0.497482
0.818540 0.830679 0.495775
0.839783 0.831222 0.490552
0.878276 0.838188 0.493748
0.077947 0.077002 0.131711
0.112624 0.085985 0.130826
0.199952 0.123557 0.146526
0.339719 0.192885 0.178139
0.517506 0.289629 0.220685
0.659976 0.382450 0.250733
0.756834 0.476913 0.268350
0.822496 0.565339 0.282605
0.087729 0.122815 0.192904
0.133337 0.161128 0.220803
0.218244 0.198506 0.241265
0.350097 0.254916 0.268714
0.520625 0.337325 0.307806
0.660391 0.411449 0.329917
0.761405 0.493227 0.341139
0.833987 0.579295 0.350388
0.100795 0.178927 0.266462
0.147072 0.231895 0.302976
0.236380 0.281708 0.335393
0.366146 0.336097 0.367406
0.524709 0.397615 0.399052
0.662013 0.451463 0.415574
0.767517 0.514983 0.423751
0.848102 0.589417 0.431452
0.115311 0.241225 0.341893
0.158216 0.302770 0.379926
0.248805 0.365036 0.419775
0.377635 0.422516 0.455523
0.529930 0.470961 0.482200
0.664153 0.505963 0.492866
0.773553 0.549689 0.499225
0.862088 0.607796 0.507389
0.148562 0.325330 0.419116
0.190952 0.391206 0.455203
0.275004 0.454553 0.488112
0.398048 0.512068 0.518500
0.547632 0.558897 0.544010
0.669002 0.577864 0.547267
0.778706 0.603705 0.551872
0.873372 0.644502 0.561393
0.311988 0.542997 0.540413
0.372069 0.583835 0.538448
0.452954 0.619461 0.537196
0.548493 0.649493 0.541866
0.645443 0.671826 0.552482
0.692609 0.674065 0.549544
0.784646 0.687946 0.554309
0.877601 0.713109 0.565695
0.460711 0.691998 0.587102
0.524516 0.717217 0.566319
0.597119 0.738266 0.554511
0.671630 0.756330 0.557686
0.737864 0.770661 0.573932
0.762972 0.771281 0.571051
0.809516 0.774897 0.567611
0.877631 0.787457 0.576053
0.576977 0.791655 0.594781
0.637645 0.806439 0.568036
0.699400 0.820013 0.561986
0.757131 0.833934 0.580492
0.804697 0.847475 0.616434
0.824923 0.850093 0.617294
0.846426 0.850970 0.610505
0.887212 0.856231 0.610429
0.078325 0.081539 0.157801
0.107587 0.085253 0.151354
0.181101 0.114861 0.160248
0.303902 0.175540 0.184116
0.471863 0.268826 0.220861
0.651511 0.390336 0.262912
0.755907 0.486287 0.285090
0.821910 0.569809 0.301151
0.090742 0.130865 0.229094
0.131727 0.167876 0.253356
0.202972 0.198124 0.263401
0.318265 0.246755 0.278582
0.479889 0.328709 0.310145
0.656265 0.436507 0.348678
0.762551 0.519187 0.364632
0.833850 0.596811 0.374760
0.105924 0.190386 0.312025
0.147569 0.242245 0.344743
0.227623 0.288928 0.370766
0.344165 0.338848 0.393043
0.492647 0.400125 0.415544
0.662142 0.488299 0.449295
0.770277 0.552484 0.461236
0.847842 0.616781 0.467988
0.121245 0.255868 0.395372
0.159178 0.314661 0.428495
0.244435 0.376340 0.466513
0.365333 0.433136 0.499111
0.510607 0.483374 0.521792
0.668183 0.547224 0.547921
0.777340 0.590836 0.556467
0.861567 0.638359 0.561454
0.137298 0.325958 0.470839
0.172350 0.390654 0.505613
0.251533 0.455529 0.541203
0.374431 0.518067 0.578001
0.531081 0.574760 0.613371
0.673679 0.614177 0.630192
0.782597 0.638644 0.634957
0.872997 0.669473 0.638824
0.168261 0.411016 0.534027
0.204461 0.477530 0.568258
0.278701 0.540818 0.599328
0.391950 0.600245 0.629588
0.537270 0.653690 0.658972
0.678301 0.690089 0.677418
0.786096 0.704694 0.678546
0.879252 0.723221 0.680369
0.302591 0.599024 0.634092
0.358643 0.646746 0.643763
0.439246 0.689555 0.652476
0.541699 0.728328 0.664480
0.657911 0.762663 0.681480
0.755372 0.785658 0.697320
0.812625 0.790206 0.693199
0.880524 0.798511 0.694173
0.443459 0.750922 0.691042
0.511243 0.780687 0.681403
0.591086 0.806240 0.678176
0.678325 0.829198 0.685711
0.765125 0.850160 0.705352
0.825035 0.865574 0.730117
0.851154 0.867508 0.726872
0.891063 0.870765 0.723428
0.079806 0.086707 0.187829
0.104506 0.085884 0.175455
0.166270 0.108085 0.178300
0.272989 0.159233 0.195794
0.425362 0.242885 0.226405
0.606327 0.363322 0.266675
0.740745 0.481313 0.298233
0.822544 0.573700 0.320276
0.094858 0.140277 0.269832
0.132546 0.176055 0.290282
0.191995 0.199140 0.290654
0.290786 0.238068 0.294214
0.436668 0.311704 0.315813
0.614456 0.421810 0.351413
0.749552 0.528904 0.378743
0.834980 0.614239 0.396364
0.112156 0.203680 0.361796
0.150833 0.254508 0.390395
0.222886 0.297533 0.409191
0.325651 0.340585 0.420587
0.457505 0.393717 0.430073
0.626660 0.485652 0.459137
0.759956 0.576092 0.482588
0.848659 0.648128 0.496657
0.128993 0.273067 0.452378
0.163705 0.329509 0.479828
0.244288 0.389772 0.513499
0.356293 0.443421 0.539457
0.488842 0.488672 0.552054
0.642347 0.555394 0.571825
0.770497 0.624958 0.590785
0.861674 0.680022 0.601797
0.143049 0.344496 0.531989
0.173979 0.405710 0.559966
0.248910 0.468321 0.591759
0.368744 0.530915 0.627389
0.523499 0.590041 0.662717
0.660195 0.630694 0.673749
0.780128 0.677589 0.687311
0.872340 0.714458 0.695270
0.151203 0.411233 0.588542
0.179767 0.476852 0.620338
0.249908 0.540946 0.652069
0.364133 0.603453 0.685080
0.516932 0.662718 0.718776
0.675499 0.708683 0.744445
0.788488 0.738493 0.753643
0.878087 0.759411 0.757270
0.198851 0.518247 0.650035
0.235035 0.579025 0.676145
0.305949 0.635845 0.700215
0.413647 0.689829 0.725119
0.553543 0.740718 0.752178
0.698478 0.781764 0.777930
0.796846 0.804554 0.786290
0.879741 0.818257 0.789325
0.294293 0.656150 0.713850
0.346167 0.704115 0.727306
0.422943 0.747216 0.740743
0.524392 0.787214 0.757691
0.645127 0.824761 0.780148
0.759555 0.855941 0.806670
0.832406 0.873410 0.817164
0.890934 0.882509 0.818918
0.082839 0.092717 0.222230
0.103623 0.087979 0.203379
0.155536 0.103306 0.200300
0.247757 0.144876 0.212086
0.383588 0.217136 0.237178
0.555290 0.328010 0.273386
0.708395 0.455675 0.309883
0.810909 0.562058 0.338048
0.099891 0.150283 0.314033
0.135515 0.185011 0.331203
0.185345 0.201298 0.323155
0.269195 0.230077 0.316500
0.398083 0.292638 0.328707
0.566158 0.394828 0.357549
0.718931 0.513661 0.389702
0.823520 0.613215 0.414419
0.118671 0.217265 0.413763
0.155954 0.267418 0.439051
0.221820 0.306684 0.451301
0.312151 0.342005 0.452802
0.426507 0.384185 0.450012
0.584622 0.469105 0.469926
0.732771 0.572863 0.496999
0.837375 0.660306 0.517680
0.136566 0.290173 0.509878
0.169857 0.345052 0.532578
0.247236 0.403636 0.561699
0.351325 0.453088 0.580740
0.470419 0.490784 0.582932
0.610705 0.550627 0.591875
0.748936 0.633682 0.612747
0.851017 0.704922 0.629070
0.151249 0.365377 0.592832
0.180379 0.423717 0.614443
0.252599 0.483628 0.641304
0.369574 0.544836 0.673509
0.520360 0.603489 0.705699
0.643087 0.637891 0.706598
0.766706 0.696478 0.720584
0.863154 0.748689 0.732286
0.159079 0.436572 0.651061
0.185060 0.497359 0.674410
0.252846 0.557384 0.700638
0.365232 0.617355 0.730726
0.516943 0.676178 0.763712
0.675569 0.724433 0.790782
0.786269 0.762182 0.801100
0.871842 0.794378 0.807114
0.160384 0.497909 0.686645
0.184900 0.560641 0.713864
0.249003 0.620463 0.741167
0.356813 0.678864 0.770401
0.505367 0.735862 0.802044
0.670558 0.785202 0.831974
0.790560 0.819080 0.847518
0.877778 0.843391 0.854267
0.198955 0.593660 0.732264
0.232276 0.650791 0.756087
0.299705 0.703650 0.779014
0.404624 0.754195 0.803570
0.544082 0.803053 0.830911
0.695563 0.845534 0.858193
0.808321 0.875662 0.877913
0.884497 0.894656 0.886057
